/* XPM */
static char *result[] = {
/* columns rows colors chars-per-pixel */
"512 512 43 1 ",
"  c #B5B65F",
". c #B7B860",
"X c #BBBC62",
"o c #CBBE75",
"O c #CDBF78",
"+ c #BFC164",
"@ c #C2C466",
"# c #C5C768",
"$ c #C6C868",
"% c #CBCD6A",
"& c #CED06C",
"* c #D2D46E",
"= c #CDC273",
"- c #CEC079",
"; c #D0C774",
": c #D4CC74",
"> c #D2C27D",
", c #DCD377",
"< c #D6D970",
"1 c #DADD72",
"2 c #E3DB79",
"3 c #DEE174",
"4 c #E2E576",
"5 c #E5E877",
"6 c #EAE37B",
"7 c #E7EA78",
"8 c #EBEC7A",
"9 c #F3ED7F",
"0 c #EEF17C",
"q c #F3F37E",
"w c #F9F77F",
"e c #F5F87F",
"r c #D7C580",
"t c #D9C586",
"y c #DCCA85",
"u c #DDC989",
"i c #E2CE8B",
"p c #F6F680",
"a c #FAF481",
"s c #F7F980",
"d c #FDFD84",
"f c #FFFF8C",
"g c #FFFF92",
/* pixels */
"=;==o@oooooooooOOOO>O>>>>>rrrrtryyyyyyiiyiii2iiiiiiiiiiiiiiiititututttttttttttttttttttttuutituiuiiiiiiiiiiiiiiiiiyiiiyyyyyrrrrrrrrOrO>OOOOOOooooooooo====;=::::,226699ddfgggggggggffdddwwww8w8qqqqqpswdddddffffffgfgggfgfffffdfddwdeee505351<<<*&&%$$$$++@XXXXX X.X ..........                       ............+.X.XXXX@X+@@$$$%%&*<<<3345708eewdddffdffgfggfggfgffffdfdfddddspqqqqq8q9wwwwdddffgggggggggfdaw96622,,:::;=%==o=oooooooooOOO>o>>>Or>>rttrtuyyyyiiyiiiiiiiiiiiiiiiiiuiiititututtttttttttttttttttttturititiiiiiiii",
";=;==o=oooooooooOOOO>O>>>r>rrr,ttyyyyiyiiyiiiiiiiiiiiiiiiiiuiutituttuttttttttttttttttttttuutiuiiuiiiiiiiiiiiiiii2iyiyiyyyyyyrrrrr>rO>O>o>oOOoOooXooo@o===;;;::,,,2669wwdffgggggggggddddwwwqq8w8q9qqwpdedddfdffffffgfgfgfgfffffdfddeee005553311<*&&%$$$+$++++XXXX X.X ..........                       ..............XXX+XX@++@@$%%%&**<1133578e0ewwdddfffffffggfggfgfffffddddddesqqqqqq8w8wwwwdddffgggggggggfdw9962,,,:::;;===@oo=ooooooooOOO>>O>>>rr>r,tt,uyiyyiiiyiiiiiiiiiiiiiiiiuutititttutttttttttttttttttttututitiuiyiiiii",
";;====o@oooooooOOOOOO>>>>>r>rr>iryyyyyiiyi,iiiiiiiiiiiiiiiuiitititutttttttttttttttttttttututititiiiiiiiiiiiiiiiiiiiyiyyyyyyrtrrr>rO>>>>>oOOOooooooooo======::::,,22699addfggggggggfffdddwwwqw8qqqqqqsedddddfdffffgfgfgggfgfffdfddddee00055331<<*&&&%$$$$+++X+XXXX X............                       .............XX.XXX+X+@@@$$%%&&*<<13447880eedddfddffffggfggfgfffffdfddddssppqq0q9w8qwwwdddfffggggggggfddd99626,,:::;;====o=ooooooooOOOOOO>>>r>>rrrtryyyyyiyi,iiiiiiiiiiiiiiiiiiiititututtttttttttttttttttttttuutitiiiuiiii",
";;=====ooooooooOoOOO>O>>>>>rrrtryruyyyyiiiiiiiiiiiiiiiiiiiiuiititututtttttttttttttttttttutuutitiiuiiiiiiiiiiiiiiiiiiyyyiyyyyrrrrr>r>OO>o>OOoOooooooo+o====%=::,,,,2699wdfffggggggggfdfdwdwqq9q8qqqqqwssdddfdfdffffgfgfgfgffffffddddeee0055513<<<&&%%$$@+@++XXXXXXX X ..........                        ..............X+XX+X@+@@@%$%&***<3135580e0ewdddfffffgffgfggfgfffffdfddddespqqqq8qw9qwwwdddffgggggggggfdaa966,2<,:::;;====ooooooooooOOOO>O>>>r>rrryryyuyyyiyiiiiiiiiiiiiiiiiiiiuiutituttutttttttttttttttttttutuutitiiiiuii",
";;====ooo=ooooooOOOOO>O>>>r>rrrtryyyyyii,iiiiiiiiiiiiiiiiiiiitititutttttttttttttttttttttttutitiiuiiiiiiiiiiiiiiiiiiyiiyyyyyrryrrrrrOr>O>OOOOOooooooooo====;;::::,32669wddfgggggggggffdddwwwqw8q9qqqqeqddddddfffffgfgggfgfgffffdfddddee0505351<<<&&&%$$$$+@X@XXXXX XX...........                       ............X.X.XXXX@X@@@$$$%%&*<<<3355780eewdddfdfffffgfggfgfgfffdfddddddspqqq9qq8wqqwwdddffggggggggfffdaw626,,,::;;=;==o@oooooooooOOO>o>>O>>r>rrryruuyyyiiiiiiiiiiiiiiiiiiiiuiititituttttttttttttttttttttttuutitiuiuiiii",
":;;====oooXooooooOOOO>>>>>>r>trtryyyyyyiiyiiiiiiiiiiiiiiiiiiuitititutttttttttttttttttttttutuuitiiuiiiiiiiiiiiiiiiiii,iyyyyyyyrrrrrOrO>>O>OOOooooooooo=o====;;::,,,26699wdffgggggggggddddwwwqqw8w8qqqqdeddddfdfffffgfgfggffgfffddfddweee0775331<<<&&%$$$+$++X@XXXXX X ...........                       ............X.X.XX+X@X@@@$%%%&**<<33357800ewwdddfdfffgfgfgggffffffdfdddddesqqqq8qq8wwwwwdddffggggggggfdda99622,,:::;;====o=o+oooooooOOO>O>>>r>rrrrryr,uyyyiyi,iyiiiiiiiiiiiiiiuiititututtttttttttttttttttttttuuuitiiiiiii",
";;;===o@ooooooooOOOOOO>>O>r>r>r,truyyyyiyiiyiiiiiiiiiiiiiiiuiiitittuttttttttttttttttttttttututitiiiiiiiiiiiiiiii2iiiiyiyyyyyrrrrr>r>>rO>OOOOOoooooooooo===;;;:::,,2269waddfggggggggfffdddwwqw8w8qqqqwqdwddddfdffffgffggfggffffffddddee007553311<&&&%&$@$$+@+X+XXX.X.X...........                       .............X.XXXX+X@+@@$$%%&&*<1<344788eeewddfdfffgffggfgfggfffffdfdddssppqqqqq8wqqwwdddfffggggggggffda9966,3:,::;;=====oooooooooOOOOO>O>>Or>rrryryyyyyiyiiiiii2iiiiiiiiiiiiiititututtttttttttttttttttttttuututiuuiuiii",
";;;;===o=ooooooooOOOOO>O>>>>rrrryt,uyyiyiiiiiii2iiiiiiiiiiiiuutititttutttttttttttttttttttutuuutitiiiiiiiiiiiiiiiiiiiiiyyyyyyyrrrrr>>>O>O>oOOoOooooooo@o====;;:::,,22669wdfffggggggggfdfdwdwqqw8w8qqqqeeddddfdfdffffggfggfgffffdffdddeee0055513<<<&&&$%$@+++++XXXXX.X............                        .............X.+XX+X@@@@@%$%&***<313557e0eewdddffdfffgfggfgffgfffdfdddddespqqqq8w8w9wwwdddffgggggggggfdda9662,,<:::;;===o@oooooooooOOOO>>>>r>r>rrryruyyyyiyiiiiiiiiiiiiiiiiiiiuititituttttttttttttttttttttttuutitiiiiuii",
"&;;=====oooooooooOOOOO>>>>>r>rrtrryyyyyiyii,iiiiiiiiiiiiiiiiiiitititutttttttttttttttttttttuutuiriuiiiiiiiiiiiiiiiiiiyiyiyyyyrryrrr>r>>>>o>oOOOooooooooo=====:;::,,,2699wddfgggggggggffdddwwww8w8qqqqqqdedddddfffffgffggfgfgfffffddddeee0075351<<<*&%&$$$$+++XX+XX.X.X ..........                       .............X..XXXX+X+@@$$$%%&*<<<3345708eewdddfdfffgffgfggfgfffffdfdddddssqqq9w8q9wwwwdddffgggggggggfdaw96622,,::;;=;====oooooooooOOO>O>O>Or>rrryrryyyiyyiiiiiiiiiiiiiiiiiiiuiiititututtttttttttttttttttttuutityiuiuiii",
":;;;===o=oooXoooooOOOO>O>>>>rrrrtttyyyyyiyiiiiiiiiiiiiiiiiiiiuiututtuttttttttttttttttttttttuutuiiiiuiiiiiiiiiiiiiiiiiyiyyyyyyyrrrrr>>>O>>o>oOoOoooooXoo====;=:::,,,22899wdffgggggggggddddwwwqq8w8qqqqwsdedddfdfffffgfgfggffgfffdfddddee00775331<<*&&%$$$+$+++XXXXX.X.X ..........                       .............+.X+XX++++@@$%%%&**<<333578e0ewwdddfffffgfggfggfgfffffdfddddeqqqqq8w8w8wwwwdddffggggggggffda9962,,,::::=====oo=ooooooooOOO>O>>>>r>rrrtiryyyyyiyiiiiiiiiiiiiiiiiiiuutititttuttttttttttttttttttttturiuuiuiuii",
":;;;====o+oooooooOOOOOO>>>>rr>rrt,ryyyyyiiyiiiiiiiiiiiiiiiiiuiitiutittutttttttttttttttttttututiutiuiiiiiiiiiiiiiiiiiiyiyyyyyyrtrrrr>rOrO>OOOOOoooooooo=o====%;::*,,2666waddfggggggggfffdddwwwqw8qqqqqqeedddddfdfffgfgfggfggffffffddddee00055331<<<&&%%$$$$+@X+XXXXX X............                       ..............X.XXX+X+@@@$$%%&&*<1<3447880eedddfddffffggfggfgfffffdfddddedppqqqq8w8qwwwdddfffggggggggfddd99626,,,::=:====o@ooooooooOOOOO>>O>>>rrrrtryyyyyiyii,iiiiiiiiiiiiiiiiiiititututttttttttttttttttttttuuuuuuiuiiii",
":;;;;==O=ooooooooooOOOO>O>>>>rrrytruyyyyyiiyiiiiiiiiiiiiiiiiiuiitittutttttttttttttttttttttutuutiitiiiiiiiiiiiiiiii2iyi,iyyyyyyrrrrrrOrO>O>OOOoOoooooooo@o===;;;:,,,,2699wdfffggggggggfdfdwdwqq9qq8qqqqwdedddfdfdfffgfgfggfgfgfffdfdddeee0775513<<*&&&%$$@+@+++XXXXXX.X ..........                        ..............XX+X+X@+@@@%$%&***<3335570e0wwdddfffffffggfggfgfffffdfddddwepqqq9qqqq8wwwdddffgggggggggfdaa966,,,::::;=====ooooooooooOOOO>>>>>r>rrr,truyyiyiyiiiiiiiiiiiiiiiiiiiuiutituttuttttttttttttttttttttuutuiyiuuii",
";,;;===@o=ooooooooOOOOO>>>>>r>rrrrtyyyyiyi,iiiiiiiiiiiiiiiiiiiitituututtttttttttttttttttttttutiutiiuiiiiiiiiiiiiiiiiiiiyyyyyyrrrrrr>r>>>>OOOOOOooooooooo====;;::::,22669wddfgggggggggffdddwwwqw89qqqqqeqddddddffffffgfggfgfgfffdffddwdee0055351<<<*&%&$$$$+++XX+XX X.X ..........                       ............+.X.XXXX@X+@@$$$%%&*<<<3345708eewdddfdffffgffggfgfgfffdfdddddedpqqqqq8q9wwwwdddffgggggggggfddw96623,,,::=%====oo+ooooooOOOOOO>O>>>r>rtrrutyyyyyiiiiyi2iiiiiiiiiiiiuiitititutttttttttttttttttttttutuyuuuuiiii",
":;:;;===oo+ooooooooOOOO>O>>>>r>rrt,tuyyyiyiiiiii2iiiiiiiiiiiiiuitituttuttttttttttttttttttttututiuuiiiiiiiiiiiiiiiiiiiiyiiyyyyyyrrrrr>>O>O>OOOOooooooooooo====;;::,,,26699wdffgggggggggddddwwwqqw88w9qqqdeddddfdffffffgfgggfgffffddfddeeee7055331<<*&&%$$$+$+++XXXXX X.X ..........                       ..............XXX+XX@++@@$%%%&**<1133578e0ewwdddfdffgfggfgggffffffdfdddddqeqqqqqq8wqqwwwdddffggggggggffda99622,::::;;=====ooooooooooOOOO>>O>r>r>rrtt,uyyiyiyiiiiiiiiiiiiiiiiiiuiititututttttttttttttttttttttutuuuiuuiii",
",&;;;=====ooooooooOOOOOO>>>Or>rrrryryyyyyiyii,iiiiiiiiiiiiiiiuiiitituuttttttttttttttttttttttutituiriiiiiiiiiiiiiiiiiiyiyiyyyyyrryrr>r>rO>>OOOOOoooooooo@=O==;;;:::,,2269waddfggggggggfffdddwqww8wqqqqqeqdeddddfdffffgfgfgfgfgfffffddddee00055331<<<&&%%$$$$++X@XXXXX X............                       .............XX.XXX+X+@@@$$%%&&*<<13447880eedddfdfffffgfgfgfggfffffdfdddedsqqqqq8w8qwwwdddfffgggggggggddaw966,,,,::;;;===o=ooooooooOOOOO>O>rOr>rrrtryyyyyyyiyiiiiiiiiiiiiiiiiiiititututtttttttttttttttttttturuuuuuuiiui",
",:;;;====o=o=ooooooOOOOO>>>>>r>rryriryyyiyiyiiiiiiiiiiiiiiiiiiuutititttutttttttttttttttttttututitiiuiiiiiiiiiiiiiii2iiiiriyyyyyrrrrrOrOrO>o>OOoOooooooooo@o==;;;:,,,,2669wdfffggggggggfdfdwdwqqq8q8qqqqwsddddfdfdffffgfgfggfffffdffdddeee07754311<*&&%%$$@+$++XXXXXXX X ..........                        ..............X+XX+X@+@@@%$%&***<3135580e0ewwddffdfgffgggfgffgfffdfdddddqspqqqq8qw89wwwdddffgggggggggfdaa9666,,::::=;===oo=ooooooooOOOO>>>Or>rrrr,ttyyyiyiyiiiiiiiiiiiiiiiiiiiuitititutttttttttttttttttttttuutuuuuuiii",
":::;=;==o@oooooooooOOOOO>O>>>>r>rrtryyyyyyiiiiiiiiiiiiiiiiiiiiiiititututttttttttttttttttttttttituiuuiiiiiiiiiiiiiiiiiiiyiyyyyyrrrrrrr>r>O>>OoOOOoooooooo=====;;::::,22699wddfgggggggggffdddwwwqqq9qqqqqpqddddddfffffgfgggfgfgfffffdddddee0055441<<<*&%&$$$$+++X+XXXX XX...........                       ............X.X.XXXX@X@@@$$$%%&*<<<3355780eewdddfdffffgfgfggfgfffffdfdddddssqqq9qq8wwwwwdddffggggggggfffda966,2,,::;;;====+ooooooooOOOO>O>O>>>r>rrtrryyytiyiiiiiiiiiiiiiiiiiiiuiiititututtttttttttttttttttttttuyuuuiiui",
",:&:;=;==o=oooooooooOOOO>>>>>>rrrrrrtuyyyyiyiiiiiiiiiiiiiiiiiiiuiutituttutttttttttttttttttttuutitiiiiuiiiiiiiiiiiiiiiiiiyiyyyyyyrrrrrrO>>O>O>oOoOoooooooo======:::,,,22699wdffgggggggggddddwwwwq8w8w9qqededdddfdfffffgfgfgfgfgfffdfdddeee00055331<<&<%%$$$@$+++XX+XXX X ...........                       ............X.X.XX+X@X@@@$%%%&**<<3335780eeewdddffdfffgfgfggfgfffffdfddddeqsqqq8qq8wwwwwdddffggggggggfddaw966<,,,::;======oo+oooooooOOO>O>>>>rr>trttuyy2uyiyiiyiiiiiiiiiiiiiiiuutititttutttttttttttttttttttutuuuuyuiiu",
":,:;;;====o+oooooooOOOOOO>>O>>r>rrttu,yyyyyiiyiiiiiiiiiiiiiiiiuiititituttttttttttttttttttttuttutititiiiiiiiiiiiiiiiiiiiyiyyyyyyrrrrrrOr>>>o>oOOOoooooooooo====%;::*,,2669waddfggggggggfffdddwwqqw8w8qqqqsweddddfdffffgffgggfgffffffddddee00755331<<<&&%%$$$++@X@XXXX X.X...........                       .............X.XXXX+X@+@@$$%%&&*<1<3447880eedddfdffffgfgfggfgfffffdfddddedsqqqqqq8w8qwwdddfffggggggggffda996,6,,:::=:;===o=ooooooooOOOOO>>>Or>>rrrt,ryyyyiyii,iiiiiiiiiiiiiiiiiiititututtttttttttttttttttttttuuyuiuiii",
",:;;;;=====ooooooooOoOOOO>>>>r>rrr,ttruyyiyi,iiiyiiiiiiiiiiiiiiuiititututtttttttttttttttttttuututitiuiiiiiiiiiiiiiiiiiiiyiyyyyyyrrrrrrOrO>>O>OOoOoooooXo@oo===;;;:,,,32669wdfffggggggggfdfdwwwwq8w8qqqqqqddwddfdfdffffggfgfgfgffffdfdddeee0055433<<<&&%%%$+$+++XXXXXX X............                        .............X.+XX+X@@@@@%$%&***<313557e0eewdddfdffffgfgfggfgfffffdfddddwepqqq9qq8wqwwwdddffgggggggggfdda9662<,,:::======ooooooooooOOOO>O>>>r>rrtttiryyyyi,iiiiii2iiiiiiiiiiiiuiutituttutttttttttttttttttttuutuuuitiu",
",;,:;;;===o=ooooooooOOOOO>O>>Or>rrrtryyyyyiyiiiii2iiiiiiiiiiiiiiitititutttttttttttttttttttttttutitiiiuiiiiiiiiiiiiiiiiiyiyyyyyyrryrrr>r>rO>OOOOOOooooooooo====;;::::,222999ddfgggggggggffdddwww9w8q9qqqqsewdddddfffffgffgfggffgffdffddddee00754311<<&&&%$$$$+++X@XXXXX.X...........                       .............X..XXXX+X+@@$$$%%&*<<<3345708eewdddfdfffffgfggfgfgfffdfdddddedpqqqqq8wq9wwwdddffgggggggggfdaw96622,:,::=:===o@ooooooooOOOOOO>>>>>rr>r,rryyyyyiiiiiiiiiiiiiiiiiiiiuiitititutttttttttttttttttttttttuuuuuiui",
",,:;;;=====ooo+ooooooOOOO>>>>>>r>rrrytyyyyyiyiyiiiiiiiiiiiiiiiiiuititituttttttttttttttttttttttuutitiiiiiiiiiiiiiiiiiiiii,iyyiyyyyrrrrr>>Oro>OOOOoOooooooo@o====;;::,,,2669wwdffgggggggggddddwwwqqw8w8qqqqdeddddfdfffffgfggfggfffffddfddeeee775533<<<<&&%$$$+$+++XXXXX X.X ..........                       .............+.X+XX++++@@$%%%&**<<333578e0ewwdddfffffgfgfgggffffffdfdddddqeqqqq9q8wqwwwwdddffggggggggffda99622,<::::=====oo@ooooooooOOOO>O>>>>rrrrttyyyyyyiyiiiiiiiiiiiiiiiiiiuiititututtttttttttttttttttttutuuuuuiiu",
",,:::;;===o@ooooooooOOOOOO>>>>r>rrrttruyyyyiiiiiiiiiiiiiiiiiiiiuiiitittutttttttttttttttttttttuttititiiuiiiiiiiiiiiii2iiyiyiyyyyyrtrrr>r>>O>>OOOOOoooooooooo===;;;:::,,22699addfggggggggfffdddwqww8w8qqqqwqedddddfdfffgfggfggfgffffffddddee000545311<&&&%%$$$++@X+XXXXX X............                       ..............X.XXX+X+@@@$$%%&&*<1<3447880eeddddfdffffgfgfgfgfgffffdfdddedsqqqqq8w8wqwwdddfffgggggggggddw9966,,,,::=%;===o=ooooooooOOOO>O>>>>r>rrttryyyyyiyiyiiiiiiiiiiiiiiiiiiititututttttttttttttttttttttttutuuiuui",
",,&:;;;====o=ooooooooOOOOO>O>>>r>rr,tt,uyyyyi,iiiiiiiiiiiiiiiiiiuutititttuttttttttttttttttttttuutitiuiiiiiiiiiiiiiiiiiiiiiriyyyyyrrrrrOr>ro>O>OOoOooooooo=o===O;;:::,,,2699wdfffggggggggfdfdwdwqqq8w8qqqqededddfdfdfffgfggfggfgfffdffdddeee0705333<<<&&&%$$$$+++X+XXXXX X...........                        ..............XX+X+X@+@@@%$%&***<3335570e0wwddfdffffffgggfgfgffffdfdddddqspqqqqq8w8wwwwdddffgggggggggfddw9666,,:::;;=;===ooo=ooooooOOOO>O>>>>r>rr,ttyyyyyiii,iiiiiiiiiiiiiiiiiuitititutttttttttttttttttttttutiruuiiu",
",,,::;;;====oooooooooOOOOO>>O>>>rrrrtryyyyyiyiiiiiiiiiiiiiiiiiiiiiititituttttttttttttttttttttuttititiuiiiiiiiiiiiiiiiii,iyiyyyyyrrrrrrr>rO>>OOOOOOooooooooo===@;;;:,:,22669wddfgggggggggffdddwwwq9w8qqqqqsqddddddfffffffgfggfgffffffdddddee0075431<<<*&%&$$$+@+++XXXXX.X............                       ............+.X.XXXX@X+@@$$$%%&*<<<3345708eewdddfdffffgfgfgggfffffffdfddddssqqqq8w8qqqwwdddffggggggggfffda966,3,,:::;;===o@ooooooooOOOOOO>>O>r>rrrtrtyyyyyiyiiiiiiiiiiiiiiiiiiuiiititututttttttttttttttttttttutuuiuui",
",,,&:;;=;==o=oooXoooooOOOO>>>>>r>rrrrytyyyyyiyiiiiiiiiiiiiiiiiiiiuiututtutttttttttttttttttttttuutituiiuiiiiiiiiiiiiiiiiiiiyiyyyyyyrrrr>rO>>O>o>oOOoOooooXoo=o===;;::,,,22999wdffgggggggggddddwwwqw8w9qqqqwsdedddfdfffffgfgfggfgffffdfdddsee00575331<<&*&$%$$$+++++XXXXX X............                       ..............XXX+XX@++@@$%%%&**<1133578e0ewwdddffffffgfgfgfgffffdfddddddeqsqq0q8w9wwwwwdddffggggggggfdda9966,,,,:;:=;===oo=ooooooooOOO>O>>>>r>rrrt,tyyyiyiyiiiii2iiiiiiiiiiiiuutititttutttttttttttttttttttttuuutiuu",
",,,;::;;====o+oooooooOOOOOO>>>>>r>rrttruyyyyyiiiiyi2iiiiiiiiiiiiuiitiutittutttttttttttttttttttttutuiriiiiiiiiiiiiiiiiiiiiiiyyyyyyrryrrr>>rO>O>OOOOoooooooo=o===;;;::*,,2666waddfggggggggfffdddwww8wq8qqqqqsedddddfdfffgfgfggfgfgfffffddddee00055531<<<&&&%$$+$+++XXXXX XX............                       .............XX.XXX+X+@@@$$%%&&*<<13447880eeddddfdfffgfgfgfggfgfffffddddedsqqqqqq8w8qwwdddfffggggggggffda996,6,,:::;;===@o=OXooooooOOOOO>O>Or>rrrryryyyyyiyii,iiiiiiiiiiiiiiiiiiititututttttttttttttttttttttuuutiuui",
"2,,,;;;;===O=ooooooooooOOOO>O>>r>rrr,tt,uyiyiyiiiiiiiiiiiiiiiiiiiuiitittutttttttttttttttttttttutuutiitiiiiiiiiiiiiiiiiiiiyyiyyyyyyrtrrrr>O>>>oOOOoOooooooo+o====;;;:,,,,2699wdfffggggggggfdfdwdwww8w8w9qqqwedwddfdfdfffgfgfggfgfffffdfdddeee0775333<<*&&%%$$$@++++XXXXX..X...........                        ..............X+XX+X@+@@@%$%&***<3135580e0ewwdfdfffffgfgggffgffffdfdfdddwepqqq9qq8wqwwwdddffgggggggggfdda966,,,:,:;;;===o=oooooooooOOOO>>>>Or>rrrrytuyyyyiyiiiiiiiiiiiiiiiiiiiuiutituttuttttttttttttttttttttttitiuu",
"2,,:::;;===@o=ooooooooOOOOO>>O>>>>rrtrryyyyyyiyi,iiiiiiiiiiiiiiiiiitituututttttttttttttttttttttuutituiuiiiiiiiiiiiiiiiiiyiiyiyyyyrrrrrr>>r>>o>OOOOOooooooooo====;;::::,226699ddfgggggggggffdddwww8w8w8qqqqqdedddddffffffgfggfgffgffdfdfdddee0075531<<<*&&&$$$+$++X@XXXX.X............                       ............X.X.XXXX@X@@@$$$%%&*<<<3355780eewdddfdffffgffgfggffffffdfddddedsqqqqq8wqqwwwdddffgggggggggfdaw9666,,,:::;=====oooooooooOOOOOO>>Or>r>rryrruyyyyiiiiiiiiiiiiiiiiiiiiuiitititutttttttttttttttttttttttituuui",
"22<,:::=;===oo+ooooooooOOOO>>>>>r>rrrtttuyyyyiiiiiiiiiiiiiiiiiiiiiuitituttutttttttttttttttttttttuutiuiiuiiiiiiiiiiiiiiiii,iyyyyyyyyrrrrrrOrO>O>OOOooooooooo=o=====:::,,,2669wwdffgggggggggddddwwwqqq8w8qqqqqdddddfdffffffgfggfggfffffddddseee77553311<*&&$%$$@++++XXXXXX.X............                       ............X.X.XX+X@X@@@$%%%&**<<3335780eeewddfdfffffggfgfggffffffddddddqeqqqq9q8w9wwwwdddffggggggggffda9966<,,:::=:====o=ooooooooOOOOO>O>>>rr>rrtr,uyyyyiyiiiiiiiiiiiiiiiiiiuiititututttttttttttttttttttttituuiuu",
"2,,,::;:=%====ooooooooOOOOOO>>O>>r>rrt,ruyyyyiyiiiiiiiiiiiiiiiiiiuiiitituutttttttttttttttttttttututititiiiiiiiiiiiiiiiiiiiiyiyyyyyrrrrrrOrO>>>OOOOOoooooooooo====%;:::,,25699addfggggggggfffdddwwwqqqqq9qqqdedddddfdffffgfggfggffffffdfdddee00054531<<*&&&%$$@$@+X@XXXX.X.............                       .............X.XXXX+X@+@@$$%%&&*<1<3447880eeddddffffffgfgfggfgffffddfdddedppqqqq8w8wqwwdddfffgggggggggddaw96,6,,,:::=:===@ooooooooooOOOO>>>Or>>rrrriryyyyiyiiiiiiiiiiiiiiiiiiiiititututtttttttttttttttttttttttuuuui",
"22,,::;;;====o=o=ooooooOOOOO>>>>>>rrrytr,uyyiyi,iyiii2iiiiiiiiiiiiuutititttutttttttttttttttttttutuutitiiuiiiiiiiiiiiiiiiiiyiyyyyyyyrrrrrr>rO>O>oOOoOooooooo@o====;;:::,,,2699wdfffggggggggfdfdwdwqq9q8qqqqqqdedddfdfdfffgfgfgfggffffdfddddeee0705333<<<&&%%$$@@+@+XX+XXX.X............                        .............X.+XX+X@@@@@%$%&***<313557e0eewddddffffgfgggfgffgfffffdddddespqqqqq8w8wwwwdddffgggggggggfdaa966,3,::::=====o=o+oooooooOOOOO>>>>r>rrrtriryyyyii,yiiiiiiiiiiiiiiiiiuititituttttttttttttttttttttttituuuu",
"62,,:::;;===o@ooooooooooOOOO>O>>>r>rrr>iryyyyiyiiiiiiiiiiiiiiiiiiiiiititututtttttttttttttttttttttutitiiuiiiiiiiiiiii6iiiiiiyiyyyyyrryrrr>rOrO>o>oOOOooooooooo====;;;:,:,22669wddfgggggggggffdddwwwqw8q9qqqqseddddddffffffgfgggffgfffffdfdddee0075431<<<&&&%$$$$+++X+XXX.X.X...........                       .............X..XXXX+X+@@$$$%%&*<<<3345708eewdddfdffffgfgfgfggfffffdfdddddesqqqq8w8qqwwwdddffggggggggfffda9666,,,:::=%=====ooooooooOOOOO>O>O>>rr>t,tryyyyyiyiiiii2iiiiiiiiiiiiuiiititututttttttttttttttttttttutuuui",
"222<,,;:;;===o=ooooooooOOOOOO>>>>>r>rryriryyyyiyiiiiiiiiiiiiiiiiiiiuiutituttutttttttttttttttttttutuuitiiuiiiiiiiiiiiiiiiii,iyiyyyyyyrrrrr>>OrO>o>oOoOooooooo=o===;;:;:,,,26699wdffgggggggggddddwwwqqw8w8qqqqdeddddfdffffffgfgfggffffffddddsee00575331<<&<%%$$$+$+++XX+XX X.............                       .............+.X+XX++++@@$%%%&**<<333578e0ewwddffdffffgfgggfgffffdfdddddedqqqqq8qqq9qwwwdddffggggggggfddaw966,,,,:;:=;===ooo=ooooooOOOOO>>>>r>>rrryruyyyiyiyiiiiiiiiiiiiiiiiiiuutititttutttttttttttttttttttttuuuuu",
"62,,:::;;;====ooOXooooooOOOO>>O>>r>rrrryryyyyyiiii,iiiiiiiiiiiiiiiuiititituttttttttttttttttttttttututitiiiiiiiiiiiiiiiiiiiiiyyiyyyyrtrrrrr>>OrO>OOOOoooooooooo====;;:::,,2269waddfggggggggfffdddwwwq8w8qqqqqsweddddfdffffgfgfggfgfgffdffdddee00055531<<<&&%&$$$@+@X+XXXXX.X............                       ..............X.XXX+X+@@@$$%%&&*<1<3447880eedddddfffgffgfgfgfgfffffdfddddsppqqqqq98wwwwdddfffggggggggffda996,6,,:::;:====o@ooooooooOOOOO>>O>>>rrrrrtyuyyyyyiiiiiiiiiiiiiiiiiiiiiititututttttttttttttttttttttutuuuu",
"622,,:::;=====@oooooooooOOOOO>>O>>r>rrrtyruyyyyiyiiiiiiiiiiiiiiiiiiuiititututtttttttttttttttttttutuuutitiiiiiiiiiiiiiiiiiiiiiyyyyyyyrrrrrOrrOO>o>OOoOoooooXo@o=====;:::,,32669wdfffggggggggfdfdwdwqwq8w9qqqqqddwddfdfdfffgfggfggffffffdddddeee0775333<<<&&&$%$+$++++XXXXX.X............                        ..............XX+X+X@+@@@%$%&***<3335570e0wwwddfdfffgfggfggffgfffdfdddddwepqqqq8qw8wwwwdddffgggggggggfdda966,3,:,:=;;===o=oooooooooOOOO>O>>>r>rrrrtt,uuyiiyii,iiiiiiiiiiiiiiiiuiutituttuttttttttttttttttttttutuuu",
"66,,,:::;;;===oooooooooooOOOO>>>>>>r>rttryyyyyiyiiiiiiiiiiiiiiiiiiiiititituttttttttttttttttttttttuutuiriuiiiiiiiiiiiiiiiiiiiyiyyyyyrrrrrrrrOr>O>OoOOOooooooooo====%;:::,,22299wddfgggggggggffdddwwwq9w8qqqqqsewdddddfffffffgfggfgfgffdffddddee00755311<<&&%&$$$$+++X+XXX.X.X...........                       ............+.X.XXXX@X+@@$$$%%&*<<<3345708eewddfdfdfffgffggfggfffffdfddddedsqqq9qq8w8wwwdddffgggggggggfdaw9666,,,:::;=;==@oo=ooooooOOOO>o>>O>>r>rtt,ryyyyyyiyiiiiiiiiiiiiiiiiiuiitititutttttttttttttttttttttutuuti",
"666,<,::;;=====oo=oooooooOOOO>O>>>>rrrr,tryyyyyiyiiiiiiiiiiiiiiiiiiiuititituttttttttttttttttttttttuutuiiiiuiiiiiiiiiiiiiiiiiyiyyyyyyyrrrrrOrO>>OO>oOoOooooooooo====;;:::,,26699wdffgggggggggddddwwwqw8w8qqqqqdeddddfdfffffgfgfggfgffffddfddeeee775533<<<<&&%$$$+$+++XXXXX..X............                       ..............XXX+XX@++@@$%%%&**<1133578e0ewwdddffffffggfggfgffffffddddddqeqqqq8qqqwqwwwdddffggggggggffda996,2,,<:::======oooXooooooOOO>O>>>>rr>rrtytyyyyiyiiiiiiiiiiiiiiiiiiiuiititututttttttttttttttttttttutuuu",
"96,3,,:::;=%==o@ooooooooOOOOOO>>O>rr>rrrriryyyyiiyi,iiiiiiiiiiiiiiiuiiitittutttttttttttttttttttttututiutiuiiiiiiiiiiiiii2iiyiyiyyyyyrtrrr>r>>>O>>oOOOoooooooo@=O==;;;::,,,2666waddfggggggggfffdddwww8w8qq8qqwqedddddfdfffgfgfggfgfffffffddddee000545311<&&&%%$$$++@X@XXXX.X.............                       .............XX.XXX+X+@@@$$%%&&*<<13447880eedddfdfffffgfggfgfgffffdfddddedsqqqqqq8w8wwwdddfffgggggggggddw99666,,:::=:====ooooooooooOOOOO>>O>>>>rrrtrtyyyiyi,iiiiiiiiiiiiiiiiiiiititututttttttttttttttttttttttuuuu",
"6622,,:::;;====ooooooooooOOOOO>O>>>>rrryrriyyyyyiiiiiii2iiiiiiiiiiiiuutititttutttttttttttttttttttutuutiitiiiiiiiiiiiiiiiiiii,iyyyyyyyrrrrr>>>>O>o>OOoOooooooooo@o==;;:::,,,2699wdfffggggggggfdfdwdwqw8w8wqqqqededddfdfdfffgfgfggfgfgffdffdddeee0705333<<<&&&$%$@$+++XXX+XX.X............                        ..............X+XX+X@+@@@%$%&***<3135580e0ewwddfdfffgfggfggfgfgfffdfddddespqqq9qq8wqwwwdddffgggggggggfddw966,,,,:::;=====+oo=ooooooOOOO>>>>>r>rrrtt,tuyyyiiyiiiii2iiiiiiiiiiiiuititituttttttttttttttttttttttuuuu",
"966,,,:::;;====o@ooooooooOOOOO>>>>>r>rrrryyyyyiyi,iiiiiiiiiiiiiiiiiiiiititituttttttttttttttttttttttutiutiiuiiiiiiiiiiiiiiiiiiyiyyyyyrrrrrr>rrOrO>OOOOOoooooooo=====;;;::<,226699ddfgggggggggffdddwwwqqq8q9qqqeqddddddffffffgfggfgfgfffffdddddee0075431<<<&&%&$$$+$++X@XXX.X.X...........                       ............X.X.XXXX@X@@@$$$%%&*<<<3355780eewddfdfdfffgffgfggfffffdfdfddwdspqqqqq8w9qwwwdddffggggggggfffda96623,:,::=%====o=oooooooOOOOOO>O>>>r>rt,rtyuyyyiyii,iiiiiiiiiiiiiiiuiiititututtttttttttttttttttttttuuu",
"9666,:,:::;;===ooo@oooooooOOOO>O>>>>r>rrtrryyyyyiiyiiiiiiiiiiiiiiiiiiuiututtutttttttttttttttttttttututiuuiiiiiiiiiiiiiiiiiiiiiyyiyyyyyrrrrr>OrO>OOOOOoOooooooooo====;:::,,,2669wwdffgggggggggddddwwwqqqq8wqqqqdedwddfdffffffgfggfgfffffdfdddsee00575331<<<&&$%$$@++++XXXXX X.............                       ............X.X.XX+X@X@@@$%%%&**<<33357800ewwdddffffffggfgfggffffffddddddeeqqqq9q8wqqwwwdddffggggggggfdda99622,,:::;;====oooooooooooOOOO>>O>r>r>tryrt,uiyyiiiiiiiiiiiiiiiiiiiiuutititttutttttttttttttttttttttuuu",
"966,3,,::;;=;====ooooooooOOOO>o>>>Or>rrrtryyyyyyiyiiiiiiiiiiiiiiiiiiuiitiutittuttttttttttttttttttttutituiriiiiiiiiiiiiiiiiiiiyiyyyyyyrryrr>rrO>>>>OOOOooooooooo====;;;:::,,22699addfggggggggfffdddwwwqw8w8qqqwqedddddfdffffgfggfggfgfffffddddee00055531<<*&&&%$$@$@+X@XXXXX.X............                       .............X.XXXX+X@+@@$$%%&&*<1<344788eeedddfdfffffgfgfggfgffffdfddddedqsqqqq8w8qwwwdddfffggggggggffda9966,,,::;:=:===o+=oooooooOOOOO>>>>Or>rrrrtyyyyyyiyiiiiiiiiiiiiiiiiiiiiititututttttttttttttttttttttuuut",
"9962,,,:::;;====o=oooooooooOOO>O>>>>r>rr,ttyyyyiyii,iiiiiiiiiiiiiiiiiuiitittutttttttttttttttttttttututitiiuiiiiiiiiiiiiiii2iii,iyyyyyyrtrrrOrrOO>o>OOoOooooooo@oo====;:::,,32699wdfffggggggggfdfdwwwqq9q8w9qqqededddfdfdffffgfggfgffffffdfdddsee0775333<<<&&%%$$@@+@+XX+XXX.X............                        .............X.+XX+X@@@@@%$%&***<313557e0eewwddfdfffgfgggfgffgffffddfdddweqqqqqq8w9qwwwdddffgggggggggfdda9666,,:,:;;=====ooooooooooOOOO>O>>>>rrrrt,tuyyyiyiyiiiiiiiiiiiiiiiiiiuiutituttuttttttttttttttttttttuuu",
"99626,,:::;;===o@o=oooooooOOOOO>>O>>>rrrrtryyyyyyiyiiiiiiiiiiiiiiiiiiiitituututttttttttttttttttttttttituiuuiiiiiiiiiiiiiiiiiiriiriyyyrrrrrrrrO>>O>OoOOOoooooooo=o===%;;::,,22669wddfgggggggggffdddwww9w8w8qqqqsqddddddfffffgfggfggfgfffdfdfddeee0075533<<<&&&%$$$$+++X+XXX.X.X...........                       .............X..XXXX+X+@@$$$%%&*<<<3345708eewddfdfffffgfgfgfggffffdffddddedpqqqq8w8qqwwwdddffgggggggggfdaw966,3,,:::;====o=o=oooooooOOO>o>>>>rr>rrrtryyyyyyiii,iiiiiiiiiiiiiiiuiititituttttttttttttttttttttttuut",
"w966,2<,::;;;===o=ooXooooooOOOO>>>>>r>rrrrytyyyyiyiiiiiiiiiiiiiiiiiiiiuitituttuttttttttttttttttttttuutitiiiiuiiiiiiiiiiiiiiiiiiyiriyyyyrrrrrOrO>>OO>oOooooooXooo@o===;;:::,,26699wdffgggggggggddddwwwqqw8qqqqqqdeddddfdffffffgfgfggfgffffdddddee00555331<<<&&%$$$+$+++XX+XX..X............                       .............+.X+XX++++@@$%%%&**<<333578e0ewwdddfdffffgfgggfgfffffdfdddddqeqqqqq8w8wqwwwdddffggggggggffda9966,,,:::;:====ooooXooooooOOO>>o>>>>r>rtriryyyyiyiiiiii2iiiiiiiiiiiiuiititututtttttttttttttttttttttuu",
"w9626,,,:::;=====oooooooooOOOOO>O>>>>r>rrttryyyyyiiyiiiiiiiiiiiiiiiiiuiiitituuttttttttttttttttttttuttutititiiiiiiiiiiiiiiiiiiiyiyiyyyyrrrrr>r>>>O>>oOOOoooooooo=o===;;;::,,,2566waddfggggggggfffdddwwww8q9q9qqwqedddddfdffffgfgfggfgffffdffdddee000553311<&&&%&$@$$+@X+XXXX.X.............                       ..............X.XXX+X+@@@$$%%&&*<1<3447880eedddfdffffgfgfgfgfgfffffdddddedppqqq9q8qqwwwdddfffgggggggggddw996,6,,::::=%===o@ooooooooOOOOOO>>>>r>rt,tryyyiyyiiyiiiiiiiiiiiiiiiiiiititututtttttttttttttttttttttuut",
"a996,6:,:::;;====+oo=ooooooOOOOO>O>>r>rrr,ttyyyyyyiiyiyiiiiiiiiiiiiiiiuutititttutttttttttttttttttttuututitiuiiiiiiiiiiiiiiiiiiiyyyyyyyyrrrrr>>>rO>o>OOoOooooooooo====;;;::,,22699wdfffggggggggfdfdwdwqqw8w8qqqqededddfdfdffffgfgfggffgfffdddddeee0705333<<<&&&$%$@+++++XXXXX.X............                        ..............XX+X+X@+@@@%$%&***<3335570e0wwddddffffffggfggfgffffdfdfdddespqqqqq9q9qwwwdddffgggggggggfddw996,,,:,:;;====o=oooooooooOOOO>O>>>>r>rryrruyyyyyiiiiiiiiiiiiiiiiiiiiuititituttttttttttttttttttttttuu",
"a9966,,,::;:=%===o=oooooooooOOOO>>O>>>>rrrttyyyyyii,iiii2iiiiiiiiiiiiiiiititututtttttttttttttttttttttutitiiiuiiiiiiiiiiiiiiiiiyiiyyyyyrryrrr>rrO>O>OOOOOoooooooo@====;;:::,,,26699ddfgggggggggffdddwwww8w8qqqqqsqddddddfffffgfgggfgfgffffdfddwdee0055531<<<&&%&$$$$+++X+XXX.X.X...........                       ............+.X.XXXX@X+@@$$$%%&*<<<3345708eewdddfdffffggfggfgfffffffddddwdssqqqq8w8w9qwwdddffggggggggfffda96263,,:::;;;==@ooooooooooOOO>o>>>>r>rrrrrutyyyyiiii,iiiiiiiiiiiiiiiuiiititututtttttttttttttttttttutt",
"d99666,,,::;;=;===oooooooooOOOOO>>>>>rr>rrr,tuyuyyiiiiiiiiiiiiiiiiiiiiiuiutituttuttttttttttttttttttttuutitiiiiiiiiiiiiiiiiiiiiiyyiyyyyyyrrrrr>OrO>OOOOOoOoooooooo=o==;=;:::,22669wwdffgggggggggddddwwwqq8w8qqqqqdeddddfdfffffgfgfggfgfffffdfddewe00555331<<<&&%$$$+$+++XXXXX.X.............                       ..............XXX+XX@++@@$%%%&**<1133578e0ewwddfdffffffgfggfgffffdffdddddeqsqq0q8w8wwwwwdddffggggggggfdda99622,,:::;======o+ooooooooOOO>>o>>>r>rrtrt,uyyiyyiiiiiiiiiiiiiiiiiiiuutititttuttttttttttttttttttttuu",
"aw966,2,::::;;===o@oooooooooOOOO>O>>>>>rrrttruuyyyiyiy,iiiiiiiiiiiiiiiuiitititutttttttttttttttttttttuttititiiuiiiiiiiiiiiiiiii,iiyiyyyyrtrrrr>rOrO>>OOOOooooooOo=o====%;::,,,22699addfggggggggfffdddwqwqw8qqqqqwqedddddfdffffgffggfgffgffdfddddee00054531<<*&&%%$$$$+@X@XXXXX.X............                       .............XX.XXX+X+@@@$$%%&&*<<13447880eeddddffffffgfggfgfgfffffdddddedsqqqq9w8wqqwwdddfffggggggggffda9966,,,::;:;;===o=ooooooooOOOOOO>Or>>r>rrtryyyyyyiyiiiiiiiiiiiiiiiiiiiiititututtttttttttttttttttttutt",
"da9966<,,::;;;====o=ooooooooOOOOO>O>>r>>rr,ttr,uiyyiiiiiiiiiiiiiiiiiiiiuiititututttttttttttttttttttttuutitiuiiiiiiiiiiiiii6iiiiyiyyyyyyyrrrrr>>rO>Oo>OOoOoooooXooo====;;;::,,32699wdfffggggggggfdfdwdwqqqq8qqqqqededddfdfdffffggfggfgffffffdfdweee0705333<<<&&%%$$@+@++XX+XX.X.X...........                        ..............X+XX+X@+@@@%$%&***<3135580e0ewddddffffgfgfggfgfgfffdfdfdddwqpqqq08w8wqwwwdddffgggggggggfdda9666,,,::;;=====oo=oooooooOOOO>>>Or>rrrr,ttyyuyyiiyiiiiiiiiiiiiiiiiiiuiutituttutttttttttttttttttttuu",
"daw96,6,,,::;;;====o+ooooooooOOOO>>O>>>rrrrtryyyyyyiyiiiiiiiiiiiiiiiiiiiitititutttttttttttttttttttttuttititiuiiiiiiiiiiiiiiiiiiiiyyyyyyrrrrrrrrOrO>>OOOOOoooooooo@====;;::::,22669wddfgggggggggffdddwww9w8q9qqqqsqddddddfffffgffggfgfgffffdfddddee00554311<<&&&&$$$$+++X+XXXX.X............                       ............X.X.XXXX@X@@@$$$%%&*<<<3355780eewdddfdffffgfggfgfgffffffdddddedsqqqqq8w9qwwwdddffgggggggggfdaw966,2,:,::=;===o@ooooooooOOOO>O>O>>>r>rrtttyuyyyiyii,iiiiiiiiiiiiiiiuiititituttttttttttttttttttttttt",
"dd9966,,,::::=;===ooo=oooooooOOOOO>>>>r>rrrrytyyyyiyiiiiiii2iiiiiiiiiiiiuitititutttttttttttttttttttttuutituiiuiiiiiiiiiiiiiiiiiiyiyyiyyyyrrrrr>>OrOOOOOOoOooooooooo====;;::,,,26699wdffgggggggggddddwwwqqw8w8qqqqdeddddfdfffffgfgfggffgffffddddeee00555331<<<&%%$$$+$+++XXXXXX.X............                       ............X.X.XX+X@X@@@$%%%&**<<33357800ewwddffdffffgfggfgffgffdffdddddeqsqq9qq8w9wwwwdddffggggggggffda9966<,,::::=%===o=oooooooooOOO>O>>>>>rrrr,tt,uiyyiiiiiii2iiiiiiiiiiiiuiititututtttttttttttttttttttut",
"faw9666,,,::;:======ooooooooOOOOO>>>O>>r>rrttruyyyyiiy,iiiiiiiiiiiiiiiiuiiitittutttttttttttttttttttttttutuiriiiiiiiiiiiiiiiiiiiyiyiyyyyyrryrr>r>rO>>>OOOOooooooooo====;;;:::,,2269waddfggggggggfffdddwwww8q8q9qqwqedddddfdfffgfgfggfggfffffdfdddee00055431<<*&&%%$$$$+@X@XXXX.X.............                       .............X.XXXX+X@+@@$$%%&&*<1<344788eeedddddffffgfggfggfgfffffdddddedpqqqqq8w8wqwwdddfffggggggggfddd99626,,:::;;====oo=oooooooOOOOO>>>Orr>rrrtryyyyyyiyiiiiiiiiiiiiiiiiiiiititututtttttttttttttttttttttt",
"dda996,6:,,::=:====o=ooooooooOOOOO>>>>r>rrr,tt,uyyyyiiiiiiiiiiiiiiiiiiiiuutititttutttttttttttttttttttutuutiitiiiiiiiiiiiiiiiiiii,iyyyyyyyrrrrrOrO>O>o>OOoOooooooo@oo===;;:::,,,2669wdfffggggggggfdfdwwwqqqqw8qqqqededddfdfdfffgfgfggfgffffdfddddeee0505333<<<&&%%$$@+@++XX+XXX.X............                        .............X.+XX+X@@@@@%$%&***<313557e0eewwddfdffffgfggfgfgffffdfdfdddespqqq9q8w8wqwwdddffgggggggggfdaa966,2<,:::=;===@ooooooooooOOOO>O>rOrr>rryryyyyyiyiyiiiiiiiiiiiiiiiiiiuitititutttttttttttttttttttttu",
"fdaw966,,,::;:====o@oooooooooOOOOO>O>>Or>rrrtryyyyyiyiyiiiiiiiiiiiiiiiiiiiitititutttttttttttttttttttttuutituiuiiiiiiiiiiiiiiiiiiiiyiyyyyrrrrrrr>r>>O>OOOOOooooooooo=====;;:,:,22699wddfgggggggggffdddwwwwq989wqqqsqddddddffffffgfggfgfgffffdfddddee0075441<<<*&%&$$$$+++X+XXX X.X...........                       .............X..XXXX+X+@@$$$%%&*<<<3345708eewddfdfdfffgfgfgggfffffffddddwdssqqqqqq8wqwwwdddffgggggggggfddw9626,,,::;;;;===oooooooooOOOOOO>>O>>>rrrryryyyyyyiii,iiiiiiiiiiiiiiiuiiititututtttttttttttttttttttt",
"ddd99666,<:,:;:====o=o+oooooooOOOO>>O>r>r>trttriyyyyiii,iiiiiiiiiiiiiiiiiuiututtuttttttttttttttttttttttuutiuiiuiiiiiiiiiiiiiiiiiiyyyyyyyyyrrrrr>OrO>Oo>oOOoooooooo@o===;;:;:,,,22699wdffgggggggggddddwwwqqw8w8qqqqdeddddfdffffffgfggfgfgfffddfddweee0775331<<&<%%$$$+$+++XXXXX X.............                       .............+.X+XX++++@@$%%%&**<<333578e0ewwdddffffffgfgfgfgffffdffdddddeqsqq08qq8wwwwwdddffggggggggffda99623,,:::;======o+ooooooooOOO>O>>>r>>rrrryriyyiyyiiiiiiiiiiiiiiiiiiiuutititttutttttttttttttttttttt",
"ffaw966,3,,:::=%====oooooooooOOOO>o>>>Or>r>r,ryyyyyyiyiiiiiiiiiiiiiiiiiiuiitiutittutttttttttttttttttttututititiiiiiiiiiiiiiii2iiiiyiyyyyyrtrrr>rrO>>>>oOOOoooooooooo=====;:::,,2669waddfggggggggfffdddwqww8w8qqqqwqedddddfdffffgfggfgfgffffffddddee00755331<<<&&%%$$$$+@X@XXXXX.X............                       ..............X.XXX+X+@@@$$%%&&*<1<3447880eedddfdffffgfgggfgfgfffffdddddsdsqqqqqq8w9wwwdddfffggggggggfddaw9662,,:::;;;===o=ooooooooOOOOO>O>>>>rrrryryyyyyyiiyiiiiiiiiiiiiiiiiiiiititututtttttttttttttttttttt",
"fdda9966,,,:::;;====@oooooooooOOOO>O>>>>rrrrtrtruyyiyiyiiiiiiiiiiiiiiiiiiuiitittutttttttttttttttttttttutuutitiiuiiiiiiiiiiiiiiiiiyiyyiyyyyrrrrrOrrOO>O>oOoOoooooXo=o====%=:::,,32669wdfffggggggggfdfdwdwqqw8w8qqqqwdedddfdfdfffgfgfgggffgffdffdddeee0055433<<<&&%%$$@+@++XX+XX.X.X...........                        ..............XX+X+X@+@@@%$%&***<3335570e0wwwddfdffffgfgfggffgfffdfdfddwespqqq9qq8w8wwwdddffgggggggggfdd99662,,<,;:;====o=oooooooooOOOO>>>>>r>rrrryruyyyiyiiiiiiiiiiiiiiiiiiiiuiutituttuttttttttttttttttttt",
"ffdaw96,6,,:::;;====o=ooooooooOOOOO>O>>>>>rrrrtyyyyyyiiiiiiiiiiiiiiiiiiiiiitituututtttttttttttttttttttttutitiiuiiiiiiiiiiiiiiiiiyi,iyyyyyrrrrrrrrOr>O>OOOOOooooooooo===;=;:::<,222999ddfgggggggggffdddwwww8w8qqqqqsqddddddffffffgfgfgffgfffffddddeee0075431<<<&*%&$$$$+++X+XXXX.X............                       ............+.X.XXXX@X+@@$$$%%&*<<<3345708eewddfdfffffgffggfggffffffddddddssqqqqq8wqqwwwdddffgggggggggfdaw96622,,:::=:===@oo=ooooooOOOOOO>O>>>r>rryrryyyyyyiii,iiiiiiiiiiiiiiiuiititituttttttttttttttttttttt",
"ffdd9966,,,:::;;;===oooooooooooOOOO>>O>r>rrrrt,tuyuyiyiyiyiiiiiiiiiiiiiiiiuitituttuttttttttttttttttttttutuuitiiuiiiiiiiiiiiiiiiiiiiriyyyyyyrrrrr>>O>>O>OOOooooooooo@o===;;;::,,,2669wwdffgggggggggddddwwwqq8w8qqqqqdeddddfdffffffgggfggffgffdfddddee005753311<*&&%$$$+$+++XXXXXX.X............                       ..............XXX+XX@++@@$%%%&**<1133578e0ewwdddfdffffggfggfgfgffdffdddddeqqqqqqq8qqqwwwdddffgggggggggfdw9962,,,::::======ooXoooooooOOOO>>O>r>r>rrtiryyyiyiyiiiii2iiiiiiiiiiiiuiititututttttttttttttttttttt",
"ffdaw9666,,,:::;====o@ooooooooOOOO>o>>>Or>>rrttruuyyyiyi,iii2iiiiiiiiiiiiuiiitituuttttttttttttttttttttttututitiiiiiiiiiiiiiiiiiiiiyiiyyyyyrryrr>r>>>O>OOOOOoooooooooo====;;:::,,22699addfggggggggfffdddwwwqw8qqqqqwqedddddfdffffgfgfggfgffffffddddee00055531<<*&&%%$$$$+@X@XXXX.X.............                       .............XX.XXX+X+@@@$$%%&&*<<13447880eedddfdfffgfgfggfgfgfffffdddddedspqqqq8qqqwwwdddfffggggggggfddd99626,,,::=%;===o=ooooooooOOOOOO>>>>r>rrrtrtyyyyyyiiiiiiiiiiiiiiiiiiiiititututtttttttttttttttttttt",
"ffdda96622,<,:;;;%===oo=o+oooooOOOO>o>>>>rrrr,ttr,uiyyiiiiiiiiiiiiiiiiiiiiuutititttutttttttttttttttttttutuuutitiiiiiiiiiiiiiiii2iiiyyyyyyyyrtrrrOr>>>O>oOOoOooooooo@o====;;;::,,,2699wdfffggggggggfdfdwdwqq9q8qqqqqededddfdfdffffgfgfggfgffffdfdddeee0775333<<<&&%%$$@+@++XX+XXX.X............                        ..............X+XX+X@+@@@%$%&***<3135580e0ewddddffffffgfggffgffffdfdddddeqpqqq0q8w9wqwwdddffgggggggggfdaa966,,,:,:;;=====ooooooooooOOOO>O>>>>rrrrtt,uuyyyiyiiiiiiiiiiiiiiiiiiiuitititutttttttttttttttttttt",
"fffda9966,,,:::;;====o=oooooooooOOOO>>O>r>>rrrrtuyyyyyiyiiiiiiiiiiiiiiiiiiiiititututttttttttttttttttttttuutuiriuiiiiiiiiiiiiiiiiiiyiiyyyyyrrrrrrrrOrO>o>oOOOooooooooo====;;:::,,22669wddfgggggggggffdddwwwqw8q9qqqqsqddddddfffffgfgfggfgffffdffddwdee0075531<<<*&%&$$$$+++X+XXX.X.X...........                       ............X.X.XXXX@X@@@$$$%%&*<<<3355780eewdddfdffffgfggfggfgffffffdddwddsqqq9qq9w8wwwdddffggggggggfffda96662<,:::;;===o@ooooooooOOOO>o>>O>r>r>t,rruuyyiyiyiiiiiiiiiiiiiiiiiuiiititututtttttttttttttttttt",
"gffdd99966,,,:::=;===@ooooooooooOOOO>>>>>r>rrtr,tuyyyiyiyiiiiiiiiiiiiiiiiiiuiutituttuttttttttttttttttttttuutuiiiiuiiiiiiiiiiiiiiiiiyyiyiyyyyrrrrr>rOrO>o>oOoOooooooo@o====;;:::,,22999wdffgggggggggddddwwwqqw8w8qqqqdeddddfdfffffgfgfggfgffffddfddeeee7755331<<&<%%$$$+$+++XXXXX X.............                       ............X.X.XX+X@X@@@$%%%&**<<33357800ewwddffdfffgfgfgfgffffffddfdddwesqqqq8qq8wwwwwdddffggggggggfdda9922,2,:::;;====oo@ooooooooOOO>O>>>>r>rrrytr,uiyiui,iyiiiiiiiiiiiiiiiuutititttutttttttttttttttttt",
"gffdaw966,3,:::;;;===o=ooooooooOOOOOO>>O>>rrr>ttryyyyyi,iiiiiiiiiiiiiiiiiiuiitititutttttttttttttttttttttututiutiuiiiiiiiiiiiiiiiiiiyiyyyyyyrrrrr>r>>O>O>OOOOoooooooooo===;;;:*,,,2666waddfggggggggfffdddwwqw8w8q9qqwqedddddfdffffgffggfgfgfffffddddee00054531<<<&&%%$$$$+@X@XXXXX.X............                       .............X.XXXX+X@+@@$$%%&&*<1<344788eeedddddfffffgfgggfgfgffdffddddedqsqqqqq8qqqwwdddfffggggggggffda99666,,:::;=%===o=ooooooooOOOOO>O>Or>rrrtrryyyyyu,iiiiiiiiiiiiiiiiiiiiiititututtttttttttttttttttt",
"ggfdda9666,,,<:;:=;===o+ooooooooOOOOO>O>>r>rrr,ttruyyiyiyiiiiiiiiiiiiiiiiiiuiititututtttttttttttttttttttutuutiitiiiiiiiiiiiiiiiiiiiiyiyyyyyyrrrrrOr>>O>o>OOoOoooooXo=o=====;:::,,32699wdfffggggggggfdfdwwwwqq8w8wqqqwdsdddfdfdffffggfggfgffffdffdddeee0705333<<<&&%%$$@+@++XX+XXX.X............                        .............X.+XX+X@@@@@%$%&***<313557e0eewwddfdfffffgfgfgfgffffdfdfdddweqqqq9qqqqwqwwdddffgggggggggfdda992,,,,:::;=;===oo=oooooooOOOO>>>>Or>rrrttyyuyyiiyiiiiiiiiiiiiiiiiiiiuiutituttuttttttttttttttttt",
"gfffdaw9626,,:::;;====o=ooooooooOOOOO>>>>>>>rrtrtyyyyyyiiiiyi2iiiiiiiiiiiiiiitititutttttttttttttttttttttttutiutiiuiiiiiiiiiiiiiiiii,iyiyyyyrryrrrr>rOrO>OoOOOooooooooo====%;::::,22669wddfgggggggggffdddwwwqqw8qqqqqsewdddddfffffgffggfgfgfffffdddddee0075431<<<&*%&$$$$+++X+XXX.X.X...........                       .............X..XXXX+X+@@$$$%%&*<<<3345708eewddfdfffffgfgfgggffffffdfddddedsqqqqq8q9qwwwdddffgggggggggfdaw96623,:,:;;;===o+ooooooooOOOO>O>OOr>r>rrt,ruuyyyyiii,iiiiiiiiiiiiiiiuiititituttttttttttttttttttt",
"ggffdd9966,,,:,:;;;===@ooooooooooOOOO>O>>>r>rrrt,tuyyyyyi,iiiiiiiiiiiiiiiiiiuitititutttttttttttttttttttttututiuuiiiiiiiiiiiiiiiiiiiiiyyyyyyyyrrrr>rOrO>OO>oOooooooooooo====;;::,,,26699wdffgggggggggddddwwwqq8w8q8qqqdeddddfdfffffgfgfggffgfffdfdddsee005753311<*&&%$$$+$+++XXXXX..X............                       .............+.X+XX++++@@$%%%&**<<333578e0ewwddfdffffgfggfgfgfgffdfddddddqeqqqqqq8wqqwwwdddffggggggggffda9966,,,:::;;=====oo=oooooooOOO>O>>>>rr>rrttr,uiyyiyiiiii2iiiiiiiiiiiiuiititututttttttttttttttttt",
"ggffdaw96622,,:::;====o=ooooooooOOOO>o>>O>>r>rrtrutyyyyiiiiiiiiiiiiiiiiiiiiuiiitittuttttttttttttttttttttttutituiriiiiiiiiiiiiiiiiiiiyiyyyyyyrtrrrrr>>>O>>oOOOoooooooo@=o==;;;:::,,2269waddfggggggggfffdddwqw9w8qqqqqeqedddddfdfffgfgfggfggffffffddddee00055531<<*&&%%$$$$+@X@XXXX.X.............                       ..............X.XXX+X+@@@$$%%&&*<1<3447880eeddddfdfffffgfgfggfffffffddddedppqqqq8w8qwwwdddfffggggggggfddd996,6,,:::;;;===o=ooooooooOOOOO>>>Or>>rrtrtyyyyyiyiiiiiiiiiiiiiiiiiiiiititututtttttttttttttttttt",
"gggffda9966,,,:::;;====o=ooXooooooOOO>O>>>>>rrr,tt,uyyiyiyiiiiiiiiiiiiiiiiiiuutititttutttttttttttttttttttututitiiuiiiiiiiiiiiii6iiiiiyiyyyyyyrrrrrOr>>O>o>OOoOooooooooo@o==;;;:,,,,6669wdfffggggggggfdfdwdwqqw89qqqqqwdedddfdfdfffgfgfggfgfffffddfdweee0775333<<<&&%%$$@+@++XX+XXX.X............                        ..............XX+X+X@+@@@%$%&***<3335570e0wwwddffffffgfgggffgffffdfdfdddespqqq9q8w9qwwwdddffgggggggggfdaa966,3,:,:;;=;==oo=ooooooooOOOO>O>>>r>rrry,tuyyyyiyiiiiiiiiiiiiiiiiiiiuitititutttttttttttttttttt",
"gggfdda996,23,::;:=%===o=ooooooooOOOOO>>>>>>rrrrtryyyiyyyii,iiiiiiiiiiiiiiiiiiitititutttttttttttttttttttttttituiuuiiiiiiiiiiiiiiiiiiyiyiyyyyrryrrrr>rOrO>OOOOOoooooooo=====;;::::,222999ddfgggggggggffdddwwww8wq8qqqqeqddddddffffffgfggfgfgfffdffddddee0075531<<<*&%&$$$$+++X+XXX.X.X...........                       ............+.X.XXXX@X+@@$$$%%&*<<<3345708eewddfddfffgfgfgfgggfffffdfdddddesqqqqqq8wqqwwdddffgggggggggfddw9666,,,::;:=====+ooooooooOOOOOO>>>>>r>rrrtryyyyyiii,iiiiiiiiiiiiiiiiuiiititututtttttttttttttttt",
"ggggfdd9966,,,:,:;;=;==+oo=oooooooOOOO>O>>>r>rrrryruyyyiiyiiiiiiiiiiiiiiiiiiiuiututtutttttttttttttttttttttuutitiiiiuiiiiiiiiiiiiiiiii,iyyyyyyyrrrrrrOrO>OOOOOoOoooooooo=====;;::,,,2669wwdffgggggggggddddwwwqq8w9qqqqqdedwddfdffffffgfggfgfgfffdfdddeeee7755331<<&<%%$$$+$+++XXXXX.X.............                       ..............XXX+XX@++@@$%%%&**<1133578e0eewddffdffffggfgfgfgfffffdddddedqqqqqq9q8wwwwwdddffggggggggffda99622,,:::;%=====o=oXooooooOOOO>O>>>rr>rryyryyyyyiyiiiiiiiiiiiiiiiiiiuutititttutttttttttttttttt",
"ggggfdaw9666,,,::;;;====oooooooooOOOOOO>>O>>r>rryrutyyyyyiiiiiiiiiiiiiiiiiiiuiitiutittuttttttttttttttttttuttutititiiiiiiiiiiiiiiiiiiiiyyiyyyyrrrrrrOrO>>>>OOOOooooooOooo===;;;:::,,22699addfggggggggfffdddwwqqw8w8qqqeqedddddfdffffgfggfgfgfffffdfdddee00054531<<<&&%%$$$$+@X@XXXXX.X............                       .............XX.XXX+X+@@@$$%%&&*<<13447880ewdddddffffgffgggfgfffffddfddddsppqqq8w8wqqwwdddfffgggggggggddaw966,,,:::;;====ooooooooooOOOO>O>>>>>>rryrryyyyyiyiiiyiiiiiiiiiiiiiiiiiititututtttttttttttttttt",
"ggggffda996,6:,:::;;====o@oooooooooOOOO>>>>>>rrrryr,uuyyyiyiiiii2iiiiiiiiiiiiuiitittutttttttttttttttttttttuututitiuiiiiiiiiiiiiiiiiiiiyiyyyyyyrrrrrrOrOO>o>OOoOoooooXo@oo===;;;:,,,,2699wdfffggggggggfdfdwwwwq8w8w9qqqededddfdfdfffgfgfgggffgffdfddddeee0705333<<<&&%%$$@+@++XX+XX.X.X...........                        ..............X+XX+X@+@@@%$%&***<3135580e0ewdddfdffffggfgfgfgffffffdddddwepqqqq8w8w9wwwdddffgggggggggfdaa9666,,,:::;;====+oooooooooOOOO>O>>r>r>rryrruyyiyiyiiiiiiiiiiiiiiiiiiiuiutituttuttttttttttttttt",
"ggggfddaw966,,,:::;;=====oooooooooOOOO>O>>>>r>rrtrruuyyyiyiyi,iiiiiiiiiiiiiiiiitituututtttttttttttttttttttttutitiiiuiiiiiiiiiiiiiiiiiyiyyyyyyrryrrr>rrOrO>OOOOOooooooooo====;;::::,226699ddfgggggggggffdddwww9w8w8qqqqsqddddddffffffgfgggffgfffffdfdddee0075431<<<&*%&$$$$+++X+XXXX.X............                       ............X.X.XXXX@X@@@$$$%%&*<<<3355780eewwdfdffffgffgfggfgfffffdfddddedpqqq9q8w8qwwwdddffggggggggfffda966,2,:,:;;=;===oooooooooOOOOOO>>>Or>rrrrrutyyyyyiiyiii2iiiiiiiiiiiiuiititituttttttttttttttttt",
"gggggfdd99666,<,::;;;===o=oooooooooOOOO>O>>>>r>rrttr,uiyyiiiiiiiiiiiiiiiiiiiiiuitituttutttttttttttttttttttttuutitiiiiiiiiiiiiiiiiiiiii,iyyyyyyyrrrrr>OrO>OOOOOoOooooooo@o=====:::,,,2669wwdffgggggggggddddwwwqqw8qqqqqqdeddddfdffffffgfgfggffffffddddsee005753311<*&&%$$$+$+++XXXXXX.X............                       ............X.X.XX+X@X@@@$%%%&**<<3335780eeewdddfdfffgfggfggffgffdfddddddqeqqqqqq8wqwwwwdddffggggggggfdda9966<,,::::======ooooooooooOOO>O>>>>r>rrrtt,uyyiyyii,iiiiiiiiiiiiiiiiuiititututttttttttttttttt",
"ggggfffaw966,3,,:::;=;==@oooooooooOOOOOO>>O>r>r>t,ryyyyyyiyiiiiiiiiiiiiiiiiiiuiiitituutttttttttttttttttttttuttititiiuiiiiiiiiiiiii2iiiiyiyyyyyrtrrr>rrO>>>>OOOOoooooooooo====%;::*,,22699addfggggggggfffdddwqww8q9q9qqwqedddddfdffffgfgfggfgfgffdffdddee00055531<<*&&%%$$$$+@X@XXXX.X.............                       .............X.XXXX+X@+@@$$%%&&*<1<3447880eedddfdffffffgfgggfgfffffdfdddedppqqqq8qqqqwwdddfffggggggggffda996,62,:::=:====o+=oooooooOOOOO>O>>>>r>rttryuuyyyiiyiiiiiiiiiiiiiiiiiiititututtttttttttttttttt",
"gggggfdda9966,,,::;;;=====o+oooooooOOOO>O>>>>>rrrttyryyyiyiyiiiiiiiiiiiiiiiiiiuutititttuttttttttttttttttttttuutitiuiiiiiiiiiiiiiiiiiiiiiyyyyyyyrtrrrOrrOO>o>OOoOooooooo@o====;;;:,,,32699wdfffggggggggfdfdwdwqqw8w8qqqqwdedddfdfdffgfgfgfggffffffdddddeee0775333<<<&&%%$$@+@++XX+XXX.X............                        .............X.+XX+X@@@@@%$%&***<313557e0eewddddffffgfggfgffgffffdfdddddespqqq9q8w9wqwwdddffgggggggggfdda996,,,,:::;=====oooOooooooOOOO>>>>>>rrrr,tt,uyyiyiiiiiiiiiiiiiiiiiiiiuitititutttttttttttttttt",
"gggggffda996,6,,:::;;====o=oooooooooOOOOO>>>>r>rrrtryyyyyyii,iiiiiiiiiiiiiiiiiiiititututtttttttttttttttttttuttititiuiiiiiiiiiiiiiiiiiiyiyiyyyyrrrrrrrrO>>O>OOOOOooooooooo====;;::::,226899ddfgggggggggffdddwwww8w8qqqqqeqddddddfffffffgfggfgfgffdffddddee0075531<<<*&%&$$$$+++X+XXX X.X...........                       .............X..XXXX+X+@@$$$%%&*<<<3345708eewdddfdffffgffgfggfgffffdfdddddesqqqqqq8w8wwwdddffgggggggggfdaw96623,:,::=%===o=ooXoooooOOOOOOO>>>r>>rrryrutiyyyiiiiiiiiiiiiiiiiiiiuiiititututtttttttttttttt",
"ggggggfdd9966,,,<,::=;====ooooooooooOOOO>O>>>>r>rr,ttuyyyiyiiiiiiiiiiiiiiiiiiiiuiutituttutttttttttttttttttttuutituiiuiiiiiiiiiiiiiiiiiiyiyyyyyyyrrrrrOrO>>OO>oOOoooooOooo====;;;::,,,2669wwdffgggggggggddddwwwqq8w8qqqqqdeddddfdfdffgfggfggfgffffddfddeeee7755331<<&<%%$$$+$+++XXXXX X.............                       .............+.X+XX++++@@$%%%&**<<333578e0ewwddfdfffffggfgfgfffffffdddddedqqqqqq9qqwwwwwdddffggggggggffda9966,,,:::;;====oo=ooooooooOOOO>O>>>rrrrtrtr,uiyyiyiiyiiiiiiiiiiiiiiiuutititttutttttttttttttt",
"ggggggfdaw9666,,,::;;;===O+o=ooooooOOOO>O>>O>r>rrtrrytyyyyiyiiiyi2iiiiiiiiiiiiuiitititutttttttttttttttttttttttutuiriiiiiiiiiiiiiiiiii,iiyyiyyyyrryrr>r>>ro>>OOOOooooOXoo=o====;;:::,,22699addfggggggggfffdddwwwqw8qq9qqeqdedddddfffffgffggfgfgfffffddddee00054531<<<&&%%$$$$+@X@XXXXX.X............                       ..............X.XXX+X+@@@$$%%&&*<1<3447880eeddddffffffgfgfggfgffffdfdddddsspqqq8w8w8qwwdddfffggggggggfddd996,6,,::;:=:o==o=ooooooooOOOO>O>>>r>>rrrrtuyyyyiyii,iiiiiiiiiiiiiiiiiiititututtttttttttttttt",
"ggggggffda996,6:,:::;;===O=oooooooooOOOO>O>>>>r>rryrt,uyyiyiyiiiiiiiiiiiiiiiiiiuiititututtttttttttttttttttttutuutiitiiiiiiiiiiiiiiiiiiiiyyyyyyyyrrrrr>>>OroOOOOoOoooooooo@oo=;=;;:,,,,2699wdfffggggggggfdfdwdwqqqq9qqqqqwsdwdddfdfffffggfggfgffffdffdddeee0705333<<<&&%%$$@+@++XX+XX.X.X...........                        ..............XX+X+X@+@@@%$%&***<3335570e0wwddddffffgfgggfggfgffffdfddddwqsqqqq8w8wqwwwdddffgggggggggfdaa966,3,:,:;;=%==@oo=oooooooOOOO>O>>>rr>rrt,ttyyyyi,iiiiii2iiiiiiiiiiiiuiutituttuttttttttttttt",
"ggggggfddaw966,,,:::;=;==@o=ooooooooOOOOO>>>>>>rrrrryyyyyyyiii,iiiiiiiiiiiiiiiiiititituttttttttttttttttttttttuutituiuiiiiiiiiiiiiiiiiiiyiiyyyyyrrrrrr>r>>O>>OOOOOoooooooo=o===;;::::,32669wddfgggggggggffdddwww9w8w8qqqqsqddddfdfdffffgfggfgfffffffdddddee0075431<<<&*%&$$$$+++X+XXXX.X............                       ............+.X.XXXX@X+@@$$$%%&*<<<3345708eewdddfdffffgfgfggfgffffdfdfdddedpqqq9q8qqqwwwdddffgggggggggfddw9666,,,::;;;===o=ooooooooOOOOOO>O>>>>rrrttruyyyyiiiiiiiiiiiiiiiiiiiiuiititituttttttttttttttt",
"gggggggfdd99666,,:<::;====oo+ooooooooOOOO>O>>>r>rrrtrtyyyyyiyiiiiiiiiiiiiiiiiiiiuititituttttttttttttttttttttttuutiuiiuiiiiiiiiiiiiiiiiii,iyyyyyyyrrrrr>rOrOO>oOOoOoooooooo@o===;;::,,,26699wdffgggggggggddddwwww8w8w8qqqqdqddddfdffffffgfggfgfgfffdfdddsee005753311<*&&%$$$+$+++XXXXXX.X............                       ..............XXX+XX@++@@$%%%&**<1133578e0ewwddffdffffgfgfggffgffffddddddeeqqqqqq8w9wwwwdddffggggggggffda9966,,,:::;=;===ooo=oooooooOOO>O>>>r>>rr,tt,uyyyyiyiiiiiiiiiiiiiiiiiiuiititututttttttttttttt",
"ggggggfffaw966,3,,::;;;=====ooooooooOOOOOO>>O>>r>rrtryyyyyyyiiiiiiiiiiiiiiiiiiiuiiitittutttttttttttttttttttttututititiiiiiiiiiiiiiiiiiiiiyiyyyyyrrrrrrrOrO>>OOOOOoooooooo=o===;;;:::,,2269waddfggggggggfffdddwwqww8qqqqqqedwddddfdffffgfggfgggffffffddddee00055531<<*&&%%$$$$+@X@XXXX.X.............                       .............XX.XXX+X+@@@$$%%&&*<<13447880eedddddfffgffgfgfgfgffffdfddddedqpqqqq8w8wqwwdddfffggggggggfddaw96,63,:::;:====o@ooooooooOOOOO>>>>;>rrrrtryyyyyiyiyiiiiiiiiiiiiiiiiiiititututtttttttttttttt",
"gggggggfdda9966,,,:::;=;===o=oooooooooOOO>O>>>>>rrr,ttyyyyiyiyiiiiiiiiiiiiiiiiiiuutititttutttttttttttttttttttutuutitiiuiiiiiiiiiiiiiiiiiiiyyyyyyyrrrrr>>>>O>o>OOoOooooooooo====;;;:,,,22669wdfffggggggggfdfdwwwqq8w8qqqqwqsddddddffffffgfggfgffgfffdfdddeee0775333<<<&&%%$$@+@++XX+XXX.X............                        ..............X+XX+X@+@@@%$%&***<3135580e0ewwddfdfffgfggggffgfffffdfddddedqqqq9q8w8wwwwdddffgggggggggfdd9966,,,,:::=;====o=oXooooooOOOO>O>>r>>rrrrytyyyyyiii,iiiiiiiiiiiiiiiiuiitititurttttttttttttt",
"gggggggffda996,6,:,::=:===o@oooooooooOOOOO>>>>>r>rrrtryyyyyiyiiyiiiii6iiiiiiiiiiiiititituttttttttttttttttttttttutitiiuiiiiiiiiiiiiiiiiiiyiyyyyyyrryrrr>rrO>>>OOOOOoooooOoo@====;;::::,,2699wddfgggggggggffdddwwwqw8q9qqqqqdeddddffdfffgfggfgfggfffdfdfdddee0075531<<<*&%&$$$$+++X+XXX.X.X...........                       ............X.X.XXXX@X@@@$$$%%&*<<<3355780eewddfdfdfffgffgfggfgfffdfdfddddqsqqqqqq8wqqwwdddffgggggggggfdaw96622,:,:=:=%===oooooooooOOOOOO>>O>>r>rrttruuyyyiyiiiiiiiiiiiiiiiiiiiiuititututtttttttttttt",
"ggggggggfdd9966,2,::::;====o=ooXooooooOOOO>O>>>>r>rrrytyyyyyiiyiiiiiiiiiiiiiiiiiiuiututtutttttttttttttttttttttutuuitiiuiiiiiiiiiiiiiiiiiiyiyyiyyyyrrrrr>OrOO>o>oOooooooXooo=o===;;::,,,22899wdffgggggggggddddwwwqqq8w8qqqwsdeddddffffffgfggfgffgffffddddseee7755331<<&<%%$$$+$+++XXXXX X.............                       ............X.X.XX+X@X@@@$%%%&**<<33357800ewwdddffffffggfgfgfffffffdddddedqqqqqq9q8wwwwwdddffgggggggggfdw9966,,,:::;======ooooooooooOOOO>>>>>rr>r,tt,uyyiyiyiiiii2iiiiiiiiiiiiuiuitututtuttttttttttt",
"ggggggggfdaw9662,,,:::=%====oooooooooOOOOOO>>>Or>rrryrruyyyyiyii,iiiiiiiiiiiiiiiuiitiutittuttttttttttttttttttttututitiiiiiiiiiiiiiiiiiiiyiyiyyyyyrrrrrr>r>OrO>OOOOoooooooooo===;;;:::,,2666waddfggggggggfffdddwwwq9w8qqqqqeeddddfddffffgfgfgfggfffffdfdddee00054531<<<&&%%$$$$+@X@XXXXX.X............                       .............X.XXXX+X@+@@$$%%&&*<1<344788eeedddfdfffffgfgfgfgfgfffdfdddddsssqqq8w8wqqwwdddfffggggggggfddd996,6,,:::;;;==Oo@ooooooooOOOOO>O>Or>>rrtrryyyyyiyii,iiiiiiiiiiiiiiiiititiuututtttttttttttt",
"ggggggggffda9966,,,:::;;====@ooooooooooOOOO>O>>>r>rrryt,uyyiyi,iiiiiiiiiiiiiiiiiiuiitittutttttttttttttttttttttutuuutitiiiiiiiiiiiiiiii2ii,iyyyyyyyrrrrrrOr>O>o>oOoOooooooo@o====;;;:,,,,2699wdfffggggggggfdfdwdwqqw8w8qqqqwdeddddffdffffgfgggfgffffdfddddeee0705333<<<&&%%$$@+@++XX+XXX.X............                        .............X.+XX+X@@@@@%$%&***<313557e0eewwddfdfffgfgfgggfgfffffdfddddwqpqqqq8w8w9wwwdddffgggggggggfdaa996,,,<,::;=;=@=ooooooooooOOOO>>>>>r>rrryryruyyyiyiiiiiiiiiiiiiiiiiiiitittuutttttttttttttt",
"ggggggggfddaw96223:,::;;====o=ooooooooOOOOO>>>>>>rrrrtryyyyyiyiiiiiiiiiiiiiiiiiiiiitituututttttttttttttttttttttuutuiriuiiiiiiiiiiii6iiiiiiyiyyyyyrryrrrOrrO>O>OOOOOoooooooo==O==;;:::<,226699ddfgggggggggffdddwwww8w8qqqqqqqdddddfdffffgfgfgfgfgfffffdfdddee0075431<<<&*%&$$$$+++X+XXX.X.X...........                       .............X..XXXX+X+@@$$$%%&*<<<3345708eewddfdfdfffgfggfgfgffffdfdfdddedsqqq9q8w8wwwwdddffggggggggfffda96263,,::;;;===o=ooooooooOOOOOO>O>>>r>rrrtruyyyyiiiiiiiiiiiiiiiiiiiiiuiuuitututttttttttttt",
"gggggggggfdd9966,,,::::=:===oo=ooooooooOOOO>O>>>r>rrrryryyyyyiyiiiiiiiiiiiiiiiiiiiuitituttutttttttttttttttttttttuutuiiiiuiiiiiiiiiiiiiiiiiiyiyyyyyyrrrrr>>>O>>o>oOoOoooooooo=@o=;=:;:,,,2669wwdffgggggggggddddwwwqq8w8qqqqededwdddfffffffggfgfgfgffffddddsee005753311<*&&%$$$+$+++XXXXX..X............                       .............+.X+XX++++@@$%%%&**<<333578e0ewwdddfffffffgfgfgfgfffffddddddqeqqqqqq8w8wwwwdddffggggggggfdda9962,,,:::=;;===oo@ooooooooOOOO>>O>r>rrrrtt,uyyyyiyiiiiiiiiiiiiiiiiiiuiituituttutttttttttt",
"ggggggggfffaw9666,,,::;:======ooXoooooOOOOOO>>>>>r>rryryyyyyyiiyiiiiiiiiiiiiiiiiiuiiitituutttttttttttttttttttttututiutiuiiiiiiiiiiiiiiiiiiyiyiyyyyrtrrrr>>>>>O>oOOOooooooOooo====%;:::,,22699addfggggggggfffdddwwqqw8qqqqqqeeddddfddffffggfgggfgfgffdffdddee00055531<<*&&%%$$$$+@X@XXXX.X.............                       ..............X.XXX+X+@@@$$%%&&*<1<3447880eedddfdfffffgfgggfgfffffdfddddedsqqqqq8qqqwwwdddfffggggggggffdaw9666,:,:::=====o=ooooooooOOOOO>>>>Orr>rrtryyyyyiyiyiiiiiiiiiiiiiiiiiiituitututttttttttttt",
"fggggggggfdda996,6,,:::;%====oo=oooooooOOOOO>O>>>>rrrrttuyyyiyiiyiiiiiiiiiiiiiiiiiuutititttutttttttttttttttttttutuutiitiiiiiiiiiiiiiiiiiiiiyyyyiryyrrrrr>rO>O>O>oOOoOooooXo@o====;;:::,,32699wdfffggggggggfdfdwwwwqqq8qqqqqwdeddddffdfffffgfgfgffffffdddddeee0775333<<<&&%%$$@+@++XX+XXX.X............                        ..............XX+X+X@+@@@%$%&***<3335570e0wwwddfdfffgfgfgfgfgfffffdfddddespqqq9q8w9wqwwdddffgggggggggfdd9966,2,:::::====@ooooooooooOOOO>O>>rOrrrr,ttyyyyyiii,iiiiiiiiiiiiiiiiuiitittuttttttttttttt",
"gggggggggffda9966,3:,::;=;==o+=ooooooooOOOOO>>>>>r>rrrt,ryyyyyi,iiyi2iiiiiiiiiiiiiiiititututtttttttttttttttttttttutiutiiuiiiiiiiiiiiiiiiiiyiyyiryyrrrrrrr>>>>>OOOOOOooooooooo====;;;::,,22669wddfgggggggggffdddwwwqw8qq9qqqeqdddddfdfffffgfgfgggfgffdffddddee0075531<<<*&%&$$$$+++X+XXX.X.X...........                       ............+.X.XXXX@X+@@$$$%%&*<<<3345708eewddfdfdfffgfgfgggfgfffdfdfddddssqqqqqq8w8wwwdddffgggggggggfdaw9626,,,:::=%===o=ooooooooOOOO>o>>>Or>rrrtttyyyyyiyiiiiiiiiiiiiiiiiiiiitititututtttttttttt",
"fgggggggggfdd99662,,::::;=;==o=o=oooooooOOOO>O>>>>rrrrrtiryyyiyiiiiiiiiiiiiiiiiiiiiuiutituttutttttttttttttttttttututiuuiiiiiiiiiiiiiiiiiiii,iyyiyyyyrrrrr>rO>O>o>oOooooooooo======;;:::,,22999wdffgggggggggddddwwwqqq98wqqqqdedddddfdffffgfggfgfgffffddfddeeee7755331<<&<%%$$$+$+++XXXXX.X.............                       ..............XXX+XX@++@@$%%%&**<1133578e0ewwdddfffffgfggfgfgffffffddddddeqqqqq9q8wqwwwwdddffggggggggffda996,6<,,:;;;====oo@ooooooooOOO>>O>>>r>rrr,tuyyyiyiyiiiii2iiiiiiiiiiiiuititituttuttttttttt",
"fgggggggggfdaw9662,,,::;;;====oooooooooOOOOOO>>>Orr>rrttryyyyyiiyiiiiiiiiiiiiiiiiiuiititituttttttttttttttttttttttutituiriiiiiiiiiiiiiii2iiiiyiyyyyyrtrrr>rOrO>>>oOOOoooooooooo===;;;::,,,2666waddfggggggggfffdddwwq9w8w8qqqwqdedddfdfdffgfggfgfgfgfffffddddee00054531<<<&&%%$$$$+@X@XXXXX.X............                       .............XX.XXX+X+@@@$$%%&&*<<13447880eedddfdffffffgfgfggfgfffdfddddedppqqqq8w8qwwwdddfffggggggggfddd9966,,,:::;;;===o=ooooooooOOOOOO>>>r>rrrrtryyyyyyiiyiiiiiiiiiiiiiiiiiiiuuitututtttttttttt",
"ffggggggggffda9966,,<,::;=====+oooooooooOOOOO>O>>>>rrrr,tuyyyyyiii,iiiiiiiiiiiiiiiiuiititututtttttttttttttttttttututitiiuiiiiiiiiiiiiiiiiiiiiriyyyyyrrrrr>rOrO>O>oOoOooooooo@oo===;;;::,,,2699wdfffggggggggfdfdwdwww8w8w9qqqeedddddfdffffffggfggfffffdffdddeee0705333<<<&&%%$$@+@++XX+XX.X.X...........                        ..............X+XX+X@+@@@%$%&***<3135580e0ewwddfdffffgfgggffgfffffdfddddespqqqq9qqq8wwwdddffgggggggggfdaa9966,,:,:;;=;==@ooo=ooooooOOOO>O>>Or>rrryrruyyyiyuiiiiiiiiiiiiiiiiiiiuititututtttttttttt",
"fgggggggggfddaw96,6,,::;:;====o=ooooooooOOOOO>>>>>r>rrrtryyyyyiyiiiiiiiiiiiiiiiiiiiiititituttttttttttttttttttttttttituiuuiiiiiiiiiiiiiiiiiiyiiyyyyyrryrrrr>rO>O>OOOOOooooooooo@===;;:::<,226699ddfgggggggggffdddwww8w8w8qqqqqdedddddffffffggfgfgfgfffffdddddee0075431<<<&*%&$$$$+++X+XXXX.X............                       ............X.X.XXXX@X@@@$$$%%&*<<<3355780eewddfdfdffgfgfgfggfgfffdfdfddwdssqqqqq8q9wqwwdddffgggggggggfdda966,2,,:::;;===o=oooooooooOOO>o>>Or>r>rrrrutyyyyiiii,iiiiiiiiiiiiiiiuiiititututttttttttt",
"fffggggggggfdd9966,2,:,:;;%====oo=oXoooooOOOO>O>>>>r>ttryruyyyyiyiiiii2iiiiiiiiiiiiiuitititutttttttttttttttttttttuutitiiiiuiiiiiiiiiiiiiiiiiyiyyyyyyyrrrrrrOrO>O>OOOoOoooooooo=o===;;::,,,2669wwdffgggggggggddddwwwqqqq8qqqqwsdddddfdffffgffgggfgfgfffdfdddsee005753311<*&&%$$$+$+++XXXXXX.X............                       ............X.X.XX+X@X@@@$%%%&**<<33357800ewwdddffffffggfgfgfffffffddddddeqqqqq0q8wqwwwwdddffggggggggffda9966<,,:::;=;===o=ooXooooooOOO>O>>>>rrrrrtt,uuyyy2uiiiiiiiiiiiiiiiiiiuutititttuttttttttt",
"dfggggggggfffaw9662,,,::;;;===o@ooooooooOOOOOO>>>>r>t>,rrutyyyyiiyiiiiiiiiiiiiiiiiiuiiitittuttttttttttttttttttttuttutititiiiiiiiiiiiiiiiiiyiiyiyyyyyrrrrrrOr>>O>OOOOOoooooooooo===;;;:::,,22699addfggggggggfffdddwwqwq8wqqqqqpweddddfdfffffgfgfgfgffffffddddee00055531<<*&&%%$$$$+@X@XXXX.X.............                       .............X.XXXX+X@+@@$$%%&&*<1<344788eeedddfdffffgffgggfggffffdfddddedpsqq9q9w8wqwwdddfffgggggggggddw996,6,,::;:;=====oooooooooOOOOO>O>Or>>rrrtruuyyyiyiiiiiiiiiiiiiiiiiiiiiititututttttttttt",
"fffggggggggfdda9966,,,:::;;====o=oooooooooOOOO>>O>>>rrryrt,uuyiyyiyiiiiiiiiiiiiiiiiiuutititttutttttttttttttttttttuututitiuiiiiiiiiiiiiiii2iyiyyiyyyyyrrrrrrOrOrO>oOOoOoooooXo@o=====;:::,,22699wdfffggggggggfdfdwdwqq9q8qqqqqedddddfdfdffffggfgggffgfffdfdddeee0775333<<<&&%%$$@+@++XX+XXX.X............                        .............X.+XX+X@@@@@%$%&***<313557e0eewwddfdffffggfgfgffgffffdfddddqspqqqqq8w8wwwwdddffgggggggggfddw9662<,,::;:====o@oooooooooOOOO>>>>>rr>rr,tt,uuyyiyiiiiiiiiiiiiiiiiiiiuiutituttutttttttt",
"dfgggggggggffda996223,:::;====o=oooooooooOOOOO>O>>>r>rrrryytyyyyi,iiiiiiiiiiiiiiiiiiiiititituttttttttttttttttttttttutitiiiuiiiiiiiiiiiiiiiiiiyiyyyyyrryrrr>rOrO>o>oOOOooooooooo====%;;::,,,2669wddfgggggggggffdddwwwqw8q9qqqqpssdddddfffffgffgfgfggfffdfdfdddee0075531<<<*&%&$$$$+++X+XXX X.X...........                       .............X..XXXX+X+@@$$$%%&*<<<3345708eewddfdffffgffgfggfgffffdfdfddddssqqqq8q9qqwwwdddffggggggggfffda96622,:,::=%====o=oooooooOOOO>O>O>>>>rrrttruyyyyyiiiyii2iiiiiiiiiiiiuiitititutttttttttt",
"fdfgggggggggfdd9966,,,:,::;%===o+oooooooooOOOO>>>>>>r>rryrt,uiyyiiiiyiiiiiiiiiiiiiiiiuiututtuttttttttttttttttttttttuutitiiiiiiiiiiiiiiiiiiii,iyyiyyyyrrrrrr>rO>O>o>oOoOooooooo=o===;;;::,,326699wdffgggggggggddddwwwqqw8w8qqqwsdsdddfdfffffgfggfgffgffffddddsse00555331<<&<%%$$$+$+++XXXXX X.............                       .............+.X+XX++++@@$%%%&**<<333578e0ewwdddfdfffgfggfggfgfffffddddddeqqqqqqq8w9qwwwdddffggggggggfdda99622,,:::;;====ooo=oooooooOOO>O>O>r>>rrr,tryyyiyyiiiyiiiiiiiiiiiiiiiuiititututtttttttt",
"dffgggggggggfdaw9666,,,::;;=;====ooooooooOOOOOO>>O>r>rrrrryuyyyyiyiyiiiiiiiiiiiiiiiiuiitiutittutttttttttttttttttttuttititiiuiiiiiiiiiiiiiiiiiiyiyyyyyryrrrr>>>>>O>OOOOoooooooooo====;;:::,,2269waddfggggggggfffdddwwqw8w8qqqqqsqdddddfdfffgfggfgfggfffffdfdddee00054531<<<&&%%$$$$+@X@XXXXX.X............                       ..............X.XXX+X+@@@$$%%&&*<1<3447880eedddfdffffffgfggfgfffffdfddddedppqqqq8w8wwwwdddfffggggggggffda9966,,,:::;;;==@o=ooooooooOOOOO>>>>>>rrrrtryyyyyyiii,iiiiiiiiiiiiiiiiiitititututttttttt",
"dfffggggggggffda9966,,<:::;;====oooooooooooOOOO>O>>>r>rtrttruyyiyiii,iiiiiiiiiiiiiiiiuiitittuttttttttttttttttttttttuutitiuiiiiiiiiiiiiiiiiiiiyiyyyyyyyrrrrrr>>O>>o>OOoOooooooo@o===;;;;::,,,2669wdfffggggggggfdfdwdwqqw8w8qqqqedsdddfdfdfffgfggfgfgffffdfddddsee0705333<<<&&%%$$@+@++XX+XX.X.X...........                        ..............XX+X+X@+@@@%$%&***<3335570e0wwddddffffgfggfggfgfffffdfddddqspqqq8qqq8wwwwdddffgggggggggfdda9666,,:,::=;====o+ooooooooOOOO>O>>>>>rrrryyyyyyyyiiiiiiiiiiiiiiiiiiiiuititittttutttttt",
"ddfgggggggggfddaw96,6,,,::;;====o@ooooooooOOOO>O>>>>>r>rrt,utyyyyiyiiiiiiiiiiiiiiiiiiiitituututtttttttttttttttttttuttititiuiiiiiiiiiiiiiiiiiiiiyiyyyyrryrrr>r>>>O>OOOOOooooooooo====;;::,:,22699wddfgggggggggffdddwwww8w8q9qqqpssdddddfffffffgfgggfgfffffdfddeee0075431<<<&*%&$$$$+++X+XXXX.X............                       ............+.X.XXXX@X+@@$$$%%&*<<<3345708eewdddfdffffgffggfgfgfffdfddddddspqqqqq8qqqwwwdddffgggggggggfdaw966,2,,::;;=;==o=ooooooooOOOOOO>>>>rr>rryrryyyyyiiyiiiiiiiiiiiiiiiiiuiiitittututtttttt",
"dfdfgggggggggfdd9966,,,:::;;;====oo+oooooooOOOO>O>>>>rrrrtrt,uiyyiiyiiiiiiiiiiiiiiiiiiuitituttuttttttttttttttttttttuutituiiuiiiiiiiiiiiiiiiii,yiyyyyyyrrrrrrOrO>>Oo>oOOoooooooooo====;;::,,,22699wdffgggggggggddddwwwqq8w8qqqqwsdsdddfdfffffgfgfgfgfgffffdddddee005553311<*&&%$$$+$+++XXXXXX.X............                       ..............XXX+XX@++@@$%%%&**<1133578e0ewwddfdfffffggfgggffffffdfdddddesqqqq9q8w9qwwwdddffggggggggffda9966<,,::::=====oo=oooooooOOOOO>o>rOrrrrrttyyyyiyyiiiiii2iiiiiiiiiiiiuutitittutttttttt",
"ddffggggggggfffaw96623,,::::=====oooooooooOOOOOO>>>>>r>rrtryyyyyyi,iiiiiiiiiiiiiiiiiiuiiitituutttttttttttttttttttttttutuiriiiiiiiiiiiiiiiiiiiiiyyyyyyyryrrr>r>>ro>>oOOOooooooOo@=o==;;;:::,,2669waddfggggggggfffdddwwwqw8qqqqqqsqdddddfdfffgfgfgfgggffffdffdddee00055431<<*&&%%$$$$+@X@XXXX.X.............                       .............XX.XXX+X+@@@$$%%&&*<<13447880eeddddffffffgfgfgfgfgffffdfdddssppqqqq9w8wwwwdddfffgggggggggddaw96,6,,,::=:====+=ooooooooOOOOO>>>Or>>rrrtryyyyyyiii,iiiiiiiiiiiiiiiiiiititututttttttt",
"ddfffggggggggfdda9966,,,::;;%=====oooooooooOOOOO>O>>>>rrr,ttryyyiyiyiiiii2iiiiiiiiiiiiuutititttutttttttttttttttttttutuutiitiiiiiiiiiiiiiiiiiiiiiyyyyyyyrrrrr>rOOrOO>oOoOoooooXooo@o==;;;::,,32669wdfffggggggggfdfdwdwqq9q8q9qqqedsdddfdfdfffgfgggfgffgfffdddddeee0705333<<<&&%%$$@+@++XX+XXX.X............                        ..............X+XX+X@+@@@%$%&***<3135580e0ewddddffffgfgggfgfgffffdfdddddespqqqqq8w8wwwwdddffgggggggggfdaa966,3,:::;;=;==o=oooooooooOOOOO>>>>rr>rr,ttyyyyiyiyiiiiiiiiiiiiiiiiiiuiutituttutttttt",
"dddfgggggggggffda996,6,,:::;;===Oo@oooooooooOOO>O>>>>r>rrrtryyyyyyiiiiiiiiiiiiiiiiiiiiiiititututttttttttttttttttttttuutituiuiiiiiiiiiiii6iiiiiyiyiyyyyrryrrrrOrrO>>OOOOOoooooooo=o===;;:::,,222999ddfgggggggggffdddwwwqw8q9wqqqpssdddddffffffgfgfgfggfffdffddwdee0055531<<<*&%&$$$$+++X+XXX.X.X...........                       ............X.X.XXXX@X@@@$$$%%&*<<<3355780eewdddfdffffgfgfgfgffffffdfdddddssqqqq8q8w8wwwdddffggggggggfffda9666,,,:::;;====oo=ooooooOOOOO>O>>>>>rrrtttyyyyyyiiiiiiiiiiiiiiiiiiiuiitituututtttttt",
"ddfdfgggggggggfdd9966,,,:,::=;==@oo=oooooooOOOOO>O>>>>r>rrryyyyyyyiyi,iiiiiiiiiiiiiiiiiuiutituttuttttttttttttttttttttuutiuiiuiiiiiiiiiiiiiiiiiiyi,iyyryyrrrr>rO>>OO>oOOoOoooooooo======:;::,,2669wwdffgggggggggddddwwwqqw8w8qqqwsdedddfdffffffgfgfgffgfffddfddeee00555331<<&<%%$$$+$+++XXXXX X.............                       ............X.X.XX+X@X@@@$%%%&**<<33357800ewwddffdffffgfgggfgffffffddddddeqqqqqq9qqqwwwwdddffggggggggfddaw966,,,,::=:====+oooXooooooOOOO>O>>r>>rrr,ttyyyyiyiiiiiiiiiiiiiiiiiiiuiitituttutttttt",
"dddffgggggggggfdaw96623,,::;;;;====oooooooooOOOOO>>>>r>rrrttryyyyyyiiiiiiiiiiiiiiiiiiiuiitititutttttttttttttttttttttututititiiiiiiiiiiiiiiiiiyiiyiriryyrtrrrr>>rO>>>oOOOoooooooo@o====%;::,,,22699addfggggggggfffdddwwqw8w8qqqqqswdddddfdffffgfgggfggffffffddddee00054531<<<&&%%$$$$+@X@XXXXX.X............                       .............X.XXXX+X@+@@$$%%&&*<1<344788eeedddddffffgfgfgfgfgffffdfddddedppqqq8w8qqqwwdddfffggggggggffda996,6,,::;:=====o=ooooooooOOOOO>>O>>>rrrrtryyyyiyiiyiiiiiiiiiiiiiiiiiiititutuuttttttt",
"ddddffggggggggffda9962,,,:::;=====ooo@ooooooOOOOO>O>>>r>rr,ttyyyyiyyiiiiiiiiiiiiiiiiiiiuiititututtttttttttttttttttttutuutitiiuiiiiiiiiiiiiii2iyiiyiriyyyrrrrr>>>>O>O>OOoOoooooooo=o===;;;::,,32699wdfffggggggggfdfdwwwwqq8w8qqqqeqddddfdfdffgfgfgfgfgffffdffdddeee0705333<<<&&%%$$@+@++XX+XXX.X............                        .............X.+XX+X@@@@@%$%&***<313557e0eewwddfdfffffggfggffgffffdfddddespqqqq8w9qwwwwdddffgggggggggfdda966,,,<,:;:=====ooo=ooooooOOOO>>>>>r>rrrryyyyyyyyiiyiiiiiiiiiiiiiiiiuiititututtttttt",
"wddfffggggggggfddaw9626,,:::;;;===o@oooooooooOOO>O>>>>>rrrrtryuyyyyiiyiiiiiiiiiiiiiiiiiiitititutttttttttttttttttttttttutitiiuiiiiiiiiiiiiiiiiiiiiyyiryyrryrrrr>rO>O>OOOOOooooooooo====;;:::,,22669wddfgggggggggffdddwwwqqw8qqqqqqdedddddfffffffgfgggfgfffffdddddee0075431<<<&*%&$$$$+++X+XXX.X.X...........                       .............X..XXXX+X+@@$$$%%&*<<<3345708eewddfdfdfffggfggfggffffdfdfddwdssqqqqq8qw8wwwdddffgggggggggfdaw96663,,:::=%===o@oooooooooOOO>O>O>>>r>rryrryyyyyiyii,iiiiiiiiiiiiiiiiiuititututttttt",
"ddddffgggggggggfdd9966,3,:::;;=====ooooooooooOOOO>O>>>r>rrryrt,uuyiyiiyiiiiiiiiiiiiiiiiiuitititutttttttttttttttttttttutuuitiiuiiiiiiiiiiiiiiiiiiyiyyiryyyrrrr>rOrO>O>oOOOoooooooo@o====;;;::,,26699wdffgggggggggddddwwwqq8w8qqqqesddwddfdfdffgfggfgfgfgfffdfdddseee77753311<*&&%$$$+$+++XXXXX..X............                       .............+.X+XX++++@@$%%%&**<<333578e0ewwdddfffffffgfggfgfgffffddddddeeqqqq9q8wqwwwwdddffggggggggffda99622,,:::;;====o=oooooooooOOO>O>O>r>r>rrttyyyyiyiuiiiii2iiiiiiiiiiiiuiuititututtttt",
"ddddffggggggggfffaw9626,,,:::;;===o=ooooooooOOOOOO>>>>>r>rrrryyyyyyyiii,iiiiiiiiiiiiiiiuiiitittuttttttttttttttttttttttututitiiiiiiiiiiiiiiiiiiiyiyiyyyyyrrrrrr>rOrO>OOOOOoooooooooo===;;;::,,,2269waddfggggggggfffdddwqw9w8qqqqqqsewdddddfffffgffgfgfgffffffddddee00055531<<*&&%%$$$$+@X@XXXX.X.............                       ..............X.XXX+X+@@@$$%%&&*<1<3447880eedddfdfffffgfggfgfgffffdfddddedqsqqqq8w8qwwwdddfffgggggggggddw9966,,:,::;;;====oooooooooOOOOO>>>rOr>rrttryyyyyii,iiiiiiiiiiiiiiiiiiititiuututttttt",
"wdddfffggggggggfdda99622,<,:;;=;===o@ooooooooOOOOO>O>>>>rrrytrtyyyyiuyiiiii2iiiiiiiiiiiiuutititttutttttttttttttttttttutuuutitiiiiiiiiiiiiiiii2iiiiyiyyyyyrrrrr>>rO>O>OOOoOooooooo@o====;;:::,,,2669wdfffggggggggfdfdwdwqqw89qqqqqwdeddddfdfffffggfgggffgfffdfdddeee0775333<<<&&%%$$@+@++XX+XXX.X............                        ..............XX+X+X@+@@@%$%&***<3335570e0wwwddfdfffgfgfggffgfffffdfddddweqqqqqq8wq8wwwdddffgggggggggfddw9666,,:::;;====o@oooooooooOOOO>O>>r>rrrr,ttyyyyyyiiiiiiiiiiiiiiiiiiiiitittuuruttttt",
"dwdddfgggggggggffda99622,,::::;=====oooooooooOOOO>O>>>>r>rrrrtyyyyii,iiiiiiiiiiiiiiiiiiiiiitititutttttttttttttttttttttuutuiriuiiiiiiiiiiiiiiiiiiyiyyyyyyrryrrr>rOrO>>OOOOOoooooOooo====;;;::<,22699wddfgggggggggffdddwwww8wq8qqqqeqddddfdfdffffgfgfgfggfffdfdfdddee0075531<<<*&%&$$$$+++X+XXX.X.X...........                       ............+.X.XXXX@X+@@$$$%%&*<<<3345708eewddfdfffffgfggfggfgfffdfdfdddedpqqqq8qq9wwwwdddffggggggggfffda966,2,,:::=:====oooooooooOOOOOO>>O>>r>rrtrtyyyyyiiiy,iiiiiiiiiiiiiiiiuiuuiutuuttttt",
"wdddfdfgggggggggfdd99662,,:::;:====o=oooooooooOOOO>O>>>>rrrrt,tuyyyyiyiiiiiiiiiiiiiiiiiiiuiututtuttttttttttttttttttttttuutuiiiiuiiiiiiiiiiiiiiiiiyiyiyyryyrrrrr>rO>O>o>oOOoooooXooo=o==;=:::,,,22899wdffgggggggggddddwwwqq8w9qqqqqdeddddfdffffffgggfgffgffffddddeee00555331<<&<%%$$$+$+++XXXXX.X.............                       ..............XXX+XX@++@@$%%%&**<1133578e0ewwdddfdffffgfggfgfffffffddddddqeqqqq08w8wqwwwdddffggggggggfdda9966<,,,:::=====o@oooooooooOOOO>>>>>rr>rrt,tuyyiyyiiiiiiiiiiiiiiiiiiiuiitutututtttt",
"wwdddffgggggggggfdaw9662,,,:::=%====o+oooooooOOOOOO>>>>>r>rrryruyyyyiiii,iiiiiiiiiiiiiiiuiitiutittutttttttttttttttttttututiutiuiiiiiiiiiiiiiiiii,iiyyyyyyrtrrr>rOrO>O>oOOOoooooooo=o====%;:::,,2666waddfggggggggfffdddwwqqw8w8qqqeqedddddfdffffgfgfgfggfffffdfdddee00054531<<<&&%%$$$$+@X@XXXXX.X............                       .............XX.XXX+X+@@@$$%%&&*<<13447880eedddfdffffgfggfgfgfgfffdfddddedsqqq9qq8w8wwwdddfffggggggggffda996,6,,:::=%;====oo+ooooooOOOOO>O>>>>>rrryryyyyyyiiiiiiiiiiiiiiiiiiiiiituituutttttt",
"wdwdddffggggggggffda99622,<,::;;====oo=oooooooOOOOO>O>>>>rrryrt,uyyyyiyiiiiiiiiiiiiiiiiiiuiitittutttttttttttttttttttttutuutiitiiiiiiiiiiiiiiiiiiiiyiyyyyyyrryrr>rOrO>o>OOoOoooooooo@o===;;;::,,,2699wdfffggggggggfdfdwwwwq8w8w9qqqedsdddddffffffgfgggfgffffdfddddeee0705333<<<&&%%$$@+@++XX+XX.X.X...........                        ..............X+XX+X@+@@@%$%&***<3135580e0ewddddffffffgfgggfgfffffdfddddespqqq9qqqqqwwwdddffgggggggggfdda996,,,:,:;;=;==o=oooooooooOOOO>>>>r>rrrrryruyyyyyiiiiiiiiiiiiiiiiiiiuiittittuttttt",
"wwdddfffggggggggfddaw966,,,:::;=;==@o=ooooooooOOOO>O>>>>r>rrrryyyyyyiyiiiiiiiiiiiiiiiiiiiiitituututtttttttttttttttttttttutiutiiuiiiiiiiiiiiiiiiiiyiyiyyyyrrrrr>r>rOrO>OOOOOooooooooo====;;:::,,226699ddfgggggggggffdddwww9w8w8qqqqsswddddffdfffgfgfgfgfgfffffdfdddee0075431<<<&*%&$$$$+++X+XXXX.X............                       ............X.X.XXXX@X@@@$$$%%&*<<<3355780eewdddfdffffgfggfgfgffffdfdfddwdssqqqqq8q9wwwwdddffgggggggggfdaw96263,,::;;;====oooooooooOOOOOO>O>Orr>rryrryyyyyiiyi,iiiiiiiiiiiiiiiiitiituuuttutt",
"qwddddffgggggggggfdd99666,,,:::;=====oo=oXoooooOOOO>O>>>>r>rrtrryyyyyiyiiiiiiiiiiiiiiiiiiiuitituttuttttttttttttttttttttututiuuiiiiiiiiiiiiiiiiiiii,iyiryyyyrrrrr>OrO>O>oOOOoooooooooo====;;:::,32669wwdffgggggggggddddwwwqqw8qq9qqwsdeddddffffffgfgfgfgfgffffddddseee77553311<*&&%$$$+$+++XXXXXX.X............                       ............X.X.XX+X@X@@@$%%%&**<<33357800ewwddffdfffgfgfgfgfgfffffddddddeqqqqqqq8w8wwwwdddffggggggggffda99622,,<::;=====@oooooooooOOOOO>>>>>>r>rrtiryyyiyyiiiiii2iiiiiiiiiiiiuituituuttttt",
"wwwwdfdfggggggggfffaw966,2,:::;;;===o@ooooooooOOOOOO>>>>r>rrrtryyyyyyiiyi,iiiiiiiiiiiiiiiuiiitituuttttttttttttttttttttttutituiriiiiiiiiiiiiiiiiiiiiriyiyyyrrrrr>rrO>>>OOOOOooooooOo@====;;;::,,,22699addfggggggggfffdddwqww8q9qqqqqweddddfddffffgfggggfgffffdffdddee00055431<<*&&%%$$$$+@X@XXXX.X.............                       .............X.XXXX+X@+@@$$%%&&*<1<344788eeedddddfffffgfgggfgfffffdfddddedppqqqq8w8wqwwdddfffggggggggfddd9966,,,:::;:====o=ooooooooOOOOO>>O>>r>rrrtrtyyyyyiiyiiiiiiiiiiiiiiiiiitiiutututttt",
"qwddddfffggggggggfdda9966<,,:::;=;===o=o=oooooooOOOO>O>>>r>rr,ttyyyyiyiiiiiii2iiiiiiiiiiiiuutititttutttttttttttttttttttututitiiuiiiiiiiiiiiiiiiiiiiiriryyyyrrrrrOrrOO>>oOOoOoooooXooo====;;;::,,22699wdfffggggggggfdfdwdwqqw8w8qqqqqdeddddffdffffgfgfggfgffffdddddeee0705333<<<&&%%$$@+@++XX+XXX.X............                        .............X.+XX+X@@@@@%$%&***<313557e0eewwddfdfffffgfgfgfgfffffdfddddqspqqq0q8w9qwwwdddffgggggggggfdaa9666,,:,:;;%===ooo@oooooooOOOOO>>>>>rrrrtt,uyyyiyiiiyiiiiiiiiiiiiiiiiituituuruttt",
"wwwwdddfgggggggggffda996,6,,,::;;=====oooooooooOOOO>O>>>>>rrrrtryyyyyiyiyiiiiiiiiiiiiiiiiiiiititututttttttttttttttttttttttituiuuiiiiiiiiiiii6iiiiiyiiriyyyrryrrrrrO>>>o>oOOOooooooooo====;;:::,,,2669wddfgggggggggffdddwwww8w8qqqqqsqdddddfdfffffggfgfgffgffdffddddee0055531<<<*&%&$$$$+++X+XXX X.X...........                       .............X..XXXX+X+@@$$$%%&*<<<3345708eewddfdfffffgfgfgggfgfffdfdfddddssqqq9qq8qwwwwdddffgggggggggfddw966,2,,::;;;=====ooooooooOOOOO>O>O>r>>rt,ruryyyyiyiiiiiiiiiiiiiiiiiiiuiitituutttt",
"qwwdddfdfgggggggggfdd9966,,,::::;====o@oooooooooOOOO>O>>>r>rrrrytyyyyyi,iiiiiiiiiiiiiiiiiiiuiutituttutttttttttttttttttttuutitiiiiuiiiiiiiiiiiiiiiiiyiiriyyyyrrrrrOrO>O>O>oOOoooooooo@o=====:;::,222999wdffgggggggggddddwwwqq8w8qqqqedqdddddfffffgffgggfgfffffddfddeee00555331<<&<%%$$$+$+++XXXXX X.............                       .............+.X+XX++++@@$%%%&**<<333578e0ewwddfdffffgfggfgfgffffffddddddepqqqq9qq8wqwwwdddffggggggggffda9966<,,:::;;====o=ooooooooOOOOO>>>>>rr>rrtriyyyyyiyi,iiiiiiiiiiiiiiiiuuiutitutttt",
"qwwwdddffgggggggggfdaw9666,,,:::=%====oooooooooOOOOOO>>>>>r>rryrruyyyyiiiiiiiiiiiiiiiiiiiiuiititituttttttttttttttttttttuttutititiiiiiiiiiiiiiiiiiyiiyyiyyyyrtrrr>r>>>O>OOOOOoooooooooo====%;::,,,2666waddfggggggggfffdddwwwqw8q9qqqqqdwdddfddfffffgfgfggfgfffffddddee00054531<<<&&%%$$$$+@X@XXXXX.X............                       ..............X.XXX+X+@@@$$%%&&*<1<3447880eeddddfdfffffgfgfggfgfffdfddddssppqqqqq8w8wwwdddfffggggggggfddaw9626,,:::;;===o@oooooooooOOOOO>O>Or>>rrrryyyyyii,iiiiiiiiiiiiiiiiiiiiiuuitutttut",
"qqwwdddfffggggggggffda996,6:,,:;:=;====ooooooooooOOOO>O>>>rrrrrtt,uyyyyiyiiyiiiiiiiiiiiiiiiuiititututtttttttttttttttttttuututitiuiiiiiiiiiiiiiii2iyiiyyyyyyyrrrrr>>rOrO>oOOoOooooooo@o====;;:::,,,2699wdfffggggggggfdfdwdwqqqq9qqqqweedddddffdffffggfgfgfffffdffdddeee0705333<<<&&%%$$@+@++XX+XX.X.X...........                        ..............XX+X+X@+@@@%$%&***<3335570e0wwwddffffffgfgggffgfffffdfddddespqqq0qq8wqwwwdddffgggggggggfdd9966,2,,:::=:===o=oo+ooooooOOOO>>>>>r>rrryrryyyyyiyiiiiiiiiiiiiiiiiiiuiittituuttt",
"qwwwwdddfgggggggggfddaw966,,,:::;;====o+=oooooooOOOO>O>>>>>>rrttryyyyyiyiiiiiiiiiiiiiiiiiiiiitititutttttttttttttttttttttttutitiiiuiiiiiiiiiiiiiiiiiiyiyyyyyrryrrrrrOrO>O>oOOOoooooooo=====;;;:::,226699ddfgggggggggffdddwww9w8w8qqqqqdwddddfdffffgffgfggfgfffffdddddee0075431<<<&*%&$$$$+++X+XXXX.X............                       ............+.X.XXXX@X+@@$$$%%&*<<<3345708eewddfddfffgfgfgfggfgfffdfdfddddspqqq9q8w9qwwwdddffgggggggggfdaw9626,,:,:;:=====o=oooooooOOOO>O>O>>>rrrrrryyyyyyiiiiiyi2iiiiiiiiiiiiiitiituurutt",
"qqwwdddfdfgggggggggfdd99666,<:,;;;;===ooooXooooooOOOO>O>>>r>rrr,ttyyyyyiyii,iiiiiiiiiiiiiiiiuititituttttttttttttttttttttttuutitiiiiiiiiiiiiiiiiiiiiiiyiyyyyyyrrrrr>rO>>OO>oOOooooooooo=o===;:::,,,2669wwdffgggggggggddddwwww8w8w8qqqqqdwddddfdffffgfggfggfgfffdfdddseee77753311<*&&%$$$+$+++XXXXXX.X............                       ..............XXX+XX@++@@$%%%&**<1133578e0eewddffdffffggfgfgfffffffddddddesqqqqqq8w9wwwwdddffgggggggggfdw99623,,:::;%====+ooooooooooOOO>O>O>>>r>trtruyyyyyiyiiiiiiiiiiiiiiiiiiuituituuttu",
"9qwwwdddffggggggggfffaw966,3,,::::======ooooooooOOOOOO>>>>>r>rrryryyyyyiiyiiiiiiiiiiiiiiiiiuiiitittutttttttttttttttttttttuttititiiuiiiiiiiiiiiiiiiiiyiyiyyyyrrrrr>rO>>O>>OoOOoooooooooo===;;;:::,,22699addfggggggggfffdddwwqww8qqqqqqdeddddfdffffgfggfggfgffffffddddee00055531<<*&&%%$$$$+@X@XXXX.X.............                       .............XX.XXX+X+@@@$$%%&&*<<13447880ewdddddffffgffgggfggffffdfddddssppqqqq8w8qqwwdddfffggggggggfddd99662,,:::;;;===ooooooooooOOOOO>>>>>r>rrrrtyyyyyiyii,iiiiiiiiiiiiiiiiitiiuuuttut",
"qwqwwwddfffggggggggfdda9966,,,::;;%====o=oooooooooOOOO>O>>r>rrrtryruyyiyiiiiiii2iiiiiiiiiiiiuutititttuttttttttttttttttttttuutitiuiiiiiiiiiiiiiiii2iyiyyyyyyyyrrrrr>rOrOO>o>ooOoooooXo@o=====;:::,,32699wdfffggggggggfdfdwwwqq8w8qqqqqqdedddddfdfffgfggfggffgfffdfdddeee0775333<<<&&%%$$@+@++XX+XXX.X............                        ..............X+XX+X@+@@@%$%&***<3135580e0ewdddfdffffggfgfgffgffffdfddddespqqq9qqqqwqwwdddffgggggggggfdaa9662,,:,:;;=;===ooo@ooooooOOOO>O>>>>rrrrt,tyyyyyiyiiiiiiiiiiiiiiiiiiiituutuuttt",
"q8wwwddddfgggggggggffda996,6,,:::;;===o=o+oooooooOOOO>O>>>Or>rrrttyyyyyyyiyiiiiiiiiiiiiiiiiiiiititituttttttttttttttttttttuttititiuiiiiiiiiiiiiiiiiiiiyiyyyyyrryrrrr>rO>>o>oOOOooooooooo====%;:::,,22669wddfgggggggggffdddwwwqw8q9qqqqsqdddddfdffffffgfgfgfgfffdfdfdddee0075531<<<*&%&$$$$+++X+XXX.X.X...........                       ............X.X.XXXX@X@@@$$$%%&*<<<3355780eewwdfdffffgffgfggfgffffdfdfddddssqqqqq8q9qwwwdddffggggggggfffdaw626,,,::;:====o@oooooooooOOOOO>>>>>r>rrttryyyyyiiiiiiiiiiiiiiiiiiiiiuiiuuuutut",
"qqqwwwddfdfgggggggggfdd9966,,,:,::=;==@ooo=oooooooOOOO>O>>>>r>rr,tryyyiyiyiiiiiiiiiiiiiiiiiiiuiututtutttttttttttttttttttttuutituiiuiiiiiiiiiiiiiiiii,iyiyyyyyyrrrrr>>>O>>o>oOOoooooooooo===;;;:::,,26699wdffgggggggggddddwwwqqq8w8qqqwsedddddfffffgfggfgfgfgffffddddeee00555331<<&<%%$$$+$+++XXXXX X.............                       ............X.X.XX+X@X@@@$%%%&**<<3335780eeewdddfdfffgfggfggfgfffffddddddeqqqqqqq8wqwwwwdddffggggggggfdda9962,3,:::;%====o=ooooooooOOOOO>o>>r>r>r,ttyyyyyyiyiiiiiiiiiiiiiiiiiiuutiuuuttu",
"qqqwwwdddffgggggggggfdaw9666,,,::;;;=====ooooooooOOOOOO>>>>r>rrtrryyyyyyyiii,iiiiiiiiiiiiiiiuiitiutittutttttttttttttttttttttutuiriiiiiiiiiiiiiiiiiiiiiyyiyyyyrrrrr>>rO>>O>OOOOoooooooo@=O===;;;:,,,2269waddfggggggggfffdddwwwq9w8qqqqqedwdddfddffffgffgggfgfffffdfdddee00054531<<<&&%%$$$$+@X@XXXXX.X............                       .............X.XXXX+X@+@@$$%%&&*<1<3447880eedddfdffffffgfggfgfffffdfddddedppqqqq8w8wqwwdddfffggggggggffda99626,,:::;;;==o=ooooooooooOOOO>>>rOr>rrrtryyyyyiyiy,iiiiiiiiiiiiiiiiiiiuuuttut",
"9qqwwwwdddffggggggggffda99623,,:::;=;===o=oooooooooOOOO>O>>>r>rryrtyuyyyiuyiiiiiiiiiiiiiiiiiiuiitittutttttttttttttttttttttutuutiitiiiiiiiiiiiiiiiiiiiyiyyyyyyyrrrrr>>rO>>o>oOoOooooooooo@o=;=;:::,,,6669wdfffggggggggfdfdwdwqqw8w8qqqqwedddddffdffffggfgfgfgfffdfddddeee0705333<<<&&%%$$@+@++XX+XXX.X............                        .............X.+XX+X@@@@@%$%&***<313557e0eewddddffffgfggfggfgfffffdfddddespqqq8q8w8wqwwdddffgggggggggfdda9662,,,::;;=;==o@oooooooooOOOOO>>Or>rrrrrytyyyyyiiiiiiii2iiiiiiiiiiiiuiuuuuutu",
"w8wqwwdddfffggggggggfddaw9622,,:::;;===o==XoooooooOOOO>O>>>>>rrrrryytyyii,iiiiiiiiiiiiiiiiiiiiitituututttttttttttttttttttttuutituiuiiiiiiiiiiiiiiiiiiiyiyyyyyrryrrrrrOrOO>OOOOOoooooooo=====;=:::<,222999ddfgggggggggffdddwwww8w8qqqqqqdeddddfdfffffgfgfggffgffffdfdddee0075431<<<&*%&$$$$+++X+XXX.X.X...........                       .............X..XXXX+X+@@$$$%%&*<<<3345708eewdddfdffffgffggfgfgfffdfdfddwdssqqqqqq8qqwwwdddffgggggggggfdaw96622,:,::;;====oooooooooOOOOO>O>>>>r>rrttruyyyyiyiiiiiiiiiiiiiiiiiiuiuuuuutut",
"qqqwqwwdddffgggggggggfdd99662,,<:::;====ooo=oooooooOOOO>O>>>r>rrrtrt,uyyyiyiiiyiiiiiiiiiiiiiiiuitituttutttttttttttttttttttttuutiuiiuiiiiiiiiiiiiiiiii,iyyiyyyyyrrrrr>rOrO>o>oOOooooooooo=o==;;;::,,,2669wwdffgggggggggddddwwwqq8w8qqqqqqddwdddfdfffgfgfgfggffffffddddseee77553311<*&&%$$$+$+++XXXXX..X............                       .............+.X+XX++++@@$%%%&**<<333578e0ewwddfdfffffggfgggfffffffddddddeqqqqq9qq9wqwwwdddffggggggggffda9962,,,:::==;===o@ooooooooOOOOO>O>>r>r>r,tt,uyiyyiyiiiiiiiiiiiiiiiiiiuiitiuutu",
"8qqqwwwddfdfggggggggfffaw9662,,,:::;=%====ooooooooOOOOOO>>>>>r>rrrtyyyyyyiiiiiii2iiiiiiiiiiiiuiiitituutttttttttttttttttttttututititiiiiiiiiiiiiiiiiiiiiyiyyyyyrrrrr>r>>O>O>OoOOooooooOooo====;;:::,,22699addfggggggggfffdddwwqqw8qqqqqqdewdddfdfffffgfggggfgffffdffdddee00055431<<*&&%%$$$$+@X@XXXX.X.............                       ..............X.XXX+X+@@@$$%%&&*<1<3447880eeddddffffffgfgfgfggffffdfddddsdspqq0qw8w8wwwdddfffggggggggfddd99626,,::;::=====o=oooooooOOOOO>>>>Or>rrtrryyyyyyiiy,iiiiiiiiiiiiiiiiiitiuutut",
"q8qwqwwwddfffggggggggfdda9966,,,::;;;====o=oooooooooOOOO>O>>>>rrrt,ttyyyyyiiyiiiiiiiiiiiiiiiiiuutititttutttttttttttttttttttutuutitiiuiiiiiiiiiiiiiiiiiiyyyyyyyyrrrrrOr>rOO>o>ooOoooooXo@o====;;:::,,,2699wdfffggggggggfdfdwwwwqqq8qqqqqededddddfdffffgfgfggfgffffdddddeee0705333<<<&&%%$$@+@++XX+XXX.X............                        ..............XX+X+X@+@@@%$%&***<3335570e0wwddddffffgfgggfgffgffffddfddwespqqqq8w8wqwwwdddffgggggggggfdaa966,3,:,:=:=====ooooooooooOOOO>O>>>>rrrryrtyyyyiyiiiiiiiiiiiiiiiiiiiuiituuutu",
"9qq9wwwddddfgggggggggffda996,6,,:::;;===o=o+oooooooOOOO>O>>>>r>rrrrryyyyyiyii,iiiiiiiiiiiiiiiiiiititututtttttttttttttttttttttutitiiuiiiiiiiiiiiiiiiiiiyiyyiyyyrryrrrr>rO>>O>oOOOooooooooo===;=:;::,,22669wddfgggggggggffdddwwwqw8qq9qqqsqdddddfdfffffggfgfgffgffdffddddee0055531<<<*&%&$$$$+++X+XXX.X.X...........                       ............+.X.XXXX@X+@@$$$%%&*<<<3345708eewdddfdffffgfgfggfgffffdffdddddspqqq9q8w9qwwwdddffgggggggggfddw9666,,,:::=%;==o@ooooooooOOOO>o>>>>rr>rrrttyyyyyiyiiyiiiiiiiiiiiiiiiiiuiuutut",
"q8ww8wwwddfdfgggggggggfdd9966,,,:,::;;==@o=oooooooooOOOO>O>>>>rr>tttriyyyyiyiiiiiiiiiiiiiiiiiiiuiutituttutttttttttttttttttttutuuitiiuiiiiiiiiiiiiiiiiii,iyyyyyyyrrrr>rOrO>OO>oOOooooooooo====;=::::,,22999wdffgggggggggddddwwwqqq98wqqqqdedddddfffffgffgggfgfffffddfddeee00555331<<&<%%$$$+$+++XXXXX.X.............                       ..............XXX+XX@++@@$%%%&**<1133578e0ewwddffdffffgfgfggfgffffdfdddddeeqqqqqq8w9wwwwdddffggggggggffda996,2,,<::;=====oo=o+ooooooOOO>>o>>>>rrrrt,tyyyyyiiiiiii2iiiiiiiiiiiiuitiuutu",
"8qq8wwwwdddffgggggggggfdaw96663,,::;;=;===oooooooooOOOOOO>>>>>r>tr,ryyyyyyiiyiiiiiiiiiiiiiiiiiuiititituttttttttttttttttttttttututitiiiiiiiiiiiiii6iiiiiiiyyiryyrrrrrr>rO>O>>oOOOoooooooo=oO===%;::,,,2666waddfggggggggfffdddwwq9w8w8qqqwqeddddfddfffffgfgfggfgfffffddddee00054531<<<&&%%$$$$+@X@XXXXX.X............                       .............XX.XXX+X+@@@$$%%&&*<<13447880eedddddfffgffgfggfgffffffdddddwdqpqqqq8w8qqwwdddfffgggggggggddaw9666,,:::;;====o=ooooooooOOOOOO>>>>r>rrrrryyyyyiiyi,iiiiiiiiiiiiiiiiitiuuuut",
"q9qqqqwwdddfffggggggggffda9962,,,:::;;=====o=ooooooooOOOO>O>>>>rrrtrtryyyiyiiiiiiiiiiiiiiiiiiiiuiititututtttttttttttttttttttutuuutitiiiiiiiiiiiiiiiiiiiiriyyiryyrrrrr>>rO>OO>oOoOoooooooo@oo=;=;;::,,32699wdfffggggggggfdfdwdwww8w8w9qqqwdeddddffdffffggfgfgfffffdffdddeee0705333<<<&&%%$$@+@++XX+XX.X.X ..........                        ..............X+XX+X@+@@@%$%&***<3135580e0ewwddfdfffgfggfggfgffffdfdddddedqqqq9qqqqwqwwdddffgggggggggfdaa966,,,,:::=:o==@ooooooooooOOOO>O>>>>r>ttttyyyyyyiiiiiiiiiiiiiiiiiiiiiiuuuutu",
"qqq8qwwwwdddfgggggggggfddaw9626,,:::;;====o=OXooooooOOOO>O>>>>r>rrrttyyyyyyiyiyiiiiiiiiiiiiiiiiiititituttttttttttttttttttttttuutuiriuiiiiiiiiiiiiiiiiiyiiiyiryyrryrrr>rOrO>>OOOOOoooooOoo=o===;;:::,,226699ddfgggggggggffdddwww8w8w8qqqqsqdddddfdffffgffgfggfgfffffdddddee0075431<<<&*%&$$$$+++X+XXXX.X............                       ............X.X.XXXX@X@@@$$$%%&*<<<3355780eewddfdfdfffgffggfgfgffffffdddwdesqqqqq8q9qwwwdddffggggggggfffda96623,:,:;:=%===oooooooooOOOO>o>>O>r>r>r,rryyyyyyiyiiiiiiiiiiiiiiiiiiuiuuuuu",
"q8qw9qwwdddfdfgggggggggfdd9966,,,:<::=;====ooooooooooOOOO>O>>>>r>rr,ttyyyyiyiii,iiiiiiiiiiiiiiiiuititituttttttttttttttttttttttuutuiiiiuiiiiiiiiiiiiii2iyiyiyiyyyyrrrrrrrO>O>O>oOOoooooXooo@o===;;;::,,2669wwdffgggggggggddddwwwqqq8w8qqqqdedwdddfdffffgfggfggfgfffdfdddseee77753311<*&&%$$$+$+++XXXXXX.X............                       ............X.X.XX+X@X@@@$%%%&**<<33357800ewwdddffffffggfgggffffffddfdddedqqqqqqq8wqwwwwdddffggggggggfdda9966,,,:::;=====o@oooooooooOOO>>O>>>>rrrrtyriyyiyiiiyiiiiiiiiiiiiiiiiuiuuutu",
"9qq8wqwwwdddffggggggggfffaw96263,,::;;;===o@ooooooooOOOOOO>>>>r>rrtrtryyyyyi,iiiii2iiiiiiiiiiiiuiiitittutttttttttttttttttttttututiutiuiiiiiiiiiiiiiiiiiiyiyyyyyyrtrrrrrO>>ro>oOOOoooooooo=o===;;;::,,,22699addfggggggggfffdddwwwqqqqq9qqqeeddddfdffffgfggfggfgffffffddddee00055531<<*&&%%$$$$+@X@XXXX..X............                       .............X.XXXX+X@+@@$$%%&&*<1<344788eeedddfdfffffgfgfgfgfgffdffdddddsppqqqq8w8wqwwdddfffggggggggffda996,6,,:::;;;====o=oooooooOOOOOO>>>>r>rrttryyyyyiyi,iiiiiiiiiiiiiiiiiiiuuuuu",
"q9qq8wwwwwddfffggggggggfdda996,2,,:::;;====oo=ooooooooOOOO>O>>>r>rrt,tuyyyiyiyiiiiiiiiiiiiiiiiiiuutititttutttttttttttttttttttutuutiitiiiiiiiiiiiiiiiiiiiiyiyyyyyyrrrrrOr>OOro>oOoOooooooooo====;;:::,,32699wdfffggggggggfdfdwdwqq9q8qqqqwqdedddddfdfffgfggfggffgfffdfdddeee0775333<<<&&%%$$@+@++XX+XXX..X...........                        .............X.+XX+X@@@@@%$%&***<313557e0eewwddfdfffgfgggfgfgffffdfdfdddwepqqq8q8w8wqwwdddffgggggggggfdda966,,,:,:;;=====ooooooooooOOOO>O>>>>r>rr,ttyyyyyiyiiiiiiiiiiiiiiiiiiiuiuuut",
"qqq8w8wwwddddfgggggggggffda99662,,:::;;==@===OXooooooOOOO>O>>>>>r>rrryyyyyyyiiyiiiiiiiiiiiiiiiiiiiititituttttttttttttttttttttttutiutiiuiiiiiiiiiiiiiiiiiiiyiyyyyrryrr>rrOr>O>OOOOOoooooooo@====;;;:::,22669wddfgggggggggffdddwwwqw8q9qqqqeqdddddfdffffffgfgfgfgfffdfdfdddee0075531<<<*&%&$$$$+++X+XXX.XX............                       .............X..XXXX+X+@@$$$%%&*<<<3345708eewddfdfffffgfgfgfgffffffdfddddedsqqqqqq8qqwwwdddffgggggggggfdaw96663,,:::;;===o@oooooooooOOO>o>>O>r>rrrtrtyyyyyiiiiiiiiiiiiiiiiiiiiuiuuuuu",
"q09q8wqwwwddfdfgggggggggfdd99662,<,:::;;===oooooooooooOOOO>O>>>>rrrrtrryyyyiyiiiiiiiiiiiiiiiiiiiiuiututtutttttttttttttttttttttututiuuiiiiiiiiiiiiiiiiiiiiyiyyyyyyyrrrr>r>O>>O>OOOoOoooooooo=o==;=:::,,,26699wdffgggggggggddddwwwqqw8w8qqqededddddfffffgfggfgfgfgffffddddeee00555331<<&<%%$$$+$+++XXXXX..X ...........                       .............+.X+XX++++@@$%%%&**<<333578e0ewwdddfdffffgfgggfgffffffddddddqeqqqq9qq9wqwwwdddffggggggggffda9962,,,:::;;====oo=oXooooooOOO>O>>>>r>rrrt,tyyyyyiyi,iii2iiiiiiiiiiiiuiuuuu",
"q9w8wqqwwwdddffgggggggggfdaw966,2,,::;;=;====o=ooooooOOOOOO>>>>>r>rrtryyyyyyiii,iiiiiiiiiiiiiiiiuiitiutittuttttttttttttttttttttutituiriiiiiiiiiiiiiii2iiyiyyiyyyyrrrrrrrOr>O>OOOOOooooooOooo====%;:::,,2266waddfggggggggfffdddwwwq8w8wqqqqqdwdddfddffffgffgggfgfffffdfdddee00054531<<<&&%%$$$$+@X@XXXX.X.X...........                       ..............X.XXX+X+@@@$$%%&&*<1<3447880eedddfdffffgfgfgfgfgffffddfdddedppqq0qw8w8wwwdddfffggggggggfddd99626,,<:;:=%===o=ooooooooOOOOO>O>Or>r>rryryyyyyiyiiiiiiiiiiiiiiiiiiiiuuiuu",
"qq8q8w9wwwwdddffggggggggffda9966,,,::;:;====o=oOoooooooOOO>O>O>r>rrr,ttyyyyyyiyiiiii2iiiiiiiiiiiiuiitittutttttttttttttttttttttututitiiuiiiiiiiiiiiiiiiiii,iyyyyyyyrrrrrOrO>>O>OOOoOoooooXo@o====;;;:,,,,5699wdfffggggggggfdfdwdwqwq8w8qqqweqdddddffdffffggfgfgfgfffdfddddeee0705333<<<&&%%$$@+@++XXX+XX.X............                        ..............XX+X+X@+@@@%$%&***<3335570e0wwddddffffffggfgfgfgfffffdddddespqqqq8w8wqwwwdddffgggggggggfdaa966,2,:,:;;=;==@ooooooooooOOOO>>>>>>rrrrrytyyyyyiyiiiiiiiiiiiiiiiiiiiiuutu",
"qqqqq8wqwwdddfffggggggggfddaw96,6,,:::;;===o@oOXooooooOOOOO>>>>>>r>rrtryyyyyiyiiiiiiiiiiiiiiiiiiiiitituututttttttttttttttttttttttituiuuiiiiiiiiiiiiiiiiiiiiyyyyyyrryrrr>r>rO>OOoOOOooooooooo====;;::::,226699ddfgggggggggffdddwwwq9w8qqqqqqdeddddfdfffffgfgfggffgffffdfdddee0075431<<<&&&%$$$$+@X@XXXX.X.X ..........                       ............+.X.XXXX@X+@@$$$%%&*<<<3345708eewdddfdffffggfgggfgfffffdfdddddesqqq9q8w9qwwwdddffgggggggggfddw9626,,,:::;;===o=oooooooooOOO>O>O>Or>rrrtrryyyyyiiyiiiiiiiiiiiiiiiiiiuuiuu",
"qq08w8wwqwwdddffgggggggggfdd9966,,,:,:;;;===o=oooooooooOOOO>O>>>>rrrrryryyyyyiyiiiiiiiiiiiiiiiiiiiuitituttuttttttttttttttttttttuutitiiiiuiiiiiiiiiiiiiiiiiyiiyyyyyrryrrr>>O>>>O>oOoOooooooo=o====;;::,,,2669wwdffgggggggggddddwwwqq8w8qqqqqeddwdddfdfffgfgfgfggffffffddddseee7755331<<<&&%$$$+$++X@XXXX X.X ..........                       ..............XXX+XX@++@@$%%%&**<1133578e0ewwddfdffffffgfgfgffgffdfdddddedqqqqqqq8ww8wwwdddffggggggggffda99623,,:::;=;===o@oooooooooOOO>O>>>>r>rrrttuyyyyyiiyiiiiiiiiiiiiiiiiiiuuiu",
"qq9w8w8qwwwdddffggggggggfffaw9666,,,::;;=;===oooooooooOOOOOO>>>>>r>rryryyyyyyiiyi,iiiiiiiiiiiiiiiuiiitituuttttttttttttttttttttuttutititiiiiiiiiiiiiiiiiiyiiyyyyyyyrrrrr>r>>ro>OOOOOoooooooooo===;;;::<,,22699addfggggggggfffdddwwwqw8q9qqqqdewdddfdfffffgfggggfgffffdffdddee00055431<<*&&%&$@$$+@+XXXXXX X............                       .............XX.XXX+X+@@@$$%%&&*<<13447880eeddddffffffgfgfggfgfffffdfddddsppqqqq8qq8wwwdddfffgggggggggddw99662,,::;:;=====oooooooooOOOOO>>>>>>r>rtt,ryyyiyi,iiiiiiiiiiiiiiiiiiuuiuu",
"qqq8qqqwqwwdddfffggggggggfdda9966<,,:::;;====@ooooooooooOOOO>O>>>>rrrrrtyyyyiyiiiiiiiiiiiiiiiiiiiiuutititttutttttttttttttttttttuututitiuiiiiiiiiiiiiiii2iyiiyyyyyyyrrrrrOr>Oro>OOOOOooooooo@o=====;:::,,22699wdfffggggggggfdfdwwwqqqw8w8qqqededddddfdffffgfgfggfgffffdddddeee0705333<<<&&&$%$@++++X@XXXXX X ..........                        ..............X+XX+X@+@@@%$%&***<3135580e0ewddddffffgfgggfgfgffffdfdddddwepqqq0q8wqqwwwdddffgggggggggfddw9662,,,::;:====o=oooooooooOOOO>O>>>r>rrrttiryyyyiiiiyiiiiiiiiiiiiiiiiuuiu",
"qqqqq8qqqwwwdddfgggggggggffda996,6,,:::;;====o=ooooooooOOOOO>>>>>r>rrrttuyyyyiyi,iiiiiiiiiiiiiiiiiiiititututtttttttttttttttttttttutitiiiuiiiiiiiiiiiiiiiiiiiyiyyyyrryrrrrrOrO>OOOOOoooooooooo====%;;::,,,2669wddfgggggggggffdddwww9w88qqqqqsqdddddfdfffffggfgfgffgffdffddddee00555311<<&&%&$$$$++++XXXXX XX...........                       ............X.X.XXXX@X@@@$$$%%&*<<<3355780eewdddfdffffgfgfgggffffffdfddddedsqqq9qqq9qwwwdddffggggggggfffda96622,:,::=%====o+ooooooooOOOOO>>>>>>r>t,rryyyyyiyiiiii2iiiiiiiiiiiiuiiuu",
"qqq9qqqqwqwdddfdfgggggggggfdd9966,,,<,;:=====oo=ooooooooOOOO>O>>>>r>rrr,tyyyyyiyiiiiiiiiiiiiiiiiiiiuiutituttuttttttttttttttttttttuutitiiiiiiiiiiiiiiiiiiiiiyi,yiyyyyrrrrrOrO>>>O>oOOoooooXooo=o===;;::,,326699wdffgggggggggddddwwwqqqw8q9qqqdedddddfffffgffgggfgfffffddfddeee005553111<<&&%$$$+$+++XXXXXX X ...........                       ............X.X.XX+X@X@@@$%%%&**<<33357800ewwddffdffffgfgfgfgffffffddddddqeqqqq9q8wqqwwwdddffggggggggfdda9962,,,:::;;====oo=oooooooOOOOO>o>>>r>rrrytruyyiyiyi,iiiiiiiiiiiiiiiiuiuu",
"qqqqq8qqqwwwdddffgggggggggfdaw9666,,,::;:%=====oXooooooOOOOOO>>>>r>rrrttryyyyyiiiiiii2iiiiiiiiiiiiuiitititutttttttttttttttttttttuttititiiuiiiiiiiiiiiiiiiiiiriiryyyrtrrr>r>>ro>OOOOOoooooooo=o===;;;:::,,2269waddfggggggggfffdddwwwqq8qqqqqwqeddddfddfffffgfgfggfgfffffddddee00054531<<&*&%%$@$$+@X@XXXX.X.X...........                       .............X.XXXX+X@+@@$$%%&&*<1<344788eeedddddffffgfgfgfgfgffffdfddddedsqqqqq8w8qwwwdddfffggggggggffda99626,,:::;;;==@o=oooooooooOOOO>>>>r;rrrtrryuuyyyyiiiiiiiiiiiiiiiiiiuiiuu",
"qqqq9q8w9qwwwdddffggggggggffda996,6,:,:;;;;===o=ooooooooOOOOO>O>>>r>rr,ttyyyyyyiyiiiiiiiiiiiiiiiiiiuiititututttttttttttttttttttttuutitiuiiiiiiiiiiiiiiii2iiyiyyiryyyrrrrr>>>OrO>OOOoOoooooooo@o===;;;::,,,2669wdfffggggggggfdfdwdwqw9q8qqqqqwdeddddffdffffggfgfgfffffdffdddeee07053311<<&&%%%$@++++X+XXXX.X............                        .............X.+XX+X@@@@@%$%&***<313557e0eewwddfdffffgfggggffgffffdfddddespqqqqq8w9wqwwdddffgggggggggfdda966,3,:,:;;=;==o=o=oooooooOOOOO>>>>r>rrrttt,uuyyiyiiiiiiiiiiiiiiiiiiuiiu",
"qqqqq8w8wwwwdddfffggggggggfddaw966,,,:::;;===o@oooooooooOOOOO>>>>>>rrrrtryyyyyiyii,iiiiiiiiiiiiiiiiiitititutttttttttttttttttttttuttititiuiiiiiiiiiiiiiiiiiiiiyiyyyyrryrrr>r>rO>OOOOOOooooooooo====;;::,:,22699wddfgggggggggffdddwwwqw8q9qqqqsqdddddfdffffgffgfggfgfffffdddddee0075351<<<&&&%$$@$@@X@XXXX.X.X ..........                       .............X..XXXX+X+@@$$$%%&*<<<3345708eewddfdfdfffgfgfgfggffffdfdfddwdssqq9w8q9w8wwwdddffgggggggggfdaw9666,,,::;;;====ooOXoooooOOOOO>O>O>>r>rrt,ruuyyiyyiiiiiiiiiiiiiiiiiuiiuu",
"pqqqqq8w8wwwwdddffgggggggggfdd99666<,:,:;;;===o=o=oooooooOOOO>O>>>r>rrtryruyyyyiiyiiiiiiiiiiiiiiiiiiuitititutttttttttttttttttttttuutituiiuiiiiiiiiiiiiiiiiiiiyyiryyyrrrrrr>>OrO>o>oOOoooooooooo====;;::,,,22699wdffgggggggggddddwwwqqw8w8qqqesedddddfdffffgfggfggfgfffdfdddsee00555331<<<&&%$%$@+++X@XXXX X.X ..........                       .............+.X+XX++++@@$%%%&**<<333578e0ewwdddffffffgfgfgfgffffffddddddeqsqq8qq8wqwwwwdddffggggggggffda9962,3,:::=:====+oooooooooOOOOO>>>>>rr>rrttr,uuyiiyiiyiiiiiiiiiiiiiiiuiu",
"sqqqq8q9w8wwwddfdfggggggggfffaw966,2,,::;;=====oooooooooOOOOOO>>>>>r>r>trutyyyyiyiiiiiiiiiiiiiiiiiiuiiitittutttttttttttttttttttttttutuiriiiiiiiiiiiiiiiiiiiyiyiriyyyyrrrrrr>>>O>OOOOOooooooOo@====;;;:::,,2669waddfggggggggfffdddwwqw8w8qqqqqededddfdffffgfggfggfgffffffddddee00055333<<*&&%%$$+$@+@XXXXXX X............                       ..............X.XXX+X+@@@$$%%&&*<1<3447880eedddfdffffgfgggfgfgffffdfddddsdpqqqqq8w8qqwwdddfffgggggggggddw99626,:,:::=====o=ooooooooOOOOO>O>Or>>rrttryyyyiuyii,iiiiiiiiiiiiiiiuiuu",
"pqqqqqq8wwqwwdddfffggggggggfdda9966,,,:::;;====+oo=ooooooOOOOO>O>>>rrrr,tt,uyyiyiiyiiiiiiiiiiiiiiiiiuutititttutttttttttttttttttttutuutiitiiiiiiiiiiiiiiiiiiiyiyiryyyyrrrrrOrrO>>>oOOoOoooooXooo====;;;::,,32669wdfffggggggggfdfdwdww8w8w8qqqqwsddddddfdfffgfggfggffgfffdfdddsee0505431<<<&&%%$$$+++X@XXXXXX X ..........                        ..............XX+X+X@+@@@%$%&***<3335570e0wwwddfdffffgfgfggffgffffddfddwespqqqqq8w9wwwwdddffgggggggggfddw966,2,:::::=====ooo=ooooooOOOO>>>>>r>rrr,ttyyyy2iyiiiiii2iiiiiiiiiiiiiu",
"sqqqqq8w8qqwwwdddfgggggggggffda996,6,,:::;=:===o=ooooooooOOOOO>>>>>>>rrtrryyyyyyiyiiii2iiiiiiiiiiiiiiiitititutttttttttttttttttttttuutituiuiiiiiiiiiiiiiiiiiii,iriyyyrryrr>rrOrO>o>oOOOooooooooo===;=;:::,,222999ddfgggggggggffdddwwqwq98qqqqwqewddddfdffffffgfgfgfgfffdfdfddeee00553311<*<&&%$$@$++@XXXXXX XX...........                       ............+.X.XXXX@X+@@$$$%%&*<<<3345708eewddfdfffffgffggfggffffdffdddddssqqqq9w8wqqwwdddffggggggggfffda9666,,,:::=%===o@ooooooooOOOO>O>O>>>r>rrtrtuyyyyyiiiiiiiiiiiiiiiiiiiiuu",
"qsqqq9q8wqwqwdddfdfgggggggggfdd9966,,,:,::======o=oXooooooOOOO>O>>>r>rrryrtyyyyiyiiyiiiiiiiiiiiiiiiiiuiututtuttttttttttttttttttttttuutiuiiuiiiiiiiiiiiiiiiiiiiyiriryyyrrrrrOrOrO>o>oOooooooooo@o===;=:;::,,2669wwdffgggggggggddddwwwqqw89q9qqededddddfffffgfggfgfgfgffffdddddeee0055311<<&&&%$%$+$++X@XXXXX X ...........                       ..............XXX+XX@++@@$%%%&**<1133578e0ewwdddfdffffggfggfgfffffdfdddddeqsqq08qq8wwwwwdddffggggggggfdda99622,,,:;;;====o=oooooooooOOO>O>O>r>rrrry,tuyyiyyiiiiiiiii6iiiiiiiiiiu",
"dqqqqqqq8qqwwwdddffgggggggggfdaw9666,,,::=:=%==o=ooooooooOOOOOO>>>>>r>rrrryyyyyyi,iiiiiiiiiiiiiiiiiiuiitiutittutttttttttttttttttttututititiiiiiiiiiiiiiii2iiyiiyiyyyyrrrrrrr>>O>O>OOOOoooooooooo====%;::,,,22699addfggggggggfffdddwwqw8w8wqqqqqdwdddfddffffgffgggfgffffdffdddee00555531<<<*&%%$@$@@+@X+XXX.X.X...........                       .............XX.XXX+X+@@@$$%%&&*<<13447880eedddfdffffgffggfgfgfffffdddddedsqqqqqq8wqqwwdddfffggggggggffda9966,,,:::;;=====oooooooooOOOOO>>>>>>r>rrrtruuyyyiyii,iiiiiiiiiiiiiiiui",
"qdqqqqq9qqqwwwwddfffggggggggffda9966<,,:::;;===@oo=oooooooOOOOO>O>>>>rrrttryyyyiyiyiiiiiiiiiiiiiiiiiiuiitittutttttttttttttttttttttutuutitiiuiiiiiiiiiiiiiiiiiyiyyiryyyryrr>Or>rO>o>OOoOooooooo@oo===;;;::,,,2699wdfffggggggggfdfdwdwqqw8w8qqqweqdddddffdffffggfgfgfgffffdddddeee00553311<*&%&%$$$++++XXXXXX.X............                        ..............X+XX+X@+@@@%$%&***<3135580e0ewddddfffffgfgfggfgffffdfdfdddespqqq9qq8wqwwwdddffgggggggggfdda9666<,:,::=:===o+oooXoooooOOOO>O>>>>rrrrttt,uuyiyiiiiiiiiiiiiiiiiiiiiu",
"dqeqqq8qq8qwwwddddfgggggggggfddaw96,6,,:::;=;===o=ooooooooOOOOO>>>>>r>rrrtryyyyyyiiiiiiiiiiiiiiiiiiiiiitituututtttttttttttttttttttttutitiiuiiiiiiiiiiiiiiiii,iyiyyyyyyrrrrrr>rO>O>OoOOOooooooooo====;=:::<,22669wddfgggggggggffdddwwww8w8qqqqqqdwddddfdfffffgfgfgggfffffdfddwdee0055433<<<&<%%%$@$@@X@XXXX.X.X ..........                       ............X.X.XXXX@X@@@$$$%%&*<<<3355780eewdddfdfffgfgfggfgfffffffddddwdssqqqqq8qq9wwwdddffgggggggggfdaw966,2,,::;:======ooooooooOOOOOO>>>>>r>rrt,ruuyyyyiyiiiiiiiiiiiiiiiiiii",
"dqqqqqq8qwqqwwdwdfdfgggggggggfdd9966,2<,:::;=====ooooooooooOOOO>O>>>>rrrr,ttyyuyyiyiiiyiiiiiiiiiiiiiiiuitituttuttttttttttttttttttttutuuitiiuiiiiiiiiiiiiiiiiiiiyiyyyryrryrrrrO>>>OO>oOoOooooooo@o===;;;::,,,26699wdffgggggggggddddwwwqq8w8q9qqqedwddddfdfffgfgfgfgfgfffffdfddeee000553111<&&&%$$$++@+X@XXXX X X ..........                       ............X.X.XX+X@X@@@$%%%&**<<33357800ewwddffdfffgfgfggfgffffdffdddddeqqqqqqq8wqwwwwdddffggggggggffda9966<,,:::;%====o=oooooooooOOOO>o>>r>rrrrtyr,uuyiyiiiiiiiiiiiiiiiiiiiu",
"edsqqqqqq8qqwwwdddffggggggggfffaw9666,,,::;;;===o@ooooooooOOOOOO>>O>r>>rr>iruyyyyyiiyiii2iiiiiiiiiiiiuiiitituuttttttttttttttttttttttututitiiiiiiiiiiiiiiiiiiiiyiyyyyyyyrrrrrOr>>O>>oOOOoooooooooo====;;:::,,2269waddfggggggggfffdddwwwqw8qqqqqqdeddddfdfffffgfgfgfgfgfffdfddddee00755431<<<&&%%$$$$+@+X@XXXX.X............                       .............X.XXXX+X@+@@$$%%&&*<1<344788eeedddddfffffgfggfgfgfffffdddddedppqqqq8w8wqwwdddfffggggggggfddd99626,,,::;;;==o=o+oooooooOOOOO>>>>>r>rrryryyyyiyiiyiiiiiiiiiiiiiiiiui",
"dqsqqqqq9q9qqwwdddfffggggggggfdda9966,,<:::;=;===oo@oooooooOOOOO>>>>>rrrrtrt,uyyiyiyiiiiiiiiiiiiiiiiiiuutititttutttttttttttttttttttutuuutitiiiiiiiiiiiiiiiiiiiiyiyyyyyyrrrrrrOrO>OO>OOoOoooooXo=o====;;:::,,32669wdfffggggggggfdfdwdwqq9q8qqqqqqdedddddfdffffgfgggfgffffffddddeee0055431<<<&&%%%@@@+++XXXXXX.XX ..........                        .............X.+XX+X@@@@@%$%&***<313557e0eewwddfdfffffgfggfgfgfffdfdfdddespqqqq9qq8wwwwdddffgggggggggfdaa966,,,:::;;=;==oooooooooooOOOOO>>O>>r>rrryruyyyyy2iiiiiiiiiiiiiiiiiiu",
"edsqqqq8w8wqwwwwdddfgggggggggffda996,6,,,::;;====o=ooooooooOOOOO>>>Or>>rrrryyyyyyiyii,iiiiiiiiiiiiiiiiiiititututttttttttttttttttttttuutuiriuiiiiiiiiiiiiiiiiiiyiyyiyyyrryrrr>r>ro>>OOOOOooooooooo====;;&::,,226999ddfgggggggggffdddwwwqw8q9qqqqsqdddddfdffffgfgfgfgfgffffdfddddee00754311<*<&&%$$$$+@X@XXXX X.............                       .............X..XXXX+X+@@$$$%%&*<<<3345708eewddfdfffffgfggfgfgffffffddddwdssqqq9q8qq9wwwdddffgggggggggfddw96622,,:::;;==@==ooooooooOOOOO>O>>>r>rrryrtuuuyyiyiiiyi2iiiiiiiiiiiii",
"dwqpqqqq8w8wqwwdddfdfgggggggggfdd9966,,,::::;=====ooooooooooOOOO>O>>>r>rrrtrryyyyyi,iiiiiiiiiiiiiiiiiiiuiutituttuttttttttttttttttttttuutuiiiiuiiiiiiiiiiiiiiiii,iyyyyyyyrrrrr>>OrO>OOOOoOooooooo@o====;;:::,,2269wwdffgggggggggddddwwwqqw8w8qqqwsedddddfffffffggfggffgfffddfddeeee7755331<<&&&%$$$+$++X@XXXX XX ...........                       .............+.X+XX++++@@$%%%&**<<333578e0ewwddfdfffffgfggfgffgffdffdddddeqqqqqqq8wqwwwwdddffggggggggffda9966,,,:::;;====oo@ooooooooOOOO>O>>>r>rrrry,tuuiyiyiiiiiiiiiiiiiiiiiu",
"dedsqqq9q8w8wwwwdddffgggggggggfdaw96263,,:::=%;==O+ooooooooOOOOOO>>>>>r>rt,ryyyyyyiiiiiiiiiiiiiiiiiiiiuiitititutttttttttttttttttttttututiutiuiiiiiiiiiiiiiiiiiiiriyiryyrtrrr>r>rO>o>OOOOoooooooooo===;;;::,,,26699addfggggggggfffdddwwwq8w8qqqqqedwdddfddffffggfggfggffffffddddee00054531<<<&&%%$$$++@+XXXXXXX X ..........                       ..............X.XXX+X+@@@$$%%&&*<1<3447880eeddddfdfffgfggfggfgfffffdddddedppqqqq8w8qqwwdddfffggggggggfddaw96,6,,,::;;====o=ooooooooOOOOO>>Or>>r>rryrtu,yyyyiiiiiiiiiiiiiiiiiii",
"ddqeqqqqqq8w8wwwwddfffggggggggffda9962,,,:::;======oo@ooooooOOOOO>O>>>r>rrtttyyyyyyiyiiiiiiiiiiiiiiiiiiuiititututtttttttttttttttttttutuutiitiiiiiiiiiiiiii6iiiiiiyyyiryyrrrrrOrOrO>o>OOoOooooooo@o=====;;::,,,2699wdfffggggggggfdfdwdwqwq8w8qqqqwedddddffdfffffgfggfgffffdffdddeee0705331<<<&&%%%@$$+++X@XXX XXX  .........                        ..............XX+X+X@+@@@%$%&***<3335570e0wwwddffffffgfggfgfgffffdfdfdddeepqqq0q8wqqwwwdddffgggggggggfdd9966,,,<:::;;===@oo=oooooooOOOO>>>Or>rrrrrttiriyiyyiiiiiiiiiiiiiiiiii",
"dedsqqqqq8qqqqwwddddfgggggggggfddaw9626,,:::;;;===o=ooooooooOOOO>O>>>>>rrrrtryyyyyiyiiyii2iiiiiiiiiiiiiiitititutttttttttttttttttttttttutiutiiuiiiiiiiiiiiiiiiiiyiyyiryyrrrrrrr>r>O>OOOOOOooooooooo====;;::::,22669wddfgggggggggffdddwwwq9w8qqqqqqdeddddfdfffffgfggfgfgfffffdddddee00754311<*<&&%$$$+@+++XXXXX.X X..........                       ............+.X.XXXX@X+@@$$$%%&*<<<3345708eewddfddffffgfgfgggfffffffdddddsdpqqq9qqq9qwwwdddffgggggggggfdaw96663,,::;;=;===oooooooooOOOO>O>O>>>>rrrtt,ryyyyyiiiiiiiiiiiiiiiiiii",
"ddwqqqqq9q8wqwqwdwdfdfgggggggggfdd9966,2:,::;;=====ooooooooooOOOO>O>>>r>rrr,ttyyyyyiyiiiiiiiiiiiiiiiiiiiuitititutttttttttttttttttttttututiuuiiiiiiiiiiiiiiiiiiiiyiyyiyyyyrrrr>rO>>>>O>oOOoOoooooooo====;;::,,,22999wdffgggggggggddddwwwqw8w8qqqqqqddwdddfdfffgfgfggfgfgfffdfdddsee00575331<<&&&%$%$$++++XX@XXX X ...........                       ..............XXX+XX@++@@$%%%&**<1133578e0ewwddffdffffgfgfgfgffffdffddddwesqqqq9q8wqwwwwdddffgggggggggfdw9962,,,:::;;=====oo=oooooooOOO>O>>>r>>rtrttiruyyiyy2iiiiiiiiiiiiiiii",
"ddedsqqqqqq8qqwwwdddffggggggggfffaw9626,,,:::;;==@o=ooooooooOOOOOO>>>>>r>rrtrtyyyyyiiii,iiiiiiiiiiiiiiiuiiitittuttttttttttttttttttttttutituiriiiiiiiiiiiiiiiiii,iyiyyyyyrryrrr>>>ro>OOOOOooooooOo@====;;;:::,,2666waddfggggggggfffdddwww8w8qqqqqqdewdddfdfffffgfggfgfgffffffddddee00055531<<<*&%%$$+$+@X@XXXX X.X...........                       .............XX.XXX+X+@@@$$%%&&*<<13447880eedddddffffgfgggfgfgfffffddddwddqqqqqq8w8wqwwdddfffggggggggfddd99626,,,:::=====o@ooooooooOOOOO>>O>>>rr>t,truyyiyyiyiiiiii6iiiiiiiii",
"dddeqsqqqq9q9qqwwddddffggggggggfdda99622<,::;;;====o@ooooooooOOOOO>O>>r>rrrrt,tuyyyyiyiiiiiiiiiiiiiiiiiiuutititttutttttttttttttttttttututitiiuiiiiiiiiiiiiiiiiiiiyiyyyyyyrrrrr>r>Oro>OOOoOoooooXooo====;;:::,,32699wdfffggggggggfdfdwwwwq8w8q9qqqededddddfdfffgfgfgggffgfffdfdddeee0775333<<*&&&%$$$++++XXXXXX.X ...........                        ..............X+XX+X@+@@@%$%&***<3135580e0ewwdfdfffffgfgfggffgfffdfdfddwedqqqqqq8w8wqwwdddffgggggggggfdaa966,,,:::::====o=oooooooooOOOOO>>>>r>rrrttt,uuyuuiiiiiiiiiiiiiiiiii",
"ddedsqqqq8w8wqwwwwddfffggggggggffda996222:,;:;;;====oooooooooOOOO>O>>>>>>rrrttyyyyyiyiiiiiiiiiiiiiiiiiiiiiitititutttttttttttttttttttttttituiuuiiiiiiiiiiiiiiiiiiiiyiyyyyrrrrrrrrOrO>OOoOOOooooooooo====;;&::,,226699ddfgggggggggffdddwwwqw8q9wqqqsqdddddfdfffffgfgfgfggfffdfdfdddee0075531<<<*&%&$$@$+++X@XXXX..X...........                       ............X.X.XXXX@X@@@$$$%%&*<<<3355780eewdddfdffffgffggfggffffffddddddssqqqq8w8qqwwwdddffggggggggfffda96623,,:::=%====oo=ooooooOOOOO>O>O>>r>rrt,tryyui2yiiiiiiiiiiiiiiiii",
"dddeqsqqqq8w8wwqwdwddffgggggggggfdd9966,,,<,;:;====o=oooXoooooOOOO>O>>>r>rrr,truyyyyiyiiiiiiiiiiiiiiiiiiiuiututtutttttttttttttttttttttuutitiiiiuiiiiiiiiiiiiiiiiiyyyyyyyyyrrrrrOrO>>>O>oOooooooooo@o====;;:::,,2669wwdffgggggggggddddwwwq9w8w8qqqqdedddddfffffffgggfgffgffffddddseee77553311<*&&$%$$+$+++XXXXXX.X ...........                       ............X.X.XX+X@X@@@$%%%&**<<33357800ewwdddfdffffggfggfgfgffdffdddddeqsqq0q8w9wqwwwdddffggggggggfddaw966,,,,:;;;===@ooooXooooooOOOO>>>>r>rrrrttyuuyuyiyiiiiiiiiiiiiiiii",
"dddedsqqq9q8w8qwwwddfdfgggggggggfdaw96622,,::;;;====o+oooooooOOOOOO>>>>>r>rtrrutyyyyiiiyiiiiiiiiiiiiiiiiuiitiutittuttttttttttttttttttuttutititiiiiiiiiiiiiiii2iiyiyiyyyyyrtrrr>r>>ro>OOOOOoooooooooo===;;;::,,,22699addfggggggggfffdddwqww8w8qqqqwqeddddfddffffgfgfgfggfffffdfdddee00054531<<*&&&%$$$@+@X@XXXX.X X ..........                       .............X.XXXX+X@+@@$$%%&&*<1<344788eeedddfdfffgfgfggfgfgfffffdddddedsqqqqqq8w8wwwdddfffggggggggffda996,6,,:::;;;====oooooooooOOOOO>>OrO>r>rrt,tt,yyiyiyiii2iiiiiiiiiii",
"ddddeqqqqqqq8wqwwwdddfffggggggggffda9962,,:,:;;;====oo=ooooooooOOOO>O>>>>rrryrt,uyiyyiyiiyii2iiiiiiiiiiiiuiitittutttttttttttttttttttttuututitiuiiiiiiiiiiiiiiiiii,iyyiyyyyrrrrr>>>OrO>OOOoOooooooo@o=====;;::,,32699wdfffggggggggfdfdwdwqqw8w8qqqqwdeddddffdffgfgfgggfgffffdfddddeee0705333<<<&&%%$$@$+++XXX+XX XX  .........                        .............X.+XX+X@@@@@%$%&***<313557e0eewwddfdfffffgfggffgffffdfdddddeepqqq9qq8wqwwwdddffgggggggggfdda966,,,:,:;;====o@oooooooooOOOO>O>>r>rrrrrttiriyyyiiiiiiiiiiiiiiiii",
"dddwedqqqqq8qqqwwwwdddfgggggggggfddaw9626,,:::;;;==@o=ooooooooOOOO>O>>>>r>rrrryyyyyyyiii,iiiiiiiiiiiiiiiiiitituututtttttttttttttttttttttutitiiiuiiiiiiiiiiiiiiiiiiiyyyyyyrryrrr>r>ro>OOOOOOooooooooo====;;::::,22669wddfgggggggggffdddwwww8w8qqqqqsqdddddfdffffffgfgfgfgfffffdfdddee0075431<<<&&&%$$$$+++X@XXX XX X..........                       .............X..XXXX+X+@@$$$%%&*<<<3345708eewddfdfffffgfggfggfgffffffdddwddpqqqqq8w9qwwwdddffgggggggggfdaw96663,,:::;:=====oooooooooOOO>o>>O>>>rrrtt,ruuuyiyii,iiiiiiiiiiiii",
"ddddeqsqqq9q8qq8wwdddfdfgggggggggfdd9966,2<,::;;=;===ooooooooooOOOO>O>>>>r>rrtrryyyiyyiiiiiiiiiiiiiiiiiiiiuitituttutttttttttttttttttttttuutitiiiiiiiiiiiiiiiiiiiiiyiyyyyyyyrrrrr>>Oro>O>OOoOooooooooo====;;::,,,26699wdffgggggggggddddwwwqq8w8q9qqqdedwdddfdfffgfggfggfgfffffddddsee00575331<<&<%&$$$+$+++XXXXX XX ...........                       .............+.X+XX++++@@$%%%&**<<333578e0ewwdddfdffgfgfggfgffffffddfdddwesqqqqqq8ww8wwwdddffggggggggffda99622,,:::==;===oo=ooooooooOOO>O>>>r>>rrrtrir,uiyiyiiiiiiiiiiiiiii",
"dddddeeqqqqqqq9wwwwdddffggggggggfffaw9626,,,::;;;===o=o@ooooooOOOOOO>>>>r>rrrtryyyyyyi,iiiiiiiiiiiiiiiiiiuiiitituutttttttttttttttttttttuttititiiuiiiiiiiiiiiiiiiyiiyiyyyyyrrrrrr>>>>>>OOOOOooooooOo@====;;;:::,,22699addfggggggggfffdddwwwqw8qqqqqqeeddddfdfffffgffggfgffgffdffdddee00055531<<<&&$&$$$++@X@XXXXXX X ..........                       ..............X.XXX+X+@@@$$%%&&*<1<3447880eedddfdffffffgfggfgfgffdffddddedqsqqqq8qq8wwwdddfffgggggggggddw9966,,:,:::%====o@ooooooooOOOOO>>>>>>rrrrriryyyyiyyiiiiiiiiiiiiiii",
"ddddwdqqqqq8q8wqqwwwddfffggggggggfdda996,6:,:::;;====oooooooooooOOOO>O>>>r>rr,ttyyyyyiiyiiiiiiiiiiiiiiiiiiuutititttuttttttttttttttttttttuutitiuiiiiiiiiiiiiiiii2iyiiyyyyyyyrrrrrr>rOO>OOOOoOoooooXooo====;;:::,,32699wdfffggggggggfdfdwdwqq9q8qqqqwqdedddddfdffffggfggfgfffffdddddeee0775333<<<&&&$%$+$+++XX+XXX X X .........                        ..............XX+X+X@+@@@%$%&***<3335570e0wwddddfffffgfgfggfgffffdfdfdddedqqqq0q8wqqwwwdddffgggggggggfddw9666,,:::;;;====ooooooooooOOOO>O>>>r>rrryryriyyyiiyiiii2iiiiiiiii",
"fddddedqqqqq9w8qwwwddddfgggggggggffda9966,6:,::;;====o@ooooooooOOOO>O>>>>>rrrrtryyyyyiyiiyiiiiiiiiiiiiiiiiiiititututtttttttttttttttttttuttititiuiiiiiiiiiiiiiiiiiiiiyyiyyyrrurrr>rO>>O>OOOOOooooooooo====;;&::,,22669wddfgggggggggffdddwwwqw8q9qqqqeqdddddfdfffffgfggfgfgfffdffddddee0075531<<<*&%&$$$$+++X+XXX XXX ..........                       ............+.X.XXXX@X+@@$$$%%&*<<<3345708eewdddfdfffgfgfgfgfgfffffdfdddddqsqqq9qqq9qwwwdddffggggggggfffda966,2,,:::;;====oo+ooooooOOOOOO>>O>>r>rrrtyryuyyiiyiiiiiiiiiiiiii",
"dddddweqqqqq8qqqqwwdwdfdfgggggggggfdd9966,,,,::;:=====ooooooooooOOOO>O>>>r>rrrryryyyyyiyii,iiiiiiiiiiiiiiiiuiutituttutttttttttttttttttttuutituiiuiiiiiiiiiiiiiiiiiiyyi,yyyyrrrrrr>rO>>OOOOOoOooooooo@o====;;:::,,26699wdffgggggggggddddwwwqqw8w8qqqqdedddddfffffgfgfggfgfgfffddfddeeee7755331<<*&&%$$$+$+++XX+XX X X ..........                       ..............XXX+XX@++@@$%%%&**<1133578e0ewwddffdfffgfgggfgffgffffdddddedqqqqq9q8wqqwwwdddffggggggggfdda9966<,,,:;;======ooooooooooOOOO>O>>>rr>rrrtiruuiy2iyiiiiiiiiiiiii",
"fdddwdeeqqqq9w8w9wwwdddffgggggggggfdaw9666,,<:::=%===o=o=ooooooOOOOOO>>>>>r>rryryyyyyyiiyiiiiiiiiiiiiiiiiiuiitititutttttttttttttttttttttttutuiriiiiiiiiiiiiiiiiiiiyiiiriryyyrrrrrrO>rO>OOOOOoooooooooo===;;;::,,,2269waddfggggggggfffdddwwqw8w8qqqqeqdwdddfddffffgfggfgfgffffffddddee00054531<<<&&%%$$$@+@X+XXXXX XX...........                       .............XX.XXX+X+@@@$$%%&&*<<13447880eedddddfffffgfgfggfgffffddfddddeesqqqq8w8qwwwdddfffggggggggffda996,6,,:::;:====o=ooooooooOOOOO>>>>>>>rrrtyru,yyyyiiiiiiiiiiiiiii",
"dfdddedqqqqqq8w8wwwwdddfffggggggggffda99623,,:::;;;==@oooXoooooooOOOO>O>>r>rrrrtruyyyyyiiiiiii2iiiiiiiiiiiiuiititututtttttttttttttttttttutuutiitiiiiiiiiiiiiiiii2iiyiyiriryryrrrrOr>Oro>OOOoOooooooo@o=====;;::,,32669wdfffggggggggfdfdwdwqqw8w8qqqqwedddddffdfffffgfgggfgfffdffdddeee0705333<<*&&&%$$@$++++XXXXXX X ..........                        ..............X+XX+X@+@@@%$%&***<3135580e0ewwddfdffffggfgfgfgffffffddddddqqqqqqq8w9wqwwdddffgggggggggfdda996,,,:,:;;%===oo=ooooooooOOOO>O>>r>rrrrtryiriyiyyiiiiiiiiiiiiii",
"fdddddedqqqq8w8qqqwwwdddfgggggggggfdda99622,,:::;;====o=ooooooooOOOO>O>>>>>>rrrttyyyyiyiyiiiiiiiiiiiiiiiiiiiititituttttttttttttttttttttttuutituiuiiiiiiiiiiiiiiiiiiiyiyiyyyyryrr>rrOro>OOOOOOooooooooo====;;:::,,226999ddfgggggggggffdddwwww8w8qqqqqqdeddddfdfffffgfgggfgffffffdddddee0075433<<<*&&%$$$$+++X+XXXX X X .........                       ............X.X.XXXX@X@@@$$$%%&*<<<3355780eewddfdfdffgffgfgggffffffdfddddedpqqqq8q9w8wwwdddffgggggggggfdaw96263,,::;;=;===+ooooooooOOOOOO>>>Or>>rt,ttryyyyyiiiiiiiiiiiiiii",
"fdddddeqsqqqq8w9wwqwdddfdfgggggggggfdd99662,,,::;;;====oo=oooooooOOOO>O>>>r>rrr,tryyyyiyiyiiiiiiiiiiiiiiiiiiuititituttttttttttttttttttttttuutiuiiuiiiiiiiiiiiiiiiiiiiyiryyyyrrrrr>rrO>>O>OOOOoooooooooo====;;&::,,2289wwdffgggggggggddddwwwqq8w8qqqqqqddwdddfdfffgfgfgfgfgffffdfdddsee0055533<1<&&&&$$$+$+++XXXXXX.X X .........                       ............X.X.XX+X@X@@@$%%%&**<<33357800ewwdddfffffgfggfgfgffffdfddddddepqqqqqq8wqwwwwdddffggggggggffda99622,,<::;;=====oo+oooooooOOOO>O>>>rr>rtrtiriyuyyiy2iiiiiiiiiii",
"dfddddsdeqqq9w88w8wwwdddffggggggggfffaw96622,::::;=;==o@ooooooooOOOOOO>>>>>r>rtrryyyyyyi,iyiiiiiiiiiiiiiiiiuiiitittutttttttttttttttttttttututititiiiiiiiiiiiiiiiiiiiyiriyyyryrrrrrrO>rO>OOOOOooooooOo@====;;;::,,,26699addfggggggggfffdddwwwqw8qqqqqqdewdddfdfffffgfgfgggfgfffffddddee00055333<<<*&$&$$$++@X@XXXX.X X ..........                       .............X.XXXX+X@+@@$$%%&&*<1<344788eeedddfdffffffgfgfgfgfffffdfdddssppqqqq8w8qqwwdddfffggggggggfddd9966,,,:::;;====o=ooooooooOOOOO>>>>r>>rt>u,ryyutiyiiiiiiii6iiiii",
"fdfdddweeeqqq8qw8wwwwwddfffggggggggfdda9962,,,::;;;====o=o=oooooooOOOO>O>>>>rrryrtyyyyyyiii,iiiiiiiiiiiiiiiiuutititttutttttttttttttttttttutuutitiiuiiiiiiiiiiiiiiiiiiyiriyyyrrurrrOr>Oro>OOOoOoooooXooo====;;;::,,,2699wdfffggggggggfdfdwdwqq9qq8wqqqededddddfdffffgfgfgfgfffffdfdddsee0705431<<*&&&$%$+$+++XXX+XX X X .........                        .............X.+XX+X@@@@@%$%&***<313557e0eewwddfdfffgfggfggffgfffdfdddddespqqq9q8w9wwwwdddffgggggggggfdaa9666,,:,:;;;====ooooooooooOOOO>O>>>r>r>trtytuu2uiyiyiiiiiiiiiii",
"dfdddwddqqqqqqq8qwqwwddddfgggggggggffdaw9626,,:::;;=====oooooooooOOOO>O>>>>r>rrrryyyyyyiiyiiiiiiiiiiiiiiiiiiiiititituttttttttttttttttttttttutitiiuiiiiiiiiiiiiiiiiii,iyiyyyyyrrrrrrrOrO>OOOOOOooooooooo=====;::::,22669wddfgggggggggffdddwwwqw89q8qqqsqdddddfdfffffggfgfgfgfffdfdfddeee0075333<<<*&&%$$$$++++XXXX XXX ..........                       .............X..XXXX+X+@@$$$%%&*<<<3345708eewddfdfffffgffggfggfffffdfdddddssqqqqqq8wqqwwdddffgggggggggfddw966,3,,:::;====o@ooooooooOOOOOO>>>>>r>tr,trt,yyyiyiiiiiiiiiiiii",
"fddfddwedqqqq9qq8wwqwwddfdfgggggggggfdd9966,2<,:::=====o+oooooooooOOOO>O>>>>r>rryrruyyyyiiyiiiiiiiiiiiiiiiiiiuiututtutttttttttttttttttttttutuuitiiuiiiiiiiiiiiiiiiiiiiiri,uyyyrrrrr>rOro>o>oOOoooooooo@o===;;;::,,,26699wdffgggggggggddddwwwqqw8wqqqqqdedddddfffffgffgggfgfgffffdddddee0057533<1<&*&&$$$+$++X@XXXX X X ..........                       .............+.X+XX++++@@$%%%&**<<333578e0ewwdddfdffffggfggffgfffffddddddeqqqqq8qq8wwwwwdddffggggggggffda9962,,,:::;;%===oo@ooooooooOOOO>o>>r>rrrrytiryyyyiyiiiiiiiiiiii",
"dffdddddqdqqqqq8w8qwwwdddffgggggggggfdaw9626,,,::;:%=====ooooooooOOOOOO>>>>r>rrrrruuyyyyiyiiiiiiiiiiiiiiiiiiuiitiutittuttttttttttttttttttttututitiiiiiiiiiiiiiiii2iiiiriyiryyrrrrr>r>>O>>>oOOOoooooooooo====;;:::,,2269waddfggggggggfffdddwqww8w89qqqwqeddddfddfffffgfgfgggffffdffdddee00055531<<<&&$&$$$@++@XXXXXX XX ..........                       ..............X.XXX+X+@@@$$%%&&*<1<3447880eedddfdfffffgfggfggfgfffdfddddedppqqqqq8wqqwwdddfffgggggggggddaw9666,,:::;;====o=ooooooooOOOOO>>>>;>r>rrryryyyyiyyiiiiiiiiiiii",
"fdfdddddeqqqqqqq8wqwwwwdddffggggggggffda996,2,:,:;;;====o=oooooooooOOOO>O>>>r>rrttr,uyiyii,yiiii2iiiiiiiiiiiiuiitittutttttttttttttttttttttutuuutitiiiiiiiiiiiiiiiiiiiyiiyriryyryrrrOr>>OOO>OOoOooooooo@o====;;:::,,32669wdfffggggggggfdfdwdwqqw8ww8qqqwdeddddffdffffggfgfgfgffffdddddeee0775333<<<&&%$&$+@@+X@XXXXXX X  .........                        ..............XX+X+X@+@@@%$%&***<3335570e0wwddddffffgfgfggffgfffffddfdddespqqq09q8w9wwwdddffgggggggggfdaa966,3,:::;;;====ooooooooooOOOOO>>>r>rrrryrttiyyyiiiyiiiiiiiiii",
"ffdddddedpeqqqq8w8qwwwdddfffggggggggfdda996623,:::;=;==o=o+oooooooOOOO>O>>>>>rrrrryyyyyyyyiiiiiiiiiiiiiiiiiiiiitituututttttttttttttttttttttuutuiriuiiiiiiiiiiiiiiiii,iiyyiyyyrrrrrrr>rO>>>OoOOOooooooooo===;=;;::,,22299wddfgggggggggffdddwwww8w88qqqqsqdddddfdffffgffgggfgfffffdfddwdee0075533<<<&&&&$$$$+@+X+XXXX X.X..........                       ............+.X.XXXX@X+@@$$$%%&*<<<3345708eewdddfdffffgfggfgggffffdffdddwdssqqq9w8wqqwwwdddffggggggggfffda9626,,,,::;=;==o@ooooooooOOOOO>O>O>>>rrrrtt,uyyiuiyiii2iiiiiii",
"fdfdfdddeeqqqqq8qqqqwwwdddffgggggggggfdd9966,,,:,::;=;==o=oooooooooOOOO>O>>>r>rrrttruyyyiiyiiiiiiiiiiiiiiiiiiiuitituttutttttttttttttttttttttuutuiiiiuiiiiiiiiiiiiiiiiiyiyyyyyyyrrrrr>OrO>OO>oOoOooooooooo===;=::::,,26699wdffgggggggggddddwwwqqqw8qqqqqdedwdddfdffffggfgfgfgfffffdfddeeee7755331<<&<%%$$$@@+++XXXXXX X  ..........                       ..............XXX+XX@++@@$%%%&**<1133578e0ewwddfdffffffgfgfgfgffffdfdddddeeqqqq8q8w9wwwwdddffggggggggfdda99622,:::::=====o=o+oooooooOOOO>>>>r>>rrrttyriyy2iiyiiiiiii6ii",
"fffddddwdeeqqq9qqq9wwwwddfdfggggggggfffaw96622,,::;;;===@oooooooooOOOOOO>>>>>r>rt,ryyyyyyyiiyiiiiiiiiiiiiiiiiuiiitituutttttttttttttttttttttututiutiuiiiiiiiiiiiiiiiiiiiyyyiyyyrrrrr>rrOro>>oOOOooooooOo@=====%;:*,,,2666waddfggggggggfffdddwwq9w8q9qqqqweddddfdffffgffgfgggfgfffdfddddee00055331<<<&&%&$$$@+@X@XXXX X XX .........                       .............XX.XXX+X+@@@$$%%&&*<<13447880eeddddffffffgfgggfgffffffdddddedqpqqqq9w8wqwwdddfffggggggggffda9966,,,,::=:=====oooooooooOOOOO>>O>>>rrrt,truyyiyyyiiiiiiiiiii",
"fdffddddwdqqqqq9q8w8wwwdddfffggggggggfdda9962,,<:::;;=====o=oooooooOOOOO>O>>>r>rrtrtryyyiuyii,iiiiiiiiiiiiiiiiuutititttutttttttttttttttttttutuutiitiiiiiiiiiiiiiiiiiii,iyiryyyyryrrrOrrOrOo>OOoOoooooXooo====;;;::,,,2699wdfffggggggggfdfdwdwww8w8w8wqqqdeddddfdffffgfggfgfgffffffddddeee0705333<<<&&&$$$+$+++XXX@XX X  X ........                        ..............X+XX+X@+@@@%$%&***<3135580e0ewddddffffgfgfgfgfgffffdfdfdddweeqqqqq8w8wwwwdddffgggggggggfdda9666,,::::;====o@oooooooooOOOO>O>>>r>rrrryt,uyyiyiyiiiiiiiiii",
"fffddddddedqqqqq8w8wqwwwdddfgggggggggffdaw9626,,,::;=;===o=OXooooooOOOO>O>>>>>rrrrrtyyyyi,iiiiiiiiiiiiiiiiiiiiiiititututtttttttttttttttttttttutiutiiuiiiiiiiiiiiiiiiiiiiiriyyyrrrrrrrrOrOO>OOOOOooooooooo====;;:::,,226699ddfgggggggggffdddwww8w8w8qqqqsqddddddfdfffffgfgfgfgffffdfddddee00555311<<&&%&$$$$+++X@XXX X XX .........                       ............X.X.XXXX@X@@@$$$%%&*<<<3355780eewdddfdffffgfgfggfgffffffdddddedaqqqq8q8qqwwwdddffgggggggggfdaw966,2,,:::=%=====oooooooooOOO>o>>O>>r>r>yrtuyyyyiyiiiiiiiiiii",
"ffdfdfdddwepqqq9qqqqwqwdddfdfgggggggggfdd9966,,,::::;=====ooooooooooOOOO>O>>>r>rrrt,tyyyyiyiyiiiiiiiiiiiiiiiiiiuiutituttutttttttttttttttttttututiuuiiiiiiiiiiiiiiiiiiiiyiiriryyyrrrrrOrO>>O>oOOOoooooooo@o====;;;::,,2669wwdffgggggggggddddwwwqqq8wq8wqqdedddddffffffgfgfggffgfffddfddeee0055533<<<<&&$%$$+$+++XXXXXXX  X .........                       ............X.X.XX+X@X@@@$%%%&**<<33357800ewwddffdffffgfgfggffgffdffdddddqeqqqq0qq9qwwwwdddffggggggggffda9966<,,,::;;;===oo=ooooooooOOO>O>>>r>rrrrt,tuyyuyiyi2iiiiiiii",
"ffffddddwdeeqqqqq8q9qwwwdddffgggggggggfdaw96622,,::;;;;==o@ooooooooOOOOOO>>>>>r>rrrryyyyyyiyiiiiiiiiiiiiiiiiiiuiititituttttttttttttttttttttttutituiriiiiiiiiiiiiiiiiiiyiiriyyyyrtrrr>r>>>O>OOOOOoooooooooo===;;;::,,,25699addfggggggggfffdddwwwqqqq8qqqqsewdddfddfffgfgfggfggffffffddddee000554311<&&&&%$$$@+@X@XXXXX XX ..........                       .............X.XXXX+X@+@@$$%%&&*<1<344788eeedddddffffgfgggfgfgfffffdddddedsqqqqq98wqqwwdddfffggggggggfddd99626,,:::;;====o@ooooooooOOOOO>>O>>>r>rrttruuuuiyiyiiiiiiiii",
"ffdffddddedqqqqqqq8wqwwwwddfffggggggggffda9966,,,:::=;====oo=ooooooooOOOO>O>>>rrrrtttyyyyyii,iyiiiiiiiiiiiiiiiiuiititututtttttttttttttttttttututitiiuiiiiiiiiiiiiiiiiii,yiyyyyyyrrrrr>>>rO>O>oOoOooooooo@o====;;:::,,,2699wdfffggggggggfdfdwdwqq9qqqqqqqededdddffdfffgfgfggfgffffdffdddeee0705333<<<&&%%$$@@@++XX+XX X X  .........                        .............X.+XX+X@@@@@%$%&***<313557e0eewwddfdffffgfgfggfgffffdfdfdddespqqq9qq8wwqwwdddffgggggggggfdaa9662<,,::;;;====ooooooooooOOOO>>>>>>rrrr,tt,tu,iiyiyiiiiii6i",
"ffffddddddedqqqqq8w8qwwwddddfgggggggggfdda996,23:,:::=====o=ooooooooOOOO>O>>>>>>rrt,ryyyyyiyiiiii2iiiiiiiiiiiiiiititituttttttttttttttttttttttttituiuuiiiiiiiiiiii6iiiiiiiiriyyyrrrrrrr>rO>>OOOOOOooooooooo====;;;:::,22669wddfgggggggggffdddwwwqw8q9qqqqseddddfddffffffgggfgfgfffffdddddee0075531<<<&&&%$$$$+++X+XXXX XXX .........                       .............X..XXXX+X+@@$$$%%&*<<<3345708eewddfdfdfffgffggfgfffffffddddwdssqqqqq8w8qwwwdddffgggggggggfddw966,6,,:::;=;===oo+ooooooOOOOOO>O>>>r>rrttttuuyyiyiiyiiiiiii",
"fffffdfdddeqsqqq8q8wqqwwdwdfdfgggggggggfdd9966,,,:::::====@ooooXoooooOOOO>O>>>r>rrrttryyyyyiyiiiiiiiiiiiiiiiiiiiuitititutttttttttttttttttttttuutitiiiiuiiiiiiiiiiiiiiiiiriiryyyyyrrrr>rO>>O>o>oOOoooooooooo===;=:::,,,22999wdffgggggggggddddwwwqqw8w8qqqwssddddffdfffgffgfggffgfffdfdddsee00555331<<<%&&$$$+$+++XXXXXX X X .........                       .............+.X+XX++++@@$%%%&**<<333578e0ewwdddffffffggfggfgffffdffdddddeeqqqqqq8wqwwwwdddffggggggggffda9966:,,:::;;=====oo=oooooooOOOO>>Or>>rrrr,ut,uuyyiyiiiiiiiii",
"ffffdfddddsdeqqqqqqq9qwwwdddffggggggggfffaw9666,,,:::=%===o=ooooooooOOOOOO>>>>>r>rrtryyyyyyiiyiiiiiiiiiiiiiiiiiuiiitittuttttttttttttttttttttuttutititiiiiiiiiiiiiiiiiiyiiiriyyyyrryrrr>>rO>O>OOOOooooooOo@=====%;:::,,2666waddfggggggggfffdddwwwq8w8qqqqqqdwdddddffffffgfggfggffffffddddee00054531<<&<&$&$$$++@X@XXXX X X ..........                       ..............X.XXX+X+@@@$$%%&&*<1<3447880eedddfdffffgffggfgfgfffffdddddedqsqqqq8qqqqwwdddfffgggggggggddaw9626,:,:::=====o=ooooooooOOOOO>>>Orr>rrrttruyyyiyiiii2iiiii",
"fffdfdddddweeqqqq9q8wwqwwdddfffggggggggfdda996,6,,:::;;====o+oooooooooOOO>O>>>>>rrr,ttyyyyiyiii,iiiiiiiiiiiiiiiiuutititttutttttttttttttttttttuututitiuiiiiiiiiiiiiiii2iyiyiriyyyyrrrrrr>O>>>oOOOoOoooooXooo====;;;:,,,,2699wdfffggggggggfdfdwdwqwq8wq8qqweqdddddfdffffgfggfgfgfgfffdfdddsee05053311<<&&&$$$$$+++XXX@XX X X .........                        ..............XX+X+X@+@@@%$%&***<3335570e0wwwddfdffffgfgfggffgfffdfdfdddweqqqqqq8w9qwwwdddffgggggggggfdaa9666,,:::::=====oooOooooooOOOO>O>rOrr>rrt,triyyyiiiyiiiiiii",
"fffffdfddwddqqqqqq8w8qwwwwdddfgggggggggffdaw966,,:,::;=;===o=ooooooooOOOOO>>>>>r>rrtrryyyyyyyiiiiiiiiiiiiiiiiiiiiiititituttttttttttttttttttttttutitiiiuiiiiiiiiiiiiiiiiiiiyiyyyyrrrrrr>>r>>o>OOOOOooooooooo====;;:::<,226699ddfgggggggggffdddwwwq9w89qqqqqdedddfdfdfffffgfgfgfgfffdfdfddeee0055533<<<&&%&%$$+@+++XXXX XXX...........                       ............+.X.XXXX@X+@@$$$%%&*<<<3345708eewddfdffffgfgfggfggffffffdddddedsqqq9qq8w9wwwdddffggggggggfffda966,3,,:::=%===o@oOXoooooOOOO>o>>O>>>rrrryriryyit2iiiiiiiii",
"ffffdfdfddwedqqqqqq8wq8wwdddfdfgggggggggfdd99666,,::::;====@ooooooooooOOOO>O>>>>r>rrtttyyyyiiyiiiiiiiiiiiiiiiiiiiuiututtuttttttttttttttttttttttuutitiiiiiiiiiiiiiiiiiiiiyiiyyyyyyyrrrrrrOrO>O>OOOoOooooooo@o====;;::,,,2669wadffgggggggggddddwwwqw8w8w8qqwsddwdddffffffgfgfggfgfffffdddddeee0775311<<*&&$$$$$+++X@XXXX X ............                       ..............XXX+XX@++@@$%%%&**<1133578e0ewwdddfdfffgfgfggfgfgffdffdddddqeqqqq8qq8wwwwwdddffggggggggfdda9966,,,:::;;;===o=oooooooooOOO>O>>>r>>rrrrttiriyiyyiyiiiiii",
"ffffffddddddqdqqqq8qq9wqwwdddffgggggggggfdaw966,2,,::;;;;==o=o=ooooooOOOOOO>>O>r>rrrt,ryyyyyyiyiiiiiiiiiiiiiiiiiuiitiutittutttttttttttttttttttuttititiiuiiiiiiiiiiiiiiiiiiyyiyyyyrrrrrrOrO>>>OOOOOoooooooooo===;;;:::,,22699addfggggggggfffdddwww8w8w8qqqqsewdddfddfffgfgfggfgfgfffdffdddee00755433<<<&&&%$$+$++@XXXXXX XX ..........                       .............XX.XXX+X+@@@$$%%&&*<<13447880eedddfdfffffgfggfgfgfffffdddddedsqqqqqq8qqqwwdddfffggggggggffda996,6,,,::;;====o=ooooooooOOOOO>>O>>>rrrttt,riuuyiiyiiiiiii",
"fffffdfdddddeqeqqq08w8wwwwwddfffggggggggffda9966<,,:::=;====oooooooooooOOOO>O>>>r>rrrtyuyyyyiyiyiiiiiiiiiiiiiiiiiuiitittuttttttttttttttttttttttuutitiuiiiiiiiiiiiiiiii2iiyiyyyyyyyrrrrrr>rO>O>OOOoOooooooo@o====;;;::,,32699wdfffggggggggfdfdwdwwq8w8wqqqqwdeddddffdfffgfgfggfgfffffdddddeee0055331<<**&%%$$$+$+X+XXXXXX X  .........                        ..............X+XX+X@+@@@%$%&***<3135580e0ewddddffffffgfggffgffffdfdddddeepqqq9qqqqqwwwdddffgggggggggfdda966,,,::::=;====ooooooooooOOOO>>>>>r>rr,ttyyt,uiyyiiiuiiii",
"gfffdffddddedsqqq9qq8wqqwwddddfgggggggggfdda996,6,<,:::=====o@ooooooooOOOOO>>>>>>r>trtrtyyyiyi,iiiiiiiiiiiiiiiiiiiitituututtttttttttttttttttttuttititiuiiiiiiiiiiiiiiiiiiiiiyyyyyrryrrr>rOrO>OOOOOOooooooooo====;;:::,,22669wddfgggggggggffdddwwqwqq8q9qqqqeddddfddffffffgggfgfgffffdfddwdee0054533<<<&*%&$$$@+@+X@XXXX X.X..........                       ............X.X.XXXX@X@@@$$$%%&*<<<3355780eewdddfdffffgfggfggfgffffffdddwddpqqqqq8q9qwwwdddffgggggggggfdaw9666,,,::;;;;===o+oooooooOOOOOO>O>>>r>r>tttruuyyiiiii2iiii",
"fgfffdfdfdddeqpqqq9qq8wwwwwddfdfgggggggggfdd99662,,:::::=====oo=oooooooOOOOO>>>>>rr>ttt,tyyyyiii,iiiiiiiiiiiiiiiiiuitituttuttttttttttttttttttttuutituiiuiiiiiiiiiiiiiiiiiiyyyiyyyyyrrrrr>>OrO>o>oOOooooooooo=o==;=:;:,,,2669wadffgggggggggddddwwwqqqw8qqqqeseddddffdfffgffgfggffgffffdfddewe0050353<1<*&&$%$$$++++XXXXXX X ...........                       ............X.X.XX+X@X@@@$%%%&**<<33357800ewwddffdffffgfggfgffffffddfdddwesqqqqqq8wqwwwwdddffggggggggffda9966<,,,::;====O=oo=oooooooOOOO>>O>r>rrrr,tt,uuyyitiiiiiii",
"gfffffdfddddedsqqqqq8w8qwwwdddffggggggggfffaw9662,,,:::=%===o=oOXoooooOOOOO>O>>>>r>rr,rtuuyyyiyiiiiiiiiiiiiiiiiiiuiiitituutttttttttttttttttttttttutuiriiiiiiiiiiiiiiiiiiiyiyiyyyyyrrrrr>r>rO>>OOOOOooooooOo@o====%;:::,,22699addfggggggggfffdddwwqq98wqqqqqedwdddddffffffgfggfggffffdfddddee00055331<<*&&&%$$+$+@X@XXXX.X X...........                       .............X.XXXX+X@+@@$$%%&&*<1<344788eeedddddffffgfggfgfgfgffdffddddedppqqqq8w8wqwwdddfffggggggggfddd99626,,:::;;;==@o=ooooooooOOOOO>O>>>>r>rrtyriruuui2yiiiiii",
"ffgffdfddddddeqeqqqq9qqqqwwwdddffggggggggfdda9966,,,:::;;====oooooooooooOOOO>O>>>>rrrtyr,uuyiyiyiiiii2iiiiiiiiiiiiuutititttutttttttttttttttttttutuutiitiiiiiiiiiiiiiiiiiii,iyyyyyyyrrrrrOrOrOO>OOOoOoooooXo=o====;;:::,,,2699wdfffggggggggfdfdwdwwqw88w9qqqwedddddfdffffgfggfgfgfgffffdfddeee0055533<<<&&%%$$$+@++XX+XX.XX ...........                        .............X.+XX+X@@@@@%$%&***<313557e0eewwddfdffffgfggfgfgffffdfdfdddqspqqq9q8w8wqwwdddffgggggggggfdaa966,2<,:::;=;===oooXooooooOOOO>>>Or>rrry>yyri,uuuiiyiiiii",
"fgfffffdfdddwedqqqq8w8qqwwwdddfffggggggggffdaw96,6,<,::;=;===o@ooooooooOOOOO>>>>>r>rrrrruuyyyyiiyiiiiiiiiiiiiiiiiiiiititututttttttttttttttttttttuutituiuiiiiiiiiiiiiiiiiiiiyiyyyyyrryrrrr>rO>>>OOOOOooooooooo====;;;::,,22669wadfgggggggggffdddwwqw8wq8qqqqqdedddfdfdfffffgfgfgfgffffdfdddeee0055331<<*<&%&$$$$+++X+XXXX..X...........                       .............X..XXXX+X+@@$$$%%&*<<<3345708eewddfdfffffgfgfgggffffffdfdddddssqqqqqq8w9wwwdddffgggggggggfddw9626,,,::;;;===o@o=oooooooOOO>OO>>>>r>r>yrriruyuiiyiiiiii",
"gfffffdfdddddeqpqqqq8qqqqwwwdddffgggggggggfdd9966,,,::::;=;===ooooooooooOOOOO>>>>>rrrrttr,uiyyiyi,iiiiiiiiiiiiiiiiiuiutituttuttttttttttttttttttttuutiuiiuiiiiiiiiiiiiiiiiiiiyiyyyyyyrrrrr>>rOO>o>oOOoooooooo@o====;;:::,,26699ddffgggggggggddddwwwqq8qw8qqqqqddwdddffffffgfgfggfgfffffdddddee00055331<<&<%%$$$+$+++XXXXXX.X ...........                       .............+.X+XX++++@@$%%%&**<<333578e0ewwddfdfffffgfgfgfgffffffddddddeqqqqqq9q8wqwwwdddffggggggggffda99623,,:::;=;===oooooooooooOOO>>O>>>>rrrryttiriy,iuiii2ii",
"fgffffffddddddssqqqq0qq9qwwwddfdfgggggggggfdaw9666,,,::;;;==@o=ooooooooOOOOO>O>>>>r>rt,ryyyyyyyiiiiiiiiiiiiiiiiiiiuiitititutttttttttttttttttttttututititiiiiiiiiiiiiiii2iiiiyiyyyyyrrrrrr>rO>>O>oOOOoooooooooo===;;;::,,,2269waddfggggggggfffdddwwwqqw8qqqqqdewdddfddfffgfgfggfgffgffdffdddee00555531<<<&&%%$$$++@X@XXXX.X X...........                       ..............X.XXX+X+@@@$$%%&&*<1<3447880eeddddfdfffgfgfgfgfgffffddfdddedpsqqq8w8wqwwwdddfffggggggggfddaw9662,,:::;;====o=ooooooooOOOOOO>>>>r>rrrtt,tuuyiyiuiiiii",
"gfgfffdffdddddepqqqq9q8wqwwwwddfffggggggggffda996,6,,:::;;====oo@oooooooOOOOO>O>>>r>rrttyryyyyiyiiiiiiiiiiiiiiiiiiiuiititututtttttttttttttttttttutuutitiiuiiiiiiiiiiiiiiiiiyiyyyyyyyrrrrrrOrO>>o>OOoOooooooo@o=====;;::,,36669wdfffggggggggfdfdwdwqq9qq8w9qqededdddffdfffgfgfggfgfffffddfdweee0055333<<<&&%%$$$$+++XXX+XX X............                        ..............XX+X+X@+@@@%$%&***<3335570e0wwwddffffffgfggggffgfffffdddddqspqqqq8w8w9wwwdddffgggggggggfdd99662,,<,:;:=====o+ooooooooOOOO>O>>>>r>ry>ytt,uuyui2uiiii",
"fgffffffdfdddsssqqq0q9w8wqwwddddfgggggggggfdda9966,,:,::;=;===o=ooooooooOOOOO>>>>>>r>rrtryyyiyyiii,iiiii6iiiiiiiiiiiitititutttttttttttttttttttttttutitiiuiiiiiiiiiiiiiiiii,iiyiyyyyrryrrr>r>>>O>OOOOOooooooooo====;;:::,,22669wddfgggggggggffdddwwwqw899qqqwqeddddfddfffffgfggfgfgfffdffddddee0055531<<<&*&%$$$+@@X@XXXX XX............                       ............+.X.XXXX@X+@@$$$%%&*<<<3345708eewddfddffffgfgfgfggfffffdfdddddssqqq9q8w8wwwwdddffgggggggggfdaw96622,,:::=%===o=oooooooooOOO>o>>O>r>rr>yrt,iriyiyiiiiii",
"gfgfffffddddddespqqqqq8w8wwwwddfdfgggggggggfdd99666,,::::;=====ooooooooooOOOOO>>>>>rrrr,ttyyyyyiyiiiiiiiiiiiiiiiiiiiuitititutttttttttttttttttttttutuuitiiuiiiiiiiiiiiiiiiiiiyiyyyyyyyrrrrr>>>O>O>oOOOoooooooooo====;;;::,,22999wdffgggggggggddddwwwqqw8w8qqqweeddddffdfffffgfggfgfgfffdfdddeee00054331<<&&&%$$$$+++X@XXXX XX ...........                       ..............XXX+XX@++@@$%%%&**<1133578e0ewwddffdffffgfgfgfgffffdfddddddeqqqqqqq8w8wwwwdddffgggggggggfdw9962,,,:::;;===@oo=ooooooooOOO>O>>>>r>rrrtytririuiuiiiii",
"fgfgfffdffdddddssqqqq8w8qqwwwdddffggggggggfffaw966,2,,::;;;;==o@ooooooooOOOOO>O>>>>r>rtrrtyyyyyyiiiiiiiiiiiiiiiiiiiuiiitittuttttttttttttttttttttttututitiiiiiiiiiiiiiiiiiiiiiyyiyyyyrrrrr>>rOrO>OOOOOooooooOo@====;;;::,,,2666waddgggggggggfffdddwwqw8w8qqqqqedwdddddfffffgfggfgfgfffffdfdddee00555531<<<*&%%$$+$+@+XXXXXXX X...........                       .............XX.XXX+X+@@@$$%%&&*<<13447880eedddddffffgfgggfgfgfffffdfdddedppqqqq8q9wqwwdddfffggggggggfddd99626,,:::;;;===o=ooooooooOOOOO>O>>>>rrrrtrtiriu,ui,iiii",
"ggffffffddfdddwssqqqqq8w9qwwwdddfffggggggggfdda9966<,,:::;=====o=ooXooooooOOOO>O>>>>rrryt,tyyyiyiyiiiiiiiiiiiiiiiiiiuutititttutttttttttttttttttttutuuutitiiiiiiiiiiiiiiiiiii,iyyyyyyyrrrrr>>>OrO>oOOoOoooooXooo====;;;::,,,2699wdfdfggggggggfdfdwdwqqw8w8qqqqwedddddfdfffffgfggfgffgffdfddddeee0055333<<*&%&%$$$++++X@XXXX X............                        ..............X+XX+X@+@@@%$%&***<3135580e0ewwdfdfffffgfgfggffgfffdfdddddqspqqq0qq8wwqwwdddffgggggggggfdaa966,2<,:::;=;===ooooooooooOOOO>>>Or>>rrtrt,tiriyiyiiiii",
"gfggfffdffdddddweqqq9qw8qwqwwwdddfgggggggggffdaw96,6,<,::;;;====oooooooooOOOOO>>>>>r>rrrrryyyyyiyi,iiiiiiiiiiiiiiiiiiiitititutttttttttttttttttttttuutuiriuiiiiiiiiiiiiiiiiiiiyiyyyyyrryrrrr>r>O>O>oOOOooooooooo====;;:::<,226699ddfgggggggggffdddwwww8w8qqqqqqdedddfdfdfffgfggfggfgfffffdfdddeee505531<<<&<%%%$@$++++XXXX XX............                       ............X.X.XXXX@X@@@$$$%%&*<<<3355780eewdddfdffffgffggfggfffffdfdddddssqqq9q8w8qwwwdddffggggggggfffdaw626,,,::;;;===o@ooooooooOOOOO>O>>>>rr>r,ttytuuiuiiiuii",
"fgffgfffdfddddwdqeqqq8qq8wwqwdddfdfgggggggggfdd99662,,::::;====o@oooooooooOOOOO>>>>>rrrryrtyyyyyiiiiyiiiiiiiiiiiiiiiiuiututtuttttttttttttttttttttttuutuiiiiuiiiiiiiiiiiiiiiiiiyyiyyyyyrrrr>rOrO>OO>oOooooooooo@o====;&::,,,2669wwdffgggggggggddddwwwwq8w8qqqqqedwdddfdffffffgfgfgfgfffffddddsee005553311<<%&%$$$@$+++XXXXX XX ...........                       ............X.X.XX+X@X@@@$%%%&**<<33357800ewwdddfdffffggfggfgffffffddddddepqqqqqq8w9wwwwdddffggggggggfdda99622,,::::=;===oo@ooooooooOOOO>O>>r>rrrtrtyy,uuuiui2ui",
"ggfgfffffdfddddedpqqqqq8w8wwwwdddffgggggggggfdaw9662,,,::;;;=@==o=oooooooOOOOO>O>>>>r>rrryryyyyyiyiiiiiiiiiiiiiiiiiiuiitiutittutttttttttttttttttttututiutiuiiiiiiiiiiiiiiiiiiiyiyyyyyrtrrrr>rOrO>>oOOOoooooooooo===;;;:::,,22699addgggggggggfffdddwwqqw8qqqqqqdqdddddfdffffgfgfgggffgffdffdddee00053531<<&*&%%$$$++@X@XXXXXX X...........                       .............X.XXXX+X@+@@$$%%&&*<1<344788eeedddfdfffgfgfggfgfgffffdfddddssppqqqq98wqqwwdddfffggggggggffda9966,3,:::=:====o=ooooooooOOOOO>>O>>>r>t>u,yriuu,uiuiii",
"fggfgfffffdfddddqeqqqq9q8w8wwwwddfffggggggggffda9966,,,:::;;=====ooooooooooOOOO>O>>>>rrrrriryyyiyiyi,iiiiiiiiiiiiiiiiuiitittutttttttttttttttttttttutuutiitiiiiiiiiiiiiiiiiiiiyiyiriryyrrrrr>>>OrOO>OOoOooooooo@o=====;:::,,32699wdfdfggggggggfdfdwwwwq8w8q9qqqedsdddddffffffgfgfgfgfffffdddddeee0705333<<<&&%%%@$$+++X+XXXX X............                        .............X.+XX+X@@@@@%$%&***<313557e0eewwddfdfffffgfggfgfgffffdfddddespqqq0qq8wwqwwdddffgggggggggfdda9662,,,:::=;====ooooooooooOOOO>>>>>>rr>trttyririi,iuii",
"ggfgfffffdfddddsdsqqqqq8w8wqwwddddfgggggggggfdda996,6,<,::;=;===oo+oooooooOOOOO>>>>>r>rrrtryyyyyiyiiiii2iiiiiiiiiiiiiiitituututtttttttttttttttttttttutiutiiuiiiiiiiiiii6iiiiyi,iriyyyrrrrrr>r>>>O>OOOOOooooooooo====;;;::,,22669wadfgggggggggffdddwwwqw8qqqqqqpswddddffdfffgfgggfgfgfffdffddddee00555311<<&&&%$$$+@+++XXXX XX............                       .............X..XXXX+X+@@$$$%%&*<<<3345708eewddfdfffffgfggfgfgffffdfdfddddspqqq9q8w8qwwwdddffgggggggggfdaw96622,:,:;:====o@oooooooooOOO>O>O>>>r>rr,ttritiuuiuiii",
"fggfgfffffddfddweppqqq0qqqqwqwwddfdfgggggggggfdd9966,,,::::;=;===ooooooooooOOOOO>>>>>r>trttyyyyyyiyiiiiiiiiiiiiiiiiiiiuitituttuttttttttttttttttttttututiuuiiiiiiiiiiiiiiiiiiiiiyiryyyyyrrrrr>>O>>O>oOOoOooooooooo====;;:::,,22999ddffgggggggggddddwwwqqq98wqqqesdeddddffffffgfgfggffgfffddfddweee0775331<<<&%%$%$$+++++XXXX XX ...........                       .............+.X+XX++++@@$%%%&**<<333578e0ewwdddfdffffgfggfgffgffffddddddesqqqqqq8wqwwwwdddffggggggggffda9962,,,:::;;====o=o+oooooooOOO>O>O>r>rrrrt,ty,uu,uiiii",
"ggfgfgfffdffdddddssqqq9q8qqqwwwdddffggggggggfffaw9666,,,::;;;===o=ooooooooOOOOO>O>>>r>r>t,rruyyyyiiyiiiiiiiiiiiiiiiiiuiiitituuttttttttttttttttttttttutituiriiiiiiiiiiiiiiiiiyiiyiyyyyyrryrr>r>r>O>OOOOOooooooOo@====;;;::,,,2666waddgggggggggfffdddwwq9w8w8qqqqseddddfddffffgffggfggffffffddddee00755331<<*&&&%$$+$+@XX@XXXXX X...........                       ..............X.XXX+X+@@@$$%%&&*<1<3447880eedddfdffffgfggfggfgffffdfddddssppqqqq8qqqqwwdddfffggggggggfddd99626,,::;:=%====oooooooooOOOOO>>>>>>r>rrttyririiuiiui",
"gfggffffffdfdddddeqsqqqqq8qqwwwwdddffggggggggfdda996,6,,:::;;==@=oo@oooooooOOOOO>O>>>>rrrttt,uyyiyiiyiiiiiiiiiiiiiiiiiuutititttutttttttttttttttttttututitiiuiiiiiiiiiiiiiii2iiyiyyiyyyyrrrrr>rO>>O>OOOoOoooooXooo=====;&::,,,2699wdfdfggggggggfdfdwdwww8w8w9qqqwssddddffdffffggfggfgffffdffdddeee0055433<<<&&%%$$$++++XXXXXX X............                        ..............XX+X+X@+@@@%$%&***<3335570e0wwddddfffffgfggfgfgfffffdfddddespqqq9q8w9wqwwdddffgggggggggfdaa9662<,:,:;;=;==o@oooooooooOOOO>O>>>r>rrr,ttiririuii,i",
"fgfgfgfffdfdfdddedsqqqqq8qqwqwwdddfffggggggggffdaw966,,:,::;=;===o=ooooooooOOOOO>>>>>r>rrrtryyyyyyi,iiiiiiiiiiiiiiiiiiiiititututttttttttttttttttttttttituiuuiiiiiiiiiiiiiiiiiiiyiyyyyyrrrrrrrOrrO>OOOOOOooooooooo====;;::::,22669wddfgggggggggffdddwww8w8w8qqqqeqdddddfdffffgffggfgfgfffffddddeee00754311<<&&&%$$@$++++XXXX XX............                       ............+.X.XXXX@X+@@$$$%%&*<<<3345708eewdddfdffffgfgfgfgfgfffdfdfddddssqqqqqq8w8wwwdddffgggggggggfddw96622,,::;;;====ooooooooooOOOOO>>>>>>rrrtttrutiu,yiii",
"gfgfgfgfffdfdddddwqsqqq9q8qqwqwwdddffgggggggggfdd99666,,::::;=====ooooooooooOOOOO>>>>>r>rr,ttyyyyiyiiiiii2iiiiiiiiiiiiiuiutituttutttttttttttttttttttuutitiiiiuiiiiiiiiiiiiiiiiiiyiyyyyyyrrrr>rO>>O>OOOOoOooooooo@o====;;::,,,26699wdffgggggggggddddwwwqqq8w8qqqqdedddddfdffffgfgfgfgfgfffdfddddee0077533<<<<&%%%$$+$++X@XXXX XX ...........                       ..............XXX+XX@++@@$%%%&**<1133578e0ewwddffdffffgfgfggfffffffddddddeqqqqqq9q8wqwwwdddffggggggggffda9962,,,<::;=;====oo=ooooooOOOOO>o>>>r>rrr,tyy,utiiuii",
"fgggfgffffffdddddedpqqqqqqq9qwwwddfdfgggggggggfdaw966,2,,::;;;===o@ooooooooOOOOO>O>>>r>rrrtryyyyyyiyiiiiiiiiiiiiiiiiiiuiititituttttttttttttttttttttuttutititiiiiiiiiiiiiiiiiiiiyiyyyyyyrrrrrr>>rO>>OOOOOoooooooooo===;;;:::,,2566waddgggggggggfffdddwwwqqqqq9qqwqdwdddfdfdffgfgfgggfgffffffddddee000554311<*&&%%$$$$++@XXXXXXX.X...........                       .............XX.XXX+X+@@@$$%%&&*<<13447880eedddddfffgffggggfgfgfffdfddddedppqqq8w8wqwwwdddfffgggggggggddaw96262,:::;:====o+oooooooooOOOO>>>>r>r>rrtttririiu,ii",
"gfgfgffgfffdfdddddqeqqqq8q8wqwwwdddfffggggggggffda9966<,,:::;;====o=o=ooooooOOOOO>O>>>r>rtrttryyyiyi,yiiiiiiiiiiiiiiiiiuiititututtttttttttttttttttttuututitiuiiiiiiiiiiiiiiiiiiiyiyyyyyyrrrrr>>>>O>O>OOoOooooooo@o=====;;:,,,,2699wdfdfggggggggfdfdwdwqq9q8qqqqqeqdddddfdffffgfgfgfgfgffffdfdddeee0775333<<<&&%%$$@+@+X@XX+XX X............                        ..............X+XX+X@+@@@%$%&***<3135580e0ewwddfdfffgffgfggfgfffffdfddddespqqqq8w8w9wwwdddffgggggggggfdaa966,,,,:::=;===o=ooOooooooOOOOO>>O>>rrrtr,tyririiuii",
"fgfggfgfffdfdfdddedsqqqqq9w8qwwwwdddfgggggggggfdda996,6,<,::;;=====oooooooooOOOOO>>>>>>>rrt,ryyyyyyiiiiiiiiiiiiiiiiiiiiiitititutttttttttttttttttttttttutitiiiuiiiiiiiiiiiiii2iiyiyyiryyrryrrrr>rO>>OOOOOOooooooooo====;;:::<,22669wddfgggggggggffdddwwwqw8q9qqqqqdedddddffffffgfgfggffgffdffddwdee0075531<<***%&$$$$++@XXXXX X.X...........                       ............X.X.XXXX@X@@@$$$%%&*<<<3355780eewddfdffffffgfgfgfgffffdfdfddwdssqqq9q8q9wwwwdddffggggggggfffda96622,:,:;:=====ooOXoooooOOOOO>O>>>r>>trrtyritituiii",
"gfgfgfgffffdfdfdddqepqqqq8qw9wqwdddfdfgggggggggfdd99662,,::::;;===o@oooXoooooOOOOO>>>>>r>rrrryyyyyyiyiiyiiiiiiiiiiiiiiiiuititituttttttttttttttttttttttuutitiiiiiiiiiiiiiiiiiiiii,iyyiyyyyrrrr>rOrO>>oOOOoOooooooooo====;;::,,,26699wdffgggggggggddddwwwqqw8w8qqqwsdddddfdffffffgggfggfffffddfddeeee77553311<*&&%$$$+$++++XXXXX.X............                       ............X.X.XX+X@X@@@$%%%&**<<33357800ewwdddfdfffgfgggfgffgffffddddddeeqqqqqq8w8wwwwdddffggggggggfdda9966<,,:::;;%===o=ooooooooOOOOO>O>>>rr>,tryty,ui,uii",
"fgfgggfffffffddddddssqqq9qq8w8wwwdddffggggggggfffaw9662,,,::;;=;===oooooooooOOOOO>O>>>r>rrrriryyyyyyiiiiiiiiiiiiiiiiiiiuiiitittutttttttttttttttttttttuttititiiuiiiiiiiiiiiiiiiiiiriyyyyyrrrrrr>>>>>o>OOOOooooooOo@====;;;:::,,2269waddgggggggggfffdddwwwq8w8wqqqqpewddddfdffffgfgfggfgffffffddddee00054531<<*&&%%$$$$+++X+XXX.X.............                       .............X.XXXX+X@+@@$$%%&&*<1<344788eeedddfdfffgfgfgfggfgffffdfddddedqsqqqq8w8qwwwdddfffggggggggffda99626,,:::;;====@oooooooooOOOOO>>O>>>>rr>ytyririuuii",
"fggfgfgfgfffdfdddddeeqqqq8qw8wwwwwddfffggggggggfdda9966,,,:::;;=====oOoooooooOOOOO>O>>>r>rrtryuyyyiyyii,iiiiiiiiiiiiiiiiuutititttuttttttttttttttttttttuutitiuiiiiiiiiiiiiiiiiiiiiiyyyyyyyrrrrr>rOrO>o>OOoOoooooXooo=====;;::,,22669wdfdfggggggggfdfdwdwqwq8w8qqqqeddeddfdfdffffgfgfggfgfffdffdddeee0705333<<<&&%%$$@+@++XXXXXX.X............                        .............X.+XX+X@@@@@%$%&***<313557e0eewwddffdffffgfgfgfgfffffdfddddweqqqq9qqqq8wwwdddffgggggggggfdda966,2:,:::=;===o=oooooooooOOOO>>>>r>rrrrrtyyriti,ui",
"ggfgfgfgfffdffddddedeqqqqqq8qqqwwddddfgggggggggffdaw96,6,:,:::=====o=XoooooooOOOOO>>>>>>r>trrttyyyyyiiiiiiiiiiiiiiiiiiiiiiititituttttttttttttttttttttuttititiuiiiiiiiiiiiiiiiiiiyiyiyyyyrryrrrr>>>O>OOOOOOooooooooo====;;:::,,,2699wddfgggggggggffdddwwwq9w8qqqqqpesdddddfffffgfgfggfgffffffdddddee00754311<<&&&&$$$$+@X@XXXX X.X...........                       .............X..XXXX+X+@@$$$%%&*<<<3345708eewddfddffffgfgggfgfgfffdfdfdddedpqqqqq8q9wwwwdddffgggggggggfdaw9626,,,::;;;;===oo=ooooooOOOO>O>O>Or>>rtt,triruiuiu",
"fggfggfgffffddfddddwqeqqq9qqqqqwwwddfdfgggggggggfdd9966,3,:::;:=====oo=oooooooOOOOO>>>>>rr>ttt,uyyyiyiyiiiiiiiiiiiiiiiiiiuiututtutttttttttttttttttttttuutituiiuiiiiiiiiiiiiiii2iiyiyyyyyyyrrrr>rrO>>>O>oOOoooooooo@o====;;&:,,,22699wdffgggggggggddddwwwqw8w8qqqqqdwddddfdfffffgfgfggfgffffdfdddeee00575311<<<&%%$$$+$++X@XXXX X.............                       .............+.X+XX++++@@$%%%&**<<333578e0ewwddfdfffffgfgfggfffffffddddddqeqqqqqq8wqqwwwdddffggggggggffda9962,3,:::;=====@ooooooooooOOO>O>>>>rr>rrttyyi,tii,",
"gffggfgfffffffdddddedpqqqqq8q9wwwwdddffgggggggggfdaw9666,,,:::=%===o=ooooooooOOOOO>O>>>>r>rr,rtyyyyyiyiiiiiiiiiiiiiiiiiiuiitiutittutttttttttttttttttttttutuiriiiiiiiiiiiiiiiiiiiyiyiyyyyyrtrrrrrO>rO>OOOOOoooooooooo===;;;:::,,2666waddgggggggggfffdddwww8w8qq8qqweedddddfdffffgfgggfgfgfffffddddee000555311<*&&&%$$$++@+XXXXXXX.X...........                       ..............X.XXX+X+@@@$$%%&&*<1<3447880eeddddfdfffgfgfggfgfgfffdfddddedppqqqq8w8qwwwdddfffggggggggfddd99662,,:::;;;===o=ooooooooOOOOO>O>>r>>rrrt,ytutiuii",
"fggfggfgfgffdffdddddqeqqqqqq8w8wwwdddfffggggggggffda9966,,,:::;;==@=o=ooooooooOOOOO>O>>>>rrrtrtuyyyyii,iyiii2iiiiiiiiiiiiuiitittutttttttttttttttttttttutuutiitiiiiiiiiiiiiiiiiiiiiiriyyyyyrrrrrOr>Oro>OOOoOooooooo@o====;;:::,,32699wdfdfggggggggfdfdwdwwq8w8wqqqqwedwddfdfdffffgfgfggffgfffdfdddeee0775331<<<&&%%$$$$+++X@XXX X.............                        ..............XX+X+X@+@@@%$%&***<3335570e0wwwddffffffgfgfggfgfffffdfddddespqqq0q8w8wwwwdddffgggggggggfdaa9662,,<,:;;=====ooooXoooooOOOO>>>O>r>rrtryry,uu,ui",
"fgfggfggffffffdfdddedsqqqqq8qqqwwwddddfgggggggggfdda996,6,<,::;;;====oooooooooOOOOO>>>>>r>rrrt,rutiyyyiiiiiiiiiiiiiiiiiiiiitituututttttttttttttttttttttuutituiuiiiiiiiiiiiiiiiiiiiyiyyyyyrrrrrrrrOrO>OOOOOOooooooooo====;;;::,,22669wddfgggggggggffdddwwqwqq8q9qqqqdedddddffffffggfgfgfgfffdffddddee00555311<***%&$$$+@+++XXXXX XX...........                       ............+.X.XXXX@X+@@$$$%%&*<<<3345708eewddfddffffgffgggfgffffdfdfddwdssqqq9qq9w8wwwdddffgggggggggfddw96622,,::;:=====o+oooooooOOOOOO>O>>>r>r>yryriritii",
"ffgfggffgfffffddddddespqqq9q8wqqwwwddfdfgggggggggfdd9966,,,::::;====o@ooooooooOOOOOO>>>>>rrrryrir,uiyiyiiiiiiiiiiiiiiiiiiiuitituttutttttttttttttttttttttuutiuiiuiiiiiiiiiiiiiii2iyiyiyyyyyyrrrrr>rOro>o>oOOoooooooooo===;;;::<,,26699wdffgggggggggddddwwwqqqw8qqqqqqdddddfdffffgffgggfgfgfffddfddwee000553311<*&&%$$$$++++XX@XXX X ...........                       ..............XXX+XX@++@@$%%%&**<1133578e0eewddffdffffggfgfgfgfffffddddddeqqqqq9q8wqwwwwdddffggggggggffda9962,,,:::=:====oo=ooooooooOOOO>>>>r>rrrrtyyyuuiri",
"fgfggfgggffffdffdddddssqqqqqq89wqwwdddffggggggggfffaw96622,,::;;;====oo=ooooooOOOOO>O>>>>r>rrryryyyyyyiii,iiiiiiiiiiiiiiiuiiitituutttttttttttttttttttttututititiiiiiiiiiiiiiiiiiiiiiyiyyyyrryrr>r>>O>>>oOOOooooooOo@=====%;::,,,2269waddgggggggggfffdddwwqq98wqqqqqdqdddddfdfffffgfgfggfffffffddddee00555331<<*&&&%$$+$+@X@XXXX X.X...........                       .............XX.XXX+X+@@@$$%%&&*<<13447880ewdddddfffgfgfgfgfgfffffdfddddedppqqqq8qqqqwwdddfffggggggggfddaw9662,,,:::=%===o=ooooooooOOOO>O>OrOr>rrryryru,riy",
"ffgfggfgfgffffddfdddwwsqqqq8qw8wwwwwdddffggggggggfdda9966,,,:::;;=====oooXooooooOOOO>O>>>>rrrtryruyyiyiyiiiiiiiiiiiiiiiiiiuutititttutttttttttttttttttttutuutitiiuiiiiiiiiiiiiiiiiiiyyyyyyyyrtrrrOr>>O>O>OOoOoooooXooo=====;;::,,,2669wdfdfggggggggfdfdwdwwqw88w9qqqededddfdfdffffggfgfggffffdffdddeee0055513<<<&&%%$$$+@++XXXXXX X............                        ..............X+XX+X@+@@@%$%&***<3135580e0ewdddfdfffffgfgggfgfffffdfddddqspqqqqq8w9wwwwdddffgggggggggfdd99662<,::::;====+oo=oooooooOOOO>>>Or>r>ry>yririiii",
"fgfggfgfgffffdffddddedqqqqqqq8qqqwwdddfffggggggggffdaw96,6,<,::;;;===o@ooooooooOOOOO>>>>>r>rrryryyyyyyyiiiiiiiiiiiiiiiiiiiiiititututtttttttttttttttttttttutitiiuiiiiiiiiiiiiiiiiiiyiiyyyyyrrrrrrr>rOro>OoOOOooooooooo====;;::::,22699wddfgggggggggffdddwwqw8wq8qqqqpeddddddfffffgffgfggfgfffffddddeeee505351<<<&&&&$$$$+++X@XXXXX.X...........                       ............X.X.XXXX@X@@@$$$%%&*<<<3355780eewwdfdfffffgfgfgfgfgfffdfdfddddssqqqq8w8w8wwwdddffgggggggggfdaw96622,,::;;;=====ooooooooOOOOO>O>>>>rrr>ttyrituti",
"fffgfgfgfgffffdfdfdddedqqqq90qqqwwwwdddffgggggggggfdd9966,,,::::;====ooo=oooooooOOOOO>>>>>r>rrrryyyyiyiyiiiiiiiiiiiiiiiiiiiuiutituttutttttttttttttttttttutuuitiiuiiiiiiiiiiiiiiiiii,iyyyyyyyrrrrrrO>OroO>oOoOooooooo@o====;;::,,,22699wdffgggggggggddddwwwqq8qw8qqqwseddddfdfffffgfggfgfgffffdfddddee00575331<<<&%%$$$+$+++XXXXX X.X ..........                       ............X.X.XX+X@X@@@$%%%&**<<3335780eeewdddfdffffgggfggfffffffddddddeqsqq0q8w8wqwwwdddffgggggggggfdw9962,,,:::;=;===o=oooooooooOOOO>O>>>>rrr,ttyti,ut",
"ffgfggggfgfffffdfdddddqeqqqqqq8qqwwwddfdfgggggggggfdaw96622,,::;;;=====ooooooooOOOOO>O>>>r>rrrriryyyyyyiiyiiiiiiiiiiiiiiiiuiititituttttttttttttttttttttttututitiiiiiiiiiiiiiiii2iiiiriyyyyyrrrrrrOr>>O>>oOOOoooooooooo===;;;:::,,2666waddgggggggggfffdddwwwqqw8qqqqqedwddddfdfffgfggfgfgfgfffffddddee000553311<&&&&%$$$++@X+XXXXX.X............                       .............X.XXXX+X@+@@$$%%&&*<1<3447880eedddfdffffgfgfggfgfgfffdfddddedsqqq9qq8wqqwwdddfffggggggggfddd996262:,::;:====ooo+ooooooOOOOO>>O>>r>rrrrtt,ytui",
"fgfgfgfggffgffffdddddedqqqqq9qqqqqwwdddfffggggggggffda9966,,,:::=;====o@oooooooooOOOO>O>>>r>rrtryryyyiuyii,iii2iiiiiiiiiiiiuiititututtttttttttttttttttttutuuutitiiiiiiiiiiiiiiiiiiiiiyyiyyyyrrrrrrOr>O>o>OOoOooooooo@o=====;:::,,32699wdfdfggggggggfdfdwdwqq9qq8w9qqeqddddfdfdfffgfggfggffffffdfdddeee0055513<<<&&%%$$$$+++X+XXXX.X............                        .............X.+XX+X@@@@@%$%&***<313557e0eewddddfffffgfgfggfgfffffdfddddeepqqqq9q8wwqwwdddffgggggggggfdaa966,,,<,;;;;===@ooooooooooOOOO>>>>>>r>rryryyyi,u",
"ffffgfgfgfgffffddfddddedqqq0qw8q9wwwwdddfgggggggggfdda996,6,<,:::=:==o=oooooooooOOOOO>>>>>>r>rryryyyyi,iiiiiiiiiiiiiiiiiiiiiititituttttttttttttttttttttttuutuiriuiiiiiiiiiiiiiiiiiiyiiyyyyyrryrrr>rrO>O>OOOOOooooooooo====;;;::,,22669wddfgggggggggffdddwwwqw899qqqqqdedddddfffffffgfggfgfgffdffddwdee0055351<<<&*%&$$$+@++@XXXX.X.X...........                       .............X..XXXX+X+@@$$$%%&*<<<3345708eewdddfdffffgffgggfgffffdfdddddsdsqqqqq8w8qwwwdddffggggggggfffda96622,,:::;====o=ooooooooOOOO>O>O>Or>rrt>tttyriy",
"fffgfgggffgffffffdddddeqsqqqq8w8wqwwdddfdfgggggggggfdd9966,,,:::;;====o=oOoooooooOOOOO>>>>>rrrrrtyyyyyiyiyiiiiiiiiiiiiiiiiiiuititituttttttttttttttttttttttuutuiiiiuiiiiiiiiiiiiiiiiiyiyyyyyyyrrrrr>OrO>O>oOOoOooooooooo===;;;:::,,26699wdffgggggggggddddwwwqqw8w8qqqwsdedddfdfffffgfgfggfgffffddfddeee00055331<<<%&%$$$$+++X+XXXX..X............                       .............+.X+XX++++@@$%%%&**<<333578e0ewwddfdfffffggfgfgfgffffdfddddwesqqqqq9qqqwwwwdddffggggggggfddaw966,,,:::;;====oo=ooooooooOOO>O>>>>r>rrtt,utiyy",
"ffgfgfgfggfgffffdfdddddepqqq9q8wqqwwwdddffggggggggfffaw96622,,:::;;===@oOXooooooOOOOO>O>>>>r>rrttryyyyyiyiiiiiiiiiiiiiiiiiiuiiitittutttttttttttttttttttttututiutiuiiiiiiiiiiiiiiiiyiiyiyyyyyrtrrr>rrO>>>OOOOOooooooOo@=====;;::,,,2269waddgggggggggfffdddwwqw8w8qqqqqeedddddfdfffgfgfggfgfffffffddddee00755331<<**&%&$$+$++++XXXX.X.............                       ..............X.XXX+X+@@@$$%%&&*<1<3447880eeddddfdffgfgfgfgfgffffffdfddwddqqqqq8w8qqqwwdddfffggggggggffda996,6,,::::=%===o@ooooooooOOOOO>>>>>>r>t,rttyyyy",
"ffffggfgfgfffffffdddddedeqqqqqq8w9qwwwddfffggggggggfdda9962,,<:::=;=====ooooooooooOOOO>O>>>>rrrr,triyyyii,iyiiiiiiiiiiiiiiiiuutititttutttttttttttttttttttutuutiitiiiiiiiiiiiiiiii2iyiyyiyyyyyrrrrrOrrOO>>OOOoOoooooXooo====;;;::,,,2669wdfdfggggggggfdfdwdwqqw8w8qqqqwdedddfdfdfffgfgfggfgfgffdffdddeee0055433<<*&&%%$$$@+@X+XX+XX.X............                        ..............XX+X+X@+@@@%$%&***<3335570e0wwwddfffffffgfgggfgffffdfdfddwedqqqqq8wq9wqwwdddffgggggggggfdda9662<,:,:;;=;==ooo=oooooooOOOO>O>>>r>rrryt,tyyi",
"fffgffgggfggfffdfdfddddeqeqqqq8q8wwwwddddfgggggggggffdaw9626,,,:::=%===o=ooooooooOOOOO>>>>>r>rrrriryyyyiyiiiiiiiiiiiiiiiiiiiiiititituttttttttttttttttttttttutiutiiuiiiiiiiiiiiiiiiiiiyiyyyyyrrrrrrrrOr>>OOOOOOooooooooo===;=;:::<,226999ddfgggggggggffdddwwww8w8qqqqqeqddddddffffffgfggfgfgfffffdddddee0075431<<<*&&%$$$+@+++XXXX.X.X...........                       ............+.X.XXXX@X+@@$$$%%&*<<<3345708eewddfddffffgfgfgfgfgfffffddddddedqqq9w88wqwwwdddffgggggggggfdaw96622,,::;;;=====oOXoooooOOOOOO>>O>>r>rrrryyriy",
"ffffggfgfgffgfffdfddddddqqqqq9qqq8wqwwddfdfgggggggggfdd9966,,,::::;=;==oo=ooooooooOOOOO>>>>>rrrrtriryyyyiyiiiiiiiiiiiiiiiiiiiuiututtutttttttttttttttttttttututiuuiiiiiiiiiiiiiiiiiii,iyyyyyyyyrrrrr>>O>O>OOOOOoooooooo@o===;=:;:,,,2269wwdffgggggggggddddwwwwq8w8qqqqqdeddddfdffffffgfggfgfffffdfdddseee77753311<*&&%$%$$++++XXXXX X.............                       ..............XXX+XX@++@@$%%%&**<1133578e0ewwddffdffffgggfggffffffdfdddddqeqqqq8qw8wqwwwdddffggggggggffda9962,,,:::;;====o=oooooooooOOO>O>>>>rr>rryryyyy",
"dfffgfgfggfgffffffdddddedpqqqqq98w9wwwdddffgggggggggfdaw96622,,::;;;====+ooooooooOOOOO>O>>>>r>rrrtryyyyyiiyi,iiiiiiiiiiiiiiiuiitiutittuttttttttttttttttttttutituiriiiiiiiiiiiiiiiiiiiiyiyyyyyrryrr>r>>>>>OOOOOoooooooooo====%;:::,,26699addgggggggggfffdddwwqqw8qqqqqwqedddddfdffffgfggfggfgfffffddddee00055531<<*&&%%$$+$+@X@XXXXX.X............                       .............XX.XXX+X+@@@$$%%&&*<<13447880eedddddffffgfgfggfgfgffdffddddedsqqq0qq8w8wwwdddfffgggggggggddw99662,,,:::=:==o@oooooooooOOOOO>O>>>>>rrtrtyyyy",
"fffffgfgfggfgfffdffdddddqsqqqq8qw8wwwwdddfffggggggggffda9966,,,:::;;=====oo+oooooooOOOO>O>>>>rrrt,tuyyyiyiyiiiii2iiiiiiiiiiiiuiitittutttttttttttttttttttttututitiiuiiiiiiiiiiiiiiiiiiyiyyyyyyyrrrrrOr>>O>O>oOoOooooooo@o====;;:::,,,2699wdfdfggggggggfdfdwwwwq8w8q9qqqedsdddfdfdffffgfggfgffffffddfdweee0775333<<<&&%%$$$@+++X+XXXX.X............                        ..............X+XX+X@+@@@%$%&***<3135580e0ewwdfdfffffgfgfggfgffffddfddddespqqq9qq8wqwwwdddffgggggggggfddw9662<,:::;;====o=oooooooooOOOO>>>>>r>rrrtttyyy",
"ffffgfgfggfgffffffdfdddedsqqqqqq8qwqwwddddfgggggggggfdda996,23:,::;=;===o=ooooooooOOOOO>>>>>r>rrrryyyyyyyiiiiiiiiiiiiiiiiiiiiiitituututttttttttttttttttttttttituiuuiiiiiiiiiiiiiiiiiiiiiyyyyyrrrrrrr>rO>>OOOOOOooooooooo====;;;::,,22669wddfgggggggggffdddwwwqw8qqqqqqpswdddddfffffgfggfggfgfffdffddddee0075531<<<*&&&$$$+@@X@XXXX.X.X...........                       ............X.X.XXXX@X@@@$$$%%&*<<<3355780eewdddfdffffgffggfgfffffffdfddwdspqqqqq8wqqwwwdddffggggggggfffda96622,,:::;=%===o@oooooooOOOOOO>O>>>r>tt>,ttyy",
"fffffgggfggfgffffdfdddddwqpqqq9qq8wwqwwddfdfgggggggggfdd9966,,,::::;=====ooooooooooOOOOO>>>>>rrrrtrruyyyyi,yiiiiiiiiiiiiiiiiiiuitituttuttttttttttttttttttttuutitiiiiuiiiiiiiiiiiiiiii,yyyiyyyyyrrrrr>OrO>>o>oOOoooooooooo====;;:::,,22999wdffgggggggggddddwwwqqq98wqqqwsdedddfdffffffgfgfggfgfffdfdddeee00555331<<&*%%$$$$+++X@XXXX..X............                       ............X.X.XX+X@X@@@$%%%&**<<33357800ewwdddfdffffggfggfgfgffdfddddddeqsqqq9q8w9qwwwdddffggggggggfdda9962,,,,:;:======oooooooooOOOOO>>>>>>r>,ttt,ty",
"dffffgffggfgffffffdfddddedsqqqqq8w8qwwwdddffggggggggfffaw9666,,,::;;;===o@ooooooooOOOOO>O>>>>r>rrtrutyyyiyiiiiiiiiiiiiiiiiiiiuiiitituuttttttttttttttttttttuttutititiiiiiiiiiiiiiiiiiiiiyiyyyyyrtrrrr>rOro>OOOOOooooooOo@====;;;::,,,2666waddgggggggggfffdddwwq9w8w8qqqqeedddddfdffffgfgfggfgfffffdfdddee00054531<<<&&&%$$@$+@+XXXXX.X.............                       .............X.XXXX+X@+@@$$%%&&*<1<344788eeedddfdfffgfgfggfgfgffffffddddsdsqqqqq8q8wwwwdddfffggggggggffda99626,,:::;;;===oo=ooooooooOOOOO>>>;r>rrrrtyyy",
"fdffffggfggfgfgffdfddddddeeqqqqqq8wqwwwwdddffggggggggfdda996,6,,:::=;====oo@ooooooooOOOO>O>>>>rrr,tt,uyyyiyiiiyiiiiiiiiiiiiiiiuutititttutttttttttttttttttttuututitiuiiiiiiiiiiiiiiiiiiiiyyiyyyyrrrrr>>rOrO>OOOoOoooooXooo====;;;::,,32699wdfdfggggggggfdfdwdwww8w8w9qqqwdedddfdfdffffgfgfggffgffdfddddeee0705333<<<&&%%$$@@++++XX+XX.X............                        .............X.+XX+X@@@@@%$%&***<313557e0eewwddfdfffffgfggffgffffdfdfddwespqqqqqqq8wwwwdddffgggggggggfdda9662<,:,:;;=====oooXooooooOOOO>O>>>>rrrrt,tty",
"dfffgfgfggfggffffffdfdddedqqqqqq8qqqqwwdddfffggggggggffdaw966,,:,:::=====o=ooooooooOOOOO>>>>>r>rrtrryyyyyyiii,iiiiiiiiiiiiiiiiiiititututtttttttttttttttttttttutitiiiuiiiiiiiiiiiiiiiiiyiiyyyyyrrrrrrrrOrO>OOOOOOooooooooo=====;::::,226699ddfgggggggggffdddwww8w8w8qqqqeqddddddfffffgfgggfgfgfffffdfdddee00754311<<&&&&$$$$++@XXXXX.X.X...........                       .............X..XXXX+X+@@$$$%%&*<<<3345708eewddfdfffffgfggfggfgfffffddddddssqqqq8q9w8wwwdddffgggggggggfdaw96622,,:::;;===o@ooooooooOOOO>O>O>>rr>rtrtryy",
"fdfffffgfggffgffffdfdfdddedqqqqqq8w9qwwwdddffgggggggggfdd99666,,:::::=====ooooooooooOOOOO>>>>>r>rrytryyyyyiyiiiiiiiiiiiiiiiiiiiuiutituttuttttttttttttttttttttuutitiiiiiiiiiiiiiiiiiiiiiyyiyyyyyyrrrrr>rO>O>o>oOOoooooooo@o===;;;::,,,2669wwdffgggggggggddddwwwqqq8w8qqqqdeddddfdfffffgfgfggfgfffffddddseee775533<<<<&%%$$$+$++++XXXX.X.............                       .............+.X+XX++++@@$%%%&**<<333578e0ewwdddfdffffgfggfgffffffdfdddddeqsqq0q8w8wqwwwdddffggggggggffda9966,,,:::;;====oo=oooooooOOOOO>>O>>>r>r,ttyy",
"dfffffgfggfgggffffffddddddqeqqq9qq8w9wwwddfdfgggggggggfdaw966,2,,:::=%===o@ooooooooOOOOO>O>>>r>rrrrtryyyyiyiiiiiiiiiiiiiiiiiiiuiitititutttttttttttttttttttttuttititiiuiiiiiiiiiii6iiii,iiyyyyyyrtrrr>rO>>>>>oOOOoooooooooo====;;:::,,22699addgggggggggfffdddwwwqqqqq9qqeqdeddddfdffffgffggfgffgffdffdddee000545311<&&&&%$$$@+++X+XXXX X............                       ..............X.XXX+X+@@@$$%%&&*<1<3447880eedddfdffffgfggfgfgfgffdffddddedsqqq9qq8wqwwwdddfffggggggggfddd996,6,,::;:=%===o=ooooooooOOOO>O>>>>r>ry>tyry",
"fdffffgfgfgfgfgffffdfddddedqqqqq8qw8wwwwdddfffggggggggffda9966<,,:::;;;===o=o+oooooooOOOO>O>>>r>rrt,tuyyyyiyiiiiii2iiiiiiiiiiiiuiititututttttttttttttttttttttuutitiuiiiiiiiiiiiiiiiiiiiyiiyyyyyyrrrrr>r>OO>o>OOoOooooooo@o=====;:::,,32699wdfdfggggggggfdfdwdwqq9q8qqqqqwsdwddfdfdffffggfggfgfffffdddddeee0705333<<<&&%%$$+$+++XXXXXXX.X ..........                        ..............XX+X+X@+@@@%$%&***<3335570e0wwddddffffffgfgggfgffffddfddddespqqq9qq8w9wwwdddffgggggggggfdaa9662<,,:::;====+ooo=ooooooOOOO>O>>>>r>ryryyy",
"dfdffffgfgggfgffffdffdddddedqqqqqq8qwqwwwdddfgggggggggfdda996,6,<,::;;===o=oooooooooOOOOO>>>>>>r>rrryyyyiyyiyi,iiiiiiiiiiiiiiiiiitititutttttttttttttttttttttuttititiuiiiiiiiiiiiiiiiiiiiyyyyyyyrrrrrrrrOr>O>OOOOOooooooooo====%;;:,:,22669wddfgggggggggffdddwwwqw8q9qqqqsqddddddfffffgffggfgfgfffdffddddee0075431<<<*&%&$$$$+@X@XXXX..X............                       ............+.X.XXXX@X+@@$$$%%&*<<<3345708eewdddfdffffgfgfgfgfffffffdfddwdspqqqqq8w8wwwwdddffgggggggggfddw96622,:,:;;;=====ooooooooOOOOOO>O>>r>rr>ryty",
"fdffffffgfgfgfgffffddfddddeqsqqqq9q8wwqwdddfdfgggggggggfdd99662,,::::=;===o@oooooooooOOOOO>>>>>rrrrtrryyyyyiiyiiiiiiiiiiiiiiiiiiuitititutttttttttttttttttttttuutituiiuiiiiiiiiiiiiiiiiiiiyyiyyyyyrrrrrOrO>>O>OOOoOooooooooo====;;::,,,22999wdffgggggggggddddwwwqqw8w8qqqqdeddddfdfffffgfgfggfgffffddfddeee00575331<<&<%%$$$+$++X@XXXXX X............                       ..............XXX+XX@++@@$%%%&**<1133578e0ewwddffdffgffggfgfgfgffdfddddddeeqqqq9q8w8wwwwdddffggggggggffda99622,,:::;=;==oo@ooooooooOOOOO>>O>>r>ry>ttt",
"dffdfffgfgfggfgffffffddddddeeqqq9q8w8wwwwdddffggggggggfffaw9662,,,::=:=====oooooooooOOOOO>O>>>>r>rrtryyyyyyiyiiiiiiiiiiiiiiiiiiuiiitittutttttttttttttttttttttttutuiriiiiiiiiiiiiiiiiiiii,iyyyyyyrryrr>r>>rO>OOOOOooooooOo@====;;;:::,,2666waddgggggggggfffdddwwwq8w8wqqqqwqdddddfdfffgfgfggfgfgfffffddddee00055531<<<&&%%$$$++@+XXXXX.XX............                       .............XX.XXX+X+@@@$$%%&&*<<13447880eedddddfffffggfgggfgffffffddddsdppqqqq8qqqqwwdddfffgggggggggddaw966,,,:::=:=====oooooooooOOOO>O>>>>>rr>tr,y",
"ddfffffgfggfggffgffdffddddedqqqqqqq8w8wwwwddfffggggggggfdda9966,,,:::=:=====ooooooooooOOOO>O>>>>rrr,ttyyyyiyiiiiiiiiiiiiiiiiiiiiuutititttutttttttttttttttttttutuutiitiiiiiiiiiiiiiiiiiiiiyiyyyyyyrrrrr>>>O>O>OOOoOoooooXooo====;;&::,,,2699wdfdfggggggggfdfdwdwqwq8w8qqqwededddfdfdfffgfgfgggfffffdffdddeee0775333<<<&&%%%$$$+++X@XXXX..X ..........                        ..............X+XX+X@+@@@%$%&***<3135580e0ewwddfdfffgffgfgfgfffffdfdfddwespqqqqq8qqwwwwdddffgggggggggfdaa9666,,:,::==:=oo=oooXoooooOOOO>O>>>r>rrryry",
"dfdffffffgfgfgfgfffffdfddddedqqqqq8w8wqwwddddfgggggggggffdaw96,6,,::::=%==Oo@ooooooooOOOOO>>>>>r>rrrtryyyyyyiyyiiiiiiiiiiiiiiiiiiiitititutttttttttttttttttttttuutituiuiiiiiiiiiiiiiiiiiiiiiyyyyyrrtrrr>r>>>>OOoOOOooooooooo====;;;:,:,226699ddfgggggggggffdddwwwq9w8qqqqqqqddddddffffffgfgfgfggfffffdddddee0075531<<<&&&%$$$+@+++XX+X XX............                       ............X.X.XXXX@X@@@$$$%%&*<<<3355780eewddfdffffffgfgfggfgfffffddddddssqqqq8q9w8wwwdddffggggggggfffda966,2,,::;:====@oooooooooOOOO>O>>>>>r>rrrty",
"ddfdffffgfgggffgfffffddddddeqpqqq8qqqqwqwwddfdfgggggggggfdd9966,3,,:::;===@oo=ooooooooOOOOO>>>>>rrrrrytyyyiyiii,iiiiiiiiiiiiiiiiiuiututtuttttttttttttttttttttttuutiuiiuiiiiiiiiiiiiiiiiiiyyyiyyyyrrrrrr>>>O>>O>oOOoooooooo@o====;;::,,,2669wwdffgggggggggddddwwwqw8w8qqqqededdddfdffffffgggfgffgfffdfdddseee7755331<<<&&%$$$$++++XXXXX XX ...........                       ............X.X.XX+X@X@@@$%%%&**<<33357800ewwdddfdfffgfgggfgffffffdfdddddeqqqqqqq8wqwwwwdddffggggggggfddaw966<,,:::;:o===o@oooooooooOOOO>o>>>>rrrryt",
"dfdffffgfgfgfggfgfffdffdddwdssqqqqq8q9wwwwdddffgggggggggfdaw9666,,,::;;;=====ooooooooOOOOO>O>>>>r>rrttruyyyyi,iiiiiiiiiiiiiiiiiiuiitiutittutttttttttttttttttttututititiiiiiiiiiiiiiii2iiyiyiyyyyyyrrrrr>rOrO>OOOOOoooooooooo===;;;:::,,22699addgggggggggfffdddwww8w8qqqqqqsedddddfdffffgfgfgfggffffffddddee00054531<<&&&%%$$+$+@X@XXXXXX X ..........                       .............X.XXXX+X@+@@$$%%&&*<1<344788eeedddfdfffgfgfgfgfgfgffdffddddedppqqqq8w8wqwwdddfffggggggggffda996,6,<,:::=%====oooooooooOOOOO>>>>>r>rry>y",
"ddfdfffffggfgfgffffffddfddddeqsqqq9qqq8wwwdddfffggggggggffdaw66,2,::::;;====ooo@oooooooOOOO>>>>>>rrr,tt,uyyiyiyiiiii2iiiiiiiiiiiiuiitittutttttttttttttttttttttutuutitiiuiiiiiiiiiiiiiiiii,iyyiryyryrrrrrOrO>O>OOOoOooooooo@o====;;;::,,32699wdfdfggggggggfdfdwdwwq8w8qqqqqqdsdddfdfdffgfgfgggfgffgffdfdddeee0705333<<<&&&%$$$++@+XXXXXX X X .........                        .............X.+XX+X@@@@@%$%&***<313557e0eewwddffdffffgfgfgfgffffddfddddespqqq9qqq8wwwwdddffgggggggggfdda9662,,:::;;=;==o=oooooooooOOOOO>>>>>r>rryr",
"dddfdfffgffgggfggfffdffddddedsqqqqqq8qwqwwddddfgggggggggfdda99662,,,::;;====o@ooooooooOOOOO>O>>>r>rrtrryyyyyyiiiiiiiiiiiiiiiiiiiiiitituututtttttttttttttttttttttutitiiuiiiiiiiiiiiiiiiiiiiiiyyyyyyrrrrr>r>>>>OOOOOOooooooooo===;=;:::,,226899ddfgggggggggffdddwwqwqq8q9qqqsswdddddfffffffgfgfgfgfffdfdfdddee00754311<<*&%&$$@$++X++XXX XXX...........                       .............X..XXXX+X+@@$$$%%&*<<<3345708eewddfddffffgfggggfgffffffdfddwdspqqqqq8qqqwwwdddffgggggggggfdaw96622,,:::;;====o+oooooooOOOOO>O>O>r>rrrry",
"ddfdfffffggfgfgffgfffdfdfdddwqsqqq0qq8wwqwwddfdfgggggggggfdd9966,3,:::;;;====ooooooooooOOO>O>>>>>r>rrtttyyyyyiyi,iiiiiiiiiiiiiiiiiuitituttuttttttttttttttttttttutuuitiiuiiiiiiiiiiiiiiiiiiyyiyiryyyrrrrr>>O>O>O>oOOoooooooooo===;=;:::,,2669wwdffgggggggggddddwwwqqqw8qqqqwsdedddfdfdffgfggfggfgfffffddddsee0057533<<<<&&$%$$+$++XX+XXX X ............                       .............+.X+XX++++@@$%%%&**<<333578e0ewwddfdfffffgfgfggffgffdfddddddeeqqqq9q8w9qwwwdddffggggggggffda9962,,,,:;;;====oo=oooooooOOOOO>>>>>r>rrtr",
"ddddfffffgfgfggfgfffffdfddddedpqqqqq8w8qwwwdddffggggggggfffaw9666,,,:::;=;==o=ooooooooOOOOOO>>>Or>rrrt,ryyyyyyiiiiiiiiiiiiiiiiiiiuiiitituuttttttttttttttttttttttututitiiiiiiiiiiiiiiiiiiiyiiyyyyyyrryrr>r>>>>>OOOOOooooooOo@=====%;::,,,22699addgggggggggfffdddwwqq98wqqqqqwqddddddfffffgffggfgfgffffdfdddee000555311<&&&&%$$$$+@X@XXXXX XX...........                       ..............X.XXX+X+@@@$$%%&&*<1<3447880eeddddfdfffgfgfgfgfgffffffddddsdppqqqq8w8wwwwdddfffgggggggggddaw9626,,:::;;;==@o=oooooooOoOOO>O>>>>>r>y>y",
"dddfdfffffgfgfggfgfffffddddddqeqqqq9q8wqwwwwdddffggggggggfdda9966,,,<::=;====o@oooooooooOOOOO>>>>r>rrtttuyyyiyyiiiiiiiiiiiiiiiiiiiuutititttutttttttttttttttttttutuuutitiiiiiiiiiiiiiiiiiii,yiyyyyyyrrrrrOr>>o>OOOOoOoooooXooo====;;;::,,,2699wdfdfggggggggfdfdwdwwqw88w9qqqededdddfdfffffggfggfgffffdfddddeee0775333<<<&&%%$$@+@++XXXXXXX X ..........                        ..............XX+X+X@+@@@%$%&***<3335570e0wwwddffffffgfgggffgffffdfdfddwespqqqqq8w8wwwwdddffgggggggggfdaa966,3,:,::=;====ooo=oooooOOOOO>O>>>>rrrt>",
"ddddfdfffgfgfggfgfffffddfdddedsqqq9w8qqqqwwdddfffggggggggffda996,6,,::;:;=====oooooooooOOOOO>>>>>>r>rrt,ryyyyyiiyiiiiiiiiiiiiiiiiiiiititututttttttttttttttttttttuutuiriuiiiiiiiiiiiiiiiiiiiiyiyyyyrrrrrrr>rOrO>OOOOOooooooooo====;;:::<,22669wddfgggggggggffdddwwqw8wq8qqqqpeddddfdfdffffgfggfgfgfffffdfdddee0075531<<<&&&%$$$$+@X++XXXX X X..........                       ............+.X.XXXX@X+@@$$$%%&*<<<3345708eewddfddffffgffgfggfgfffffddddddssqqqq8q9w8wwwdddffggggggggfffda9666,,,::;;=;==o@oooooooooOOO>O>O>;r>r>rt",
"dddfdfffffgggfggfgffffffdddddeesqqq8qq9qwqwwdddffgggggggggfdd9966,,,:,:;:====o=oooooooooOOO>O>>>>>rrrrrtiryyyiyiiyiiiiiiiiiiiiiiiiiuiutituttuttttttttttttttttttttuutuiiiiuiiiiiiiiiiiiiiiiiriyyyyyyyrrrrrrOrO>o>OOOoOooooooo@o====;;::,,,26699wdffgggggggggddddwwwqq8qw8qqqwssddddfdffffffgfggfgfgffffddddseee7755331<<<&&%$$$+$++XX+XXXX X  ..........                       ..............XXX+XX@++@@$%%%&**<1133578e0eewddffdffffggfgfgffffffdfdddddeqqqqqqq8wqwwwwdddffggggggggfdda996,2,,<:::=====o=ooXooooooOOOO>>>>>r>r,r",
"sddddfffffgffgfgfgfffffdfdddddeqqqqqw8qqqwwwddfdfgggggggggfdaw96623,,:::=%====o+oooooooOOOOOO>>>>>r>rrttryyyyyiyii,iiiiiiiiiiiiiiiuiitititutttttttttttttttttttttututiutiuiiiiiiiiiiiiii2iiiiyiyyyyyrrrrrrOrO>>>OOOOOoooooooooo===;;;:::,,2269waddgggggggggfffdddwwwqqw8qqqqqqdeddddfdffffgfggfgfgffffdffdddee00054531<<**&%%$$$@+@X@XXXX.X XX .........                       .............XX.XXX+X+@@@$$%%&&*<<13447880ewdddddfffgfgfgggfgfgffdffddddedppqqqq8w8qqwwdddfffggggggggffdaw9666,,:::=:=====oooooooooOOOOO>>O>>>rr>t",
"sdddfdfffffggggfgffgffdfdddddwdqqqqq8q8w9wwwdddfffggggggggffda99622,,:::;;====oo=ooooooooOOOOO>>>>>rrrr,tuyyyyyiyiiiii2iiiiiiiiiiiiuiititututtttttttttttttttttttutuutiitiiiiiiiiiiiiiiiiiiiiiyiyyyyyrrrrrr>rOO>O>OOoOooooooo@o====;;:::,,22669wdfdfggggggggfdfdwdwqq9qq8w9qqwsddddddffffffgfggfgffgfffdddddeee0705333<<*&&&%$$+$+++XXX+XX.X  X ........                        ..............X+XX+X@+@@@%$%&***<3135580e0ewdddfdfffffgfgfgfgffffddfddddespqqq9qqqqqwwwdddffgggggggggfdd9966,,,,:::;====o@oooooooooOOO>O>>>>r>rt>",
"eddddfdfffgffgfggfgffffdfdddddedqqq9q9w8wqwwwdddfgggggggggfddaw966,,:,::;=;==@o=ooooooooOOOOO>>O>>r>rrrtryyyyii,iiiiiiiiiiiiiiiiiiiiitititutttttttttttttttttttttttutiutiiuiiiiiiiiiiiiiiiiiyiyyyyyyrryrrr>rOr>>OOOOOOooooooooo====;;;:,:,32699wddfgggggggggffdddwwwqw8q9qqqqsewddddffdfffgfggfggfgfffdffddddee0075431<<<*&&%$$$$+@X@XXXX X.XX .........                       ............X.X.XXXX@X@@@$$$%%&*<<<3355780eewwdfdfffffgfgfgggfffffffdfddwdspqqqqq8q9qwwwdddffgggggggggfdaw96623,:,::=%;===oo=ooooooOOOOOO>>O>>>t>r",
"sdddfdfffffggfgfgfgfffffdfddddeesqqqqq8w8wwwdddfdfgggggggggfdd99666,,::::;=====oo=oooooooOOO>O>>>>>rrrrttryyyyyiyiiiiiiiiiiiiiiiiiiiuitititutttttttttttttttttttttututiuuiiiiiiiiiiiiiiiiiiiiyiyyyyyyyrrrrr>>O>O>OOOOOoooooooooo===;=:;:,,,22699wdffgggggggggddddwwwqqw8w8qqqqdedddddffffffgfggfgfgffffddfddeee005753311<*&&%$$$+$++X@XXXX X  X .........                       ............X.X.XX+X@X@@@$%%%&**<<3335780eeewdddfdffffgggfgfgfgffdfddddddeeqqqqqq8w9wwwwdddffggggggggffda9966,,,:::;======ooooooooooOOOO>>>>>r>,r",
"ssddddfffffgfgfgggfffffdfdfddwdeqqqqq8w8wqwwwdddffggggggggfffaw966,3,,::;;;===o=ooXoooooOOOOOO>>>>>r>rt,ryyyyyyiiii,iiiiiiiiiiiiiiiuiiitittuttttttttttttttttttttttutituiriiiiiiiiiiiiiiiiii,iyiyyyyyrrrrrr>>>>>O>OOOOooooooOo@=====%;:::,,2669waddgggggggggfffdddwwwq8w8qqqqeqdwdddfddffffgfgfgggfgfffffddddee00055531<<*&&%&$$$@+@+XXXXXX XX ..........                       .............X.XXXX+X@+@@$$%%&&*<1<3447880eedddfdffffgfgfgfggfffffffddddsdppqqqq8w8wqwwdddfffggggggggfddd996,6,,:::;;;===o@ooooooooOOOO>O>>>>>r>t",
"esdddfdfffffgfgfgfgffffffdddddwdqeqqqq8w8wqwwwddfffggggggggfdda9966,,,:::;;====o=oooooooooOOOOO>>>>r>rrtrtyyyyyyiyiiiiiiiiiiiiiiiiiiuutititttutttttttttttttttttttututitiiuiiiiiiiiiiiiiiiiiiiyiyiyyyyrrrrrr>rO>>oOOOoOoooooXooo====;;:::,,32669wdfdfggggggggfdfdwdwqwq8w8qqqqdqdwdddffdffffgfgfgfgffffdffdddeee0775333<<<&&&$%$+$++++XX+X.X X  .........                        .............X.+XX+X@@@@@%$%&***<313557e0eewddddfffffgfgggffgffffdfdfddwespqqq0q8w8wwwwdddffgggggggggfdaa996,,,:,:;;====ooo=oooooooOOOO>O>>>>rrr",
"eeddddfdfffgfgggfgfgffffdfdddddedqqqq8w8qqwwwddddfgggggggggffda996,6,,::;:=;==o@oooooooooOOOOO>>>>>>r>rrttyyyyyiyiiiiiiiiiiiiiiiiiiiiiitititutttttttttttttttttttttttituiuuiiiiiiiiiiiiiiiiiiiiyyyyyyrryrrr>rO>>O>OOOOOooooooooo====;;;::,,222999ddfgggggggggffdddwwwq9w8qqqqqqedddddfdffffgfgggfgfgfffffdddddee00755311<<&&%&$$$@+@+X+XXXX XXX .........                       .............X..XXXX+X+@@$$$%%&*<<<3345708eewdddfdffffgffgfgggffffffddddddssqqq9qq8wqqwwdddffgggggggggfdda96263,,:::;=%====ooooooooOOOOOO>O>>r>r>",
"eedddfdfffffgfgfggffgffffddfdddeeqqqqq8qqqqwwwddfdfgggggggggfdd9966,,,<,:;;====o=oooooooooOOO>O>>>>>rrrrr,tuyuyyiyiiiiiiiiiiiiiiiiiiiuiututtutttttttttttttttttttttuutitiiiiuiiiiiiiiiiiiiiiiiyiyyyyyyyrrrrr>rO>>o>OOOoOooooooo@o====;;::,,,2669wwdffgggggggggddddwwwqq8w8qqqqeewdddddfdffffgfgfggffgfffdfdddseee775533<<<<&&%$$$$++++XXXXXX X X .........                       .............+.X+XX++++@@$%%%&**<<333578e0ewwddfdfffffggfgfgfgffffdfdddddeqqqqq9qq8wwwwwdddffggggggggffda99622,,:::;;====o@oooooooooOOOO>>O>>r>t",
"eesddddffffffgfggfggffffdffdddwdqdqqqqqqq9qwwwdddffgggggggggfdaw96263,,::;;;====o+oooooooOOOOOO>>>>>r>rrttruuyyyyiii,iiiiiiiiiiiiiiiuiitiutittuttttttttttttttttttuttutititiiiiiiiiiiiiiii2iiyiyiyyyyyrrrrrr>>>ro>OOOOOoooooooooo===;;;:::,,22699addgggggggggfffdddwwwqw8qqqqqqqdwdddfdfdfffgffggfggffffffddddee000545311<&&&%&$$+$+@X@XXXX.X X ..........                       ..............X.XXX+X+@@@$$%%&&*<1<3447880eeddddfdffgfgfgggfgfgffdffddddedppqqqw8qqqqwwdddfffgggggggggddw9966,,,:::;;=====oooooooooOOOO>O>>>>>r>",
"qesdddfdffffgfgfggfgfgfffdfdddddeqqqqq8q8wwqwwdddfffggggggggffda9962,,,:::;=%===oo=ooooooooOOOO>O>>>>rrr,ttr,uiyyiyiiiii2iiiiiiiiiiiiuiitittutttttttttttttttttttttuututitiuiiiiiiiiiiiiiiiiii,iyyyyyyyrrrrrrOrO>>O>oOoOooooooo@o====;;;::,,,2699wdfdfggggggggfdfdwwwqqqq8qqqqqdedddddfdfffffggfggfgffgffdfdddeee0705333<<<&&%$%$$@+@XX+XXXX.X X .........                        ..............XX+X+X@+@@@%$%&***<3335570e0wwwddfffffffgfgfgfgffffddfddddespqqq8q8w9wwwwdddffgggggggggfddw9666,,:,:;;;===o=ooXooooooOOOO>O>>>>rr",
"0eeddddfdfffffgggfgfgfffdffddddedeeqqqq9w8qqwwddddfgggggggggfddaw9626,,:::;;====o=ooooooooOOOO>O>>>>r>rrrtryyyyyiyiyiiiiiiiiiiiiiiiiiiitituututtttttttttttttttttttttutitiiiuiiiiiiiiiiiiiiiiiiiyyiyyyrryrrr>r>>>>OOOOOOooooooooo===;=;:::,,22669wddfgggggggggffdddwww9w8q9qqqqqewdddddfffffgffggfgfgfffdfdfdddee0075431<<<*&&&$$$+@++@XXXX.X.X ..........                       ............+.X.XXXX@X+@@$$$%%&*<<<3345708eewddfddffffgfgfggfgffffffdfddwdspqqqqqq9w8wwwdddffggggggggfffda966,2,,:::;=;==@oo=ooooooOOOO>O>>>>r>>",
"qeeddddffffffgfgfggfgffffdddfdddwqqqqqq8qw9qwwwddfdfgggggggggfdd9966,2:,:::;;====oo=oXoooooOOOO>O>>>>r>rrryyyuyyyiiiiiiiiiiiiiiiiiiiiiuitituttutttttttttttttttttttttuutitiiiiiiiiiiiiiiiiiiiiiyiyyyyyyyrrrrr>>Oro>O>oOOoooooooooo===;=;:::,,22999wdffgggggggggddddwwwqqw8w8qqqededdddfdfffffgfgfggfgfffffddddsee00575331<<&&&&$$$$+++X+XXXX X.X ..........                       ..............XXX+XX@++@@$%%%&**<1133578e0ewwddffdffffgggfggffgffdfddddddeeqqqq8qq8wqwwwdddffggggggggfdda9966<,,:::;;=====ooooooooooOOOO>o>>>rr",
"0eesddfdfdffgfgfggfgffffffffddddedsqqq9qq8qwwwwdddffggggggggfffaw9626,,,::;;=;==o@ooooooooOOOOOO>>>>r>rrryrruuyyyiyii,iiiiiiiiiiiiiiiuiiitituutttttttttttttttttttttuttititiiuiiiiiiiiiiiiiiiiyiyiyiryyrtrrr>r>rO>>OOOOOooooooOo@=====%;::,,,2666waddgggggggggfffdddwwww8w8qqqqwqedddddfdfffgfgfggfgfgffffdfdddee00055531<<<*&$&$$+$++++XXXXX X............                       .............XX.XXX+X+@@@$$%%&&*<<13447880eedddddffffgfgfgfgfgffffffddddsdppqqqqq8ww9wwdddfffggggggggffda996,6,,:::;;====o@ooooooooOOOOO>>>>>>>",
"00esdddfdffffgfgfggfgfffffdfdddddeqsqqq8qw8wqwwwdddffggggggggfdda99622<,:::;;====o=oooooooooOOOO>O>>>r>rrrytr,uiyyiyiiiiiiiiiiiiiiiiiiuutititttuttttttttttttttttttttuutitiuiiiiiiiiiiiiiiiiiii,iyiriyyyrrrrrOr>>>o>OOOoOoooooXooo====;;;::,,32699wdfdfggggggggfdfdwdwqqq8wq9qqqededddfdfdfffgfgfggfgffffdfddddeee07753311<*&&&$%$$@+@X+XXXXXX X ..........                        ..............X+XX+X@+@@@%$%&***<3135580e0ewwdfdfffffgfgggffgffffdfdfddwespqqqq9q8wwwwwdddffgggggggggfdda966,2<,::;;;===ooo=oooooooOOO>O>O>>>r",
"0eeeddddfffffffgggfgfgfffdfdfdddedsqqqqqq8w8wwwdddfffggggggggffda9966,2:,::;;===o=oooooooooOOOO>O>>>>>rrrrtryyyyyyiiiiiiiiiiiiiiiiiiiiiiititututtttttttttttttttttttuttititiuiiiiiiiiiiii6iiiiiiiiriyyyrrrrrrrrOrO>OOOOOOooooooooo====;;:::<,22669wddfgggggggggffdddwwwq9w89qqqqsqddddddffffffgfggfgfgfffffdfdddee0055533<<<*&&&$$$+@+++XXXXX XX...........                       ............X.X.XXXX@X@@@$$$%%&*<<<3355780eewdddfdffffgffgfggfgfffffddddddssqqq9q8w8qwwwdddffgggggggggfdaw9666,,,:::;=;====ooooooooOOOOOO>>>>r>",
"80eedddddfffffgfgfggffgffffddddddeqpqqq09q8wqwwwdddffgggggggggfdd99662,,<::;;;===o+oooooooooOOOO>O>>>r>rrrrytyyyyiyiyiiiiiiiiiiiiiiiiiiuiutituttutttttttttttttttttttuutituiiuiiiiiiiiiiiiiiiiiiriiryyyyyrrrrrOrO>>>o>oOOoooooooo@o====;;::,,,26699wdffgggggggggddddwwwwq8w8w9qqqdedwddfdffffffgfggfgfgffffddddeee00055311<<&&&&$$$$+++X@XXXXX X ...........                       ............X.X.XX+X@X@@@$%%%&**<<33357800ewwdddfdffffggfgfgffffffdfdddddeqqqqqqq8ww8wwwdddffggggggggffda99622,,:::;;====o@ooXooooooOOO>O>>>>>",
"00eesdddffdffgfgfggfggffffdffdddwddpqqq9w8wqqwwwddfdfgggggggggfdaw9662,,,:::;======ooooooooOOOOOO>>>>>r>rryrtyyyyyiyiiiiiiiiiiiiiiiiiiuiitititutttttttttttttttttttttttutuiriiiiiiiiiiiiiiiiiiyiiiriyyyyrryrr>r>>>>o>oOOOoooooooooo===;;;:::,,2269waddgggggggggfffdddwwqqw8w8qqqqwedddddfdffffgfggfgfgffffdffdddee00555333<<<*&$&$$+$++@XXXXX X X...........                       .............X.XXXX+X@+@@$$%%&&*<1<344788eeedddfdfffgfgfgggfgfgffdffddddedppqqqq8qq8wwwdddfffggggggggfddaw966,3:,:;:;===o=oooooooooOOOOO>O>>>>",
"000ewddddfffffgfgfggfgfgfffddfdddwesqqqq8q8w9qwwdddfffggggggggffda9966,,,:::;;%===o=O=oooooooOOOO>O>>>>rrrrt,tuyyyyi,iiiii2iiiiiiiiiiiiuiititututtttttttttttttttttttutuutiitiiiiiiiiiiiiiiii2iyiyiriyyyyrrrrr>rO>O>o>OOoOooooooo@o====;;:::,,,2669wdfdfggggggggfdfdwwwwq8w8qqqqwqdedddfdfdffffgfggfgffgfffdddddeee0055531<<*&&&$%$$@+@X+XXXXX.X............                        .............X.+XX+X@@@@@%$%&***<313557e0eewwddfdfffffgfgfgfgffffddfddddespqqq0q8wqqwwwdddffgggggggggfdd99662,,<,:;;;===o=oooooooooOOOO>>>>>>",
"50eeewddfdffffffgggfgfgfffdffddddedeeqqqqqq8wwwwwdddfgggggggggfddaw96,6,:,::;;===o=OXoooooooOOOO>O>>>>r>rrrtryyyyyyiiyiiiiiiiiiiiiiiiiiiititituttttttttttttttttttttttuutituiuiiiiiiiiiiiiiiiiiiiiyiyyyyrrrrrrr>>>>>>OOOOOooooooooo====;;;:,:,22699wddfgggggggggffdddwww9w8q9qqqqeqddddddfffffgfggfggfgfffdffddddeee705333<<<*&&&$$$+@+++XXXXX.X............                       .............X..XXXX+X+@@$$$%%&*<<<3345708eewddfdfffffgfgfgggfffffffdfddwdspqqq9qqq9qwwwdddffgggggggggfdaw96622,,::;;====@o=oooooooOOOOO>O>>>>",
"080eeddddfdffffgfgfggfgffffdfdfdddwqqqqqq8qw8wqwdddfdfgggggggggfdd9966,3,:::;;;===o=oooooooooOOOO>O>>>>rr>trtyyyyiyyiiiiiiiiiiiiiiiiiiiiuititituttttttttttttttttttttttuutiuiiuiiiiiiiiiiiiiiiiiiyiyyyyyyyrrrrr>rO>O>OOOOoOooooooooo===;=:;:,,,22699wdffgggggggggddddwwwqqw8w8qqqqdeddddfdffffffgfgfgfgffffddfddeee0055533<1<&&&&$$$$+++X@XXXXX X............                       .............+.X+XX++++@@$%%%&**<<333578e0ewwdddfdffffgggfgfgfgffdfddddddeeqqqq9q8wqwwwwdddffgggggggggfdw9962,,,:::;;%===ooo=oooooooOOOO>O>>>",
"500eewddfdfdffgfgfggfgfffffffdddddedsqqq9qq8wqwwwdddffggggggggfffaw9666,,,:::;;===@oooooooooOOOOOO>>>>>r>tr,yrruiyyiiii,iiiiiiiiiiiiiiiuiiitittutttttttttttttttttttttututititiiiiiiiiiiiiiiiiiiyiiyiyyyyrtrrr>rOrOro>OOOOooooooOo@=====%;:::,,2669waddgggggggggfffdddwqww8w8qqqqeqdeddddfdffffgfgfgggfgfffffddddee00055531<<<*&$&$$+$+@+X@XXX XX............                       ..............X.XXX+X+@@@$$%%&&*<1<3447880eedddfdffffgfgfgfggfffffffddddsdppqqqq8w8w8wwdddfffggggggggfddd99626,,:::;;====o=+oooooooOOOOO>>>>>",
"500eeeddddfffffgfgfggfgfffffdfdddddeqsqqq9qq8wwwwwddfffggggggggfdda9966,,,::;:======oo=oooooooOOOO>O>>>>rrrtrrir,iyyiyiiiiiiiiiiiiiiiiiiuutititttutttttttttttttttttttutuutitiiuiiiiiiiiiiiiii2iiiyyyyyyyyrrrrr>rO>O>o>OOoOoooooXooo====;;:::,,32669wdfdfggggggggfdfdwdwqqw8w8w9qqwsdwddfdfdffffgfgfgfgffffdffdddeee0703333<<*&&&$%$$++++XXXXXX..X...........                        ..............XX+X+X@+@@@%$%&***<3335570e0wwddddfffffgfgggffgffffdfdfddwespqqqqq8w9wwwwdddffgggggggggfdaa966,,,<,:;;;====ooooooooooOOOOO>>>>",
"8500eedddfdffffffgggfgfgfffdffddddedsqqqqq8qqqqwwddddfgggggggggffda996,6,,:::;;====o=ooooooooOOOO>O>>>>r>rrrriryyyyiyiiiiiiiiiiiiiiiiiiiiiititituttttttttttttttttttttttutitiiuiiiiiiiiiiiiiiiiiiyiiyyyyyrrrrrrr>>>>>OOOOOOooooooooo====;;;::,,222999ddfgggggggggffdddwwww8w8w8qqqeqddddddfffffgfgggfgfgfffffdddddee0055533<<<*&&&$$@$+@X@XXXXX.X............                       ............+.X.XXXX@X+@@$$$%%&*<<<3345708eewdddfdffffgffgfgggffffffddddddssqqqq9q8wqqwwdddffggggggggfffdaw6263,,::;;;====oo=ooooooOOOOO>O>>>",
"5000eeedddfdffffgfgfggffgfffdfdfdddeqsqqqqq8w9qwwwddfdfgggggggggfdd9966,3,:,:;;%===oo=oXooooooOOOO>O>>>>r>rrtriryyyyiyiiiyiiiiiiiiiiiiiiiuiututtutttttttttttttttttttttutuuitiiuiiiiiiiiiiiiiiiiiiyyiyyyyyyrrrrr>rO>O>OOOOOoooooooo@o====;;:::,,2669wwdffgggggggggddddwwwqq8w8qqqqqdeddddfdfffffgfgfggffgfffdfdddeee00503511<<&&&&$$$+$++X@XXXXX.X............                       ..............XXX+XX@++@@$%%%&**<1133578e0ewwddfdfffffggfgfgfgffffdfdddddeqqqqqqqq8wwwwwdddffggggggggfdda99622,,:::;=;===o=oooooooooOOOO>O>>",
"5500eedwdfdffffgfgfggfggfffffdfddddedsqqqq8w8w9wwwdddffgggggggggfdaw9662,,,::;;=;===+ooooooooOOOOOO>>>>r>rrrryryyyyiyiii,iiiiiiiiiiiiiiiuiitiutittuttttttttttttttttttttututitiiiiiiiiiiiiiiiiiiiiyiyyyyyyrryrr>rOrO>>OOOOOoooooooooo===;;;:*,,,22699addgggggggggfffdddwqwqw8qqqqqqsedddddfdffffgffggfggffffffddddee00055331<<<*&$&$$$@+++XXXXX.X.............                       .............XX.XXX+X+@@@$$%%&&*<<13447880eeddddfdffgfgfgggfgfgffdffddddedppqqqq88wqqwwdddfffggggggggffda99622,,:::;:======XoooooooOOOO>O>O>",
"55000eedddfdffffgfggfgfgffffffddddddeqqqqq98w8wwwwdddfffggggggggffda9966,,,:::;;=====o=ooooooooOOOO>O>>>r>rrtryriyyyiyiiiiii2iiiiiiiiiiiiuiitittutttttttttttttttttttttutuuutitiiiiiiiiiiiiiiiiiiii,iyyyyyyrrrrr>rOrO>O>oOoOooooooo@o=====;;::,,,2699wdfdfggggggggfdfdwdwqq9q8qqqqqwssdddfdfdffffggfggfgffgffdfdddeee0055433<<*&&&$%$+$+++X@XXXX.X............                        ..............X+XX+X@+@@@%$%&***<3135580e0ewwddfffffffgfgfgfgffffddfddddespqqq0qq8wqwwwdddffgggggggggfdda9662,,,:::=;==O=oo=oooooooOOOO>>>>",
"5850eeeddddfffffffgfgfgfgfffdfdfdddwedqqqqqw8qwqwwddddfgggggggggfddaw9626,,:::;;====ooooooooooOOOO>O>>>>>r>t,tryyyyyyiyiiiiiiiiiiiiiiiiiiiitituututttttttttttttttttttttuutuiriuiiiiiiiiiiiiiiiiiiyiiyyyyyrrrrrrr>rO>>OOOOOOooooooooo====;;:::,,22669wddfgggggggggffdddwwwqw8qq9qqqeqddddddfffffgffggfgfgfffdfdfdddee0055431<<<&&&%$$$$++++XXXX.X.X...........                       ............X.X.XXXX@X@@@$$$%%&*<<<3355780eewddfddffffgfgfggfgffffffdfddwdssqqqqq9w8qwwwdddffgggggggggfdaw96622,:::;;;==@o=ooooooooOOOOO>O>>",
"55080eedddddffffgfggfggffgfffdfdddddeqeqqqq8w8wwqwwddfdfgggggggggfdd9966,,,:,:;;;====+oooooooooOOOO>O>>>r>rrtrttyyyyiyiiiiiiiiiiiiiiiiiiiiuitituttutttttttttttttttttttttuutuiiiiuiiiiiiiiiiiiiiiiiyyiyyyyyyrrrrr>OrO>>o>oOOoooooooooo===;;;;::,326699wdffgggggggggddddwwwqqw8wqqqqqdeddddfdfffffgfgfggfgfffffddddeee00555331<<<&&&$$$+$+++XXXXX.X.............                       ............X.X.XX+X@X@@@$%%%&**<<33357800ewwddffdffffgggfggffgffdfddddddeqqqqq9q8wqwwwwdddffggggggggffda9962,,,,::;;====o=oooooooooOOOO>O>",
"45500eewdddfdffffgffggfggffffffddddddeeqqq8q8w8wwwwdddffggggggggfffaw96623,,::;;;====oooooooooOOOOOO>>>>>r>r>t,ryyyyyiiyi,iiiiiiiiiiiiiiiuiiitituutttttttttttttttttttttututiutiuiiiiiiiiiiiiiiiiiiyiyyyyyyrtrrr>rrO>ro>oOOOooooooOo@=====;;::,,,2269waddgggggggggfffdddwwwq8w8q9qqeqdwddddfdfffgfgfggfgfgffffdfdddee00055531<<**&$&$$$@+@X@XXXXX X............                       .............X.XXXX+X@+@@$$%%&&*<1<344788eeedddddffffgfgfgfgfgffffffddddsdspqqqq8qqqqwwdddfffggggggggfddd99626,,<:;:=%====oooooooooOOOOO>>>",
"455000ewdddffdffffggfggfgffffdffddddwdqeqqqqq8w8wwwwdddffggggggggfdda9966,,,<::;;=====oo=ooooooOOOOO>O>>>>rrrytruyyyyyiiiiiiiiiiiiiiiiiiiiuutititttutttttttttttttttttttutuutiitiiiiiiiiiiiiii6iiiiiyiyyyyyyrrrrrOrrOOro>OOoOoooooXooo====;;:::,,,2669wdfdfggggggggfdfdwdwqwq8w8wqqqweddddfdfdfffgfgfggfgffffdfddddeee05853311<*&&&$%$+$++++XXXXXX.X ..........                        .............X.+XX+X@@@@@%$%&***<313557e0eewwdfdfffffgfgggffgffffdfdfddwespqqqqq8w9qwwwdddffgggggggggfdaa9662<,:,:;;;===o@oooooooooOOOOO>>",
"35500eeedddddfffffgfggfgfgfffffdfddddedqqqqq8q8wqwwdddfffggggggggffda996,6,,:::;=;==@oo=oooooooOOOO>O>>>>r>rrrrtyyyyyiyiyiiiiii6iiiiiiiiiiiiititututtttttttttttttttttttttutiutiiuiiiiiiiiiiiiiiiii,iyyyyyyrrrrrrrrO>>O>OOOOOooooooooo====;;;:::,22699wddfgggggggggffdddwwwq9w89qqqqqdsdddddffffffgfggfgfgfffffdfdddee0055433<<<*&&&$$$$+++XX+XX..X............                       .............X..XXXX+X+@@$$$%%&*<<<3345708eewdddfdffffgffgfggfgfffffddddddspqqqq8q8w9wwwdddffgggggggggfddw96622,,::;;=;===o=oXoooooOOOOO>O>",
"455500eewddfdffffgfgfggffgfffffddddddeeqqqq9qqqqwqwwdddffgggggggggfdd9966,,,,:::;=====ooXoooooooOOOO>O>>>>rrrrt,tuyyyyiyiiiiiiiiiiiiiiiiiiiuiutituttutttttttttttttttttttututiuuiiiiiiiiiiiiiiiiiiiiiiyiyyyyyrrrrrOrO>>OOOOOoOooooooo@o===;=:::,,,22699wdffgggggggggddddwwwqw8qw8qqqesdsdddfdffffffgfggfgfgffffddddswee005433<1<&&&&$$$+$+++XXXXXX.X............                       .............+.X+XX++++@@$%%%&**<<333578e0ewwdddfdffffggfgfgffffffdfdddddesqqqqqqq8wwwwwdddffggggggggffda9962,,,:::;;====oo=ooooooooOOOO>O",
"335000eeedddfdffffgfggfggfgfffdffdddwdqdqqqqq8qqqwwwddfdfgggggggggfdaw96623,:::;;;===o=ooooooooOOOOOO>>>>>r>rrryryyyyyii,iiiiiiiiiiiiiiiiiuiititituttttttttttttttttttttttutituiriiiiiiiiiiiiiiiiiiiriyyyyyyrryrr>r>>>O>>OOOOoooooooooo====%;:::,,2669waddgggggggggfffdddwww8wq8qqqqqsqdddddfdffffgfggfgfgffffdffdddee00555531<<<*&$&$$$@+@X@XXXX..X............                       ..............X.XXX+X+@@@$$%%&&*<1<3447880eedddfdfffgfgfgggfgfgffdffddddssppqq0q98wqwwwdddfffgggggggggddaw9626,,,::;;===@o=ooooooooOOOO>O>",
"3455000ewdddffdfffffgfgfgffffffddfddddeqqqqqqq8qqwwwdddfffggggggggffda9966,,,::;:=;==@oo=ooooooooOOOO>O>>>>rrryryruyyiyiiiiiiiiiiiiiiiiiiiiuiititututtttttttttttttttttttututitiiuiiiiiiiiiiiiiiiiiiiyiyyyyyyrrrrr>>rO>Oo>OOoOooooooo@o====;;;::,,32669wdfdfggggggggfdfdwdwwq8wq8qqqqwdedddfdfdffffgfggfgffgfffdddddeee0055333<<*&&&$$$@@@++XXX+XX..X...........                        ..............XX+X+X@+@@@%$%&***<3335570e0wwwddfdfffffgfgfgfgffffdfdfdddespqqq9qq8w8wwwdddffgggggggggfdaa966,2,::::;=;==o=oooooooooOOOO>>",
"345750eeedddddfffffgfgggfggfffdffddddwdsqqqqq8qqwqwwwdddfgggggggggfddaw96,6,,:::;;====o=ooooooooOOOO>O>>>>r>rrrtrutiyyyyiyiiiiiiiiiiiiiiiiiiititituttttttttttttttttttttttttituiuuiiiiiiiiiiiiiiiiiiiiiyyyyyrrrrrrrrOrO>>OOOOOooooooooo=====;:::,,222999ddfgggggggggffdddwwqwq98qqqqwqeddddddfffffgfggfggfgfffdffddddee0055441<<<*&&&$$$$++++XXXX.XX............                       ............+.X.XXXX@X+@@$$$%%&*<<<3345708eewddfdfffffgfgfgggffffffdfdddddspqqqqq8w8wqwwdddffggggggggfffda9666,<,::;;;====o+oooooooOOOOO>O",
"3355080eewddfdffffgfgfgfgffgfffdfdfdddeesqqq9q8qqwqwdddfdfgggggggggfdd9966,,,<,:;;;====oo=oXoooooOOOO>O>>>>r>rrttr,uuyiiyi,iiiiiiiiiiiiiiiiiuitititutttttttttttttttttttttuutitiiiiuiiiiiiiiiiiiiiiiiyyyiyyyyyrrrrr>rOrOOO>oOOoooooooooo===;;;::,,,2669wwdffgggggggggddddwwwqqw89q8wqeeeddddfdffffffgfgfgfgffffddfddeee000553311<*&&$%$$+$++X@XXXX..X............                       ..............XXX+XX@++@@$%%%&**<1133578e0ewwdddfdfffgfggfgfgffffffddddddesqqqqqq8wqwwwwdddffggggggggfdda9962,2,:::;;====oo=ooooooooOOOO>",
"3335800eewdddfdffffgfgfggfgffffffddddwdwqqqqqqqq9qwwwdddffggggggggfffaw96622,,::;;=;==o@ooooooooOOOOOO>>>>r>r>t,ryuuyyyyiiiiiiiiiiiiiiiiiiiuiiitittuttttttttttttttttttttuttutititiiiiiiiiiiiiiii2iiyiyiyyyyyrtrrr>r>>O>>>OOOOooooooOo@=====;;:::,,22699addgggggggggfffdddwwqw8w8wqqqqedwddddfdffffgfgfgggfgfffffddddee00555331<<*&&&%$$$@++@XXXXX.XX............                       .............XX.XXX+X+@@@$$%%&&*<<13447880eedddfdffffffgfgfgfgffffddfdddssppqqqq8qqqqwwdddfffggggggggffda99626,:,::;;;===o=ooooooooOOOO>O",
"13555000ewdddffdffffgggfggfgffffdfddddedqqqqq9q8wqwwwwddfffggggggggfdda9966,,,:::;;====o=OooooooooOOOO>O>>>>rrrtrtr,uiyiyiiiiyiiiiiiiiiiiiiiuutititttutttttttttttttttttttuututitiuiiiiiiiiiiiiiiiiii,iyyyyyyyrrrrrOr>>O>OOOOoOoooooXooo====;;;::,,,2699wdfdfggggggggfdfdwdwqqw8w8qqqqweddddfdfdffffgfgfgfgffffdffdddeee0055513<<<&&%%$$+$++X@XXXXX..X...........                        ..............X+XX+X@+@@@%$%&***<3135580e0ewddddfffffgfgfggffgfffffdddddespqqq8q9q9wwwwdddffgggggggggfdda966,,,<,;;;=====ooo+ooooooOOOO>",
"3335570eeedddddffffgfgfggfgffffdfdfddddedqqqqq8w8qwwwddddfgggggggggffda996,23,::::======OXoooooooOOOO>O>>>>r>rrrrtuyyyyyiyiiii2iiiiiiiiiiiiiiiititituttttttttttttttttttttttutitiiiuiiiiiiiiiiiiiiiiiiyiyyyyyrrrrrrr>rO>O>OOOOOooooooooo===;=;:::,,22669wddfgggggggggffdddwwww8w8qqqqqqdedddddfffffgfgggfgfgfffffdddddeee505351<<<&&&%$$$$++@X+X+X..X............                       ............X.X.XXXX@X@@@$$$%%&*<<<3355780eewdddfdfffgfgfggfggfffffdfdddddspqqqqqq8wqqwwdddffgggggggggfdaw96623,,:::;;===o@ooooooooOOOOO>",
"13355080eewddfdfffffgfgfggfgffffdfdfdddeeqqqqqq8wqqwwdwdfdfgggggggggfdd9966,,,,::;:=====oo=oooooooOOOO>O>>>>r>rrt,tuyyyiyiyiiiiiiiiiiiiiiiiiiuiututtuttttttttttttttttttttttuutitiiiiiiiiiiiiiiiiiiiiiiyiyyyyyyrrrrrrOrO>o>OOOoOooooooo@o===;;;:::,326699wdffgggggggggddddwwwwq8w8q9qqqedwdddfdfffffgfgfggffgfffdfdddeee00555331<<&<&&$$$+$+++XXXXXX.X ...........                       ............X.X.XX+X@X@@@$%%%&**<<33357800ewwddffdfffgfggfgfgffffdfddddddesqqqqq9q8wwwwwdddffggggggggffda99622,,:::;;====o=oooooooooOOOO",
"<3355880eeedddfdfffffgfgfgfgffffffdddddwedqqqq9w89wwwwdddffgggggggggfdaw9666,,::::=%===o=ooooooooOOOOOO>>>>r>rrrttryyyyyi,iiiiiiiiiiiiiiiiiiuiitiutittutttttttttttttttttttuttititiiuiiiiiiiiiiiiiiiiyiyiyyyyyrryrrrOr>O>>OOOOOoooooooooo====%;::,,,2269waddgggggggggfffdddwwqqw8qqqqqqdqdddddfdffffgffggfggffffffddddee00055331<<<&&$&$$$++@X+XXXX.X.X...........                       .............X.XXXX+X@+@@$$%%&&*<1<344788eeedddddffffffgfgfgfgfffffdfdddssppqqq8w8wqqwwdddfffggggggggfddd99662,,::;:=%====oooooooooOOOOO",
"113455000ewdddffdffgffgggfgffgfffdfdddddqeqqqqq8wq8wwwdddfffggggggggffda996,6,,:::;;===@o=oooooooooOOOO>O>>>r>rr,ttryyyiyiiyiiiiiiiiiiiiiiiiiuiitittuttttttttttttttttttttttuutitiuiiiiiiiiiiiiiiii2iiyiyyyyyyyrtrrr>>>ro>O>oOoOooooooo@o=====;;::,,,6669wdfdfggggggggfdfdwwwwq8w8qqqqqedsdddfdfdffffggfggfgffgffdfdddeee0055513<<<&&&$%$+$+++X+XXX.X.............                        .............X.+XX+X@@@@@%$%&***<313557e0eewwddfdfffgfggfggffgfffdfdddddespqqqq8w8wqwwwdddffgggggggggfdaa9662,,:,:;;=;==o@oooooooooOOO>",
"<1345770eeedddddfffffgggfggfgfffdffddddedeeqqq8qq8wqwwwdddfgggggggggfddaw966,,:,::;;=====oooooooooOOOO>O>>>>>rrrrrtuyyyyyiyiiiiiiiiiiiiiiiiiiiitituututtttttttttttttttttttuttititiuiiiiiiiiiiiiiiiiiiiiyiyyyyrrrrrr>rrO>>OOOOOOooooooooo====;;::::,222999ddfgggggggggffdddwww9w8q9qqqqpswdddddfffffgffggfgfgfffdfdfdddee0505351<<<&&&%$$$$+@X+X+XXX XX...........                       .............X..XXXX+X+@@$$$%%&*<<<3345708eewddfdfffffgffggfggfffffdfdddddssqqq9q8qq9wwwdddffgggggggggfddw9626,,,::;;;=====ooooooooOOOOO",
"113355880eewddfdffffffgfgfgfgffffddfddddwqqqqqq8qqqwqwdddfdfgggggggggfdd99666,,::::;;===o@oooooooooOOOO>O>>>r>rrtr,tyyyyyii,yiiiiiiiiiiiiiiiiiuitituttuttttttttttttttttttttuutituiiuiiiiiiiiiiiiiiiiiyiyyyyyyyyrrrrr>OrO>>o>oOOoooooooooo====;;::,,,2669wwdffgggggggggddddwwwqqw8w8qqqwsdedddfdfffffgfgfggfgfffffddddseee0775331<<&<%%$$$+$+++XXXXXX X ...........                       .............+.X+XX++++@@$%%%&**<<333578e0ewwddfdfffffggfggfgffffffddddddeqqqqqqq8wqwwwwdddffggggggggffda9962,3,:::=;====ooo=ooooooOOOO",
"<<3335800eewdddfdffffgfgfgggfffffffdddddedsqqqqqq8qqwwwdddffggggggggfffaw966,2,,::;;=;===oooooooooOOOOOO>>>>>r>r>ttryyyyyiyiiiiiiiiiiiiiiiiiiuiiitituutttttttttttttttttttttttutuiriiiiiiiiiiiiiiiiiiiiiyiyyyyyrrrrrr>rO>ro>oOOOooooooOo@====;;;::<,,22699addgggggggggfffdddwqww8w8q9qqqeedddddfdfffgfgfggfgfgffffdfdddee00755331<<<&&%&$$$@+@X+XXXX.X.X...........                       ..............X.XXX+X+@@@$$%%&&*<1<3447880eeddddfdffffgfggfgfgffffdfddddedppqqqq8w8wqwwdddfffgggggggggddaw9626,:,:::;;===o@ooooooooOOOO",
"<113455800ewwddffdfffgfggfgfgfgffdffdddddeeqqqq9qq9wqwwwddfffggggggggfdda9966<,,:::;;=====o=ooooooooOOOO>O>>>rrrr,ttuyyyyyiiiiiii2iiiiiiiiiiiiuutititttutttttttttttttttttttutuutiitiiiiiiiiiiiiiiiiiii,iyiyyyyyrrrrr>>rOOro>OOoOoooooXooo====;;;::,,32699wdfdfggggggggfdfdwdwqqw8w8qqqwqdedddfdfdfffgfgfggfgffffdfddddeee0055513<<<&&&$%$+$+++X+XXXX.X............                        ..............XX+X+X@+@@@%$%&***<3335570e0wwwddfffffgfggfggfgfgfffdfddddespqqq9qqq8wwwwdddffgggggggggfdaa9662,,<::;;=====o=oXooooooOOO",
"<<1345770eeedddddffffffgfgfggffffffdfdddedqqqq0qw8w8wwwddddfgggggggggffda996,6,<,::;;====o=oXooooooOOOO>O>>>>>>rrrttryyiyyiyiiiiiiiiiiiiiiiiiiiiititututttttttttttttttttttttuutituiuiiiiiiiiiiiiiiiiiiiiyyyyyyrryrr>rrO>>O>OOOOOooooooooo====;;:::,,22669wddfgggggggggffdddwwww8w8qqqqqeqddddddffffffgfggfgfgfffffdfdddee00553511<<&&%&$$$$+@X@X+XX X.X ..........                       ............+.X.XXXX@X+@@$$$%%&*<<<3345708eewddfddffffgffgfggfffffdfdfddwdspqqqqq8qq9wwwdddffggggggggfffda96622,,:::;=%==o=ooooooooOOOO",
"<<33355880eewddfdfffffgfgggffgfffffddddddedqqqqq8w8wqwwwddfdfgggggggggfdd99662,,::::;====o=oooooooooOOOO>O>>>r>rrrt,tuyyyiyiiyiiiiiiiiiiiiiiiiiuiutituttuttttttttttttttttttttuutiuiiuiiiiiiiiiiiiiiiiiiyiyiyyyyyrrrr>rrO>>O>oOOoOooooooo@o====;;::,,,26699wdffgggggggggddddwwwqqqq8qqqqqdeddddfdffffffgfggfgfgffffddddsee00055311<<<&&%$$$+$++XXXXXX X.X ..........                       ..............XXX+XX@++@@$%%%&**<1133578e0eewddffdffffggfgfggffffffddddddeeqqqq9q8wqwwwwdddffggggggggfdda9962,,,:::;;===@oo=ooooooooOO",
"<<<3155800eewdddfdfffgfgfgfgggffffdffdddddqeqqq9q8wqqwwwdddffgggggggggfdaw9662,,,:::=%===@o=oooooooOOOOOO>>>>>r>rrtrutyyyyiiyi,iiiiiiiiiiiiiiiuiitititutttttttttttttttttttttututititiiiiiiiiiiiii6iiiiyiiyyyyyyrtrrrrrOr>O>OOOOOoooooooooo===;;;:::,,2269waddgggggggggfffdddwqw9w8qq9qqeqdsddddfdffffgfggfgfgffffdffdddee007553311<&&&%%$$$@+@X@XXXXX X............                       .............XX.XXX+X+@@@$$%%&&*<<13447880ewdddddfffffgfgfggfgffffdfddddedqsqqqq8w8qwwwdddfffggggggggffdaw9662,,,::;;====o=ooooooooOOO",
"*<113555800ewwddffdffffggfgfgfgffffddfdddedqqqqqqq8w9wwwwdddffggggggggffda9966,,,::;:;=====ooooooooooOOOO>O>>>>rrr,tt,uyiyyiyiiiiiiiiiiiiiiiiiiuiititututtttttttttttttttttttutuutitiiuiiiiiiiiiiiiiiiiiyiiyyyyyyrtrrrOrO>>O>OOOoOooooooo@o=====;:::,,,2669wdfdfggggggggfdfdwdwqw8w8qqqqqwsdwddfdfdffffgfggfgffgfffdddddeee0055431<<<&&%%$$+$+++XX+XXXX X ..........                        ..............X+XX+X@+@@@%$%&***<3135580e0ewdddfdfffgfgggfgffgffffddfdddweqqqqqq8wq8wwwdddffgggggggggfdd99662<,::::;;====ooo=ooooooOO",
"*<<3315788eeedddddffffgffgggfgffffdffdddddedqqqqq8q8wqwwdddfffggggggggfddaw96,6,,:::;;====oo=oooooooOOOO>O>>>>r>rrrtryyyyyi,iiiiiiii6iiiiiiiiiiiitititutttttttttttttttttttttttutitiiuiiiiiiiiiiiiiiiiiiiiyyyyyyrrrrrrr>r>O>OOOOOOooooooooo====%;;::,,22699wddfgggggggggffdddwwwqw8q9qqqqsqddddddfffffgfggfggfgfffdffddddee00754311<<&&&&$$$$+@X@XXXXX XX...........                       ............X.X.XXXX@X@@@$$$%%&*<<<3355780eewwdfdfffffgfgfgfggffffdffddddedsqqqq9w89wwwwdddffgggggggggfdaw96622,,::;;=;==o@oooooooooOO",
"**113455800eewdddfdffffggfgfgfgffffdfdfdddeqsqqq9qqq8wwwwdddffgggggggggfdd9966,3,:,:;;;====oooXooooooOOOO>O>>>>rrrryrruyyyyiiyiiiiiiiiiiiiiiiiiiuitititutttttttttttttttttttttutuuitiiuiiiiiiiiiiiiiii2iyiiyyyyyyyrrrrr>Or>O>OOOOoOooooooooo====;;:::,,22699wdffgggggggggddddwwwqqq8w8wqqqdedwddfdffffffgfgfgfgffffddfddeeee77553111<<&&$%$$+$++X@XXXXX X ...........                       ............X.X.XX+X@X@@@$%%%&**<<3335780eeewdddfdffffgfgggfgfffffdfdddddqeqqqqq8w8wqwwwdddffggggggggffda9962,,,:::;;====o=ooXooooooO",
"*<<13145700eewddfdfffffgfgfggfgfffffdfdddddepqqqqq98wqwwwddfdfggggggggfffaw9666,,,::;;=;==O+o=ooooooOOOOOO>>>>>r>rrrruuyyyyiyiiiiiiiiiiiiiiiiiiuiiitittuttttttttttttttttttttttututitiiiiiiiiiiiiiiiiiiiiiyyiyyyyrryrr>>r>O>>OOOOOooooooOo@====;;;::,,,2669waddgggggggggfffdddwwqw8w8qqqqqwedddddfdffffgfgfgggfgfffffddddee00055531<<&&&&%$$$+++@XXXXX.X.X...........                       .............X.XXXX+X@+@@$$%%&&*<1<3447880eedddfdffffgfgfgfgfgfffffdddddedppqqq8w8w8wwwdddfffggggggggfddd992622:,::;;=====oooooooooOO",
"**<113557800ewwddfdfffffgfgfggffgffffdddddedeqqqq8qw8wwwwdddfffggggggggfdda996,6:,:::;;===O=ooooooooooOOOO>O>>>>rrryrr,uyyiyi,iyiiiiiiiiiiiiiiiiuutititttutttttttttttttttttttutuuutitiiiiiiiiiiiiiiiiiiiiyyyyyyyyrrrrr>>>ro>O>OOoOoooooXooo====;;;::,,32669wdfdfggggggggfdfdwdwqqw8wq8qqwqdedddfdfdffffgfgfgfgffffdffdddeee07053311<<&&%%$$$$++X@XXXXX.X............                        .............X.+XX+X@@@@@%$%&***<313557e0eewddddffffffggfggfgffffdfdfdddespqqqq8qqqqwwwdddffgggggggggfdaa9922,,<,:;;;===o@oooooooooO",
"&*<<3144788eeeddddfdfffgfgggfgfgffffddfddddeqeqqqqq8qqqwwwdddfgggggggggffda9966,,,::;:====@o=ooooooooOOOO>O>>>>r>rrrryyyyyyyiiiiiiiiiiiiiiiiiiiiiiitititutttttttttttttttttttttuutuiriuiiiiiiiiiiiiiiiiiiyiiyyyyyrrrrrrr>rO>>OOOOOOooooooooo====;;::::,222999ddfgggggggggffdddwwww8w89qqqqeqddddddfffffgfgggfgfgfffffdddddee0075351<<<&&&%$$$+@+@XXXXX..X............                       .............X..XXXX+X+@@$$$%%&*<<<3345708eewdddfdffffggfggfgfffffffddddwdssqqq0qqq9wwwwdddffgggggggggfdda98622,,:::;=====oo=oooooooO",
"***133357800eewddfdffffffgfggffgffffffddddddqqqqq9qqqqwqwdddfdfgggggggggfdd99666,,:,:=:====oo+ooooooooOOOO>O>>>>r>rrtrtyyyyiyiyiiiiiiiiiiiiiiiiiiuiututtuttttttttttttttttttttttuutuiiiiuiiiiiiiiiiiiiiiii,iyyiyyyyrrrr>rO>>O>OOOOOoooooooo@o====;;::,,,2669wwdffgggggggggddddwwwwq8w8qqqqqdeddddfdfffffgfgfggffgfffdfdddsee00775331<<<&&%$$$$+@+X@XXXXX X............                       .............+.X+XX++++@@$%%%&**<<333578e0ewwddfdffffffgfggfgffffdffdddddeeqqqq9q8w8wwwwdddffggggggggffda96622,::::;;%====oOoooooooo",
"&*<<<1345500eewddddfffffgfggfggfgffffdfddddedpqqqqq8q9qwwwdddffgggggggggfdaw966,3,,:::=:=====ooooooooOOOOOO>>>>r>rrrtryyyyyyiyiiiiiiiiiiiiiiiiiiuiitiutittutttttttttttttttttttututiutiuiiiiiiiiiiiiiiiiiiiyiyyyyyrtrrrr>>rO>>OOOOOoooooooooo===;=;:::,,22699addgggggggggfffdddwwqwq8w9qqqeqdeddddfdffffgffggfggffffffddddee000553311<&&&%&$$+$++@XXXXX.XX............                       ..............X.XXX+X+@@@$$%%&&*<1<3447880eeddddffffffgfggfgfgfffffdddddedsqqq9w8q8wqwwdddfffgggggggggddaw966,,,:::;;====o=XoooooooO",
"&**<131558800ewwddfdffffgfgfgfgfffffffddddddqsqqqqqq8wqqwwwddfffggggggggffda9966,,<::::=====o=oooooooooOOOO>O>>>r>rr,ttruyyiyi,iiiiiiiiiiiiiiiiiiuiitittutttttttttttttttttttttutuutiitiiiiiiiiiiiiiiiiiiiyiyyyyyyyrrrrrr>>>>o>OOOoOooooooo@o====;;:::,,32699wdfdfggggggggfdfdwwwqqqw8w8qqqwsdwddfdfdffffggfggfgffgffdfdddeee0775433<<<&&&$%$$+@+X@XXXXX..X ..........                        ..............XX+X+X@+@@@%$%&***<3335570e0wwddddffffgfgfggfgfgfffdfdfdddwqpqqq8qqw8wwwwdddffgggggggggfdaa99223,,:;;;;====oo=ooooooo",
"&&*1<<344588eeeddddfdffffgfgggfggfffdfdfdddedsqqqqq8w8qwwwddddfgggggggggfddaw96,6,,,::=%;==o@o=oooooooOOOO>O>>>>>rrrrttyyyyyyiiyiii2iiiiiiiiiiiiiiitituututtttttttttttttttttttttutiutiiuiiiiiiiiiiiiii2iiiiyiyyyyrryrrr>rOro>OOOOOOooooooooo====;:;::,,22669wddfgggggggggffdddwww9w88qqqqqeeddddddfffffgffggfgfgfffdfdfdddee0055431<<<&&%&$$$@++@X+X+X XX............                       ............+.X.XXXX@X+@@$$$%%&*<<<3345708eewdddfdffffgfggfgfgffffffdddddedsqqqqqq8qqwwwdddffggggggggfffda9666,,,:::;=;=@o=ooooooooo",
"%***131358800eewddfdffffffgfgfgffgfffdfdddddwqpqqq0q8wqqwwdwdfdfgggggggggfdd9966,,,:::;;=====ooooooooooOOOO>O>>>r>rrtr,tyyyyyyiiiyiiiiiiiiiiiiiiiiuitituttuttttttttttttttttttttututiuuiiiiiiiiiiiiiiiiiiiiyiyyyyyyyrrrrr>rO>>O>OOOoOooooooo=o=====::::,,22999wdffgggggggggddddwwwqqqw8q9qqqdqddddfdfffffgfgfggfgfffffddddseee7055331<<<&&%$$$$@+++XXXXX XX ...........                       ..............XXX+XX@++@@$%%%&**<1133578e0ewwddffdffffgfggfgffgffdffdddddeqsqq9q9qqqqwwwdddffggggggggfdda96622,<,:;:;====o=oooooooo",
"%**<<<1444780eewddddfffffgfgfggfgffffffdddddedsqqq9qqq9wwwwdddffggggggggfffaw9666,,,:::;;===o=o+ooooooOOOOOO>>>>>r>r>yryyyyyyiiiiiiiiiiiiiiiiiiiiuiiitituuttttttttttttttttttttttutituiriiiiiiiiiiiiiiiiiiyiyyiyyyyrtrrrr>>>ro>OOOOOooooooooo@====%;::,,,2666waddgggggggggfffdddwwwqq8qqqqqwqdeddddfdfffgfgfggfgfgffffdfdddee00055531<<*&&%%$$@@@@XX@XXXXX X...........                       .............XX.XXX+X+@@@$$%%&&*<<13447880eedddddffffgfggfggfgfffffdddddedpqqqqqq8w9wwwdddfffggggggggffdaw9662,,:::;;=====o+ooooooo",
"&&**<13155880eewwddfdffffgfggfggfgfffdffdddddeqpqqq9q8w8wwwdddfffggggggggfdda996,6:,,:;;;====ooooooooooOOOOO>O>>>rrrrrtruyyyiyyii,iiiiiiiiiiiiiiiiuutititttutttttttttttttttttttututitiiuiiiiiiiiiiiiiiiiii,iyyyyyyyrtrrrrOrO>>o>OOoOoooooXooo====;;;::,,,2699wdfdfggggggggfdfdwdwqw9q8qqqqqqdddddfdfdfffgfgfggfgffffdfddddeee0775333<<<&&%%$$$@+++XXXXXX X............                        ..............X+XX+X@+@@@%$%&***<3135580e0ewwddfdffffgfggfgfgffffdfdfdddespqqq8qq8w9wwwdddffgggggggggfdaa9662,,,::;;;====ooooooooo",
"%%**<<13447800eeddddfdfffffgfggfgffffffdfdddedpqqqqq8w8wqwwwdddfgggggggggffda9966,,,:::;;====o@ooooooooOOOO>O>>>>>>rrrrytyyyyyiyiiiiiiiiiiiiiiiiiiiiititututttttttttttttttttttttttituiuuiiiiiiiiiiiiiiiiiiiiiyyyyyrrrrrr>r>>>O>OOOOOoooooooo=o==;=;:::<,226699ddfgggggggggffdddwwwqw8q9qqqqpssdddddffffffgfggfgfgfffffdfdddee00555311<<&&&&$$$+@@X@XXXX XX............                       ............X.X.XXXX@X@@@$$$%%&*<<<3355780eewddfdfdfffgfgfgggfffffffddddwdssqqqqw8w8qwwwdddffgggggggggfdda9662,,,::;;=;==o=oooooooo",
"%%**<<3135580e0ewddfdfffffgfgfggfgffffdfdddddqepqqqqq8qqwqwdddfdfgggggggggfdd99666,<:,:;;%====ooooooooooOOOO>O>>>>r>tttt,uyyiyiiyiiiiiiiiiiiiiiiiiiuiutituttutttttttttttttttttttuutitiiiiuiiiiiiiiiiiiiiiiiyyiyyyyyyrrrrr>>O>>oO>oOOooooooooo@o==;;;::,,,2669wwdffgggggggggddddwwwqqw8w8qqqwsdsdddfdffffffgfggfgfgffffddddsee00055331<<<&%%$$$$+@+X@XXXX XX ...........                       ............X.X.XX+X@X@@@$%%%&**<<33357800ewwdddffffffgfgfgfgffffdffdddddeqsqqq8q8wqwwwwdddffggggggggfdda99622<,,::;;==@=ooo@ooooo",
"%%**<<11347780eewddddffffgfgfggfgffffffdfdddddssqqqq8qq9qwwwdddffgggggggggfdaw966,3,,:::;=;==o=o=ooooooOOOOOO>>>>r>r>r,rryyyyyi,iiiiiiiiiiiiiiiiiiuiititituttttttttttttttttttttuttutititiiiiiiiiiiiiiii2iiyiiyyyyyyrryrr>r>>ro>>oOOOoooooooo=o====;;:::,,22699addgggggggggfffdddwwqw8w8qqqqqeedddddfdffffgfggfgfgffffdffdddee00755331<<*&&&%$$@@++@XXXXXXX X ..........                       .............X.XXXX+X@+@@$$%%&&*<1<344788eeedddfdffffgfgggfgfgfffffdddddsdsqqq9q8wqqqwwdddfffggggggggffdaw9262,,:::;;======ooooooo",
"%&*%*<<4335880eewwddfdffffgfgfggfgfgffdfddddddeqsqqqq9qqwqwwwddfffggggggggffda9966,,,::;;;====ooooXooooooOOOO>O>>>rrrrttyyyyyiyiyiiiii2iiiiiiiiiiiiuiititututtttttttttttttttttttuututitiuiiiiiiiiiiiiiiiiii,yiyyyyyyrrrrrOr>OroO>OOoOoooooooo=o===;;:::,,32699wdfdfggggggggfdfdwdww8w8w8qqqqwdedddfdfdffffgfggfgffgfffdddddeee0055433<<<&&%%$$$$++X@XXXXX XX  .........                        .............X.+XX+X@@@@@%$%&***<313557e0eewwddfdffffgfgfggffgfffdfdfddwespqqqqq8q9wqwwdddffgggggggggfdaa99222<,::;;;===oo=oooooo",
"%%%**<1<3447800eeddddfdffffgfggfggffffffdfdddedsqqqq8w8w8wwwddddfgggggggggfddaw96,6,,:::;;====o@ooooooooOOOO>O>>>>>>rrrtryyyyyyiiyiiiiiiiiiiiiiiiiiiitititutttttttttttttttttttttttutitiiiuiiiiiiiiiiiiiiiiiiiyyyyyyrrrrrrr>>rO>>OoOOOooooooo@o===;=:;::,,22669wddfgggggggggffdddwwqwq98qqqqeqeddddddfffffgfggfggfgfffdffddddee0075431<<<&*%&$$$+@+@XXX@X XX X..........                       .............X..XXXX+X+@@$$$%%&*<<<3345708eewddfdfffffgffggfggffffffddddddssqqqq98wqqwwwdddffgggggggggfdda9666,,,:::;=;===+ooooooo",
"$%%***<4<45580e0ewddfdffffffgfggffgffffdfdfdddwqsqqqq8w8wqwwwddfdfgggggggggfdd9966,,,<,::=;====oo=oooooooOOOO>O>>>r>rrr,ttyyyyiyii,iiiiiiiiiiiiiiiiiuititituttttttttttttttttttttttuutitiiiiiiiiiiiiiiiiiiiiiiyiyyyyyyrrrrrrO>>O>O>oOoOooooooo=====;=::::,,22999wdffgggggggggddddwwwqqw89q9qqweeddddfdfffffgfggfgfgffffddfddeeee77553311<*&&$%$$$++++XXXXX XX ...........                       .............+.X+XX++++@@$%%%&**<<333578e0ewwdddfdffffggfggfgfgffdffdddddeqqqqqqq8w9qwwwdddffggggggggffda96622,,:::;;====o=oooooo",
"%%%**<<<3347780eewddddfffffgfggfgggffffffdddddedsqqqqq8qqqwwwdddffggggggggfffaw9666,,,::;;;==@o=ooooooooOOOOOO>>>>>r>rtrrtyyyyyiyiiiiiiiiiiiiiiiiiiuiiitittutttttttttttttttttttttuttititiiuiiiiiiiiiiiiiiiiiyiyiyyyyrtrrrrOr>>>o>oOOOooooooOoooO===%;::,,,2666waddgggggggggfffdddwwqw8w8wqqqqedwddddfdffffgfgfgggfgfffffddddee00055431<<*&&&%$$+$+@X@XXXXXX X ..........                       ..............X.XXX+X+@@@$$%%&&*<<13447880eedddfdfffgfgfggfgfgfffffdddddedppqqqq8q8wwwwdddfffgggggggggddaw9662,,:::;;=====o@ooooo",
"%%%&**<<3335880eewwddfdffffgfgfgfgfgffffdfdddddeqeqqq9q8w9wwwwdddffggggggggfdda99623,,:::;=;===o=ooooooooOOOOO>O>>>>rrryt,tuyyiyiiiiiiiiiiiiiiiiiiiiuutititttuttttttttttttttttttttuutitiuiiiiiiiiiiiiiiiiiiiiyyyyyyyyrtrrrrOrO>>O>OOoOoooooXoo@oo=;=;;::,,,2699wdfdfggggggggfdfdwdwqqw8w8qqqqweddddfdfdffffgfgfgfgffffdffdddeee0705333<<<&&%%$$$+@++XXXXXX X X .........                        ..............XX+X+X@+@@@%$%&***11335570e0wwddddffffffgfggffgffffdfdddddeepqqq9qqq8wqwwdddffgggggggggfdaa9662<,,:::;;===oooooooo",
"@%%&**<<<3447800eeddddfdffffgfgggfgffffdffddddwedqqqqq8w8wqwwdddfffggggggggffda99622,,:::;;=====o+oooooooOOOO>O>>>>r>rrrrryyyyyyyiyiiiiiiiiiiiiiiiiiiiititituttttttttttttttttttttuttititiuiiiiiiiiiiiiiii2iiyiyiyyyyrrrrrr>r>>>>OOOOOOoooooooo=o===;;:::,,226699ddfgggggggggffdddwwww8w8qqqqqqdedddddffffffggfgfgfgfffffdddddee0055531<<<&*%&$$$$+++X@XXX XXX ..........                       ............+.X.XXXX@X+@@$$$%%&*<<<3345708eewdddfdffffgfggfggfgffffffdddwddpqqqqq98w9wwwdddffggggggggfffda96622,,::;;=;====ooOooo",
"%%%%**<<3335580e0ewddfdffffffgfgfgfgffffddfddddeqqqqqqq8w8wwwwdddffgggggggggfdd99662,,:<::;;===o=oooooooooOOOO>O>>>>rrrryrtyyyyii,iiiiiiiiiiiiiiiiiiiuiututtutttttttttttttttttttttuutituiiuiiiiiiiiiiiiiiiiii,iyyyyyyyrrrrr>>Oro>OOOOOooooooooo@o===;;;::,32669wwdffgggggggggddddwwwqq8w8q9qqqedwdddfdffffgffgggfgfgfffdfdddsee005553311<*&&%$$$+$+++XXXXX X X ..........                       ..............XXX+XX@++@@$%%%&**<<333578e0ewwddffdfffgfgfgfgffffffddfdddwesqqqq8qw8wwwwwdddffggggggggfdda9966,,,:::;;====o==@ooo",
"@%%%***<<3347780eewddddfffffgfgfggfgffffffddddddedqqq9qq8wqwwwdddffgggggggggfdaw9662,,,::;;=;====ooooooooOOOOOO>>>>>r>rr>iruyyyyyiiiiyi2iiiiiiiiiiiiuiitiutittutttttttttttttttttttttutuiriiiiiiiiiiiiiiiiiiiiiyyiyyyyrryrr>r>rO>O>OOOOooooooOo=o===;;;::,,,22699addgggggggggfffdddwwwqw8qqqqqqdqdddddfdfffffgfgfggfffffffddddee00054531<<*&&%%$$$++@XX@XXXX XX...........                       .............XX.XXX+X+@@@$$%%&***113447880eedddddfffffgfgggfgfgffdffddddedqsqqqqq8wqqwwdddfffggggggggffda996,6,,::::;=====Oooooo",
"%@%&&**<<3335880eewwddfdffffgfggfggffgffdffdddddqeqqqq8qw8wwwwdddfffggggggggffda9966,,,:::;;====o=ooXooooooOOOO>O>>>>rrryrt,uyiyiyiiiiiiiiiiiiiiiiiiiuiitittutttttttttttttttttttttutuutiitiiiiiiiiiiiiiiiiiiiiiyyyyyyyrrrrrOrO>>>oOOOoOoooooXOoo====;;:::,,,2699wdfdfggggggggfdfdwdwqq9q8qqqqqedsdddfdfdffffggfgfggfffffdfdddeee0705333<<<&&%%$$$$+++XXXXXXX X ..........                        ..............X+XX+X@+@@@%$%%**<<1335580e0ewwddfdfffffgfgfgfgffffdfdfdddweqqqq9qq8wwqwwdddffgggggggggfdda9662<,,::;;;====Xooooo",
"@%%%&**<1<3447800eeddddfdfffffgfgfgfgfffffdfdddedsqqqqqq8qqqwwwdddfgggggggggfddaw96,6,,::;:====o@oooooooooOOOO>O>>>>r>rrrryyyyyyyiyi,iiiiiiiiiiiiiiiiiitituututttttttttttttttttttttuutituiuiiiiiiiiiiiiiiiiiiyiyyyyyyrrrrrrr>r>>o>OOOOOoooooooo@====;;;:::,22669wddfgggggggggffdddwwwqw8q9qqqqpswdddddfffffgffgfggfgfffdffddwdee0075431<<<&&&&$$$++$X@XXXXX X X .........                       ............X.X.XXXX@X+@@$$$%%***<11355780eewddfdfffffgfgfgggffffffdfddddedsqqqqq8w8qwwwdddffgggggggggfdaw96622,,:::;=;===ooo@oo",
"@%$%&&*<<3335580e0ewddfdfffffgfgggffgfffffddddddeepqqq9qqqqwqwdddfdfgggggggggfdd9966,3,:,:;:====o=oooooooooOOOO>O>>>>r>rrtrryyyyyiiiiiiiiiiiiiiiiiiiiiuitituttutttttttttttttttttttttuutiuiiuiiiiiiiiiiiiiiiiiiyiyyyyyyyrrrrr>OrO>O>OOOoOooooooooo===;=:::,,,26699wdffgggggggggddddwwwqqw8w8qqqwsdedddfdfffffgfggfgfgffffddfddeeee7775331<<<&%%$$$$+++X@XXXXX.X X .........                       ............X.X.XX+X@++@@$%%%&**<<33357800ewwddfdffffgfggfgfgfgffdfddddddqeqqqq9q8wqwwwwdddffggggggggffda9962,,,:::;;=====ooooo",
"$@%%&*&<<<3345780eewddddffffgfgfgfggfgfffdffdddwdssqqqqq8qqqwwwdddffggggggggfffaw9666,,,:::=%====oo=ooooooOOOOOO>>>>r>rrrtryyyyyyiyiiiiiiiiiiiiiiiiiiuiiitituutttttttttttttttttttttututititiiiiiiiiiiiiiii2iiyiyiyyyyyrtrrr>rrO>>>OOOOOooooooooo=====%;:::,,22699addgggggggggfffdddwwqw8w8qqqqqwedddddfdfffgfggfgfgfgfffffddddee00055531<<*&&&%$$+$+@+XXXXX.X X ..........                       .............X.XXXX+X+@@@$$%%&***11334788eeeddddfdfffffgfgfggfffffffddddedpqqqqq8qqqqwwdddfffggggggggfddd99626,,:::;;=@==oo=ooo",
"@%$%%&**<11345880eewwddfdfffffggfgfgffffffddfddddeeqqqq9q8w9qwwwdddffggggggggfdda996,6:,:::;;====@ooOoooooooOOOO>O>>>r>rr,ttyyyyiyiyiiiii2iiiiiiiiiiiiuutititttutttttttttttttttttttutuutitiiuiiiiiiiiiiiiiiiii,iyyiyyyyrtrrrOrrO>O>OOOoOooooooo@o====;;;:<,,,5699wdfdfggggggggfdfdwdwqqw8w8qqqqqdedddfdfdfffgfggfggfffffdffdddeee07753311<<&&$&$$$+++++XXXXX X X .........                        .............X.+XX+X@+@@@%$%%**<<13355800eewwddffffffgfgggffgffffdfdfdddespqqqqq8w9wqwwdddffgggggggggfdaa996,,,,:::;;====oo@oo",
"@$$%&%**<<13447800eeddddfdfffgffgggfggfffdffddddedqqqqqq8w8wwwwdddfffggggggggffda9966,,,:::;;;===o=oXooooooOOOO>O>>>>>rrrryryyyyyiyiy,iiiiiiiiiiiiiiiiiiititututtttttttttttttttttttttutitiiuiiiiiiiiiiiiiiiiiiiiyyyyyyrrrrrrrrOrO>OOOOOOoooooooo=====;;::::,22669wddfgggggggggffdddwwww8w8qqqqqsqddddddfffffffgfggfgfgffffdddddee0055533<<<&&*%$$$+$++X+XXX XXX...........                       .............X.XXXXX@X+@@$$$%%***<<3355780eewddfddfffgfgfgfgggfffffdfdddddssqqqq8w8w8wwwdddffgggggggggfddw9626,<,<:;;=;===o=ooo",
"@@%$&&&*<<3135580e0ewddfdfffffggfgfgffgfffdfdfdddwesqqqqq8w8wqwwdddffgggggggggfdd99666,,:,:;;====o=oooooooooOOOO>O>>>r>rrtrrtuyyyyiiiiiiiiiiiiiiiiiiiiiuiutituttutttttttttttttttttttutuuitiiuiiiiiiiiiiiiiiiiiiyiyyyyyyyrrrrrOrO>>>O>oOOooooooooo====;;;::,,,26699wdffgggggggggddddwwwqq8w8qqqqqdeddddfdfffffgfgfggfgffffdfdddewe00055311<<*&%%$%$$++++XX@XX X ............                       .............X.XXX+X@++@@$%%%&**<113357800ewwddffdffffggfgfgfgfffffddddddeqsqq0q8w8wwwwwdddffggggggggffda99622,,:::;;=====oooo",
"@$$%$&&*<<<3357780eewddddfffffgfgfggfgfffffdfddddedqwqqq8w8wqwwwddfdfgggggggggfdaw966,3,,::;;=%====ooooooooOOOOOO>>>>>r>r>ttu,yyyyiyiiiiiiiiiiiiiiiiiiuiititituttttttttttttttttttttttututitiiiiiiiiiiiiiiiiiiiyiyiyyyyyrryrr>r>>ro>OOOOOoooooo@ooo===;;;:::,,2269waddgggggggggfffdddwwwqw8qqqqqwqedddddfdfffgfgfggfgfffffffddddee00555333<<<&*%%$$+$+@X@XXXXX XX ..........                       ............X.X.+XX+X+@@@$$%%&&*<<1344788eeedddddffffgffgggfgfffffddfdddedsqqq9qq8w9qwwdddfffggggggggfddaw9662,,:::;;;===oo@oo",
"@@$%%&&&*<11335880eewwddfdfffffgfgfggfgfffffddddddeqqqqq9qq8wwwwwddfffggggggggffda9966,,,:::;;====o=oOoooooooOOOO>O>>>>rrr,ttryyyiyiyiiiiiiiiiiiiiiiiiiuiititututtttttttttttttttttttutuuutitiiiiiiiiiiiiiiii2iiiiyyyyyyyrrrrr>>>Oro>OOOoOooooooo@oo==;=;;:,,,22669wdfdfggggggggfdfdwdwqq9qq8wqqqwdedddfdfdfffgfgfggfgfffffdfdddsee0055531<<**%%%$$$+@++XXXXXXX X  .........                        ..............XXXX+X@+@@@%$%&***<313557e0eewdddfdffffggfgfgfgffffffdddddwepqqq9qq8wwqwwdddffgggggggggfdd99662,,,:::;=====o==o",
"@$$$%&%**<<13447800eeddddfdfffgfgfggfgfffffddfdddwedqqqqq8qq9wwwddddfgggggggggfddaw96,6,,:::;;===o@oOXooooooOOOO>O>>>>r>rrrtryyyyyiyiy,iiiiiiiiiiiiiiiiiititituttttttttttttttttttttttuutuiriuiiiiiiiiiiiiiiiiiiiyiyyyyyrrrrrr>r>rO>OOoOOOoooooooooo===;;::::,,2699wddfgggggggggffdddwwwqw89q8qqqeqddddddffffffgfggfgfgfffdfdfddseee705333<<<&&*%$$$+@++X@XXXX X.X..........                       ............X.X.XXXX@X+@@$$$%%&*<<<3355708eewwdfdffffgffgfggfgfffffdfddddedpqqqqq8wq8wwwdddffgggggggggfdaw96622,:::;;;;===oooo",
"@@$$$&&&*<11335580e0ewddfdfffffgggfggfgffffffdddddeqeqqqqq8ww8wwwddfdfgggggggggfdd9966,,,:,::;;===o=oooooooooOOOO>O>>>>rrrrrytyyyyyiiiiiiiiiiiiiiiiiiiiiuititituttttttttttttttttttttttuutuiiiiuiiiiiiiiiiiiiiiiyiyiyyyyyyrrrrr>>O>>>O>oOoOooooooo@oo==;;;::,,,22699wdffgggggggggddddwwwqqw8wqqqqqdeddddfdffffffgfggfgfgfffdfdddsee0055533<1<*&%%$%$$++++XXXXXX X ...........                       ............X.X.+X+X@++@@$%%%&**<<333578e0ewwdddfdfffgfggfggffgffdfddddddqeqqqq9q8wqwwwwdddffgggggggggfdw9962,3,:::;;====@ooo",
"@+$$&$&&**<<3357780eewddddfffffgffgfgfgfffffdfdddddeeqqqq8qq8wwwwdddffggggggggfffaw9666,,,::;;=;===oooooooooOOOOOO>>>>>r>rrttruuyyyiyiiiiiiiiiiiiiiiiiiuiiitittutttttttttttttttttttttututiutiuiiiiiiiiiiiiiiiiiiyiyyyyyyrrrrrr>>>ro>OOOOOooooooOooo===;;;:::,,2669waddgggggggggfffdddwqww8w89qqqeqdsddddfdffffgfggfgggffffffddddee00054531<<<&*%%$$+$+@X@XXXX.X X...........                       .............X.XXXX+X+@@@$$%%&&*<1<3447880eedddfdffffffgfgggfgfffffdfdddedppqqqq8qqqqwwdddfffggggggggfddd99626,,:::;;=@==o=oo",
"@@@$$&&&**<11335880eewwddfdfffffggggfgffgffdfdddddwdqeqqqq9qw8wwwdddfffggggggggfdda9966<,,:::;;====@ooooooooooOOOO>O>>>r>tr,tt,uyyiyiyiiiii2iiiiiiiiiiiiuutititttutttttttttttttttttttutuutiitiiiiiiiiiiiiiiiiii,iyyiyyyyyrrrrrr>>Oro>OOOOooooooXoo@oo===;&:,,,32669wdfdfggggggggfdfdwdwqqw8ww8qqqwsdwddfdfdffffgfggfgffgfffdfdddeee0705333<<**%%%$$$+@++XX+XX.XX ...........                        .............X.+XX+X@+@@@%$%&***<3135570e0ewddddffffgfggfgffgffffdfdddddespqqqqq8w9qwwwdddffgggggggggfdaa966,2,:,;:;;====o@o",
"+@$$$%&&%*<<13447800eeddddfdfffgffgfggfgffffdfdddddedqqqq8qq8qwwwwdddfgggggggggffda996,6,,:::;;====o=ooooooooOOOO>O>>>>>r>rrtryyuyyiyii,iiiiiiiiiiiiiiiiiiititituttttttttttttttttttttttutiutiiuiiiiiiiiiiiiiiiiiiyiyyyyyrryrrr>rOrO>OOOOOOoooooooo=====;;::::,222999ddfgggggggggffdddwwww8w88qqqqsqddddddfffffgfggfgfggfffdfdfdddee0075433<<<&&*%$$$$+++X+XXXX..X...........                       .............XX.XXXX@X@@@$$$%%&*<<<3345708eewdddfdffffgffgfggfgffffdfdddwdssqqqq9q8qqwwwdddffggggggggfffdw9666,,,<:;;;===o=oo",
"@@@$$$&&**<11335580e0ewddfdfffffggfgfgfgfffffdfddddeeqqqqq8wqqqwwdddfdfgggggggggfdd9966,3,,::;:=====oo@oooooooOOOO>O>>>>rrrryryruiyyiyiiiiiiiiiiiiiiiiiiiuiututtutttttttttttttttttttttututiuuiiiiiiiiiiiiiiiiiiiiyyiyyyyyyrrrrr>rO>>>O>oOoOooooooooo====;;::,,,2669wwdffgggggggggddddwwwqqqw8qqqqqdedwddfdfffffgfggfgffgffffddddeee0055533<1<*&%%$$$+$+++XXXXXX.X ...........                       ..............XXXX+X@X@@@$%%%&**<<3335780eewwddfdfffffggfgfgfffffffddddddeeqqqqq8w9qwwwwdddffggggggggfdda99622,,:::;;;===o=o",
"+@+$$&%%&**<<3357780eewddddfffffgfgfgggfffffdfdfddwdqdqqqqq8q9wwwwdddffgggggggggfdaw9666,,::::=%===o=ooooooooOOOOOO>>>>>r>rrryru,yyyiiyiiiiiiiiiiiiiiiiiuiitiutittuttttttttttttttttttttutituiriiiiiiiiiiiiiiiiiiiyiyyyyyyrtrrrrrO>ro>OOoOOooooooooo@===;;;:::,,22699addgggggggggfffdddwwq9w8q9qqqqwedddddfdffffgfgfgfggfffffdfdddee00055331<<<&*%%$$$++@X@XXXX.X X...........                       .............XX.XXX+X@+@@$$%%&&*<1<3447800eeddddffffffgfgfggfgffffdfddddedsqqq09w8wqqwwdddfffggggggggffda99622,,:::;;=====oo",
"@@@$$$&&&**<11335880eewwddfdfffffgfgfgfgffffffddddddeqqqqq9q8w8wwwwddfffggggggggffda996,6,,:::;;===@o=oooooooooOOO>O>>>>>rrrtrriryyyyiiiiiiiiiiiiiiiiiiiiuiitittutttttttttttttttttttttututitiiuiiiiiiiiiiiii6iiiii,iyyyyyyrrrrrOr>Oro>o>oOoooooooooo=====;;:<,,,2699wdfdfggggggggfdfdwdwww8w8w8wqqqdedddfdfdffffgfgggfgffffdfddddeee0505533<<**%%%$$$$+++XXX+XX X............                        ..............X+XX+X+@@@@%$%%**<<3334580e0ewddddffffgfgggfggfgffffdfddddwqpqqqq8w8wqwwwdddffgggggggggfddw9662<,,::;;;===o@o",
"+++$$$%&%&*<<13447800eeddddfdfffgfgggfgfgffffdfddddedeeqqqqqq8wwwwddddfgggggggggfddaw966,,,:::;=;====oooooooooOOOOO>O>>>>rrrrriryyyyiiyi,iiiiiiiiiiiiiiiiiitituututttttttttttttttttttttttituiuuiiiiiiiiiiiiiiiiiiyiiyyyyyrrrrrrrrOrO>>OOOOOoooooOooo====;;::::,22669wddfgggggggggffdddwww8w8w8qqqqsqddddddfffffgfgfgfgfgfffffdfdddee0055331<<<&&*%$$$++@X@XXXX XX............                       ............X.X.XX+XX@+@@$$$%%***<<3355780eewdddfdffffgfgfggfgffffdfdfdddedsqqqqq8q9qwwwdddffgggggggggfdda96622,,::;;;=====o",
"+@$+$$$&&***11335580e0ewddfdfffffgfgfggffgffffddfdddwqqqqqq8qw8wwwwddfdfgggggggggfdd99666,:,:::;====o@oooooooooOOOO>>>>>r>rrrtriryyyyiiiiiiiiiiiiiiiiiiiiiuitituttuttttttttttttttttttttuutitiiiiuiiiiiiiiiiiiiiiiiyyiyyyyyyrrrrr>rOrOO>oOOoOooooXoo@o====;;::,,,26699wdffgggggggggddddwwwqqq8wq8wqqdeddddfdffffffggfggffgffffddddseee0055331<<*&%%$%$$+++X@XXXX XX ...........                       ............X.X.XXX@X@+@@$%%%&&<*<33357800ewwddffdffffgfgfggffgffffddddddeqsqq9qq8wqwwwwdddffggggggggfdda99622,,:::;;%=====",
"+++$+$&$&%*<<<3357780eewddddffffffgfggfggffffdffddddedsqqq8qq8qqwwwdddffggggggggfffaw966,3,,::;;;====oooooooooOOOOO>O>>>>r>rrryryyyyyiyiiiyi2iiiiiiiiiiiiuiiitituuttttttttttttttttttttuttutititiiiiiiiiiiiiiiiiiiiiiyiyyyyrtrrr>r>>O>>OOOOOoooooooo=o===;;;:::,,22699addgggggggggfffdddwwwqqqq8qqqqsedddddfdffffggfggfggfgffdffdddee00555531<<<&*%%$$+$+@+XXXXXXX.X...........                       .............X.XXX+X++@@@$$%%&**<1<344788eeedddddfffgffgfgfgfgffffdfddddedpqqqqq8w8qqwwdddfffggggggggffdaw9622,,:::;;====oo",
"+++$$$$&&&&*<11335880eeewddfdffffgfgfggfgfgfffdfdddddeqsqqq9qqqqqwwwdddffggggggggfdda9966,,,:::;=;====ooooooooOoOOOO>O>>>>rrrtrtyyyiyyiyiiiiiiiiiiiiiiiiiiuutititttutttttttttttttttttttuututitiuiiiiiiiiiiiiiiiiiiyiyyyyyyyrtrrrOr>>O>>OOOoOooooooooo====;;:::,,,5699wdfdfggggggggfdfdwdwqq9qqqqqqqwssdddfdfdfffffgfggfgfffffdddddeee00553311<**%%%$$$+@++X@XXXX X............                        .............X.+XX+X@+@@@%$%%&*<<313557e0eewwddfdfffgfggggffgfffffdfddddespqqqqq8w9qwwwdddffgggggggggfdaa9662<,,::;;;;==@o",
"+++@+$%$&%**<<13447800eeddddfdfffffgggfgfgfffdfdddddedsqqqqqw8qqwwwdddfffggggggggffda996,22:,::;;====o+=oooooooOOOOO>>>>>r>>t,tryuyyyyiiyiiiiiiiiiiiiiiiiiiiititututtttttttttttttttttttttutitiiiuiiiiiiiiiiiiiiiiiiyiyyyyyrrrrrrr>rO>>OOOOOOoooooooo@====;;;::,,22669wddfgggggggggffdddwwwqw8q9qqqqeqddddddffffffgfggfgffgffdffddddee0055533<<<&*&%$$$+@+++XXXX.X.X...........                       .............X..XXXX+X+@@$$$%%*&<<<3345708eewddfdfdfffgffgfggfgfffdfdfddwdssqqqq8w8wqwwwdddffgggggggggfdda96622,,::;;;=====",
"X++$$$$&%&&*<11335588eeewddfdfffffgfgfggfgffffffdddddeqpqqqq8qq9qwwwdddffgggggggggfdd9966,,,<:::;====ooooooooooOOOO>O>O>>>rrrrryt,uyyyiyiiiiiiiiiiiiiiiiiiiuiutituttuttttttttttttttttttttuutitiiiiiiiiiiiiiiiiiiii,yyiyyyyyyrrrr>rOrOO>oOOOoOooooooo=o===;;;::<,,26699wdffgggggggggddddwwwqqw8w8qqqqdeddddfdffffgfgfggfgfffffddfddwee00555311<<**%%$%$$+++++XXXXX.X............                       .............+.X+XX++@+@@$%%%&**<<333578e0ewwdddffffffggfgfgfffffffddddddeqsqq0q8w8wwwwwdddffggggggggffda99622,,:::;;=====",
"+++@+$$$%%***<<1355700eewddddffffgfgfggfgffffffdfdddwddpqqq8qq8wqwwwddfdfgggggggggfdaw9666,,,:::=%=====ooooooooOOOOOO>>>>>r>t>tyryyyyiyi,iiiiiiiiiiiiiiiiiuiitititutttttttttttttttttttttuttititiiuiiiiiiiiiiiii2iiiiiyyyyyyrryrrr>rO>>>>OOOOooooooOooo====%;::,,,2269waddgggggggggfffdddwwwq8w8qqqqwqdwddddfdffffgfggfggfgfffffddddee00054433<<<%*%%$$+$+@+XXXXX.X.............                       ..............X.XXX+X+@@$$$%%&&*<1<3447880eedddfdfffffgfgfgfgfgfffdfddddedsqqqqqq8w8qwwdddfffgggggggggddaw9622,,:::;;;===o",
"X+++$+$$&&%**111335880eeewddfdffffgfgfggfgffffdfdfdddwesqqqq9qq8wqwwdddfffggggggggffda99622,,:::;;====o@oooooooooOOO>O>>>>rr>trtyruyyyiiiiiiiiiiiiiiiiiiiiiuiititututttttttttttttttttttttuutitiuiiiiiiiiiiiiiiiiiiiyiiyyyyyyrrrrr>>rOO>o>OOoOoooooXoo@o====;;::,,,2669wdfdfggggggggfdfdwdwqwq8w8qqqqeeddddfdfdffffgfggfgfffffdffdddeee0505331<<**%%%$$$@++++XXXXX.X............                        ..............XX+X+X@X@@$$%%%***<3335570e0wwwddfdfffgfgfgggfgfffffdfddddqspqqq9qqqwqwwwdddffgggggggggfdaa9662<,,::;;;====",
"+++@+$$%%$***<<33447808eeddddfdfffffgggfgfgffffdfddddedeeqqqqq8wqwwwwdddfgggggggggfddaw966,,:,::;=;==o=oo=ooooooOOOOOO>>>>>>rr,tryyyiyyyiyiiiiii6iiiiiiiiiiiitititutttttttttttttttttttttuttititiuiiiiiiiiiiiiiiiiiiiiyyyyyyrrrrrrrrOr>O>OoOOOooooooooo====;;::::,22699wddfgggggggggffdddwwwq9w8qqqqqqdedddddfffffgfggfggfgfffffddddeee0055433<<<&*&%$$$+@++X@XXX.X.X...........                       ............+.X.XXXX@X@@@@$$%&&*<<<3345708eewddfdfdfffgfggfgfgffffdfdfddddspqqqqq8w8qwwwdddffggggggggfffda96622,,::;;;====",
"X+++$+$$$*$***11335580eeewdddffffffgfgfggffgfffdfdfdddwqqqqq0qq8w9wwdddfdfgggggggggfdd99666,,::::;=;=@o=ooXooooooOOOO>O>>>r>rrryrtuyyyiiyi,iiiiiiiiiiiiiiiiiuitititutttttttttttttttttttttuutituiiuiiiiiiiiiiiiiiiiiiyiyyyyyyyrrrrr>>O>>OO>oOoOooooooooo====;;::,,,22899wdffgggggggggddddwwwqw8w8qqqqwsdwdddfdfdffffgfgfggfgfffdfddddeeq005533<1<**%%$$$$++++XXXXX X.............                       ..............XXX+XX@++@$$%%%&**<1133578e0ewwdddfffffffgfgfgfgfffffddddddesqqqq9q8w9wwwwdddffggggggggfdda99622,,:::;;=;==",
"+++++$$$%$*%*<<<1355700eewddfdfdffgfgfggfggffffffdddddedsqqq9q8w8wwwwdddffggggggggfffaw966,3,,::;;;====oooooooooOOOO>O>>>>>r>rrrtt,yyyyyiiiiiiiiiiiiiiiiiiiuiiitittutttttttttttttttttttttttutuiriiiiiiiiiiiiiiiiii,iiyyiyyyyrtrrr>r>>>O>>oOOOoooooooo@====;;;:::,,26699addgggggggggfffdddwww8w8qqqqqqeqddddddfffffgfgfggfgffffffddddee00555431<<<%*%%$$+$++X+XXXXX.X............                       .............XX.XXX+X+@@@@$%%&&*<<13447880eedddfdfffffgfgggfgfffffdfddddssppqqqq8qqqqwwdddfffggggggggffdaw9622,,:::;;;==o",
"X+X@+$+$$*%*&*1113358800ewwddfdffffgfggfgfgfgfffdfdddddeqpqqqqq8qqqwwwddfffggggggggfdda9966,,,<::=;=====ooooooooooOOOOO>>>>>rrryryruyyyiyiii,iiiiiiiiiiiiiiiuutititttutttttttttttttttttttutuutiitiiiiiiiiiiiiiiiiiiiiyyyyyyyyrrrrrOr>rO>o>OOoOooooooooo====;;;:<,,,266wwdfdfggggggggfdfdwdwqw9q8w9qqqwdeddddfdfffffgfgfggffgfffdfdddeee0055333<<**%%%%$$+$++X+XXXX.X............                        ..............X+XX+X@+@@@%$%%***<3135580e0ewwddfdfffgfgfgfgfgfffffdfddddespqqqqq8qqwwwwdddffgggggggggfdaa9662<,,::;;;===",
"+X++++$$$%%%***<3344788eeeddddfffffffgfgfgfgfffdfdfdddedpqqqqq8qqqwwwddddfgggggggggffda996,6,,::;:=;===o+=oooooooOOOOO>>>>>>rrrryryyyyiyiiyiiiiiiiiiiiiiiiiiiiitititutttttttttttttttttttttuutituiuiiiiiiiiiiiiiiiiiiyiiyyyyyrryrrrr>rO>O>OOOOOoooooooo@====;;:::,,226999ddfgggggggggffdddwwwqq8w8qqqwqeddddfdfdfffgfgggfgfgfffdffddwdee0055531<<<*&*%$$$@++++XXXX.X.X...........                       ............X.X.XXXX@X+@@%@%%&&*<<<3355780eewddfdfdfffgfgfgggfgfffdfdfddddssqqqq8q9w8wwwdddffgggggggggfddw96622,:,:;;;===",
"X++++$+$$$&&%*1<13355800eewddddffffgfggfggfgffffdfdddddqepqqq9q8w9qwwdwdfdfgggggggggfdd9966,,,:,:;;====oooooooooooOOO>O>O>>r>trrrytyyyyyyiiiiiiiiiiiiiiiiiiiiuiututtuttttttttttttttttttttttuutiuiiuiiiiiiiiiiiiiiiiii,iyyyyyyrrrrr>rOrO>O>oOOoOooooooo=o====;;;::,,2269wwdffgggggggggddddwwwqqw8w8qqqwseddddfdfffffgfgfggfgffffddfddeee00054331<<*&%%$$$$+++X@XXXX..X............                       ............X.X.XX+X@++@@$$%%&**<11335780eewwdddfffffgfggfgfgffffffddddddeqqqqqqq8wqwwwwdddffggggggggffda99622,,:;:;;=;=",
"++X+++$$$%%%***<<3355700eewdddffdfffgffggfgfffffffddddddssqqqqqq8wqwwwdddffgggggggggfdaw96263,,::;;;=====ooooooooOOOOOOO>>>>r>r>yrtyyyyyii,iiiiiiiiiiiiiiiiiuiitiutittutttttttttttttttttttututititiiiiiiiiiiiiiiiiiiyiyiyyyyyyrrrrr>rOrO>OOOOOooooooOooo===;;;::,,,26699addgggggggggfffdddwwww8w8qqqqeqdeddddfdffffgffggfgfgfffffddddee00555531<<**&%%$$+$+++XXXXX.X.............                       .............X.XXXX+X+@@@@%%%&&*<<13447808eedddfdffffffgfgfggfgfffdfddddedppqqqq8w8qqwwdddfffgggggggggddaw9622,,;,&;;;==",
"X++X++$+$$&&&**<113358800ewwdddffffffggfggfgffffdffdddddeqsqq09qq8wqwwdddfffggggggggffda9962,,,<::;;====o@ooooooooOOOO>O>>>>>rrrrt,tyyyiyyiiiiiiiiiiiiiiiiiiiuiitittutttttttttttttttttttttutuutitiiuiiiiiiiiiiiiiiiiiyi,iyyyyyrrrrr>>>OrO>OOOoOoooooXoo@o===;;:::,,,2699wdfdfggggggggfdfdwwwqqq9q8qqqqwsddddddffffffggfggfgffffdffdddeee00553311<<%&%%%$$+$+++XXXXX.X............                        .............X.+XX+X@+@@%@%%%***<3135580e0ewwddfdffffgfgggffgfffffdfddddespqqq0q8wqwqwwdddffgggggggggfdaa9662<,,;;;;;==",
".+X++++$$$%%%**<<1344788eeedddfdfffffgfggfgfgfffffdfdddedsqqqqqq8w9wwwwdddfgggggggggfddaw9626,,::;:=%==o=oo=oooooooOO>OO>>>>>rrrrtryuyyyyiiyiiiiiiiiiiiiiiiiiiitituututtttttttttttttttttttttutitiiuiiiiiiiiiiiiiiiiiiiiiriyyyrryrrr>r>rO>OOOOOOooooooooo====;;;:::,22669wddfgggggggggffdddwww9w8q9qqqqpswddddffdfffgffggfgffgffffdddddeee505433<<*<&*%$$$@+++XXXXX.X.X...........                       .............X.XXXXX@X+@@@$$%&&*<<<3355780eewddfdfdffgfgfgfggfgfffdfdfddwdssqqq9qqq9qwwwdddffggggggggfffdw96622,,,,;;;==",
"XX+++++$$$$&&&*<113355800eewdddfdfffffgfgggffgffffddddddeqsqqq0qq8wqwwdddfdfgggggggggfdd9966,,,:,:;;===@o=ooXooooooOOOO>O>>>>>rrtrtyruyyiyiiiyiiiiiiiiiiiiiiiiuitituttuttttttttttttttttttttutuuitiiuiiiiiiiiiiiiiiiiiiyyiriryyyrrrrr>>O>>>OOOOoOooooooooo===;=:::,,,26699wdffgggggggggddddwwwqqw8w8qqqesdeddddffffffgfgfgggfffffdfdddeee00555331<<*&%%$$$$+++X$XXXX..X............                       .............X.XXX+X@+@@@$%%%&**<<3335788eeewdddffffffggfgfgfffffffddddddeeqqqq9q8wqqwwwdddffggggggggfdda99622,,&;:;;=;",
"+X+X++$+$$%%%***<<3345500eewddfdffffgfggfgfggffffdffdddwddpqqq9w8qqqwwwdddffggggggggfffaw96622,,::;;;====ooooooooooOOO>O>>>>>r>tr,truyyyyiii,iii2iiiiiiiiiiiiuiiitituuttttttttttttttttttttttuuttitiiiiiiiiiiiiiiiiiiiyiiyiyyyyrrrrrr>>>ro>OOOOOoooooooo@=====%;:::,,22699addgggggggggfffdddwwwq8w8qqqqqweddddfddfffgfgfgfgfgffffffddddee00055531<<**&%%$$+$+$+XXXXX.X.............                       ............X.X.+XX+X++@$@$%%&&*<1<344788eeedddfdffffgffgggfggffffdfddddedqsqqqq8w8qwwwdddfffggggggggffda99622,:,,:;;;=",
"XX++X++$$$$%&&**<113458800ewwddfdffffgfggfgffgffffddfdddwesqqqq8q8wqqwwwdddffggggggggfdda9966,,,:::;;====o@oooooooooOOO>O>>>>>rrrtrt,uyyyyiyiiiiiiiiiiiiiiiiiiuutititttutttttttttttttttttttutuuititiiiiiiiiiiiiiiii2iiyiyyyyyyyrrrrrr>>OroO>OOoOooooooooo====;;;:<,,,5699wdfdfggggggggfdfdwdwqwq8w89qqwqdeddddffdfffgfgggfgfgffffdfdddeee0575333<<<&&%%%$$++++X@XXXX.X............                        ..............XXXX+X@+@@$%$%%***<313557e0eewwddfdffffggfgfgffgffffddfdddweqqqqqq8w9qwwwdddffgggggggggfddw996,2,::&;;;=",
"X+XX++++$$$%%%**<<3344788eeeddddfffffffgfgfggfgffdffddddedsqqq0q9w8qwwwdddfffggggggggffda996,23,::;:=;====oooooooooOOOOO>O>>>r>rrrtryyyyyiyiiiiiiiiiiiiiiiiiiiiiititututtttttttttttttttttttttuutitiuiiiiiiiiiiii6iiiiiiyiyiyyyrryrrr>rOrO>>OOOOOoooooooo@====;;::::,22669wddfgggggggggffdddwwwq9w8wqqqqeqdddddfdfffffgfgfggffgffdffddddee00555311<<&&*%$$$+$+++XXXX.X.X...........                       ............X.X.XXXX@X@@@@$$%&&*<<<3345708eewddfdfdffgffgfggfgffffdffddddedsqqqq9w8qqwwwdddffgggggggggfdda9626,,,;,;;;=",
"XX+X+++$+$$$&&&**113357800eewddddfffffgfgggfgfffffdfdfdddeqsqqqq8qw9wqwwdddffgggggggggfdd9966,,,:,:;;====o=oooooooooOOOOO>>>>>r>rt,ttyyuyyiiyiiiiiiiiiiiiiiiiiiuiutituttutttttttttttttttttttutuutiiiuiiiiiiiiiiiiiiiii,iyyyiryyyrrrrr>rO>O>o>oOOoooooooo=o====;;::,,,22999wdffgggggggggddddwwwqw8w8qqqqqdedddddfffffffgfgfggfffffddfddweee0054311<<*&%%$$$$++++XX@XX..X............                       ............X.X.+X+X@X@@$@%%%&**<<333578e0ewwdddfffffgfggfggfgffffdfdddddeeqqqqq8w8wqwwwdddffggggggggfdda99622,,,;&;;=",
".+X+++++$$$%%%**<<<3344880eewdddfdfffgfgfgfgfgfffffdfdddddssqqq9qq8w8wwwdddffgggggggggfdaw9666,,,:::;;==o@o=oooooooOOOOO>O>>>r>rrrrryuuyyyiyiiiiiiiiiiiiiiiiiiuiititituttttttttttttttttttttttuttititiiiiiiiiiiiiiiiiiiiiyiiryyyrrrrr>rOrO>O>oOOOooooooOooo===;;;:::,,2666waddgggggggggfffdddwww8w8qq8qqeqdedddfddffffgfgfggfgffffffddddee00555531<<<&*%%$$+$++X+XXXX.X.............                       .............X.XXXX+X@@@@@%%%&&*<<13447880eedddfdffffffgfggfgffffffdddddedqqqqq8w8w9wwwdddfffggggggggffda99622,,:::;:=",
"X.+XX+++$+$$%&%**<11337880eeewddffdfffgfgfgggfgfffffddddddeqpqqq8qw8wwwwdddfffggggggggffda996,6:,:::=;=====ooooooooooOOOO>O>>>r>rrtttr,uiyyi,iyiii2iiiiiiiiiiiiuiititututtttttttttttttttttttutuutitiiuiiiiiiiiiiiiiiiiiyiyyiyyyyrrrrr>rOrO>O>oOoOoooooXoo@o===;;;:<,,,2699wdfdfggggggggfdfdwdwwq8w8wqqqqwsdwdddffdffffgggfggfgfffdffdddeee0055333<<*&%%%%$$+$+++XXXXX.X............                        .............X.+XX+X@X@@%@%%%***11335570e0wwdddfdffffgfgfggfgffffdfdfdddedqqqqq8w8w8wwwdddfffggggggggfddw9662<,,::;=;",
".+.++++++$$$%%*%*<<33445800eedddddffffffgggfgffgfffddfdddedsqqqqqq8qqqwwwdddfgggggggggfddaw966,,,::;:=%===oo@oooooooOOOO>O>>>>>r>rt,ryyyyyyiiiiiiiiiiiiiiiiiiiiiititituttttttttttttttttttttttuutitiiuiiiiiiiiiiiiiiiiiiiyiyiryyrryrrrr>rO>O>OOOOOooooooooo====;;::::,226699ddfgggggggggffdddwwqwqq8q9qqqeqdddddfdffffgfgfggfgffffffddddeee00555311<<&<%&$$$++++XXXXX.X.X...........                       .............XX.XXXX@X@@@@$$%%&*<<<3345708eewdddfdfffgfgfggfgfgfffffdddddwedqqq9q8q9wwwwdddffgggggggggfdda96622,,::;:=",
"XX+.+X+++$$$$&&***113358800eewddfdfffffgfgfgfgfffffffdddddwqsqqq9qqqqwwwdddfdfgggggggggfdd99666,<,::;;=;===ooooooooooOOOO>O>>>>rrrrtruyyyyiyiiiiiiiiiiiiiiiiiiiiuititituttttttttttttttttttttttuuuutiiuiiiiiiiiiiiiiiiii,yyiriyyyyrrrrr>r>O>O>oOOOoooooooooo====;;::,,,2669wwdffgggggggggddddwwwqqqw8qqqqedqdddddfdffffgfgfggfgffffdfddddee000553111<*&%%$$$$$++++XXXX.X.............                       ..............XXXXXX@++@$$%%%&**<<333578e0ewwdddfffffgfggfggfffffdffdddddqeqqqqqq8w8wwwddddffggggggggfdda99622,<,::=:",
".X+.++++$+$$%%%&*<<<3354780eewdddfdfffgfgfgggfgfffffdfddddedpqqqqq8q9qwwwdddffggggggggfffaw966,3,,:::;;===o=ooooooooOOOOO>O>>>>r>rtrtryyyyyiyiiiiiiiiiiiiiiiiiiuiiitittutttttttttttttttttttttututuiriiiiiiiiiiiiiiiiiiiiiiyiyyyyrrrrr>r>OrO>o>oOOoooooooo@=====;;:::,,22699addgggggggggfffdddwwqq98wqqqqqqdwdddfdfdfffgffggfgfgfffffddddee00755431<<*&*%%$$$++++XXXXXX.X............                       .............XX.XXX@X+@@@@$%%&***113447880eedddffdfffffgfgfgfgfffffdddddedsqqqqq8w8wqwwwddfffggggggggffda99622,,::;:=",
"XX.+X+X++$$$$%&&&*<11335880eeewddffdfffgfgfgfgfgfffffddddddqeqqqqqq8wqqwwwdddffggggggggfdda9966,,,::;;;====o=oooooooooOOOO>O>>>r>t>t,tuyyuyyi,yiiiiiiiiiiiiiiiiiuutititttuttttttttttttttttttttututiitiiiiiiiiiiiiiiiiiiiyiyyiryyyrrrrrOr>O>O>o>ooOooooooooo====;;:::,,,5699wdfdfggggggggfdfdwdwwqw88w9qqweedddddfdfffffggfggfgfffffdfdddeee0055431<<<&%%%%$+$++++XXXXX.X............                        ..............X+XX+X@+@@@%$%%**<<1335580e0ewwdddfffffgfgfgfgfgfffdfdfdddespqqq9q8wqwwwwdddffgggggggggfddw9662,,,::;:",
"X.+.+X++++$$$%%%**<<13448800eedddddffffffggfgggffffdfdfdddedeeqqqq8w8qwwwdddfffggggggggffda996,6,,:::;;;====oo@ooooooOOOO>O>>>>>t>,rtyruyyyyiiiiyi2iiiiiiiiiiiiiiiitititutttttttttttttttttttttuutituiuiiiiiiiiiiiiii2iiiiyiiryyyrryrrrrrOrO>OOOOOOoooooooo@====;;;:,:,22669wddfgggggggggffdddwwqw8wq8qqqqqdedddddfffffgffggfgfgfffdffddwdee00754311<<&*&%$$$$++++XXXX.X.X...........                       ............X.X.XXXX@X@@@%@%%%***<11355780eewdddffdffgfgfgggfgffffffddddwdssqqqqqq8w8wwwdddffgggggggggfdda96622,,:::=",
"X.X+X++++$+$$$*%***11335788eeewddfdfffffgfggfgfgffffdfdfdddwqqqqq0q8wqqwwwdddffgggggggggfdd9966,,,<,:;;=====oooXooooooOOOO>O>>>>>y>y>yt,uuyyyiiiiiiiiiiiiiiiiiiiiuiututtuttttttttttttttttttttttuutiuiiuiiiiiiiiiiiiiiiii,iyyiyyyyyrrrrr>rOrO>>oOOOooooooooo====;=;::,,,22999wdffgggggggggddddwwwqq8qw8qqqqqdddddfdfffffgfgfggffgfffddfddeeee77753111<<%&%$$$+$++++XXXX..X...........                        ............X.X.+XXX@X@@@$$%%&**<<33357800ewwdddfffffgfgfgfgffgffdffdddddeqqqqq9qq8wwwwwdddffggggggggfdda9962,,<,:;:",
"..+XX+X+++$$$%$*%*<<<3344700eewdddfdfffgfggfgfgfgfffffdddddedsqqq9qq8w9wwwddfdfgggggggggfdaw9666,,,::;;;;==o@oooooooooOOOO>O>>>>t>r>yryruiyyiyiiiiiiiiiiiiiiiiiiuiitiutittutttttttttttttttttttututititiiiiiiiiiiiiiiiiiiiiyiyyyyyrrrrr>r>>O>>o>oOOoooooooooo==;=%;:::,,2666waddgggggggggfffdddwwwqqw8qqqqqdqdddddfdfffgfgfggfggffffffddddee00055531<<&*&%%$$$++++XXXXX.X........... X                       .............X.XXXX+X+@@@@%%%&***11344788eeeddddfdfffffggfggfgfffffdddddedppqq0qq8qqqwwdddfffggggggggffda99626,,,::;",
"X.XXXX++++$+$$*%*%*1133378800ewwddffdfffgfggfggffffffdfdddddeqpqqq9qq8wwwwwddfffggggggggffda996,6:,:::;=====o=oooooooooOOOO>O>>>>rrtrtrir,iiyiyiiiiiiiiiiiiiiiiiiuiitittutttttttttttttttttttttutuutitiiuiiiiiiiiiiiiiiiiiyiyiriryyrrrrrOr>rOO>o>ooOoooooo@ooo===;;;:<,,,2699wdfdfggggggggfdfdwdwqq9qq8qqqwqdsdddfdfdfffgfgfggfgffffdffdddeee0775333<<<&&%%$$$$++++XXXXX.X..........  .                       ..............XXXXX@++@@%@%%%**<<133557e0eewddfdfffffgfggfgfgffffdfdfdddespqqq9qqqqqwwwdddffgggggggggfddw966,2,:::;",
".X.XXX+++++$$$%%%**<<<344788eeedddddffffffgfgfgfgfffdffddddedpqqqqqq8wqqwwddddfgggggggggfddaw966,,,:::;;;=@o=oooooooooOOOO>O>>>>>r>rrtyryyyyyyii,iiiiiiiiiiiiiiiiiitituututttttttttttttttttttttuttitiiuiiiiiiiiiiiiiiiiiiiyiyiryyrryrrrr>rO>>O>oOOOoooooooo@====;;::::,226699ddfgggggggggffdddwwwqw899qqqqpssdddddffffffgfggfgfgfffffdddddee00555311<<&&*%$$$+++++XXXX.X.X........ X.                       ............X.X.XXX@XX@@@@$$%%***<<3345708eewdddfdfffgffgfgggfffffffddddddspqqqqq8q9qwwwdddffgggggggggfdda9664,,,:::",
"X.X+XX+X+++$$$$%&***133357800eewddfdfffffgfgggfgfgfffddfddddqepqqq0qq8wwwwwddfdfgggggggggfdd99666,,:,:;;=;==o@oooooooooOOOO>>O>>r>tr,rtyyyyyiiyiiiiiiiiiiiiiiiiiiiuitituttuttttttttttttttttttttuuutitiiuiiiiiiiiiiiiiiiii,iyiriyyyyrrrr>rOrOO>O>oOoOooooooo=o====;;::,,,2669wwdffgggggggggddddwwwqqw8w8qqqwsdsdddfdffffffgfggfgfgfffdfdddeee000553111<*&%%$%$$+++++XXXX..X......... ..                       ............X.X.+XX@X@+@$$%%%&**<1133578e0ewwdddfffffgfggfgfgffffdffddddwssqqqq9q8w9wwwwdddffggggggggfdda99622,,,:;",
".X.XXX++++$+$$%%&%*<<<3344880eewdddfdfffgfgfgfgfgffffffddddddssqqq9q8w8qwwwdddffggggggggfffaw966,2,,::;;;====ooooooooooOOO>OO>>>>r>rrryryyyyyyiiiyiiiiiiiiiiiiiiiuiiitituuttttttttttttttttttttttututitiiiiiiiiiiiiiiiiiiiiiiriyyyyrtrrrr>rOr>O>ooOOooooooOooo===;;;:::,,25699addgggggggggfffdddwwqw8w8wqqqqeedddddfdffffgfggfgfgffffffddddee00755431<<*&*%%$$+$++++XXXX.X......... ...                       .............X.XX+XX@X@@@@$%%%**<<13447880eeddddfdffffggfgfgfgfffffddddwdsspqqqqqq8wqwwdddfffggggggggffda996221,:::",
"X.X.XXX++++$$$$%*&**<113748800ewwddffdffffggfgfgffgffdffdddddeqsqqqqq8wqqwwdddfffggggggggfdda9966<,,:::;;====o@oooooooooOOO>O>>>>>rrryryryyyyiyiiiiii2iiiiiiiiiiiiuutititttutttttttttttttttttttutuuuuitiiiiiiiiiiiiiiiiiiiriiriryyyrrrrr>>>O>>OO>oOOoooooXOo@o===;;;:,,,,2699wdfdfggggggggfdfdwdwqqw8w8qqqqwdedddfdfdffffgfggfgfgffffdfdddeee0055431<<<&%%%$$$+++++XXXXX.X......... ..                        ..............XXXX+X@@@@@%$%&***11335570e0ewwdfdffffffggfggffgfffdfdfdddwqsqqqq8qw8wwwwdddffgggggggggfddw9662,,,::",
"XX XXXX+++++$$$%%%**<<1335788eeedddddffffgffggggfgfffffdfdddedsqqqqq8qqqwwwwdddfgggggggggffda996,6,,:::;;=====ooooooooOoOOOO>O>>>>r>rryryyyiyyiyi,iiiiiiiiiiiiiiiiiiititututtttttttttttttttttttttuutitiuiiiiiiiiiiiiiiiiiiiiyiyyyyrrrrrr>r>>>OO>OOOoooooooooo====;;::::,22669wddfgggggggggffdddwwww8w8qqqqeqeddddddfffffgfggfggffgffdffddddee00754311<<%**%$$$$++++XXXX.X.X....... ...                       ............X.X.XXX+X@X@@%@%%%&*<<<3345708eewdddfdffffgffggfggffffffdddddedsqqq8qq8wqqwwdddffgggggggggfdda96622,:,:",
"X.X.+XX+X++$+$$$&&&**131355800eewdddfdffffggfgfgffgffffddddddwqpqqqqq8w9qwwdddfdfgggggggggfdd9966,,,:::;;;===o=ooooooooOOOO>O>>>>r>trrrytyyyyyiiiiiiiiiiiiiiiiiiiiiuiutituttutttttttttttttttttttuututiiiuiiiiiiiiiiiii6iiiiyiriyyyyyrrrrr>>O>>O>OoOoOooooooooo====;;&:,,,26699wdffgggggggggddddwwwwq8w8qqqqweeddddfdffffffgfgfggfffffddfddeeee77553111<<%%%$$$$+++++XXXX..X........ ...                       ............X.X.+XX+X@@@@$$%%*&*<<3335780eeewddffdfffgggfggfgfgffdffdddddeqqqqq9qq8wwwwwdddffggggggggfdda99622,,*:",
" XX.XXX+++++$$$%%%**<<<3345880eewddfdfffffgfgfgfggffffdffddddedsqqq9qq8w9wwwdddffgggggggggfdaw9666,,,:::;=;==@ooooooooooOOOO>O>>>>r>rryrtyyyyyiyiiiiiiiiiiiiiiiiiiuiitititutttttttttttttttttttttututititiiiiiiiiiiiiiiiiiiyiyiyyyyyrryrr>r>>rO>OOOOOooooooOO@====;;;::,,,22699wdffggggggggfffdddwwqqw8q9qqqqedwddddfdffffgfgfggfgffffffddddee00055531<<&**%%$$+$++++XXXX.X........ ....                       .............X.XXXX+X@@@@@%%%%***113447800eedddddfffffffggfgfgfffffdddddedppqqqqq8wqqwwdddfffggggggggffdaw9622,,::",
"X XX.XX++X++$+$$&&&&*<13355780eewwddfdfffffgfgggfgfffffddfddddqeqqqq8qw8wqwwwddfffggggggggffda9966<,,,:;;;=====oooooooooOOOOO>O>>>rrrrrt,tyyyiyiyiiiiiiiiiiiiiiiiiiuiititututttttttttttttttttttttutuuiriiuiiiiiiiiiiiiiiiiiiyiyiyyyyrtrrrOr>O>O>oOOOOoooooXOoo====;;;::,,32699wddfgggggggggfdfdwwwwq8w8w8qqqweddddfdfdffgfgfgfggfgfffdffdddeee07053311<<&%%%%$$+++++XXXXX.X........ ...                        ..............XXXX+X@X@@%@%%%**<<1335588eeewwddfdffffgfgfggfgffffdfdfdddespqqq0qq8w9wwwdddffgggggggggfdaa9662,,,:",
"XX..XXXX+++++$$$%%%**<<<3357800eeddddfdfffgfgfgfgfgfffdffddddedsqqqqqq8qwqwwddddfgggggggggfddaw96,6,,:::;;====o=oooooooooOOO>O>>>>>>rrryryyyyyiyii,iiiiiiiiiiiiiiiiiititituttttttttttttttttttttttuutuuiuuiiiiiiiiiiiiiiiiiiiiyyyyyyrrrrrrrrOrO>O>OOOoooooooooo====;;::::,22669wdfffggggggggffdddwwwqw8qqqqqqqdedddddfffffffgfggfgffffffdddddee0075351<<<&*&%$$$+$+++XXXX.X.X...... ....                       ............X.X.X+XX@X@@@@%@%%***<<33457000ewddfdffffgfgfggfgfffffffddddwdspqqq9w8q9wwwwdddffgggggggggfddw96622,,:",
" XX..XXX+++++$$$$&&***133355800eeedddffffffgggfggfgffffdfdfdddwqpqqq09q8wwwwwddfdfgggggggggfdd9966,2<,:::=;====oo@oooooooOOOO>O>>>r>t>trtyyyyyyi,iiiiiiiiiiiiiiiiiiiuititituttttttttttttttttttttttuuutiiiiuiiiiiiiiiiiiii2iyiiyyyyyyyrrrrr>rO>>OO>oOOoooooooo@oo==;;;::,,,26699wddggggggggggddddwwwqqq98w9qqqeddwddfdfdffgfggfggfgffffdfdddsee00775331<<*%&%$$$$+++++XXXX..X....... ....                       ............X.X.XXXX@++@$@%%%&**<11335780eeewddfdffffgfgfggfgffffdffdddddeeqqqq8qq8wqwwwdddffggggggggffda99622,,:",
"X.X.XXXX+X++$+$$%%&%*<<<135578e0edwdfdfdfffgffggfgffffffdfddddedsqqq9w8w8qwwwdddffggggggggfffaw9666,,,::;;;===o@oooooooooOOO>OO>>>>r>rrtyryyyyyiiiiiiiiiiiiiiiiiiiiuiiitittutttttttttttttttttttttututititiiiiiiiiiiiiiiiiiiiiyiyyyyyrrrrr>rOr>O>>OoOOooooooooo====;;;:::,,2269wwdffggggggggfffdddwwq9w8w8qqqqdewdddddfffffgffggfgfgfffffddddee00055331<<***%%$$$+++++XXXX.X....... .....                       .............X.XXXX@X+@@@@%%%&&*<<13447800eeddddfdffffgfggfgfgfffffdddddedqpqqqqq9w8wwwdddfffgggggggggdda99622,,,",
".X X.XXXX++++$+$$&&&**<13335888eewdddfdfffffggfggfgffffffddddddeqpqqq8qqqwqwwwdddffggggggggfdda9966,,<:::;=;===o=ooXooooooOOO>>O>>>>rr,rtyruyyyyiyiiiii2iiiiiiiiiiiiuutititttuttttttttttttttttttttuutuiriuiiiiiiiiiiiiiiiiiiyiyyyyyyyrrrrr>rO>>O>o>oOOoooooo@ooo===;;:::,,,2669wdfdgggggggggfdfdwdwww8w8qqqqqededdddfdfffffggfggfgfffffdfdddeee07754311<*&%%%$$+$++++XXX.X.X....... ....                        .............X.+XX+X@+@@$@%%%***11334588eeewwddfffffffgfgggffgfffdfdfdddedqqqqq8w8wqwwwdddffgggggggggfddw9662,,*",
" XX..XXXX+++++$$$%%%**<<<345780eeeddddfffffgffggfgfgffffddfdddedpqqqqqq8w8wwwdddfffggggggggffda996,6,,,::;;=====ooooooooooOo>OO>>>>r>>trtryyyyyiyiyiiiiiiiiiiiiiiiiiiiitititutttttttttttttttttttttuttitiiiuiiiiiiiiiiiiiiiiiiiyyyyyyrryrrrrOr>O>o>oOOooooooooooo===;;;:,:,22699wddfgggggggggffdddwww8w8q9qqqqsqddddfdfdffffgfggfgfgfffdfdfdddee0055441<<<*&&%$$$$++++XXX+.X.X..... .....                       .............X.XXXXX@X@@@@%$%%**<<<3354700eewddfddffffgfgfgfggffffffddddwdesqqq9q8qqqqwwdddffggggggggfffda96621,,",
". XX..+XX+++++$$$$&&&**141355800eewddddfffffggfgggffgfffffdddddqepqqq9qq8wqwwwdddffgggggggggfdd9966,,,::::;====o=oooooooooOOO>O>O>>>rt>trtytyyyyiii,iiiiiiiiiiiiiiiiiuiututtutttttttttttttttttttttuuutitiiiiiiiiiiiiiiiiiiiiiyiyyiyyyyrrrr>rOr>O>O>oOOooooooooo@o===;&::,,,22699wdffgggggggggddddwwwqqw8w8qqqqdeddddfdffffffgfggfgfgffffddddseee7055331<<**%%$%$$+++++XXX..X....... .....                       .............X.XXX+XX@@@@@%%%%**<<33357800ewwddffdffgfgfgfgfgfgffdffddddedqqqqqqq8w9wwwwdddffggggggggfdda99622,,",
" X.X.XXXX+X++$+$$%%%*&<<<1155880eewdddffdffgffgfgfggfffffdfdddddssqqqqq8qqqwwwdddffgggggggggfdaw96263,,:::=:====o@ooooooooOOOO>O>>>>r>rr,truyyyyiyiiiiiiiiiiiiiiiiiiuiitiutittuttttttttttttttttttttututitiiuiiiiiiiiiiiii2iiyiyiyyyyyrtrrrr>r>O>>OOOOOoooooooooo===;;;:::,,2669wadffggggggggfffdddwwqw8w8qqqqwqedddddfdffffgfggfgfgfffffdfdddee00055331<<<%*%%$$+$++++XXXXX.X..... ......                       ............X.X.XXXX@X@@@@%%%&&*<1<344788eeedddddffffffgggfgfgfffffddddddsspqqqq8w8wqwwdddfffggggggggffdaw9622,,",
"..X X.XXX++X++$+$$&&&**<133457800ewwdddfffffgfggfgfgffffdfddddddeqsqqq9q8wqqwwdddfffggggggggffda9962,,,<::=======ooooooooooOOOO>O>>>>rrtrtt,uyyiyiyiiiiiiiiiiiiiiiiiiuiitittutttttttttttttttttttttutuuuuiuiiiiiiiiiiiiiiiiiii,iyyyyyyyrrrrr>>>>O>>oOOOooooooOo@o=====;;::,,32669wddffggggggggfdfdwdwwqq8w8qqqqededddddffffffgfggfgfgfffdfddddeee0775433<<**%%%$$$+++++XXX..X.X..... .....                        .............XXXXX@X@+@@%@%%%***<31355800eewwdfdffffgffgfggfgffffdfdfdddwqsqqq9q8w9wwwwdddffgggggggggfdaa9662,,",
". XX..XXXX+++++$$$%%%**<<<435770eeedddfdffffffgfgggfgfffffdfdddedsqqq0qqq8qwwwwdddfgggggggggfddaw9626,,::;:%;==@ooooooooooOOOO>O>>>>r>r>t,rutyiyyiiyiiiiiiiiiiiiiiiiiiitituututtttttttttttttttttttttuutitiuiiiiiiiiiiiiiiiiiiiyiyyyyyrryrrr>r>>O>o>OOOOoooooXoo=====;;:::,,222999dffgggggggggffdddwwqw9w8qqqqqsqdddddffdfffgfggfgfgffffffdfdddee00754311<<&*&%$$$+$+++XX+XX.X..... ......                       .............X..X+XX@X@@@@%$%%**<<<3347580eewdddfdfffffgfggfgfffffffdddddedpqqqqqq8w8wwwdddffgggggggggfdda96622,",
".. XX..XXX++++$+$$$&&&**14<445880eeedddfdfffgfggfgffgffffdfdddddeqsqqqq9qw9qwwdddfdfgggggggggfdd9966,,,:,:;;======o=oooooooOOOO>O>>>>rrrrttt,uyyyyiiyiiiiiiiiiiiiiiiiiuitituttuttttttttttttttttttttuututiuiiiiiiiiiiiiiiiiiiiyiyiyyyyyyrrrrr>rOrO>o>oOoOooooooooo====;&::,,,2669wadffgggggggggddddwwwqw8w8q9qqqdedwdddffffffgfggggfgfffffddddsee0077533<1<*%&%$$$$+++++.XX.X.X..... ......                       .............X.XXXXX@X@@@@%%%&**<<33358800eewdddfdfffgfgfggfgfgffdffdddddeeqqqqq9q8wwwwwdddffggggggggfdda99622,",
". XX..XXXX+++++$$$%%%**<<<<455800eedwdfdffffffgfgfggfgffffdfdddwddsqqq9qq8qwqwwdddffggggggggfffaw96622,,::;;;;===oXooooooooOOO>OO>>>>r>t>t,ryyyyyiiii,iiiiiiiiiiiiiiiuiiitituutttttttttttttttttttttututitiuiiiiiiiiiiiiiiiiiiiiiyiyyyyrrrrr>rOrO>O>OoOOoooooooo@o===;;;:::,,22699addfggggggggfffdddwww8w8qqqqqqweddddfddffffgfgfgfgfgfffdffdddee00055431<<***%%$$+$++++.+XX.X.X... .......                       ............X.XXXXX@X@@@@$$%%%&*<1<3445800eedddfdfffgfgfggfggffffffdddddedqsqqq8w8wqwwwdddfffggggggggffda99622,",
"...X.X.XXXX+X+++$$$%&&**<14<455800ewdddfdffffgfgggfgfffffffdfdddwesqqqq8qq8wwwwwdddffggggggggfdda9966,,,:::;======ooooooooooOOO>O>>>>>rryrtyruyyiyyiiiiii2iiiiiiiiiiiiuutititttuttttttttttttttttttttututitiiyiiiiiiiiiiiiiiiiiiyyyyyyyyrrrrr>rO>O>OO>oOOooooooooo=====;;::,,,2699wdfffggggggggfdfdwdwqqqq8qqqqwqdeddddffdffffgfgfggffgfffdddddeee0775433<<<&%%%%$$++++++.+.X.X..... ......                        ..............XXXXX@X@@@@%%%%***<33357800eewdddffdffffgfggffgffffdfdddddedqqqqq8w8w8wwwdddffgggggggggfddw996,2",
"....X..XXXX++++$$$$%%%**<<<445870eeeddddfdffffgfgfggfgfffdfdddddedqqqqqqw8qqqwwdddfffggggggggffda996,23,:::;;;===o=oooooooooOOOO>O>>>>r>rryryyyyyyiyiiiiiiiiiiiiiiiiiiiiititututttttttttttttttttttttuutitiuuiiiiiiiiiiiiiiiiiiyiiyyyyyrryrrrr>r>O>>OOOOooooooooo@====;;:::,,22669wadfgggggggggffdddwwwqw8q9qqqqeqdddddfdffffgfgggfgfgfffdffddddee00554311<<&*&%$$+$++++XXXX.X.X... .......                       ............X.X.XXX+X@X@@$$$%*%*<<<3344780eewdddfdffffgfggfgggfffffffdddwdesqqq9q8q9wwwwdddffgggggggggfdda96261",
"...X X..+XX+++++$$$$&&&**<4<445880eewdddfffffffgfgfggfgfffdfdfdddedqqqqq8qqqwwwwdddffgggggggggfdd9966,,,:,:;;=====oo@oooooooOOOO>>>>>r>y>rrytyyyiyiiyiiiiiiiiiiiiiiiiiiuiutituttuttttttttttttttttttttuutiuiiiuiiiiiiiiiiii6iiiiyyiyyyyyyrrrrr>Or>OO>oOOoOooooooooo====;&:::,,26699ddffgggggggggddddwwwq9w8w8qqqqdedddddfdffffgfgfgfgfgfffddfddeeee705533<<<<%&%$$$+$++++.+X..X..... .......                       ............X.X.+XX@X@@@@$$%%*&*<<3335880eeewdddffffffgfggfgfgffffddfdddedqqqqqqq8w8wwwwdddffggggggggffda99622",
"....X..XXXX++++$+$$%%%*&<<<3345800eewddfdfdffgfggfggfgffffffddddddqsqqq8qq9w8wwwddfdfgggggggggfdaw9666,,,:::=;;==o=oooooooooOO>OOO>>>>r>rryrtyyyyyi,iiiiiiiiiiiiiiiiiiuiitititutttttttttttttttttttttutrituitiiiiiiiiiiiiiiiiiiiyiyiyyyyrtrrr>>r>O>>>oOOOoooooooo@====;;;::,,,2269waddfggggggggfffdddwwqw8w8qqqqeqdedddfdfdfffgffgggfgffffffddddee000554311<%<&%%$$$+++++XXXXX.X... ........                       .............X.XX+XXX+@@@$$%%%**<1<3447800eedddfddfffgfggfgfgfgffdffdddddsppqqqq8w8qqwwdddfffgggggggggdda99622",
"... X.X.XXXX+X++$+$$&&&**<<1445780eeewddfdffffgfggfggffgffdffddddedqqqqq9q8wwqwwwddfffggggggggffda996,6:,::::====@o=oooooooooOO>O>O>>>>rrrrt,tyyyiyiii,iiiiiiiiiiiiiiiiuiititututttttttttttttttttttttuutitiiuiiiiiiiiiiiiiiii2iiyyyyyyyyrtrrr>>>>O>O>oOOOooooooooo====;;;::,,22669wdfffggggggggfdfdwdwwqw8q8qqqqwsdddddfdfffffggfgfgfgfffdffdddeee0775333<<<%&%%%$$$+++++.+..X.X... .......                        ..............XXXX@X@X@@$$$%&&*<<3334588e0ewdddffffffgfggfgfgffffdfdfdddwepqqq8qqqqwqwwdddffgggggggggfddw9662",
".. X.X..XXXX+++++$$$%%%**<<31455800eeddddfffffffgfgfgfgfffffddddddedqqqqq8w8qqwwddddfgggggggggfddaw966,,,:::=;;==o=oooooooooOOOOO>O>>>>r>rryryyyyyyiyiiiiiiiiiiiiiiiiiiiitititutttttttttttttttttttttttuutitiuiiiiiiiiiiiiiiiiiiyiiyyyyyrrrrrrr>rO>O>OOOOooooooooooo===;;::::,32699wddfgggggggggffdddwwqw8w9qqqqqsewdddddfffffgffgfgggffffffdddddee0075531<<<**&%$$$+++++.+XXX.X... ........                       ............X.X.XXXX+X$X@$$%%%***<<1345708eewdddfdffffgfgfgfgffffffdfddddedpqqqqq8q9qwwwdddffggggggggfffda9662",
"... X X..XXX++++$+$$$&&&*<<1415588eeewddddfffffgfgggfgfffffdfdddddeqpqqqqq8wqwqwwddfdfgggggggggfdd99666,<,:::=====o@oooooooooOOO>O>O>>>rrry>yruyyyiyiyiiiiiiiiiiiiiiiiiiuitititutttttttttttttttttttttutuuuuiiiuiiiiiiiiiiiiiiiiiyyiyyyyyyrrrr>rOrO>O>oOOoOooooooo@oo===;;::,,,22899dddfgggggggggddddwwwqq8w8w9qqqdeddddfdfffffgfggfgfgffffdfdddeee00555331<<*%&%$%$$+++++.XX.X.X. X ........                       ............X.X.+X+++X$@@$$%%&**<<3335780eeewdddfdffffgfgggfgffffffddddddepqqqqqq8w9wwwwdddffggggggggfdda9962",
".. X X..XXXX+++++$$$%%%***<11345700eewdddffdffgfgfgfgfgfffffffdddwdssqqqq9w8qqwwwdddffggggggggfffaw966,3,,:::=%====o=oooooooOOOOO>O>>>t>>r>ttyyyyyyyiiiiiiiiiiiiiiiiiiiuiiitittuttttttttttttttttttttttuuutitiuiiiiiiiiiiiiiiiii,iiyiyyyyrryrrr>>>>O>>oOOOoooooo@ooo===;;;:::,,2666wadffggggggggfffdddwwwqw8w8qqqqeedddddfdfffgfggfgfgfgfffffddddee00054531<<***%%$$+$++++XXXX.X..X  ........                       .............X.XXXXXX$X@$$$%%%**<1<3457800eedddfdfffgffgfgfgfgffffddfdddssppqqqq8w8wqwwdddfffggggggggffda9962",
".....X.X.XXXX+X++$+$$&&&&*<11445780eeewdddfffffgfgfgggfgffffddfddddeqsqq0q8w9qwwwdddfffggggggggfdda9966,,,::;;;=====ooooooooooOO>OO>>>>rrrt,ttruyyyiyii,iiiiiiiiiiiiiiiiuutititttutttttttttttttttttttttuuutiuiiiiiiiiiiiiiiiiiiiyiyyyyyyyrrrrr>r>OrOO>oOOOoooooooo@o===;;;::,,,2699wdfffggggggggfdfdwdwqq8w8qqqqqwdedddfdfdfffgfggfggfffgffdfdddeee0705333<<<&%%%$$$+++++XXXXX.X.. X .......                        ..............XXXX@X+$X$$$$%&&*<<3334588eeewdddffdffgfggfgfgfgfffffdddddespqqq9q8w8wwwwdddffgggggggggfddw966",
"......X..XXXX+++++$$$%%&**<<4<455800eedddfdffffffggfgfgffffdffddddsdsqqq9qq8qwqwwwdddfgggggggggffda996,6,,:::;;;===oo@oooooooOOOOO>O>>>>>rrrrryyyyiuyiiiiiiii6iiiiiiiiiiiiitititutttttttttttttttttttttuutuitiiuiiiiiiiiiiiiiiiiiiiiyyyyyrrrrrrrrOrOO>OOOOoooooooOo=====;;:;,<,22669aadfgggggggggffdddwwwqw8q9qqqwqqddddddfffffffgfggfgfgffdfdfdddee0075431<<<&*&%$$$+$++X+XXX.X.X X ........                       ............X.X.X+XX++X$+$$$%%***<<11557000ewdddfdffffgffgggfgfffffdfdddddspqqqqqq8qqwwwdddffgggggggggfdda966",
".... X.X..+XX+++++$$$$&&&*<<14345800eeedddfdffffgfggfgfgffffdfdfddweppqqqq9q8wwqwdddfdfgggggggggfdd9966,,,<,:;;=;===ooooooooooOOO>O>>>>r>rrryytuyyy2uyiiiiiiiiiiiiiiiiiiiuiututtuttttttttttttttttttttttuutuiuiiiiiiiiiiiiiiiiiiiiyyiyyyyyyrrrrrOrO>>O>OOOOoooooo+ooo===;;;::,,,62699dddfgggggggggddddwwwq9w8w8qqqededwddfdfffffgfgfggfgfffffddddseee7775331<<*%&%$%$$++++X+XX..X...  ........                       ............X.X.XXX+X$X$$$$%%&**<<3335780eeewdddffffffggfgfgffgffdfddddddesqqqqq9qqqwwwwdddffggggggggfdda996",
"... X.X..XXXX++++$+$$%$%***<11345880eedwdfdfdffgfggfggfgffffffddddddssqqqqq8w8qwwwdddffgggggggggfdaw9666,,,::;;;==@o=oooooooooOo>O>O>>>>rr>yrrt,yyyyiiyiiiiiiiiiiiiiiiiiuiitiutittutttttttttttttttttttututititiiiiiiiiiiiiiiiiiiyiiyiyyyyrtrrr>r>>rO>OOOOooooooooooo===;;;:::,,,669wadffggggggggfffdddwwqw8w8qqqqqeedddddfdfffgfgfggfgffffffdfdddee00055531<<***%%$$+$++++XXXXX.X. X ........                       .............X.XXXX+++++$$$%%%**<<33457700eedddfddffffgfgfggfgfffffdfdddssppqqq8qw8wqwwdddfffggggggggffda996",
"..... XX..XXXX+X++$+$$&&&&*<11445700eeedddfdffffgfggfggfgffffdfdddddeqsqq0qq8wqwwwwddfffggggggggffda996,6:,:::;;====o=oooooooooOOOO>O>>>>>t>ytyruyyyyiiiiyiiiiiiiiiiiiiiiuiitittuttttttttttttttttttttttuuutitiiuiiiiiiiiiiiiiiiii,yyyyyyyyrrrrr>>>O>>>oOOOOooooooo@oo==;=;:::,,,6669wdfffggggggggfdfdwdwqqw8w89qqwqdedddfdfdfffgfgfggfgffffdfddddeee07753311<*&%%%$$$+++++XXXX..XX  X .......                        .............X.+XXX+++$+$$%%&&*<<<3355800eewdddfffffgfgfgfgfgffffdfdddddespqqqq8qq8wwwwdddffgggggggggfddw96",
".... X...XXXXX+++++$$&$%&**<<13355800eeddddfffffffgfgfgffgffdffddddedsqqq9w8qqqqwwddddfgggggggggfddaw966,,,:::;;=====oo@ooooooOOOO>>O>>>>t>trrryyyyyiiyi,iiiiiiiiiiiiiiiiiitituututtttttttttttttttttttttutitiiuiiiiiiiiiiiiiii2iiiiyiyyyyrryrrr>r>rO>o>oOOooooooooooo===;;;::,:6,669wddfgggggggggffdddwwww8w8wqqqqeqddddddffffffgfggfgfgfffffdfdddee0055533<<<*&&%$$$+$++++.+X.X..X .........                       .............X.XXXX+X+++$$$$%%***<11335880eewdddfdffffgfgfgggffffffdfdddddssqqqqq8qqqwwwdddffgggggggggfdda99",
"..... X.X..+XX++++$+$$&&%&*<113445000eewddddfffffgfgggfgfffffdfdfdddwqsqqq8q8w9qwwwddfdfgggggggggfdd99666,<,:::;;====oooXooooooOOOO>>O>>>>,rttrtuyyyyiiiiiiiiiiiiiiiiiiiiiuitituttuttttttttttttttttttttututitiiiuiiiiiiiiiiiiiiiiyiiyyyyyyyrrrrr>>OrO>O>oOOoooooooo@oo==;;;::,,,62699dddfgggggggggddddwwwqq8w8qqqqwdeddddfdffffffgfggfgfgffffddddsee000553111<**%%$$$$++++X+.XX.X..X .........                       .............X.XXXX+X$++$$$%%&**<<4155580eeewdddfdffffgfgfgfgffffffddddddeqqqqq9q8w9qwwwdddffggggggggffda96",
".... X....XXXX+++++$$$$$&&**<11345570eewdddffdffgfgfgfgfgfffffdfddddedpqqqqqq8w9wwwdddffggggggggfffaw966,3,,::;;=;=Oo@oooooooooOOO>OO>>>>r>t>rtu,yyyyiyiiiiiiiiiiiiiiiiiiuiuitituuttttttttttttttttttttttuuutitiuiiiiiiiiiiiiiiiiiiiyyyyyyyrrrrrr>>>>O>OOOOOoooooooooo===;;;::::6,669wadffggggggggfffdddwwwqw8qqqqqqewdddddfdffffgfggfggffgffdffdddee00755333<<*&*%%$$+$++++XXX.X..X ..........                       ............X..XXXX++++$+$$%%&**<<<4357880eedddfdffffgfgggfgfgffffdfddddedppqq0q9w8wwwwdddfffgggggggggdda99",
".......X..X.+XX+X++$+$%&&&&*<11345800eeeddddfffffgfgfgggfgfffffddddddqeqqqq9qw8wwwwwdddffggggggggfdda9966,,,:::;;==@=o=oooooooooOOO>O>>>>>rrt,ttruyyiyiyiiiiiiiiiiiiiiiiiiuiuititttutttttttttttttttttttttuuuuitiiiiiiiiiiiiiiiiiiiiiyyyyyyyrrrrr>r>OrO>oOOOOoooooooo@o===;;::,:,,6669wdfffggggggggfdfdwdwqq9q8w8qqeeqddddfdfdffgffgfgfggfffffdddddeee0055431<<<*%%%%$$+++++XXXX.X.X  .........                        ............X..+XXX++++$$$$%&&**<4<445800eewdddffdfffgfgfggffgffffdfddddwepqqqqq8w8wqwwdddffgggggggggfddw9",
".........X.XXXX+++++$$$$&&**<113455800eedddfdffffffggfgfgfffffddfdddedsqqq9w88wqqwwdddfffggggggggffda996,6,,:::;;;====ooooooooooOOOO>O>>>r>rrrrtyyyyyyiiyiii2iiiiiiiiiiiiiiuititututttttttttttttttttttttuuutitiiuiiiiiiiiiiiiiiiiiyiyiyyyyrrryr>rrOrO>O>OOOooooooo@oo====;;&::,:6,669aadfgggggggggffdddwwwqw8w8qqqqqdedddddffffffgfggggffgffdffddddee0075433<<<%*&%$$$+$++++XXXX.X X .........                       ............X..XXXX+X++$+$$$%&&*<<<3155880eewdddfdffffgffggfggffffdfdfdddedpqqqq8w8qqwwwdddffggggggggfffda9",
"..... X.X..XXXX++++$+$$&$&&**113445000eewdddfdffffgfggfgfgffffffdddddqepqqq0qq8wwwwwdddffgggggggggfdd9966,,,,::;;====o=oooooooooOOOO>>O>>>rrrrt,tyyyyyyii,iiiiiiiiiiiiiiiiiiuitituttuttttttttttttttttttttuuutiuiiiiiiiiiiiiiiiiiiiiyiyyyyyyyrrrrrOrO>>Oo>oOOoooooooooo====;;;:,,,62699ddffgggggggggddddwwwqqw8qq9qqqeddwddfdfdffffgfgfggfffffddfddeeee7755331<<<%&%$$$$+++++XXX.X.X X .........                       ............X..XX+X++++$$$$%%&&*<<1435580eeewdddffffffggfggfgfgffffddddddqeqqqqq8w9qwwwwdddffggggggggfdda9",
".... X ...X.XXX+++++$$$$&&&*<*11345500eewddfdfdffgfggfggfgfffffdfdddddssqqq9q8w8wwwwddfdfgggggggggfdaw96622,<::;;;====o+ooooooooOOO>OO>>>>r>rrttryyyyyiiyiiiiiiiiiiiiiiiiiiuititituttttttttttttttttttttttuutitiuiuiiiiiiiiiiiiiiiiiyiyiyyyyrtrrr>r>>>O>>OOOooooooooo@====;;;:::,3,669waddgggggggggfffdddwwqw8q9qqqqqdewdddddfffffgfgfgfgfgfffffddddee00054531<<&**%%$$+$++++XXXX.X X ..........                       ..............XXXXXX++++$$$%%&**<<31455800eedddfddfffgffggfgfgffffdfddddedsqqq9qq8wqqwwdddfffggggggggffdaa",
"..... X X..XXXXX+X+++$$$$&&**111345500eeewdddfffffgfggfggfgfffffddddddeqsqqqqq8w8wwwdddfffggggggggffda9962,,,:::;;=====ooooooooooOOO>O>>>>r>y>,ttuyyyyyiiiiiiiiiiiiiiiiiiiiiuititututtttttttttttttttttttttuutiriiiiiiiiiiiiiiiiiiiii,yyyyyyyrryrr>>>OrO>oOOOoooooooooo====;;&,:,,,6669wdfdfggggggggfdfdwdwqqw8w8qqqqededdddfdfffffgfgggfgffffdffdddeee0705333<<<&%%%%$$+++++XXXXX.XX  .........                        ............X..+XX@X++$+$$$&&&*<<14155700eewdddffffffggfggffgfffffdfddddespqqq9qq8wwqwwdddffgggggggggfddw",
".... X ...X.XXXX++++$$$$&%&***113358500eedddfdffffffgfggfgffffdfdfdddedsqqqqq8qqqqwwwdddfgggggggggfddaw9626,,:::;;;===oo=oooooooOOo>O>O>>>>r>rtrttyyiyyiyi,iiiiiiiiiiiiiiiuiititituttttttttttttttttttttttuutitiuuiiiiiiiiiiiii6iiiiyiiyyyyyrrrrrr>r>rO>o>OOOooooooooooo===;;:::::6,669addfgggggggggffdddwwww8w8qqqqqsqddddfdfdfffgfgfgfgfgfffffdddddee00754311<<&*&%$$$+$++X+XXX..X X .........                       ............X..XXXXX+++++$$%$&&**<1<455880eewdddfdfffgffggfggfgfffdfddddddesqqqqq8w8qwwwdddffgggggggggfdda",
"...... X...X.XXX+++++$$$$&&&**113445000eeddddfdfffgfggfggfgffffdfdddddsqpqqq9q8wqwqwdddfdfgggggggggfdd9966,2<,:::;=;===ooooooooooOOo>O>>>>>rrrrtt,tyyyyiiiiiiiiiiiiiiiiiiiiuiititituttttttttttttttttttttttuuuuuiiuiiiiiiiiiiiiiii2iiyiyiyyyyyrrrrr>>OrO>o>oOOoooooooo@oo===;;::,,,6668wadffgggggggggddddwwwwq8w8qqqqqdeddddfdffffffggfgfgfgfffdfdddsee0057533<1<*%&%$$$$+++++XXXX..X X .........                       ............X.X.XXXX+++$$$$&&&&*<<4<55580eeewdddfdfffgfgfgfgffffffdfddddedqqqqq9q8wqwwwwdddffggggggggffda",
"..... X...X.XXXX++++$+$$&$&&*<*113455000ewddfdfffffgffgggfgffffffdddddedsqqqqqq8qqwwwdddffggggggggfffaw9626,,,::;;;===o@oooooooooOo>O>OO>>>>r>t,rtyyyyyiyiiiiiiiiiiiiiiiiiiiiuitittuttttttttttttttttttttttuuruuiuiiiiiiiiiiiiiiiiiiiiyiyyyyyrtrrr>r>>>OO>OOOOoooooo@ooo===;;;:::,,,6699adffggggggggfffdddwwqqw8q9qqqwqedddddfdffffggfgggfgffffffddddee00055431<<**&%&$$+$++++XXX.XX X ..........                       .............X.XXXX++++$+$$$%&***1<4157700eedddfdfffgfgfgggfgfgffffdfddddsppqqqq8qqqqwwdddfffgggggggggdda",
"...........X.XXXX+X++$+$$&&&&*111345800eeewddfdfffffggfgfgfffffdffdddddeqeqqqq9q9qwwwwddfffggggggggfdda99622,::::;;====oo+ooooooooOO>o>>>>>>rrrtrtuyyiyyiyiiyiiiiiiiiiiiiiiiuitititttuttttttttttttttttttttutuuuuiuiiiiiiiiiiiiiiiiiiyiyyyyyyyrrrrr>>rOrO>oOOOOoooooooo@o===;;;::,,,6669wdfffggggggggfdfdwwwwq8w8w8qqqwdedddddfffffffgfgfgffgfffdfdddsee0775433<<<%&%$$$$+++++X+XX..XX  .........                        .............X.X+X+++++$$$%%&&*<<1344588eeewdddffdffffgfgfgfgffffdfdddddwepqqqqq8w9wqwwdddffgggggggggfdd",
"..........X.XXXXX+++++$$&$%&**<113455500eeddddffffffgfgfggfgfffffdfdddwedqqqq8w8wqqwwddddfgggggggggffdaw9622,,,::;;=@==o=ooooooooOOoO>>O>>>r>rrrt,ruuyyyiiyiii2iiiiiiiiiiiiiiuititituttttttttttttttttttttttuuuuitiiiiiiiiiiiiiiiiiiiiiyiyyyyrryrr>rrOrO>o>OOOoooooooOo=====;;;:,,:6,669wddfgggggggggffdddwwwqw8qqqqqqsqdddddffdffffgfgfggfgfffdfdfddeee00754311<***%*$$$$+++++XXX.X..X .........                       .............X.XXXXX++++$$$$%%***<<33458000ewdddfdffffgfgfgggfffffffdfdddedpqqqq8q9w8wwwdddffggggggggfffd",
"...........X..XXX++++$+$$&%&&**111455000eedddddffffgfgfgfgffgfffdfdddddeqpqqqq8w8wwwwwddfdfgggggggggfdd99662<,::::;=;===ooooooooooOOOO>>O>>>rr>ttrir,iyiyii,iiiiiiiiiiiiiiiiiiuituttuttttttttttttttttttttttuuuuuiuiuiiiiiiiiiiiiiiiiiyiyyyyyyyrrrr>rrO>O>O>oOOoooooo+Ooo====;;&:,,,66699dddfgggggggggddddwwwqqq98wqqqqdedwdddffffffgfggfggfgffffdddddee0077533<1<&*%$%$+$++++XXXXX.X..X .........                       .............X.XXXX++++$+$$%&&&*<11344580eeewdddfffffgfggfgfgffffdfddddddepqqqqqq8wqwwwwdddffggggggggfdd",
"...........X.XXXX++++++$$$%&&*<*13345500eewdddfdffffgfgfggfgfffffdfdddddssqqq9q8w8qwwwdddffgggggggggfdaw966,2,,::;;;===o@oooooooooOOO>OO>>>>r>tr,tryyyyyiyiiiiiiiiiiiiiiiiiiiuitiutittutttttttttttttttttttutuutitiiiiiiiiiiiiiiiiiiiyiyyiyyyyrtrrrrrO>>>O>oOOooooooooooo===;;;::,,,,669wadffggggggggfffdddwwq9w8w8qqqqeeddddfddfffgfggfgfggffffdffdddee00055431<<<&&&%$%+$+++++XX.X..X ..........                       ............X.XXXXX+++++$$$&%%**<<13455800eedddfddfffffgfgfggfgfffffddddssppqqqq8w8qqwwdddfffggggggggffd",
".............XXXXX++++$$$$%&&**1113455000ewdddffdffffgggfggfgfffdfddddddepqqqqqq8wqqwwdddfffggggggggffda9966,,,:::;;====o=oooooooooOOo>O>>>>>rrrrytruyyyyiyiiiiiiiiiiiiiiiiiiiuitittuttttttttttttttttttttttutuuuiriiiiiiiiiiiiiiiiiii,iyyyyyyyrrrrr>r>O>>O>oOOOooooooo@o====;;;:<,,,6669wdfffggggggggfdfdwdwww8w8w9qqwqdeddddffdfffffggfgffgffffdddddeee0775333<<**%%$$$$+++++.+XX.X.X  .........                        ..............XXXXX++++$$$$&&&*<<13355700eewdddffffffgfgggffgffffdfdfdddespqqq0q8wqqwwwdddffgggggggggfd",
"............X.XXX++X++$+$$&%%***<1335850eeedddddffffgfgfggfgffffffdfdddsssqqqqq8qqqwwwddddfgggggggggfdda996,6,:,::;=;====oooooooooOOo>O>O>>>>t>rtrtyyyyyiyiiiiiiiiiiiiiiiiiiuiitituututtttttttttttttttttttttuutiyiuiiiiiiiiiiiiiii2iiiiyiyyyyrryrr>rrO>>O>OOOOooooooooooo===;;::::,22669aadfgggggggggffdddwww8w8w8qqqqqedddddfdfffffggfgfggfffffdfddwdee00555311<<*&&&$$+%+++X+XXXX.X X..........                       ............X.X.XXXX+++$+$$$%%***<<3345880eewddfddfffgfgfgfggffffffdfdddddspqqq9qqq9qwwwdddffgggggggggfd",
".............X.XXX+++++$@$$&&&*1111445000eeeddfdfffffgfgfggfgffffdfdfdddespqqq9q8w8wqwwddfdfgggggggggfdd99662<,::::;====o@oooooooooOOo>O>Or>>>t>tt,tyyyiyiyiiiiiiii6iiiiiiiiiuiitituttutttttttttttttttttttttuuuuuiiiuiiiiiiiiiiiiiiiiiiyyyyyyyyrrrr>>rO>>O>OOOOoooooooo@oo==;;;::,,,63699ddffgggggggggddddwwwqq8qw8qqqwsedddddfdfffgffgggfggfffffdfddeeee705533<<<*&&$&$$+@+++++.X.X.X ...........                       ............X.X.+XX++++$+$%%%&***11345580eeewddffdffffggfgfggffffffddddddesqqqq8q8w9wwwwdddffggggggggff",
"...........+..XXXX+++++$$$%%%***<<33555000eddddfdfffffgfgfgfgffffffddddddssqqqqqq8wqwwwdddffggggggggfffaw96622,,::;;;=====ooOooooooOo>O>O>>>>r>r,rryuyyyyyiii,iiiiiiiiiiiiiiiiiuitituuttttttttttttttttttttttuutuuiuiiiiiiiiiiiiiiiiiiiyiyiyyyyrrrrrrrOr>O>OOOOOoooooooooo===;;;:::,,,669waddfggggggggfffdddwwwqqw8qqqqeqdwdddfdfdffffgfgfggfgfffdfddddee00055333<<**&&$%@$@++++.+.XX.X............                       .............X.XXXX+++++$$$%%%**1<13355800eedddddffffgffgfggfgffffddfdddssppqqqq9w8wqwwdddfffggggggggfd",
"........ ...X..XXXX+++++$$$&%&**<11345500eeewddffdffgffgggfgfgfffdffddddwssqqqqq9q8wqwwwdddffggggggggfdda996,2,:,:;;;====ooo@OooooooOO>O>O>>>>rrryrtryyyyiyiiiiiiiiiiiiiiiiiiiuitititttutttttttttttttttttttttuuuuyiuiiiiiiiiiiiiiiiiiii,yyyyyyyrrrr>r>O>>O>oOOOooooooooo@oo===&;:,,,,6669wdfffggggggggfdfdwdwqq9qq8qqqqwsdddddfdffffgfgfgfgfffffffddddeee077543<3<*&&%%$%+$+@+X+ +..X X ..........                        .............X.XXXX+++$$+$%%&&**111445800eewdddfdffffgfggfgffgfffffdddddespqqqqq8w8wwwwdddffgggggggggf",
"....... ......XXXX+X+++$+$$%%&&*<113358500eedddddfffffgggfgfgffffffddddddweqqqq8w8wqwwwdddfffggggggggffdaw9662,,:::;;;===o=ooXoooooOoOOO>O>>>r>rrrrtyyyyiyi,iiiiiiiiiiiiiiiiiiiuititututttttttttttttttttttttuutuuitiiiiiiiiiiiiiiiiiiiyiiyyyyyryrrrr>>r>O>o>OOOooooooo@o=o===;;:::::6,66waadfgggggggggffdddwwwqw8q9qqqqsewdddddffffffgfgggfggffffdfddddee0055433<<***&%%+%+++++X+XXX.XX ..........                       .............XX.XXX++++++$$$%%**<*13355780eewddfdfdffgfggfgfggfffffdfdddddssqqqq8q8wqqwwdddffgggggggggf",
"...... X ....X..XXX++++$$$$$&%***113355000eeddddfdfffffgfgggfgffffdfddddwdqeqqqq8w8w9wwwdddffgggggggggfdd99662,<,::;;=====o=ooooooooOO>OO>O>>>r>rrt,tuyyyiyiyiiiiiiiiiiiiiiiiiuiuitituttuttttttttttttttttttttuuuuuiuiuiiiiiiiiiiiiiiiiiiyiyyyyyrrrrrr>Or>O>o>OOOoooooooooo====;;;:,,,6666wddffgggggggggddddwwwqqw8w8qqqqdeddddfdffffffgfgfgffgfffddfddeee0005533<3<*&&$%$+%+++++.+X..X X ..........                       ..............X.+XX+X++$$+%%%&**1<13455000eewdddfffffgfggfgfgffffdfddddddeqqqqqqqq8wwwwwdddffggggggggf",
"..... X  ...X..XXXX+X+@++@$%%&&*<*11345500eewddfdfffffgfggfgfgfffffffddddedpqqq9q8q9wwwwddfdfgggggggggfdaw966,2,,:::;;===O+ooooooooOOoOO>O>>>r>rrtryryyyyyyiiiiiiiiiiiiiiiiiiiiiititituttttttttttttttttttttttuuutitiiiiiiiiiiiiiiiiiiiiyiyiyyyyryrrr>>r>O>>OOOOooooooooOo@===;;;;,:,,,6699adffggggggggfffdddwwwq8w8wqqqqwedddddfdffffgfgfgfggffffffddddee00555333<<*&&&$%%+@@++X+XXXX.X............                       .............X.XXXX++++$+$$%&%***11335778eeedddfddfffffgfgfgfgfffffdfdddedppqqqq98wqqwwdddfffggggggggf",
"....... X ...X..XXX++X+@$$$$%&&**<11345500eeedddfdffffgfgfgfgfgffffddfddddqeqqqqqq8w8wwwdddfffggggggggffda9966,,,<:;;;====oo=oooooooOOO>O>O>>>r>rrtrytyyiyyyii,iiiiiiiiiiiiiiiiuiititututtttttttttttttttttttttuuuuitiiiiiiiiiiiiiii6iiyiiyyyyyyyryrrr>>>>O>>oOOOooooooo@oo=====&:::,,6,699wadffggggggggfdfdwdwqwq8w8qqqwqdedddfdfdffgfgfgggfgffffdffdddeee005553<<<<&&%%$+%+++++XXX..X X ..........                        .............X.XXX+++++$$$$%&&*<<11445800eewdddffffffgfgggfgfgfffdfdddddespqqq0qq8wqwwwdddffggggggggg",
" ..... X  ..X...XXX+X++++@$$%%%**<113458500eeddddfdffffgfgggfgffffdffddddsdsqqqqq8w8wqwwwdddfgggggggggfdda996,6,,:::;;;=@=o=oooooooooOOOOO>>>>>>rt,tryuyyyyiiiiii2iiiiiiiiiiiiuiitituuttutttttttttttttttttttttuuuuyiuiiiiiiiiiiiiiiiiiiiiyyyyyyrurrr>r>>>>>o>OOOoooooooooo====;;;:,:,,2689wdffgggggggggffdddwwwq9w8q9qqqeqddddddfffffffgggfgfgfffffdddddeee7053331<***%%%$$@++++X+XXX.XX...........                       ............X..XXXX++++$+$$%%%***<<3345880eewddfddfffgfgfgfggffffffdfdddwdssqqq9q8w9qwwwdddffggggggggg",
" ....... X ..X.X.+X ++++$$@$%%&&**113355000eeedddfffffffgfgfgfgffffdfdfddweppqqq8qqqqwqwdddfdfgggggggggfdd9966,,,:,;:;=>===ooooooooooOO>O>O>>>>r>rrttt,uyyiyyiiiiiiiiiiiiiiiiiiiuitittutttttttttttttttttttttututuuuiiuiiiiiiiiiiiiiiiiiiyiyyyyyyrryrr>r;>>O>OOOOOoooooooooo====;;&:,,,6,699dddfgggggggggddddwwwqq8w8qqqqqdedwddfdfdffgffgfgfgfgfffdfdddeee0055533<1<**%%$$$+$++++X.+...X ...........                       .............X.XXXX++++$+$$%%&**<113455000eewddffdffffggfggfgfffffdfdddddeqqqqqqq8wqwwwwdddffgggggggg",
" ...... X  ...X..XX+++++++$$%%%**<*13345500eedwdfdfdfffgfgfgggfgfffffddddddssqqqqq8qqqwwwdddffggggggggfffaw9666,,,:::;;@==o=o@ooooooOOOo>OO>>>r>rrrt,ryyyiyyiiyiiiiiiiiiiiiiiiiiuiitituutttttttttttttttttttttttuuuuitiiiiiiiiiiiiiiiiiiyiyiyyyyrryrrrr>>>>>>OOOOOoooooooo@====;;;;,:,,,669wadffggggggggfffdddwwwqw8qqqqqqeeddddddffffffgfgggfgffffffddddee00055333<<*&&%%%+%++++XX+.XXX X...........                       ....... ....X..XXXXX++++$$$%%&***113355700eedddddffffgffggfggfgffffdddddedppqqqq8q8w9wwdddfffgggggggg",
" ........ X .X.X..XX+X++@$@$$%&&**1<13455000eedddfdffffgfggfgfgfffffdfdddddeqpqqq9q8w9wwwwddfffggggggggfdda9966<,,::;;;;===oooooooooooO>oO>O>>>r>rtrtyruyyyiyiiiiiiiiiiiiiiiiiiiiutititttutttttttttttttttttttttuuuuyiiuiiiiiiiiiiiiiii2iii,iyyyyrrurr>r>>;>>o>OOOoooooooooo====;;;:,,,,6669wdfffggggggggfdfdwwwqqqq8qqqqwqdeddddfdffffgfgfgggffgfffdfdddeee0505331<<<*%&%$%+$++++XX+ .XX ...........                        ....  X ....X.XXXX++++$+$$%%%&*1*1334588eeewdddfdffffgfgfgffgffffffdfdddqspqqq9qqq8wwwwdddffgggggggg",
"  ...... X  ..X..XXXX+++++$$$%%%***113358500eeddddfffffffgfgfggfgffdffddddedsqqqqq8w8wqwwddddfgggggggggffdaw96,6,,:::;;====o@ooooooooOoOO>O>>>>>r>rrtruuyyiyiyiiiiiiiiiiiiiiiiiiuiiuitututtttttttttttttttttttttuuuuiuuiiiiiiiiiiiiiiiiiiiyiyyyyyryrrrr>r>>O>>OOOOooooooooooo===;;:&,:,32669aadfgggggggggffdddwww9w8q9qqqqeeddddfdfdffffgfgfgfggfffdfdfdddee00754331<***%%%+%++++++XXXX..X...........                       ....  X  ...X...XXX++++++$$$%%***<133558800ewddfdfdffgfgfgfgggfffffdfdddddspqqqqq98wwqwwdddffgggggggg",
"  ........ X ..X..+XX+X++$+$$%%%**<<13445000eedddddfffffgfgggffgffffdfdfdddwqsqqq9qq8wwqwwddfdfgggggggggfdd9966,2,:::;;;===o=ooooooooOOo>OOO>>>>rrrr,tt,uutiiy2iiii2iiiiiiiiiiiiiuituituttuttttttttttttttttttututuuuiiiuiiiiiiiiiiiiiiiiyiiyiyyyyrrrrrr>>>>O>o>OOOoooooooo@o===;;;::,,,62699dddfgggggggggddddwwwqqw8w8qqqwweddddfdfffffgfggfgffgffffddddseee0775331<<*&&%$$$+%+++.+XX.X X............                       ..  X  X ...X.X.XXX++++$$@%%%*%<<<1335700eeewdddfffffgfgggfgfgfffdfddddddesqqqq8qq8wwwwwdddffggggggg",
"  ....... X  .X...XX+X++++@$$%%%***<11345500eewdddfdfffgfgfgfggffffffdfddddedsqqqqq8w8qwwwdddffgggggggggfdaw9662,,,::;;;====oo@oooooooOOOOO>>>>>r>rrttryut2yyiyiiiiiiiiiiiiiiiiiiitiitututttttttttttttttttttttttuuuuiriiiiiiiiiiiiiiiiiiiiyiyyyyryyrrr>r>>>>O>OOOOoooooo@oooo==;;;:::,,,669wadffggggggggfffdddwwww8w8qqqqqqdwddddfdfffffggfgfggfffffdfdddee00755431<<**&%%%+%+++++X+XX.+ ............                       . X . X  ..X.X..XX+X+++$+$$%%%***113457500eedddfddffffgfgfgfgffffffdfdddssppqqqqq8w8wwwdddfffggggggg",
"  ......... X .X.X.XX+X+++$@$$%&&**<11345800eeedddffdffffggfgfggffffffddddddeqeqqq8qqqwqwwdddfffggggggggffda99622<,,;:;=====oooooooooooO>O>O>>>>>rrrr,ttyyyyyiiiiiiiiiiiiiiiiiiiiuituitututtttttttttttttttttttttuuuuuiuiiiiiiiiiiiiiiiiiiyiyyiyyyrryrrr>>>;>>OOOOOOoooooooo@o;=;=;:::,,,6669wdfffggggggggfdfdwdwqqq8wq8qqeeqddddddfffffgfggfgfgffffdfddddeee0055333<<**&%%$%+$++++X.+ ..+ ...........                          X .. X ..X.X.+XX+++++$$$%%%**<<13345080eewdddfffffffgfgfgfgffffdfdddddespqqq9qqqqqwwwdddffggggggg",
"   ....... X  X.X..+X++++++$@%%%%**<113455500eedddddffffgffggggfgffffddfdddwedqqqqqw8qqqwwddddfgggggggggfdda9966,2:,:&;;;===o@ooooooooOOOOOO>>>>r>rrrtryyyyiyiyyiiiiiiiiiiiiiiiiiitiitituttttttttttttttttttttuttuuuuuiuiiiiiiiiiiiiii6iiiiyiyuyyyryrrr>r>>>>O>OOOOoooooooOo=oo==;;;:;,,6,669wddfgggggggggffdddwwwq9w89qqqqqdeddddffdfffffgfgggfgfffffdfdddee00545311<**&%%%+%+++++X+.+ X X............                       X ... X  ...X...XX+X++@+$@%%%***<<3355580eewddfddffffgfggggfgfffffdfdddddssqqqqq8q9wwwwdddffggggggg",
"   ......... X X.X..+.++++$+$$%%%***113355000eeeddfdfffffggfgfgfgffffffdddddeqqqqqq8w8wqwwwddfdfgggggggggfdd99662,,:,;:;=;====oooooooooOOO>OO>>>>rrrttttuyyyiyiiiiiiiiiiiiiiiiiiiiituitutututttttttttttttttttttttiuuuiiiuiiiiiiiiiiiiiiiiiiyi,uyyryyrrr>r>>O>o>OOOOoooooo+oo=@o=;;;;,:,,66699dddfgggggggggddddwwwwq8w8w9qqqedwddddffffffgfgfgfgfgffffddddsee00503431<<**%%%$@$++++X+X.+ X............                         X .... X .X.X.+.+X++++$+%$%%*&*<11335800eeewddffdffgfgfgfggffgffffddddddeqqqqqqq8w8wwwwdddffgggggg",
"   ........ X ..X..+ ++X+++@$$%%%**<*11345500eeddddfdffffgfgfgfgffffffdfdddddedqqq9q8w9wwwwdddffggggggggfffaw9662,,,::;;;====ooo@ooooooOOOOO>>>>>r>t>,tt,yyyyyiyiiiii6iiiiiiiiiiiiuiititututttttttttttttttttttttutuuuyiuiiiiiiiiiiiiiiiii2yiyiyyyyyrrrrr>>>>>>OOOOooooooooooo===;;;::,:,,269wadffggggggggfffdddwwqqw8w8qqqqdeddddfddfffgfgggfgfgfgffdffdddee00055431<<*&&%%$%+$+++++ + +.............                        ...... X  ..X.X.X.+++++@$@$%%&**<<13455500eedddddffffffgfgfgfgffffdfddddedppqqqq8w8qwwwdddfffgggggg",
"   ............X X.X+.+++++$@$$%&%**1113458000ewdddffdffffgfgggfgfgffdfddddddqeqqqqqq8w8wwwwdddffggggggggfdda9966,,,::;;;====oo=ooooooooO>O>O>>>>>r>trryruyyuiuiyiiiiiiiiiiiiiiiiiitiutitutttttttttttttttttttttttituuuuiiiiiiiiiiiiiiiiiiiiyiyyyyryyrrrr>>>>O>OOOOOoooooooo@oo====&;:,,,26669adfffggggggggfdfdwwwwq8w8w9qqqqdeddddffdfffffgfgggffffffdddddeee0755333<<<*&%%%+$++@++.++  X X........  X                        ....... X ..X..+XX+X+++$$%@%%***113355080eeedddfdffffgfgggffgfgfffdfddddespqqq0q8w9qwwwdddffgggggg",
"    ........... XX...+X+++@+$@%%%&**<<1345550eeedddddffffgfgfgfggffffffdfdddedsqqqqq8q8wqwwdddfffggggggggffdaw96,6<,:::;;;==o@=ooooooooOOOOOO>>>>r>r,rtryyyuyi2yiiiiiiiiiiiiiiiiiuiituitututttttttttttttttttttutttuuuuiiuiiiiiiiiiiiiiiiiyiiiyyyyyyrrtr>r>>>>>O>OOOoooooooooo====;;::;,,,2669wddfgggggggggffdddwwwqw8w8qqqqsqdddddfdfffffgfgfgfgfgffdffddddee00845311<**&&%$$$$+++X++ ++ +........ X ..                      ....... X  .X...XX.++++@+$@%%&&*<<11345500eedwdfdfdffgfgfgfggfffffdfdfddwdssqqq9qq8wqqwwdddffgggggg",
"    ...........X XXXX.++.++$+$%$%%***113355050eeeddfdfffffgggfgffgffffdfdddddeepqqq9qqqqwqwwdddffgggggggggfdd9966,2,,::;;;====oooooooooooO>OO>>>>>rr>ttrtyyyiyiyiiiiiiiiiiiiiiiiiiuiittiturutttttttttttttttttttttuutiuuiiiiiiiiiiiiiiiiiiiyiyiyyyyryrrrr>r>;>O>OOOOOoooooooooo====;;&,,,,26699dddfgggggggggddddwwwqqq8qqqqqesedddddfdffffgfggfgfgffffddfddeee00503431<<**%%%$@+$+++XX+  + ........  X .                       ........ X .X.X.+XX++++$@$$%%*&*<<33455000eeddddffffffggfgfggffffffddddddeqqqqq9qq8wwwwwdddffggggg",
"    ........... X X X+.++++@+$@%%&&*<<13345500eeddddfdffffgffgfgggfffffdfdddwdspqqqqq8qqqwwwddfdfgggggggggfdaw9626,,,:&;;;===ooO@ooooooo>OOO>O>>>>r>tr,ttyyyyyyiyii2iiiiiiiiiiiiiiiitiiutuutttttttttttttttttttttuttuuuuuiiiiiiiiiiiiiiiiiiiyiyiyyyyyrrrrr>>>>>>OOOOOoooooooo@====;;;:;:,,2269wadffggggggggfffdddwwqqqq9qqqqqededddfdfdffgfggfgggfffffffddddee000554311<*&&%%$$$@+@X++ ++..X...... X ...                       ....... X  X.X..X.+++++@$@%%%%***11335550eeedddfdffffgffgfggfgffffdfddddedppqqqqq8wqqwwdddfffggggg",
"    ............XX X.X+X++++$@$$%%*&*<113458000ewdddffdffffggfgfgfgfffffdfddddeeqqqq9q8wqwwwdddfffggggggggffda99622<,,;;;;====@ooooooooooOOOO>O>>>r>rrrt,uuyyyiyiyiiiiiiiiiiiiiiiiiuituirtuutttttttttttttttttttttutituiuiuiiiiiiiiiiiiiiiiiyiyyyyyyryrrrr>r>;>>OOOOOoooooooooo====;;:,,&,,6669adfffggggggggfdfdwdwwqq8w8qqqqwsdddddfdffffffggfgfgfgffdffdddeee0575331<<<*&%%%@@@++++X+. X..X.....  X ..                       ......... X X.X.+X.+++++@@%@%%**<<13345050eewdddfdffffgfggfgfgfffffdfddddqspqqq8qq8wqwwwdddfffgggg",
"     .......... X.XXXXXX++++@$@%%%%**<<1345550eeedddddfffgfgfgggfgffffdfdddddsdpqqqqq9w8qqwwwdddfgggggggggfddaw9622,,:,:;;;====oooOoooooOOOO>O>;>>>>rrrttruyyiyiyiiiiiiiiiiiiiiiiiiiiuituuutttttttttttttttttttttttutuiuuuiiiiiiiiiiiiii6iiiiyiyyyyyyrrrr>r>>>>OO>OOOoooooo@ooo====;;&;;,,22669wddfgggggggggffdddwwqw9w8q9qqwqewdddddffffffggfgfgfgfffffdddddee00854331<**&&%$$$@+@++XXX+X.X..... X .....                      ........ X ..X.X..+X++@+@%@%%%***<<3355500eewddfdfdffgfggfgfgfgfffdfdfddddspqqqqq8qqqwwwdddffggggg",
"     ........... X X.XXX+X++@@$%$%%***113355000eeedddfdfffffgfgfgfgffffdfdfddwsspqqqqq8ww9wwdddfdfgggggggggfdd99662,,<:;;;;====ooo@ooooooOOOO>>>>>>r>tr,tt,uuyyyiiuiiiiiiiiiiiiiiiiiuititututtttttttttttttttttttttuutuuiiiuiiiiiiiiiiiiiiiiiyiyiyyyyyrrrr>r>>;>>oOOOOoooooooo@oo===;;,:,,,26699dddfgggggggggddddwwwqq8w8w9qqededdddfdffffgffgggfgfffffdfdddsee0055533<1<**%%%$$@@++X+XXX X.X ...  X ....                       .......... X.X.X+.+X++@@@@%%%*&*<11335800eeewdddfffffgfggfggfffffffddddddesqqqq9q8w9qwwwdddffgggg",
"     .......... X X XXXX++++@@$@%%*%*<<<33455000edwdfdfffffgfgfggfgffffffddddddesqqqq8qq8wwwwdddffggggggggfffaw9662,,:,:;;;===o@ooooooooOOOOO>O>>>r>r>trryruuuyiii2iiiiiiiiiiiiiiiiuiuiuuuuutttttttttttttttttttttututiuuuuiiiiiiiiiiiiiiii2iiiyyyyyyrrry>r>>>>>O>OOOOoooooooooo===;;;:&,:,2269wadffggggggggfffdddwwqqw8w8qqqqqdwddddfdfffffgfgfggfgfffffddddee00055333<<*&&%%$$@@@+++XXXX X.X.. X ......                       ......... X X.X..+X++++@@%@%%%**<<13455500eedddfdffffffgfggfgfgfffdfddddssppqqqq9w8wqwwdddfffgggg",
"     ........... XXX XXXX++++@@%$%%***<11345800eeedddfdffffgfggfggffgffdffddddwdqqqqqq9qw8wwwwddfffggggggggfdda99622,,:;,=;=====ooooooooooOOOO>O>>>r>,rtyrir,uiyyiiyiiii6iiiiiiiiiiiuiuuuyuuttttttttttttttttttttttututiuuiuiiiiiiiiiiiiiiiiyiuiyyyyyyrrrr>r>>>;>OOOOOOoooooooo@o===;;;;,,,26669wdfffggggggggfdfdwwwwq8w8qqqqweqddddfdfdffffggfgfggfffffdfdddsee0505331<<**&%%%@$@++X++XXXX X.... X .....                       ...........X X..+.++X+++$@%%%%&*<<13345080eeedddfdffffgfgfggfgfffffdfddddespqqqqq8w9wqwwdddffgggg",
"      ......... X X XXXX++X+@@$@$%%&&*<<13455500eeddddfdfffffgfgfgfgfffffddddddeewqqq8qq8qwwwddddfgggggggggffda99622,,;,;;;====oo@ooOooooOOOOO>>>>>>r>trryryyyyyiyyiiiiiiiiiiiiiiiiiiuiuuuuttttttttttttttttttttttututiuuiuiiiiiiiiiiiiiiiiiii2yiyyyyyrtrrr>r>>O>o>OOOooooooo@oo====;;;,;,,2,669aadfgggggggggffdddwww9w8q9qqqqqdedddddfffffgffgfggffgffdfdfddeee00554331<***%%$$@@@@++XX+X X...  .........                      ........... XX.X.XXX+++@@@%$%%**<<<3355500eedwdfdfdffgfgfgfgfgffffdfdfddddssqqqq8qq8wwwwdddfffggg",
"      ...........X X.XXXX++++@@@%%%%***113355000eeddddffffffgfgggfgfgfffdfdfddwdeqqqqq8qwq8wwdwdfdfgggggggggfdd99662<,,&;:;;====oooo@oooooOOO>O>->>>>t>tryyriyyiyiiiuiiiiiiiiiiiiiiiuiuuuuyuutttttttttttttttttttttututuiuiuiiiiiiiiiiiiiiiiiyiyyyyyyyyrrrr>>>>>>>oOOOoOooooooooo====;&:,:,,66699ddffgggggggggddddwwwqqw8w8qqqqedwdddfdfffffgfggfggffffffdddddeee005533<1<*&&%%$$@@@+X+XX+X XX .X ........                       .............X XXXX++++@@@%%%%**<113358000ewddddfffffgfgggfgfgfffffddddddeqqqqqq9qw8wwwwdddffggg",
"      ........... XX.XXXXX+++@@%@%%%**<<<3345500eesddfdfdffgfgfgfgfgffffffddddddqeqqqqqq89wwwwdddffgggggggggfdaw9662,,,;,&;;===ooooooooooOOOOOO>>>>>t>,>yrruuyyyiyii2iiiiiiiiiiiiiiiiiuiuuuutttttttttttttttttttttttuutituiuiiiiiiiiiiiiiiiiiiyiyiyyyyrrrt>rr>>>>O>OOOOoooooooo@=o==;;;;&,,,,269waddfggggggggfffdddwwqw8w8wqqqqdqdddddfdfffgfggfgfgfgfffdffdddee00555333<<*&&%%$$@@X@++XXX XX X  .........                       .......... XX.XXXX+X+@+@@%@%%&**<<13455500eedddfddffffgfgfgfgfffffdfddddedppqqq8qq8qqwwdddfffggg",
"      ..............X XXX+X+++@@@%%%%**<113458000ewdddfdfffffggfgfgfffffdffddddedqqqqqq9qw8wwwdddfffggggggggffda99622,,,;;;;====@ooOoooooooOOO>O>>>>>rrrryt,tuyuuiyiiiiiiiiiiiiiiiiiiuiuuuuuruttttttttttttttttttttutuuuuiuiuiiiiiiiiiiiiiiiiiyyiyyyyyyrtrr>>>>>;>OOOOOOoooooooo=====;;:::,,16669wdfffggggggggfdfdwdwqqw8w8qqqqededddfdfdfffgfggfgfgfffffdddddeee005553<1<<*&%%%@$@@X+XX+XX XX X  ........                       ........... X.X XXX+X++@@@%%%%&*<<133450000edwddfffffffgfgggfgfffffdfddddespqqqq8qw9qwwwdddffggg",
"       .......... XX.XXXXX+++@@@%@%%*&*<<1345550eeeddddfffffgffggggfgfffffddddddedqqqq8qq8wwwwddddfgggggggggfddaw9622,,:::;;=====oo@ooooooOOOOO>o>>>r>>trtttyyuu2iiyiiiiiiiiiiiiiiiiuiuuuuututttttttttttttttttttttttuuritiuiuiiiiiiiiiiiiiuiiiiyyyyyyrtt,r>rr>>>o>OOOOoooooooOooo===;;;::,,22669wddfgggggggggffdddwwww8w8q9qqqpeddddddfffffffgfgggfgffffdfddwdee00553331<**&&%@%@@@@+++XXXX..X X..........                      .......... X X XXXX++X@+@$$$%%***<13345500eewddfddffffgfgggfgfgfffdfdfddwdssqqqq9w8qwqwwdddfffgg",
"       ........... X.X.XXX+X++@@@%%%%***113355050eedddddfffffggfgfgffgfffdfdddddeqsqqqq8qq8wwwwddfdfgggggggggfdd99662,<,;:;;;====ooooooooooOOOO>>>>>>rt>tr,triyyuyyiyiiiiiiiiiiiiiiiiuiuuuuututtttttttttttttttttttttuuuuuiiuiuiiiiiiiiiiii6iiiuiyyyyyrrrrrr>>>>>>o>OOOoOooooo+oo@o===;;:,:,,26699ddffgggggggggddddwwwqq8w8qqqqwseddddfdfffffgfgfgfgfgffffdfddeee0005533<<<**%%%@$@@@XX+X+X.X.X   .........                       ...........X.X.XXXX+++@@@$%%%&&*<<1345500qeewddffdffgfgfgfgfgffffffddddddeqqqqqq8w8wwwwwddfffgg",
"       .......... X.X.XXX+X+++@@%@%%%**<<13345500eeedddfdffffgfgfgfggfffffffdddddeeqqqq9w8wqwwwdddffggggggggfffaw9662,,,,:;;&===ooooooooooOOOOO>O>>>>r>r,rtriryyyiiiiuiiiiiiiiiiiiiiiiuiuuuuuttttttttttttttttttttttutuuuitiuiiiiiiiiiiiiiiiiiuiyiyyyyrirrrt>r>>>O>OOOOOooooooooo====;;;:::,,2269waddgggggggggfffdddwwwqw8qqqqqqedwddddfdfffgfgggfggffgffdfddddee005553331<*&&%%%@$@+@++XXXX.X.X X ........                       .......... X.X.XXX+X++@@$@$%%&**<113358500eeddfddffffffgfgggfgffffdfddddedepqqq8w8qqqwwddddfffg",
"       ............X.X XXX+X++@@@%$%%&**<113458000eddddffdffffgfgggffgffffddfdddedqqqqqq8w8wqwwwdddffggggggggfdda99622,<;:;:=====@ooOoooooooOOOO>O>>>>rrryryyiriyuuii2iiiiiiiiiiiiiiiiiuuituturuttttttttttttttttttututuuuitiuiiiiiiiiiiiiiiii2uiyyiyyyrttr>r>>>>>>>oOOOOooooooooo====&;;:,,,22669wdfdfggggggggfdfdwdwqq9q8qqqqqeqddddfdfdfffffgfgfggffffffddddeee005553<<<<*&%%%@@@@@X+XXXXX..X  X .......                       ........... X.X.XXX+X@X@@$$%%%&*<<133450000edwdfdfdfffgfgfgfgfgffffdfddddweeqqqq8qq9wwwwdddffgg",
"        ............X XXXXX+++@@@$$%%&&*<<1345550eeedddddffffgfgfgfggfgffdffdddddedqqqq8w8qqwwwdddfffggggggggffda99622,,,::;=;====oo@ooooooOOOOO>>>>>r>rrrttryuyuu2iyiiiii6iiiiiiiiiiuiuititututtttttttttttttttttttttuuuuuiiiuiiiiiiiiiiiiiiiiiiuiyyyytt,rrr>>>>O>o>OOOoooooooo@o=====;:::,,,22999ddfgggggggggffdddwwwqw8q9qqqqqdedddddffffffgfgfggfgffffdfddddeee7053331<**&&%@%@@@X+X+XXX.XX X ..........                      .......... X X XXXXX@X@@@$$$%%***<13345500eewddddffffgfgfgfggfffffdfdfdddedaqqqqqq9w8wwwddfdffg",
"        ...........X X.XXXXX++@@@@%%%%***113355000eesddfdfffffgggfgffgffffdfdddddeqpqqqq8qqqqwwwdddffgggggggggfdd99662,,*,;:;=====ooooooooooOOO>O>->>>r>rr,ttruuuuiuiiiiiiiiiiiiiiiiiiuiuititututtttttttttttttttttttuutuuuuiiiuiiiiiiiiiiiiiiiu,iuyyuurtrrrr>,>>>O>o>oOoOooooooooo====;;::,,,6669wwdffgggggggggddddwwwqqw8w8qqqwsdedddfdfdfffgfggfgfgfffffdfddeee0057533<1<**%%%@%@@@@XX+XXX..X X .........                       ...........X.X.XXX+X@X@@@$%%%&**<<1345500eeedddfdffffgfgggfggffffffddddddqeqqqq8qq8wqwwwddfffg",
"        ........... XX.XXXX@X@X@@$@%%%**<<<33358000eddddfdffffgffgfgggfffffdfdddwdssqqq0qq8w9wwwddfdfgggggggggfdaw9662,,,:::=;===ooooooooooOOOOOO>>>>>r>trtttu,uu,uiuiiiiiiiiiiiiiiiiiiuiuuutuutttttttttttttttttttttttuuuuiuiuiiiiiiiiiii6iiiiiiuiuuu,ttty>rr>>>>>O>OOOOooooooooo@===;;;:::,2,2699ddffggggggggfffdddwwwq8w8qqqqqeeddddddffffgfggfgfgfgfffdfddddee00055433<<*&&%%%@$@@X++XXXX.X X ..........                       .......... X.X.XXXX+X@+@@$$%%&***113455500eeddddfdffffgfgfggfgffffdfddddedsqqq9qq8wqwwwddddfff",
"        ..............X XXXX+X@@@@%@%&&**<11345500eeedddffdffffggfgfgfgfffffdfddddeqsqqq9qq8wwwwdddfffggggggggffda99622,,::;:=;===#ooo@ooooooOOO>O>>>>>t>tr,tytuuyiui,iiiiiiiiiiiiiiiiiiuiuuytuttttttttttttttttttttuttuuuuuiuiiiiiiiiiiiiiiii2uiy,uuuur,t>y>r>>>>O>OOOOoOooooooooo====%;:::,,16669adfffggggggggfdfdwdwqwq8w8wqqqwdsddddfdffffffggfggffffffdfdddeee0775331<<<*%%%$$@@@@X+X+XX.XXX  .........                       ........... X.X.XXX+X@@@@@%$%%**<<13355080eeedddfffffffgfgfgfgfffffdfddddespqqqq9q8w9wwwdddffg",
"         .......... XX.XXXX+X++@@$@%%%%**<<13458500eedddddfffgfgfgggfgfffffdfddddedsqqqqqq8wqqwwwdddfgggggggggfddaw9622,,:::;=%===ooooooooooOOOOO>O>>>>>,rrtytu,uiu,yiiiiiiiiiiiiiiiiiiuiuuuuututtttttttttttttttttttttuuuuuiuiiiiiiiiiiiiiiiiiiiiiyu,ritryrr>t>>>>>o>OOOOooooo@ooo=====:;::,,22299aadfgggggggggffdddwwwq9w8q8qqqqewdddfdfdffffggfggfgfgffffdfdddee00554331<***%%%$@@@+++XXXXX.X X ..........                      .......... X X XXXXX@X+@@$$$%%***<11345500eedddfddffffgfgggfgfgfffdfdfddwdssqqqqq8w8wwwwddfdff",
"         ........... X.X.XXX@X++@@@%$%&&*<113345000eeedddfdfffffgfgfgfgfffffddfdddwqpqqqq9q8wwqwdddfdfgggggggggfdd996621,:,:;:=====@oooooooooOOOO->>>>>r>ry>ttttuuuiiiiiiiiii6iiiiiiiiiiuiuuuuutttttttttttttttttttttuttiuuuiiuiiiiiiiiiiiiiiiiiiuuiuyyrutrrtr>>>>>O>O-OOoOooooooo@oo==;=:::,,,26699ddffgggggggggddddwwwqw8wqqqqqededwddfdffffgffgfggfgfffffddddsee000543311***%%$$$@@@X++XXXXX X X .........                       ...........X.X.XXX+X@++@@$%%%&**<113355000eedddffdffffgfgfgfgffffffddddddeeqqqqq8qw8wwwwddfff",
"         .......... X.X.XXXXX++@@@$@%%%***<11345500eedddfdfffffgfgfggfgffffdffddddedsqqq8q9w8qwwwdddffggggggggfffaw9622,,,:::=;===o=ooooooooOOOOO>O>;>r>rr>t,tuu,yuiuiu,iiiiiiiiiiiiiiuiiuiuuuutttutttttttttttttttttttutuuuuuiiiiiiiiiiiiiiiiiiu,iuuyuut,ty>>r>>>>>>OOOOOoooooooo======:=:::,,2269waddfggggggggfffdddwww8qq8qqqqqeqddddddffffffgfggfggffffdffdddee00555531<<**&%%%@$@@++XXXXX.X X ..........                       .......... X.X.XXXX+X+@@@$$%%&**<<13458500eedddddfffgffgfgggfgffffdfddddedqsqqq8qq8wqwwddddff",
"         ............X.X.XXX@XX@@@$$%%%&**<11345700eeedddfdffffgfggfggffgfffdfdddddqsqqqqqq8wqwwwwddfffggggggggfdda99622,,::;;=====ooooooooooOOOOO>->>>r>rtrty,tti,uiuiiiiiiiiiiiiiiiiiiuiuuuuututtttttttttttttttttttttituuuiuiiiiiiiiiiiiiiiiiiuiu,uu,ttrry>r>>>>o>OOOOoOooooooooo=====::::,,,6669wdfffggggggggfdfdwdwqw9qq8qqqqedsddddfdffffgfgfggffgffffdddddeee0055333<<**%&%%@@@@@X@XXXXX XX  .........                       ........... X.X.XXX+X@+@@@%$%%&*<<13345800eeeddfdffffgfggfgfgfgffffdfddddweqqqqq9qq8wwwwdddff",
"          ........... X.XXXXXX@X@@@@$%%&&*<<13457700eeddddfdfffffgfgfgfgfffdfdfdddedsqqqqq8qqqqwwddddfgggggggggffdaw9622,,,;::;====o@oooooooOoOOO>->>>>>>trryrytituiu,iiiiiiiiiiiiiiiiiuiuuuuuutttutttttttttttttttttututuuiuuiuiiiiiiiiiiiiiii,iiuiyityttty>t>r>>>>>O>OOOOoooooo@ooo===;;;;,*,22299addfgggggggggffdddwwwqw8qq9qqqpssdddfdfdffffgfggfggfgffdffddddeee5054311<***%%$$$@@+@XXX+X XX X...........                      .......... X.X.XXXXX@X+@@$$$%%***<13345500eeddddfdfffffgfgfggfffffdfdfdddedsqqqqqq8wqqwwdddff",
"          ...........X X XXX++X@+@@%$%%%**<113355000eeeddfdfffffgfgggffgffffdfdddddeqsqqqqq8qqqwwwddfdfgggggggggfdd99662,,*,;;=:===o=o@ooooooOOOO->->>>>r>,t>yt,uitiuiiiiiiiiiiiiiiiiiiiuiuuuuuutttu>ttttttttttttttttttutuuuuiuiuiiiiiiiiiiiiiiii,uui,tu,trt>,rr>>>o>O-OOoOooooooo@oo==&;:::,,,26699ddffgggggggggdddddwwqqq8qqqqqsssddddfdffffffgfggfgfffffddfddese005553311***%%%$@@@@X@XXXXX XX ...........                       ...........X.X XXX@X@+@@@$%%%&&*<<13458000eeddddfdffgffgggfggffffffddddddqeqqqq8qq8wwwwwdddf",
"          ........... X.XXXXXX@X@@@@$$%&&*<*13345770eedddddffffgfgfgfggfgffffdfdddddesqqqq8qq9wqwddddffggggggggffdaw9662,,,::;:=====oooooooooOOO---->>>r>rr>yrytyt,yiiui,iiiiiiiiiiiiiiuuiuuiuutttuttu>u>tttttttttttttutuutiuuiuiiiiiiiiiiiiiiiiiiyitiyttytrrr>>>>O>>OOOOOoooooooo======;=:::,,2269waddfggggggggfffddwwwqqqq9qqqqqqdwddddffdfffgfggfgfgffffffddddee00054431<<**&%%$$@@+@X@XXXXXX X ..........                       ........... X.XXXXXXX+@@$@$%%&**<113355500eedddfdfffffgfgfggfgffffdfddddedqsqq9qq8qqqwwdddff",
"          ............X.X XXXXX@X@@$$%%%&**1<1345800qeedddfdfffffggfgfgfffffffdddddwdqeqq0q9qqqwwwwddfffggggggggfdda99622,:,;:=:====o=ooooooooOOO-->->>>r>rtrttyyyiyyi,iiiiiiiiiiiiiiiiiiuiuuutittttururu>tttttttttttuttutitiuiuiiiiiiiiiiiiiii,iii,uti,tttrrt>>r>>>o>O-OoOoOooooooo=====::::,,12699adfffggggggggfdfddwwwq9qq8qqqqsqddddddffffffgfggfgfgfffdffdddeee05053311<**%&%%@$@@+XX+XXXX XX  .........                       ...........X X.XXXX@X@X@@$$%%%&*<<11445000qeedddffdffgfgfgfgfgfffffdfddddedqqqqq9qqqqwwwdddf",
"           ............X XXXXX@X@@@@$$%%&***113355800eeddddfdfffgffgggfgfgfffdfdddddeeqqq9qq8qqqwwddddfgggggggggffdd99622,,:,;:=;==o@ooooooooOoOO--->>>>>>t>tt,tyyyyiyiiiiiiiiiiiiiiiiiiuiitititttuurttttttttttttttttttutitiuiuiuiiiiiiiiiiiiiiiiiyiyiyyytr,t>rr>>>>>O-OOOOoooooo@oo====:=:::,,22669addfggggggggfffdddwwwqqq8qqqqpqdeddddfdffffgfggfgfgfgffffdddddee00754311<***%%$$@@@@X@XXXX XX X...........                      ........... X X.XXXX@X@@@$$$%%***<13345580eeddddfdffffgfgggfgfgfffdfdfddddqsqqq0qq8qqwwwdddf",
"           ...........X XX XXXX+X@@@@%%%%**<<13447800eedddfdfffffggfgfgfgfffffdfdddddqqpqqqqqqqqwwdwddfffgggggggffdaa96622,:*:;;=====o@oooooooOOOO->->>>>y>,rtttyyyiyiyiiiiiiiiiiiiiiiiiuititituutttutttttttttttttttttttututiuiiuiiiiiiiiiiiiiiiiyiyiyyyyttry>>>,>>-->O-OOoOooooooo#oo==;=:::,,,26699ddffggggggggffdddwwwqqqq9q0qqpsddddddfdffffgfggfgfgffffdfdddsse008553311***%%%$#@@@+X@XXXX XX ...........                       ...........XX XXXXXX@X@@@$%%%&**<<13448000eeddddffffffgfgfgfgffffffdddddedqqqqq9qq9qqwwdddd",
"           ........... X..XXXX@X@+@@$$$%%***<11345500eseddddfffffgfgfgggfffffdfdfdddqdsqqqq8q9qqwwwddfdfggggggggffddaq6221,,:::=:===o=ooooooooOOO---->>>>>r>y>t,tyyyiyiiyiiiiiiiiiiiiiiiiiiuiuuutututttttttttttttttttutututitiuiiiiiiiiiiiiiiiiiiiiiyiyyyt,t>y>t>>>>>>--OOOooooooo=oo====:=::*,,2269aaddfggggggggffddddwqwqq90qqqqqsqddddfdfffffgfgfgggffffffdfdddse00874431<<*&*%%$$@@@X@XXXXXX..X...........                       .............X.XXXX@X@+@@$$%%&***11345570qeedddfdffffgfgfgggffgfffdfdddddespqqqq8qqqwqdwddf",
"           ............XX.XXXXX+X@@@@$%%%&**<11345880qeddddfdfffffgfgfgfgffffffddddddepqqqqq9qqqqwddddfffggggggggfdda99622,,:::;=====o=ooooooooOO--->>>>>>>t>ytyyyyyyiyiiiiiiiiiiiiiiiiiiiuiuuuyutttttttttttttttttttttttyuuuuuiuiiiiiiiiiiiiiiiiiiyiyyyyyytyrrr>>>>>>----OoOooooooo=o=====::::,,22689adfffgggggggfffddddwqqqq9qqqqqpdsddddfdfffffgfgfgfgffffffddddssq08754311<**%%%%@@@@@X+XXXXXX.X ..........                       ...........X.XX.XXXX++@@@@%$%%**<<13345800qsddddfdffffgfgfgfgffffffdfdddddqpqqqqq9qqqwwdddd"
};
