/* XPM */
static char *result[] = {
/* columns rows colors chars-per-pixel */
"512 512 256 2 ",
"   c #585AD8",
".  c #585AD7",
"X  c #5659D5",
"o  c #5557D1",
"O  c #5558CF",
"+  c #5258C7",
"@  c #5355CB",
"#  c #5053C5",
"$  c #4F51C1",
"%  c #4E4FC0",
"&  c #4D52BC",
"*  c #4B50B6",
"=  c #4851AE",
"-  c #4751AA",
";  c #4551A4",
":  c #4C4EBB",
">  c #494CB3",
",  c #474AB0",
"<  c #484CAF",
"1  c #464BAC",
"2  c #444BA4",
"3  c #4547A9",
"4  c #4345A4",
"5  c #42519B",
"6  c #405196",
"7  c #414A9C",
"8  c #404C96",
"9  c #42429E",
"0  c #404597",
"q  c #403E99",
"w  c #403C96",
"e  c #511F8A",
"r  c #4F1E88",
"t  c #4C1D84",
"y  c #3F5092",
"u  c #3D508E",
"i  c #3F4898",
"p  c #3E4994",
"a  c #3F4798",
"s  c #3E4693",
"d  c #3C4B8C",
"f  c #394B84",
"g  c #3B448B",
"h  c #394384",
"j  c #374980",
"k  c #374280",
"l  c #3F3992",
"z  c #3F3790",
"x  c #3B3F89",
"c  c #393E83",
"v  c #3F3389",
"b  c #373D80",
"n  c #491D7D",
"m  c #461D7A",
"M  c #421D74",
"N  c #401D6F",
"B  c #384D7F",
"V  c #38447F",
"C  c #364A7B",
"Z  c #334A73",
"A  c #35417C",
"S  c #324175",
"D  c #314B6B",
"F  c #304B67",
"G  c #30436D",
"H  c #304767",
"J  c #2F4968",
"K  c #2E4A63",
"L  c #2F426A",
"P  c #2C4162",
"I  c #2B495B",
"U  c #294952",
"Y  c #2A425B",
"T  c #294656",
"R  c #274850",
"E  c #274451",
"W  c #28444F",
"Q  c #27484F",
"!  c #26444C",
"~  c #383E7F",
"^  c #363C7B",
"/  c #313F72",
"(  c #323772",
")  c #303F6E",
"_  c #31356C",
"`  c #343262",
"'  c #342D61",
"]  c #2E3F6A",
"[  c #2D3F64",
"{  c #2F3469",
"}  c #2D3363",
"|  c #2D2F61",
" . c #31335D",
".. c #312B5D",
"X. c #31255C",
"o. c #2A3C5C",
"O. c #293C55",
"+. c #2C345C",
"@. c #2A3455",
"#. c #273C52",
"$. c #273452",
"%. c #283C4F",
"&. c #28344E",
"*. c #243D49",
"=. c #233A46",
"-. c #25344C",
";. c #223343",
":. c #2C2C5A",
">. c #2B2B55",
",. c #2E2459",
"<. c #2B2454",
"1. c #272D51",
"2. c #272650",
"3. c #292B4D",
"4. c #29224D",
"5. c #252C4B",
"6. c #212B41",
"7. c #26244A",
"8. c #222241",
"9. c #3D1D6B",
"0. c #391D64",
"q. c #371C61",
"w. c #341C5B",
"e. c #301C56",
"r. c #2D1C52",
"t. c #291D4C",
"y. c #271D48",
"u. c #241E44",
"i. c #21283F",
"p. c #21253F",
"a. c black",
"s. c black",
"d. c black",
"f. c black",
"g. c black",
"h. c black",
"j. c black",
"k. c black",
"l. c black",
"z. c black",
"x. c black",
"c. c black",
"v. c black",
"b. c black",
"n. c black",
"m. c black",
"M. c black",
"N. c black",
"B. c black",
"V. c black",
"C. c black",
"Z. c black",
"A. c black",
"S. c black",
"D. c black",
"F. c black",
"G. c black",
"H. c black",
"J. c black",
"K. c black",
"L. c black",
"P. c black",
"I. c black",
"U. c black",
"Y. c black",
"T. c black",
"R. c black",
"E. c black",
"W. c black",
"Q. c black",
"!. c black",
"~. c black",
"^. c black",
"/. c black",
"(. c black",
"). c black",
"_. c black",
"`. c black",
"'. c black",
"]. c black",
"[. c black",
"{. c black",
"}. c black",
"|. c black",
" X c black",
".X c black",
"XX c black",
"oX c black",
"OX c black",
"+X c black",
"@X c black",
"#X c black",
"$X c black",
"%X c black",
"&X c black",
"*X c black",
"=X c black",
"-X c black",
";X c black",
":X c black",
">X c black",
",X c black",
"<X c black",
"1X c black",
"2X c black",
"3X c black",
"4X c black",
"5X c black",
"6X c black",
"7X c black",
"8X c black",
"9X c black",
"0X c black",
"qX c black",
"wX c black",
"eX c black",
"rX c black",
"tX c black",
"yX c black",
"uX c black",
"iX c black",
"pX c black",
"aX c black",
"sX c black",
"dX c black",
"fX c black",
"gX c black",
"hX c black",
"jX c black",
"kX c black",
"lX c black",
"zX c black",
"xX c black",
"cX c black",
"vX c black",
"bX c black",
"nX c black",
"mX c black",
"MX c black",
"NX c black",
"BX c black",
"VX c black",
"CX c black",
"ZX c black",
"AX c black",
"SX c black",
"DX c black",
"FX c black",
"GX c black",
"HX c black",
"JX c black",
"KX c black",
"LX c black",
"PX c black",
"IX c black",
"UX c black",
/* pixels */
"* & & & & & # # + @ o X X       X o X % o % % : : , , , 4 4 4 3 q q q q v v v v v v v v v v v v v v q q z q 4 q 4 4 3 3 3 , , , % , : : % # % # @ # o o # o o o o X o   X X X   X     X   X X X   X   o X o o X @ o # o % @ # % % : : : , : , , 3 3 3 4 4 4 q 4 q q z z v v v v v v v v v v v v v q w w q 4 4 4 , 4 : 3 : : % % o # o o   X       o O # # & * 1 2 7 s g g k b k A A A h h h d d i d 6 i 6 6 6 d u f f f j f A j k g k g g g g g g c b ^ ( ( ( { { { | | | 1.| :.1.:.1.:.>.+.>...+... .'  .` ` ` ` ` `  . ... .3.3. .3.3.6.3.6.3.7.6.7.6.7.8.p.8.p.8.8.8.p.p.8.p.p.8.8.p.p.p.p.p.i.i.i.6.6.;.6.;.;.;.;.=.=.*.=.=.Q *.Q R R R R R I T T T T P Y o.T ] o.] ] / ] S S A h h a a 7 2 = * & # o o o X o X # o # @ % % % % : : , : 3 , 4 4 4 4 q q z z v v v v v v v v v v v v v z q z q 4 q 4 4 3 4 , 3 : , , : : : % # % # # % o o o o o o X o X X X X X X   X       X X X X X X X o o o o % % # % % : % % % : : : , , , , , 4 , 4 4 4 q q q z q z v v v v v v v v v v v v v z q q 4 4 4 4 , 3 , , : : % # % o o o       X   o @ @ O # & + & & & * & ",
"* * & & & + & + # @ @ o X X   X X X o o % o % % : , , , , 4 4 q 4 q q z z v v v v v v v v v v v v v q z q 4 q 4 4 4 3 3 , 3 , , , : : : % % % @ % @ # X o o o o o o X X X X X X   X     X   X X X   X o o X o o o @ o # o % # % % % : : : , , , , 3 3 3 4 4 q q q q q z v v v v v v v v v v v v v z q w 4 q 4 3 3 , 3 : , : % % # o o o o       o   @ @ & & > 1 2 7 s g g k k S k A A h h f g d d i 6 6 6 i 6 u d d f f h j j h j A g k s g g g x x c ^ ^ ^ ( { { | | | :.:.$.| :.:.+.1.:.>.+.>...+... .`  .` ` ` ` `  . . .&. .3.3.3.3.3.3.8.6.5.8.6.8.6.8.p.p.8.p.p.p.8.p.p.8.p.p.8.8.p.p.p.p.p.i.i.6.6.6.;.6.;.;.=.=.=.=.*.Q =.Q Q *.R R R I R E T T T #.Y Y ] #.] o.] ] S S S b h g g a 2 2 , * & # o @ X X o o o # # % # % % , % : : 3 , 3 3 4 4 q q w q v v v v v v v v v v v v v v q z q 4 q 4 4 4 3 3 3 , , : , , : % % % % # @ o % X # X o o X o X X X X X X     X   X   X X X X X X o o @ # o % % % % % % : % % : : : , , , , , 4 4 4 q 4 4 q q z z v v v v v v v v v v v v v q q z q 4 4 4 4 , , , : : % % @ o o o X X     X X o @ @ # # # & & & & * ",
"& & + & & & # # @ @ o X X   X X X X o % o % % : % , , , 4 , 4 4 q q z q v v v v v v v v v v v v v v z q q q 4 4 4 4 3 3 3 , , , : : : % % % @ % @ # o # @ o o X o X   X X X     X   X X   X   X X X X X X o o X @ o o # @ @ # % % : : : , : , , , 3 3 3 4 4 4 4 q q z z v v v v v v v v v v v v v z z q q 4 4 4 3 , , 3 : : % # # # o o   X       o @ + # & = 1 2 7 s g g b k S A A A A f h h d i u i 6 5 6 6 u u d f f f j h f A g g g g g g w g g ^ v b ( ( ( { { { | | | :.:.| 1.:.:.:.+.:...@... . . .` ` ` ` ` `  . .&. .3.&.3.&.3.3.6.3.5.8.6.8.8.8.p.p.8.p.p.p.8.8.p.p.p.p.8.8.p.p.p.p.p.i.i.6.6.6.6.6.;.;.;.;.=.=.*.*.=.Q Q *.Q E R R R R T T T T Y Y o.Y P o.] ] ] ] / b b h g g i 7 2 * > & o @ o o o o o o # @ # % % % % : % , , , 3 3 4 q 4 q q z v v v v v v v v v v v v v v z q q q 4 4 4 4 3 3 , 3 : , , : : % % # % @ # # o # o o o o o X X X X X X     X   X     X X X X X X X o o o % o % % % : : % % : : : , : , , , 4 , q 4 4 4 q q z q v v v v v v v v v v v v v v z z q 4 q 4 4 3 , , , : : % # # # o o X     X X o o @ @ + # & # & & & & ",
"& & & & + & + # @ o o o X     X X X o o % % % : , , , , 4 4 4 q 3 q q z v v v v v v v v v v v v v v q z q 4 q 4 4 4 3 3 , , , , , : : : % # % @ @ # o o o o o o X X X X X   X X X X X X X X X X X X X   X X o o o @ @ @ # % o % % % : : : , : , 3 , 3 3 4 4 q 4 q q q z v v v v v v v v v v v v v v q w 4 q 4 4 3 4 , , , : % % # o o o o       X o o @ # & * - 2 7 a s k g ^ k S A A h A f g g d i 6 i 6 5 6 i u d d f d h A f h A f g g g g g x g x c ^ ^ ( ( { _ | { | | | :.1.} 1.:.:.:.>.+...@... .`  . .` ` `  . . . .3. .3.&.3.3.3.5.6.6.3.8.5.8.6.8.p.p.p.p.p.p.p.8.p.p.8.8.8.p.p.p.p.p.i.i.i.6.6.;.6.;.;.;.=.=.=.=.=.Q =.Q Q R R R E R Y R T T o.Y Y Y o.] P ] ] ] S S S b h g a a 7 , = & $ # X o o X o o # o % # % % % % : , : , 3 , 4 4 4 q q q w v v v v v v v v v v v v v z q z q 4 q 4 4 3 3 3 , , , , , % : % % % @ % o % X o o o o X o   X X X X   X   X X   X       X X X X X X @ o # % # % % % % : % % : : : , , , 4 , 4 , 4 4 q 4 q q q z v v v v v v v v v v v v v z q z q 4 4 4 4 , , , : : : % @ o o o X X     X X o o @ # + # & & & & & ",
"& & & & & # # @ @ # o X       X X o o o % % : % : , , 4 , 3 q 3 q q z z v v v v v v v v v v v v v z z q q q 4 4 4 3 4 , 3 , , : : : : % % % # # # o # o o o X X X X X X X X X X X X   X X X X X X X X X X X X X o o @ o @ o % # % : : : , : , , , 3 3 3 4 4 4 q 4 q z q v v v v v v v v v v v v v z z w q q 4 4 4 , , , : : : % # # o o o X   X   . @ @ # & * 1 2 2 s s g k k S A A A A h h g d d i 6 6 7 5 5 6 d 6 d f f h f h h g k g g g w s g w x c c ^ ( ( ( { { { | | :.+.:.:.+.:.1.:.+.:.+...+. . . .` ` `  . . . .&. .3. .3.&.3.6.3.6.3.6.8.6.6.8.p.p.p.p.p.p.p.p.p.p.p.8.p.p.p.p.p.p.i.i.i.6.6.6.6.;.;.;.=.;.=.=.=.Q =.Q *.R *.R R I R R T T T T o.Y Y P o.] ] ] S ] S b h h g a 7 2 , > & # # @ o o o o # o # @ % % % % : % : , 3 , 3 4 4 4 q w q z v v v v v v v v v v v v v z z q q q 4 4 4 3 3 3 , , , , : : % % % # % @ # o # o o o X o   X X X     X   X X   X X X   X   X X X X X o o # @ % # % % : % % % : % , : : 4 : 4 , 4 4 4 q 4 q q q z v v v v v v v v v v v v v z z q q 4 4 4 4 3 , , , : % % # # o o X     X X X o @ @ # # & + & & & & ",
"& & & # & # # # @ o o X X   X X X o o % o % % , : , , , 4 4 4 q q q q z v v v v v v v v v v v v v z q q q 4 q 4 4 4 , 3 , , , , : : % % # % @ @ @ o o o o o X X X X   X X X X                   X X X X X X X X o o X @ @ % o % # % : : : , : , , , 3 3 3 4 4 4 q q q z z v v v v v v v v v v v v v q q q 4 q 4 3 3 , , : , % % % o # o o X     X o o @ # & * * 2 7 7 g g k b k S b A A A h f g d d i 6 5 5 5 6 6 d d d f f h f h h g g g s g s s x x x c ^ ^ ( ( { { | | | | :.} :.:.:.+.1.:.:.+. ... .`  . .` ` H  .%. . .&.&.&.3.3.3.&.6.3.6.7.6.8.6.8.6.p.p.p.p.p.p.p.p.p.p.p.p.p.p.p.p.p.p.i.i.6.6.6.6.6.;.;.;.=.=.=.=.=.Q *.Q Q E R R R R Y E T T Y T Y o.Y ] o.] ] ] b / A A g g a 7 2 = * & # o @ o X o o o # # # # % % % % , % , , , 4 4 4 q 4 w z z v v v v v v v v v v v v v q q q q 4 q 4 4 3 3 , , , , , % : % % # % # # o o o o o o X   X X X   X     X             X   X     X X X X o o % # % % % % % % % % : : , , : 4 , 4 , 4 4 4 q q q q q v v v v v v v v v v v v v v q q q q 4 4 , , 3 , : : : % # o # X o X     X X o o @ @ # # & # & & & ",
"# & + & # # # @ o o X X   X   X o o o o % % : : : , 4 , 4 4 3 q q z q v v v v v v v v v v v v v v q q q q 4 4 4 4 3 3 , , 3 : : : : % # % # # @ # o o o X X   X X   X X                           X X X X X X X X X @ @ o o # # % % : : : : , : , , , 3 3 4 4 q 4 q q q z v v v v v v v v v v v v v z z q q 4 4 4 3 , 3 , : : % # # o o o       X   o @ # # * 1 2 2 s s g g k S A S A A h f h d d i 6 7 5 5 5 5 6 6 d d d h f h g A g g g g s s x 0 g x c v b ( ^ { { { { | } | :.:.+.:.:.+.:.+...:. . . . .` ` `  . . . .&. .&.3.&.&.;.3.6.3.6.6.5.6.8.6.p.p.p.p.p.p.p.p.p.p.p.p.p.p.p.p.p.p.i.i.i.6.6.6.6.;.;.;.=.=.=.=.=.Q =.Q Q *.R E R R I E T T o.T Y o.Y ] o.] ] ] / ] b A h g g i 7 2 , * $ # @ o o o o o # o # # % % % % % % , , , 3 3 4 4 4 q z q v v v v v v v v v v v v v v q z q q 4 4 4 3 3 3 , , , : : : % % # % # # o # o o o X X X X X X   X                   X         X   X   X o # o # # # % % % % % % % % , : , , , , 4 4 4 4 q 4 q q z z v v v v v v v v v v v v v q z q 4 4 4 4 4 , , , : : % # % o o X X     X X o o @ @ # + # & # & & ",
"& # & + # # @ @ # o X X   X   X X o % o % % % , : , , 4 4 4 q 4 q q z v v v v v v v v v v v v v z z q q 4 q 4 4 , 4 , , , : , : : % % % @ @ @ @ o o o o X X X X X X X                                   X   X X X X X o @ o # # % % % : : : : , , , , 3 3 3 4 4 4 q q z q z v v v v v v v v v v v v z q z 4 q 4 4 3 3 , , : : : % # # o o o       X o o # & & > - 2 7 s g h k A ^ A A A A h h g d d i 6 5 5 5 5 5 6 u d d d h f h f h g g s s s s w g g c c ^ ^ ( ( { { | | | } :.+.:.+.:.:.:.:.+. .:. . . .[ ` `  . . .%. .&.&. .3.&.3.;.3.6.3.6.6.8.5.8.6.p.p.p.p.p.p.p.p.p.p.p.p.p.p.p.p.p.i.i.i.6.6.6.;.;.;.;.;.=.=.=.=.=.Q *.Q Q ! R R R E I T T T Y o.Y Y o.] ] ] ] / S S b h g a i 7 , = * $ # o @ o X o o o # o % # % : % % , % 3 , 3 4 4 q 4 q q z v v v v v v v v v v v v v z q q q 4 q 4 4 3 3 3 , , , , % : % % % # # o o o o o o X X   X             X                             X X X o # # # # % % % % % # % % : : , , , , , 4 4 4 4 q q q q z v v v v v v v v v v v v v v q z q 4 4 4 4 , , : , : % % @ o # X X X     X X o o @ @ # + # & + & ",
"+ & # # # @ # o o X X   X   X X o o o % % % : : , , , 4 3 4 4 q z q z v v v v v v v v v v v v v q q q q 4 4 4 4 4 , , , , , : : % % % # # @ # o o o X X   X   X                             X         X   X   X X X X X @ @ @ # # % % % : : : : : , 3 , 3 3 4 3 q 4 q q q z v v v v v v v v v v v v v z q q q 4 4 4 3 , , , : % % % o o o o         o @ # # & * 1 2 7 s g g k b S A S A A h h f d i 6 7 5 5 ; 5 5 6 d i d f d h h g g g s x s s 0 0 g g z c b ^ ( ( ( { { { | | } :.+.:.:.+.:.+. .:. .+.`  . .` `  . . . .&. .&.&.&.3.&.3.;.5.6.3.6.6.6.6.p.6.p.p.p.p.p.p.p.p.p.p.p.p.p.p.p.p.i.i.i.6.6.6.6.;.;.;.=.=.=.=.=.Q =.Q *.E R R R E I E T T T o.Y Y P o.] ] ] { S S A b g g g 4 2 2 * & % # @ o o o o # o # # # % : % % : : , , 3 3 4 4 4 q q z z v v v v v v v v v v v v z q z q q 4 4 4 3 3 3 , , : 3 : % % % % # # o # o o o o X X   X X           X X X           X X X     X       X X @ o # # # % % % % % % % % % , % , , , 4 , 4 4 4 q 4 q q q z v v v v v v v v v v v v v q q q 4 q 4 , 4 , 3 : : % % # # o o X X     X X o o @ @ # # # # & # ",
"# + # # # @ o # o X X   X   X X o o o % % % , : , , 4 , q 3 q q q z v v v v v v v v v v v v v z z q q 4 q 4 4 , , 4 , , : : : : % % @ # @ @ o o o X X   X X   X     X X X X X X   X   X   X   X       X X           X X o @ @ % # % % % % % % : , , : 3 , 3 3 4 4 q 4 q z q v v v v v v v v v v v v v v q z 4 4 4 4 3 , , , : : % # # o o o o     X o o @ # & * 1 2 2 p s g k k S S b A A h f g g d i 6 5 5 5 5 5 5 6 d d d g f h h g g g s s s 0 0 0 w g x c ^ ^ ( ( { _ X.{ | | } :.+.:.:.+.:.:. .+... .`  .[ ` ` O. .%. .&.&.&.&.&.3.;.3.;.6.6.5.6.6.8.6.p.p.i.p.p.p.p.p.p.p.p.p.p.p.p.p.p.i.i.i.6.6.6.6.;.;.;.;.=.=.=.Q =.Q *.Q ! R R R I R Y E T Y T o.Y o.] o.] ] S ] S b h h g a 7 2 = * & # o @ o X o o o # o % # % % % % : : 3 , , 4 4 q 4 q w w v v v v v v v v v v v v v z q q q 4 q 4 4 3 3 , , , , % : % % % # # o o o o o X X   X X       X X X X X X X X X X X X X X X X     X       X X @ # # % # % % % % # % # % : , % , , , 4 , 4 4 4 q q q q z v v v v v v v v v v v v v z q z q 4 4 4 , 4 : , : : % # o o o o X     o   X o o @ @ # # + # + ",
"# # # @ @ @ # o X X   X   X X o o X % % % : : , , 4 , 4 3 q q z q z v v v v v v v v v v v v v z q q 4 q 4 4 4 , 4 , , : , : % % % # # @ o o o X X   X X     X X   X X X X X X X o X o o o o X X X X X X X X X X   X X X o o % o % % # % % % % : : : , , , 3 3 3 4 4 q q q q z v v v v v v v v v v v v v w w q q q 4 4 , , , : : % % # # o o X         o @ # & : = 1 7 7 s g k b k S A A h A h h d i d 7 5 5 ; ; 5 5 6 u i d d h f g g g g g s s 0 0 0 g g x c v ( ^ ( _ { { | | } :.| :.+.:.+.:.+.+... . . . . .` O. . . .&.&. .&.&.3.;.3.;.3.6.5.6.6.8.6.6.p.i.p.p.p.p.p.p.p.p.p.p.p.p.p.p.i.i.i.6.6.;.6.;.;.;.;.=.=.=.*.=.Q =.Q ! R E R R R E T T Y T Y Y Y ] o.] ] ] ] / b A h g g i 7 ; , > $ # @ @ o o o # o o # @ % % % % % : , , 3 3 4 4 4 4 z q v v v v v v v v v v v v v z z q q 4 q 4 4 3 3 , , , , : : % % # # # o # o o o X   X X       X X X X X X X X X o X o o o X X X X X X X X X X X o o @ # @ % % % % # # % % % % % , : , , , 4 , 4 4 q 4 q q q z v v v v v v v v v v v v v q q q 4 4 4 4 , , , , % % % # # o o X       X X o o @ @ @ O # # # ",
"@ # @ @ @ o o o X X   X   X X o o % o % % : : , , , 4 4 q 4 q q z v v v v v v v v v v v v v z q q q q 4 4 4 , 4 , , : , : % % % % @ @ @ o o X X X X   X X X X X X X X X o o o o o o o o o o o o o X X X X X X X X X X X o o o % o % % # % % # % : : , , , 3 , 3 4 4 4 4 z q q z v v v v v v v v v v v v z q w 4 4 4 4 3 , , , : : % # o o o o o     X o o @ # & > 1 2 7 s g g k A ^ A S A h h h d g i 6 7 ; 5 ; 5 5 5 6 d d d g g h g g g s s s a 0 0 0 z g c c v ( ( ( _ { { | | | +.:.:.} :.+.:. .+.+. .`  . . . . .%.&. .%.&.&.&.&.&.&.6.&.6.6.3.6.6.8.6.6.i.p.i.p.p.p.p.p.p.p.p.p.p.p.p.p.i.i.i.6.6.6.6.;.;.;.;.=.=.=.=.*.Q *.Q ! R E R I E Y T #.Y Y Y o.o.P ] ] ] / S S b h g g 4 7 2 = & $ # o X X o o o # o % # % % : % , : , 3 , 3 4 4 q q w w z v v v v v v v v v v v v z q q q 4 4 4 3 3 , , , , : : % % % # # o o o o o   X X     X X X X X X X X X o o o o o o o o o o o o o o X X X X X X o # @ % @ % % # % % # % # % % % , : , , , 4 4 4 4 q 4 q q z z v v v v v v v v v v v v z q q q 4 4 4 4 , , : , % % @ @ o o X X     o   X o o @ @ @ @ @ + ",
"@ @ @ o # o o X o   X   X X o o o o % % % : , , , 4 4 4 4 q q q z v v v v v v v v v v v v z q q q 4 4 4 4 , 4 , , : , : % % % @ @ @ o o X X   X X   X X X X X X o o o o o o o o o + o o o o o o o o o o X X X X X X X o o X % o % o % # # # % % % : : : , , 3 3 3 3 4 q 4 q z q v v v v v v v v v v v v z z q q q 4 4 3 , 3 : , : % % # # o o         o o @ # & = = 2 7 a g g k b S S A A A h f g d 6 i 5 5 5 ; 5 ; 5 5 d i d g f g g g s g s a 8 9 0 0 0 g x c ^ ^ ( ( _ _ | { | } :.} +.:.+.:.+.:.+. . . . . .` ` %. . .%. .&.&.&.&.&.6.&.6.3.;.6.6.6.6.6.i.i.i.p.i.p.p.p.p.p.p.p.p.p.p.p.i.i.i.6.6.6.6.;.;.;.=.=.=.=.=.=.Q *.Q Q E R R I R E T T T Y Y o.P Y ] ] ] ] / S b A h g a 7 7 , * * # # X # o o o o o # @ % : % % : : : , , 3 4 4 4 q w q z v v v v v v v v v v v v z q q q 4 q 4 3 3 , , 3 : , : % # % # # o o o o X X X X     X X X X X o o o X + o o o o + o o o o + o o o o o X X X X X o o # o % % % % # # % o % % % % % , : , , , 4 , 4 4 q q q q z v v v v v v v v v v v v v q q q q 4 4 , 3 , , : : % % @ @ o o X       X X o o o @ @ @ @ @ ",
"@ @ @ o o o o X X   X   X X X o o % % % : : , , 4 , q 4 q q q z v v v v v v v v v v v v v q z q 4 q 4 4 , 4 , , : , % % % % @ # @ @ X X X X X   X X X X X X X o o o o + o # + # o # # # + # + # o # o o o o o o X X X o o # o % o % @ @ % # # @ % % : : , : , 3 3 3 4 4 4 q q z q v v v v v v v v v v v v z w w 4 q 4 3 4 , , : : : % # o o o o       o o @ # # * 1 1 7 7 s g k k A S b A h h h d g i i 5 ; ; ; ; 5 5 5 6 d d d g d g g g s s s 9 0 7 9 0 g z h c ^ ^ ( ( { { | { | } :.} +.:.+.+.+...+. .+. .[  .O.` %. .&.O.&.&.&.;.&.&.6.-.6.5.6.6.6.6.6.6.i.i.i.p.i.p.p.i.p.p.p.p.p.p.p.i.i.i.6.6.6.;.6.;.;.;.=.=.=.=.Q =.Q *.Q R R R R Y R Y T T Y o.Y o.] o.] ] S / S b h h a a 7 2 , * $ # o @ X X o o # o # @ % % % % % , , 3 , 3 4 q 4 q w z v v v v v v v v v v v v z q z q 4 q 3 3 3 3 , , : , % % % % # o # o o o   o       X X X X X X + o o o # o + # + o # # # + # o + # o o + o X X X X o o # # @ % # % % # # % o % % % % : , , , , , 4 4 4 4 q q q q z v v v v v v v v v v v v z z q q q 4 4 , , , : : : % % o o o X X     o   X X o o @ @ @ @ ",
"o o o o o X X X   X     X o o X % % % % : , , 4 , 4 3 q q q q z v v v v v v v v v v v v q z q 4 q 4 4 , 4 4 : , , % % % # % # @ o o X X X   X X X X X o o o o + o + # + # # # # & # & # & # # # $ + # + # + o o X o o o o o o o o % X % @ @ o % @ % % : % , , , , 3 3 3 q 4 q q q v v v v v v v v v v v v v z w q q 4 q , 3 , , , : % # # o o o         o o @ # & * 1 2 7 s g g k S b A A A h h h a d 6 7 5 5 ; ; ; 5 5 6 u i d g g d g g s s s 7 7 9 8 0 w 0 h c v ( ( ( _ { { | } | } :.+.+.:.+...+. .+. . . .O.` O. .&.O.&.O.&.&.&.&.;.&.;.&.6.6.-.6.6.6.i.i.i.i.i.i.p.i.p.p.p.p.p.p.p.i.i.i.i.6.6.6.6.;.;.;.;.=.=.=.Q *.*.Q ! R R R R R R Y T T T o.Y Y ] o.] ] ] ] S S A h g g a 7 , = * $ # # X X o o o o o # % % % % % , : , , 3 4 4 4 4 w w z v v v v v v v v v v v v z z q 4 q 4 3 3 3 , , , , : % % % # o # o o o   o       X X X X X o o o o # + + # # # # & # & # & # & # # + # o + o o X X o o # o % @ % % # # % o % o % % % % % : , , , 4 , 4 4 4 q q q z v v v v v v v v v v v v v q q q 4 4 4 4 3 , , : : % @ @ @ o o   X       X X o o o o o o ",
"o o o o o X X     X   X X X o % o % % : : , , , 4 4 q 4 q q z v v v v v v v v v v v v v q q q q 4 4 , 4 , , , : : % % # % o @ o X X X   X X X X X X o o o + # + $ # $ $ & * & & * * * * & * & & $ $ $ $ + # o o # o o o # o # o % o % o # @ @ o @ % % % % : , , , 3 3 3 4 q 4 q z q z v v v v v v v v v v v z w w 4 4 4 4 3 , , : : : % # # o o o     X o o @ # & * > 2 7 s s k g ^ S A A A A f g d i i 6 ; ; ; ; ; ; 5 5 i d i d g g g s s s a 0 9 7 9 8 0 g z h c ^ ^ ( ( _ { | | } | } :.+.+.:.+.+.+. . . . . .O. .%. .&.%.&.&.%.&.;.&.;.3.;.;.6.6.6.6.6.i.i.i.i.i.i.p.p.p.i.p.p.i.p.p.p.i.i.6.6.6.;.6.;.;.;.;.=.=.=.=.*.Q *.Q E R R Y R I R T T o.T o.Y o.] ] ] ] S S b A h g a 7 2 2 * * # o o @ X X o o # # o % % % % , : 3 , , 4 4 4 q q w z v v v v v v v v v v v v z q q q q 4 4 3 3 , , , : : % % % o # o o o o       X   X X X + X # + + # # # $ & & & & & > * & * * & & & & & # & o o o o o o o o % @ % # % % # # # # o o % % % % % , : , , 4 4 4 4 q 4 q q z v v v v v v v v v v v v v q q q 4 4 4 , 3 , , % : % % o o o o       o   X X o o o o o ",
"o o o X X X   X     X X o o o o % % : : , , 4 , 4 4 4 q q z v v v v v v v v v v v v z q z q 4 4 4 4 4 3 , : , : % % % % @ o @ X X X   X X X X o o o o + + $ + $ & $ * * * * * = > = , = , = * > = * * $ $ # + # o o o # o # o % o # o # @ @ o @ @ # @ % % % , : , , 3 3 4 3 q 4 q q z v v v v v v v v v v v v z q q q 4 4 3 , , , , % % % o # o o         o @ # # & - 1 2 7 s s k k S b A A h h g g d i 7 5 ; ; ; ; ; 5 5 6 i d d g g s g s s p 9 7 7 7 9 0 w g z c ^ ^ ( ( _ { _ } } } :.+.} :.+.+...+. .+. . . . .%. .%.%. .&.%.&.%.&.;.&.;.;.3.6.6.;.6.i.i.i.i.i.i.i.i.i.i.p.i.p.p.i.p.i.i.i.i.6.6.6.;.;.;.;.=.=.=.=.=.Q *.! E R E R R R R Y T o.T Y Y P o.] ] ] ] / / A A g g i 7 2 , * $ # # @ X o o X # o o % % % % : : : , , 3 4 4 4 9 w w z v v v v v v v v v v v z q q q 4 4 4 3 3 , , , , : % % # # # o o   o X X     X X X X + X + + + $ $ & & * * * = * * = , = , = , * * = * * # # # o o o o o # o % @ % # % # # % o % o o % o % % % , , , , , 4 4 4 q q q q z v v v v v v v v v v v v q q q q 4 4 4 , , : , : % @ @ @ o X o         X X X   o o o ",
"o o   X X       X   X X X o % o % % : : , , , 4 4 4 q q q q v v v v v v v v v v v v z q q 4 q 4 3 3 , , , , % % % % # o @ o X X X   X X X X X o o + + $ $ $ $ * * = , = , , 2 , 2 , 2 , 2 , 2 = , - = * $ $ $ # # # # # # # # o # # o o o o o o o @ # # % % % , : 3 , 3 3 4 4 q 4 z q z v v v v v v v v v v v v w w 4 q 4 3 4 , , : , % % # o o o o     X o o @ # & * 1 2 7 s g g k A S b A h h h d a d 7 5 ; ; = ; ; ; 5 5 6 i d d g g s s s s 7 9 7 9 9 8 0 0 h z ~ ^ ( ( ( _ | | } | } :.+.+.} :.+. .+. .o. .O. . .O. .%.%.&.&.&.;.&.&.;.&.6.;.;.6.6.;.i.i.;.i.i.i.i.i.i.i.p.p.i.p.p.p.i.i.i.6.6.6.6.6.;.;.;.=.=.=.=.Q =.Q ! ! R R R R I E R P T o.Y o.] P o.] ] / S b b h g g i 7 2 * * $ # o o X X o o o # # @ % : % : , , , , 4 4 4 q q w z v v v v v v v v v v v v q z q 4 q 3 3 3 3 , , , % % % % o # o o o o       X X   @ X @ + # $ $ $ & * * = , , , , 2 , 2 , 2 , 2 , 2 , , = , & & + o + X o @ @ # # % # % # % @ # # o # o o % % % % % : , , , , 4 4 4 4 q q q z v v v v v v v v v v v v q z 4 4 4 4 4 , , : : : % @ @ o o X X     o     X X X   o ",
"    X X     X     X X X o o o % % % : , , , 4 4 4 q q z q v v v v v v v v v v v v z q q 4 q 4 4 3 3 , , : : % % % % @ o o X X X   X X X o o o + $ + $ $ * * = , = , , 2 2 2 2 7 7 7 2 7 7 7 7 7 2 1 , * * $ & # & # & # # # # # # o # o o o X X o o o # # % % % , : , , 3 3 4 4 q 4 z q v v v v v v v v v v v v z w q q 4 q , 3 , , : : % # # o o o         o @ # & & - 1 7 p s g k k A A A A h h g d i 7 5 ; ; ; ; = ; 5 5 i u i g d g s s s s 9 7 2 9 - 9 8 g z x c ^ ^ ( ( _ { _ } } | +.} +.:.+.+.+. .+. . . . .O.O.&.O.&.%.&.%.&.%.;.&.;.-.;.6.;.6.i.;.i.i.6.6.i.i.i.i.i.i.i.p.p.p.p.i.i.6.i.6.6.6.;.;.;.;.=.=.=.Q =.*.! ! E R R E R E I Y #.T Y Y P #.] ] ] { S S S h h g g 4 7 , = & $ # o X o X o o o @ @ % % % : : : , , 3 4 4 9 4 w w v v v v v v v v v v v v z z q 4 q 4 4 3 3 , , , % % % % o # o o o         X X   + X @ + $ & $ & * , = , , , 2 2 2 2 a 2 7 2 7 2 7 2 2 2 , = * & # # o # o @ @ # % # : # % % % # # o o o o % o % % % , % , , 4 , 4 4 q 4 q q z v v v v v v v v v v v v q q q q 4 4 3 3 , , : : % % @ @ o o             X X   o   ",
"o     X       X X X X o o % o % % : : , , 4 , 4 q 4 q q z v v v v v v v v v v v z z q q 4 4 4 3 3 , , , : % % % # o @ o o X   X X X X X o + + + $ $ * * = 1 1 1 2 7 7 7 a i 7 a i 7 a 7 4 i i i 1 2 1 - = > * & & & & & & & # & # # o # o o X X X X o o # @ % % % , , , , 3 3 4 4 q q q z v v v v v v v v v v v v w w 4 4 4 4 3 , , : : : % # o o o o       o o # # * * 1 2 7 s g k b S b A A h h d g i 6 7 ; ; = ; ; ; ; 5 5 i d i g d s s s a 7 9 7 2 7 9 9 0 0 h x ^ ^ ( ( _ _ | { } } +.:.} +.+. .+.+. .+. .o.@. .O. .%.O.&.%.&.%.;.&.;.&.;.;.-.6.;.6.i.;.i.i.6.i.i.i.i.i.i.i.i.p.i.p.i.i.i.6.6.6.;.6.;.;.;.=.=.=.*.Q *.Q ! R E R R I R E Y T o.Y Y Y ] o.] ] / ] S b A h g a 7 2 , * * # o o o X o o o # # @ % : % : : 3 , , 4 4 4 q q w z v v v v v v v v v v v z q q q 4 4 4 3 3 , , : , % % % o # o o     o   X X X X + @ + # $ & & , = = 1 1 7 2 7 7 7 7 a 7 a a a a a a a i 7 2 , * * & # + o # @ @ # & % # : # % # # # # X o o o % o % % % , , : , 4 , 4 4 q q q q z v v v v v v v v v v v v q z 4 4 4 4 , , , : : % % @ @ o o o         o   X X   o ",
"  X             X X o o o o % % % : , , , , 4 4 4 q q q v v v v v v v v v v v v z q q 4 q 4 3 3 , , , : : % % % @ o o X X X X X X o o o # + $ $ & * , - 1 1 1 7 i a a a a a g a g g g g g s a a 7 7 2 1 1 = * = > * : * > & & : # # # o o o X X X X o o o % % % : : : , , 3 3 3 4 q 4 z q z v v v v v v v v v v v z q q q 4 4 , 4 , , : % % % o o o   X   o   @ @ # # > - 1 7 s g g k k S b h h h h d i i 7 ; ; ; = - ; ; 5 5 i i d p g p s s p 9 7 2 2 9 - 9 8 g z c v ^ ^ ( ( _ _ } } } } } :.+.:.+.+. .+. .O. . .O.&.O.O.&.%.%.=.&.%.;.&.;.;.-.6.;.6.;.i.i.i.6.6.i.i.i.i.i.i.i.i.i.p.i.i.i.6.6.6.6.6.;.;.;.=.=.=.*.=.*.*.Q Q E R R R R E Y T T Y Y o.] o.] ] ] ] S S b h g g a 2 ; , * $ o # X X o o X # o @ % % % % : , : , 3 4 4 4 9 w w v v v v v v v v v v v v z q q 4 q 4 3 , 3 , : , % % % o # o o o o X   X X X X + @ + $ & & : = - 1 2 1 7 7 7 a a a g a g g g g g g a g a 7 7 , 2 * & & # # @ # # # # # : # % % % % # o # o o o o o % % % % % , , , 4 4 4 q 4 q q q v v v v v v v v v v v v q q q q 4 4 3 3 , , : % % @ @ @ o o   o       X X       ",
"    X       X X X X o o % o % % : : , , 4 4 4 4 q q q z v v v v v v v v v v v z z q q 4 4 3 3 3 , , : : % % # o # o X X X X X X X o o # + $ $ * = , - 1 7 7 i i a s s g g g g g g g g k g g a a a 4 7 1 1 1 = , = , = , * , & & : # # # o o X X X X X o o o o % % % : , , , 3 3 4 4 4 q z q v v v v v v v v v v v v w w 9 q 3 4 , , , , : % # # o o o       o . @ # & & > 2 7 7 g g k A S A A h h g d d i 5 7 ; = ; = - ; ; 5 7 6 i d s g p s a 7 9 7 2 4 7 9 9 0 0 h c ~ ^ ( ( _ { { } } } } +.+.+.+.+.+. .+. .O. .O. .%.@.%.%.&.%.=.&.%.;.-.;.;.;.-.6.6.;.i.;.i.6.i.i.i.i.i.i.i.i.i.i.i.i.i.i.6.6.;.6.;.;.;.=.=.=.=.Q =.Q *.R R R R I E I E Y Y T o.Y o.] o.] ] / S b A h g a a 7 , * * $ # o o X X o o o % @ % % : , : : 4 , 3 4 4 q q w z v v v v v v v v v v v z q z 4 q 3 3 3 3 , : , % % % o # o o o       X X X X + @ # $ & & , = 1 1 2 i i i s g g g g g g g g g g h g h g a a a 2 , = * & # # + # # # & : : : & : : # # @ o o X o o o o % % % % , : , , , 4 4 q 4 q q z v v v v v v v v v v v v q q 4 q 4 4 , , , , % % % @ @ o o o             X     ",
"          X X X X o o o o % % % : : , , , , 4 q q q q v v v v v v v v v v v z z q q 4 q 4 3 3 , , , : % % o % @ o X X X X X X o o + + + $ & = , - 1 1 7 i s s s g g g g k g k k k k k g g g g s a a 7 7 2 1 2 , 2 , 2 , , * , > & & # o # X X X X     o o X % o # % : : , , , 3 3 3 q 4 q q z v v v v v v v v v v v z w w 4 q 4 3 4 , : : % % # # o o X       o o @ # & = 1 2 i s s k k b A A A h h g i i 7 ; ; - - - - - ; 5 5 i p p s p s a p 9 7 2 4 - 9 3 7 9 g z c c ^ ^ ( ( _ { { } } +.} +.+.+.+. .o. .+. .O. .O.&.%.%.&.%.%.&.%.;.%.;.-.;.-.6.;.;.i.;.6.6.i.i.;.i.i.i.i.i.i.i.i.i.i.i.6.i.6.6.;.;.;.;.=.=.=.=.=.Q *.Q E R E R R R E Y T T o.Y Y P o.] ] ] S S S A g g a 7 2 , = $ $ o o X X o o o # o % % % : : : , , , 4 4 4 4 w z z v v v v v v v v v v v q z 4 q 4 4 3 3 , , , % % % % # o o o o     X X X X + # # & $ = = 1 2 2 i i s s s g g g g g k g k A g A x h h g g g 7 7 2 , * * & # # # # # : & : & : : # % % # # o o X o X # o % % % % , : , 4 , 4 4 q q q q z v v v v v v v v v v v q z q 4 4 3 3 3 , : , % % @ @ o o o           X       ",
"    X     X X X X o o o % o % : : , , 4 4 4 4 4 q z z v v v v v v v v v v v z q z 4 q 3 4 3 , , , : % % # % o o o X X X X X X o o # # $ * * = 1 1 i i i s s g g g k k k k k k b A A k k k g g f a a i 7 7 7 2 7 2 2 2 2 2 , , = > & & # o # X X X X     o o o % % # % : : , , 3 3 4 4 q q q q v v v v v v v v v v v z z q 4 4 4 3 , , , : : % # o # o   X   X o o @ # & * 1 1 7 s g g ^ k S A h h h d g i 7 5 ; = = = = - ; ; 5 7 i p p s s s a 7 9 2 2 3 - 9 9 7 0 g z c ^ ^ ( ( _ { } } } } +.} +.+.+.+.+.+. .O. .O.O.O. .%.%.%.&.%.;.%.;.%.;.;.;.;.6.;.;.i.;.6.6.i.i.i.i.6.i.i.i.i.i.i.i.i.i.6.i.;.6.;.;.;.;.=.=.Q =.*.Q *.R R R I R E I E Y Y T o.o.] P ] ] ] S S b b h g a 7 2 = * $ # # o X X X o o o # @ % : % : : , , 4 3 4 q q w w v v v v v v v v v v v z q q q 4 4 3 3 , , : , % % % o # o   o     X X X O + # # & & = > 2 2 2 i s s s g g g k k g S b b b b S b S A h h g a a 7 2 2 , * & & # # # # & : & > : : : & # # @ o o X X X o o o % % % : , , , 4 , q 4 4 q q z v v v v v v v v v v v z q q q 4 4 4 , 3 : : % % % @ @ o o o o               ",
"  X     X X X X X o o X % % % : : , , , , 4 q q q q z v v v v v v v v v v v q z q 4 4 4 3 3 , , : : % % % o o o X X X X X o o o + # $ & , - 1 2 i i a g g g g k k k A k S ^ ^ G A A A A A g k g g a g 7 i 7 i 4 7 4 7 4 2 2 2 , * > & & # o o X X X   o   o o o X % % % : , , , 3 3 4 4 4 q z z v v v v v v v v v v v w w q q 3 3 4 , , , : % # # o o o         o @ # & * = 2 7 s s k g S b A A h h g d i i ; ; ; = = = = ; ; 5 7 6 i p s a s p 9 7 4 2 2 3 - 9 9 0 w g c b b ( ( ( { { ] } } } +.} +.+. .+. .o. .O.@.O.@.%.O.&.%.%.%.*.-.*.;.-.;.-.;.;.;.i.;.6.6.i.;.i.i.6.i.i.i.i.i.i.i.6.i.6.i.;.6.;.;.;.;.=.=.=.=.=.Q ! R R R R R E I R Y Y T Y Y P o.] ] ] / / S b h h a a 7 2 , & $ # o X X X o o X # @ % % % : : , , 4 , 4 q 4 w w z v v v v v v v v v v v q z q 4 4 4 3 3 , , , % % % o # o   o     X X X X + # # $ & = 1 2 2 2 s s s g g g k k k k S b S S S S S S S b b h h g g a 7 2 = > & & & # # & # : : : : : : % % % # # o X X X o X % o % % % , , , , 4 , 4 q q q q z v v v v v v v v v v z z q 4 4 4 3 3 , , , % % % @ @ @ o o   X X     X     ",
"      X   X X o o o o % o % % : : , , 4 4 4 4 q q z v v v v v v v v v v v z q q 4 q 4 3 3 , , , : % % # o # o o   X X X X o # # # & * , = 1 7 7 i s g g g k k A A A ^ G ^ G / ^ S ^ A A A k g g g f a g 7 a a a a a a 4 a 7 2 , , = & : # # o o X X X     o   o % @ % % % : , , 3 3 3 4 q q q q v v v v v v v v v v v z w q 4 q 3 , 4 , : , % % # o o o o     X o o # # & > 1 2 p s g k k S A A h h g d i i 5 2 = - = = = - ; ; 5 7 i i p s a a a 7 2 4 2 < 4 - 0 9 0 z g c ^ ^ ( ( ( { } } [ } } +.+.} o. .+.+.O. .%.@.O.O.%.%.%.%.*.&.%.=.%.;.-.;.;.;.6.;.i.;.6.6.i.i.i.i.i.i.i.i.i.i.i.i.6.i.6.6.;.6.;.;.=.=.=.=.=.Q =.Q *.R R R R U R Y E Y Y Y o.Y ] o.] ] ] b S b h g g 7 2 , = * # # o o X X o o # o % % % : : , : 4 , 4 4 4 q w w v v v v v v v v v v v z q q 4 q 3 3 3 , , : : : % o % o o o     X X X O + @ # & = = 1 1 7 7 s s g g g k k k A ^ S S S / / / / S / S S b A g h a i 7 7 , = * & & # & & : & : > > : > & : # # o @ X X X X o o % % % % % : , 4 , 4 4 4 q q q z v v v v v v v v v v v z z q 4 q 3 3 , , , % % % % o @ o o o   X X     X   ",
"  X X   X X X X o X % o # % : : , , , 4 4 4 q q q z v v v v v v v v v v v z q q q 4 4 3 , , , : % % # # # o X   X X X X o o # # & * = = 1 7 i s g s g g k A A A ^ / / / / / / / / S S A A k k k g g g i g a a a a a a a a 4 7 2 2 , > & # + # X + X X       o o o @ @ % % : , , , 3 3 4 4 4 q z z v v v v v v v v v v z w q q 4 4 4 3 , , : % % % # o o   X       @ O # & = 1 2 7 s g g b S b A A h g g i 7 7 ; ; = = = = = ; ; 5 7 i i i s a s 7 9 4 2 < 4 - 3 3 0 0 0 x c b ^ ( ( _ { { { } } +.} +.+.+.+. .O. .@. .O.O.&.%.%.%.%.&.%.=.%.;.*.;.;.-.;.;.;.;.6.6.i.i.;.i.i.i.i.i.i.i.i.i.6.i.i.6.6.6.;.;.;.;.=.=.=.Q =.Q *.R R E R R R Y E Y Y Y Y Y ] o.] ] ] S S S h h g a 7 7 = * $ # # o X X o o o o # @ : % : : : , , 3 4 4 q w w z v v v v v v v v v v v q z 4 q 4 4 3 , , : , % % % % o o o   o   X X O O # # & & = 1 1 7 i p s g g h k A A ^ / / / / ] / / / ] ] / S S S A h g g g 7 2 2 , * & & # & # & & > * : > : > : % % # @ o X X X o o o o % % % , : , , 4 4 4 4 q q q z v v v v v v v v v v z q q q 4 4 3 3 3 : , % % % @ @ o o o o X   X X     ",
"    X   X X o o o # o # % % : : , , 4 , 4 4 q q q v v v v v v v v v v v z q q q 4 4 3 3 3 , , : % % # o o o o   X X X X # o # & & = , 2 7 i p s g k k k A A / / / / / ] / ] / / / / S S A C A k f g g g d g d g g g a a g 4 a i 2 , = * & # + # o X X X X     o o o @ % % : : , , 3 3 4 4 q 4 q q v v v v v v v v v v v z w q q 3 4 , 3 , : , % # # o o o X     o o @ # # * - 2 7 s s k k k S A h h h d g i 7 ; = = = = & - - ; ; 5 7 i i p a a 7 7 2 2 2 < 2 < 9 - 0 z g x c b ^ ( ( _ { } { } } +.} +.+.+.o. .O.o.O.@.%.O.%.%.%.%.*.*.%.;.%.;.*.;.;.;.;.6.;.6.6.;.i.i.i.i.;.i.i.i.i.i.i.i.6.i.6.;.6.;.;.;.=.;.=.! =.Q *.Q ! R R R I E E I E Y o.Y o.P o.] ] ] S S b A h a a 7 2 , * $ # o o o X X o o # # @ % : % : 3 , 4 , 4 4 4 w w z v v v v v v v v v v z q q q 4 4 3 3 , , , % : % @ @ o o       X X X O # # & & > 1 2 7 7 s g g g k A A A / / / / / ] / ] ] ] ] ] / / / S A k A g a g 7 2 ; , * & & # & & : & , * > , : : & # # o @ X X X X o o % % % % : , : , , 4 4 4 q q q z v v v v v v v v v v v z q 4 4 4 4 3 , , % , % % % o @ o o o X X X X X   ",
"  X X X X o o o o o o # % % : : : 4 , 4 4 q q q z v v v v v v v v v v v z z q 4 4 4 3 3 , , : : % # # # o X X X X X X # o # & * = , 1 7 i s s g g k k ^ ^ / / / / ] ] ] ] ] ] ] / L S S S A k k k j g f g g g d g g g g a g a 4 7 2 2 > * & $ + @ @ X X     o   X @ @ @ % % : : , , 3 3 4 4 q q z z v v v v v v v v v v z q w 4 4 4 4 , , , : % % # o o o   X     o O # & * 1 1 7 a g g g S b A A h g h i i 7 ; ; = = = = = = - ; 7 7 i i a s 7 9 4 2 4 < 2 < 3 - 9 0 9 g g c ^ ^ ( ( _ { _ } } } } o.+.} +. .o. .@.@.O.O.%.O.%.%.*.%.%.*.%.;.%.;.*.;.;.;.;.;.6.;.i.;.i.;.i.i.i.i.i.i.i.6.i.i.6.6.6.6.;.;.;.;.=.=.=.=.Q *.Q Q E R R R R I E Y Y T Y P o.] ] ] { S S A h g g i 7 , = * $ # o X X X o o o o @ % % % % , : 3 , 3 4 q q w w v v v v v v v v v v v q z q 4 4 4 3 3 , , : : % @ % o o o o   X X X O + # # & = 1 2 7 i s s g h k A A ^ / / / / ] ] ] ] G o.] ] ] ] / / S b S g h g a 7 7 , = * & & & # & & , * > , : , & : % % # o o X   X o o o o % % % : , , 4 , 4 q 4 q q q v v v v v v v v v v v z q q q 4 4 3 , , , : % % o % @ o o o X X X X     ",
"o   X X X o o o # o % # % % : , , , 4 4 4 4 q z q v v v v v v v v v v z q q q q 4 3 3 , , : : % % # o o o X     X X o o # & & * = 2 7 i s s g k k A ^ G S / ] ] ] ] ] ] ] ] ] ] ] / S L A S Z A k k d k f g g k g g g g g a a a 4 7 , = * * $ $ + @ + X X X   o   o @ @ % % % , : , 3 3 4 4 4 z q z v v v v v v v v v v v z q q 4 4 4 3 , : : : % # o o o X       o o @ # & * 2 2 p s g k k S b A A h d g i 6 7 ; = = & - & - - ; ; 7 7 i i a a a 7 4 2 3 < < 3 3 3 ; 0 w z h c ^ ^ ( ( { ] { } } } } +.+.o.+. .@.o.@.O.@.O.%.%.%.%.*.%.=.%.=.=.-.;.*.;.;.;.;.;.6.6.i.;.i.i.i.i.i.i.i.i.i.6.i.i.6.;.6.;.;.;.=.=.=.=.! =.Q *.R R R R U Y R Y E Y P Y o.] o.] ] S S S b h g a a 2 ; > & $ o # X X X o o # # @ % : % , : , , 4 3 4 4 q w z v v v v v v v v v v z z q 4 q 3 3 3 , , , % % % @ @ @ X       o X O O # & & = > 2 2 p s g g h k A A / / / ] ] ] ] ] o.L o.] P ] o.] ] / / S k k g f a i 7 2 , = & & & & & & : , > * , > , # : # # o X X X   X o o # o % % % : , , 4 , 4 q q q q z v v v v v v v v v v z z q 4 4 4 3 3 , , % : % % o @ @ o o o o X X X   ",
"  X X o o o o o o # o % % : : , , , 4 4 4 q q q v v v v v v v v v v v z q z 4 4 4 3 , , , : : % # # o o X X   X X o o # # & * , , 2 i a s g k k A ^ / / / ] / ] ] ] [ [ ] [ ] ] L G L S L S A C A j k j k g k k g k g A g g g a a 7 2 2 * * * $ $ + @ o X X       X @ @ @ % : % , , , 3 3 4 q 4 q z z v v v v v v v v v v w w q 4 4 4 , , , , : % # % o o X X     o @ @ # & = 1 2 7 s g k b S A b h h g g i i 2 ; = = = & = = = ; ; 7 7 i a a 7 a 4 7 2 < < < < < - 9 9 0 g g c ^ ^ ( ( _ { } { [ } +.` o.+. .o.+.O.@.O.O.%.%.%.O.*.W %.%.*.*.-.=.*.;.;.;.;.;.6.;.6.;.i.i.;.i.;.i.i.i.i.6.i.i.i.;.6.;.6.;.;.;.=.=.=.*.Q *.Q E R R R R R Y E Y Y o.Y P o.] ] ] ] S b A h g i 7 7 , * & # # o X X o o o o o % % % : : : 4 , 3 4 4 q w w v v v v v v v v v v z z q q q 4 4 3 3 , , : : % % @ o o   o   X X X O # # # = 1 2 2 i s s g h A A ^ / / / ] ] ] [ ] P ] o.P o.] P ] ] ] / / S S k A g g i 7 2 ; * * & & # & & > * > , , , * , : % @ # @ o     X o o o o % % % , : , , 4 4 4 4 q z q v v v v v v v v v v v q q q 4 4 4 , 3 , : : % % % @ @ o o o X o X   o ",
"o   o X o o o o o % # % % % , , , 4 , 4 4 q q q v v v v v v v v v v v q z 4 q 4 3 3 3 , , : % % # # o o X   X X X o o # & * * 2 2 7 i g g g k A ^ G / / ] / o.] L o.] [ P L L P L L L S S Z S A C A j k k j k k k k k g g h g g a 4 7 , 2 * * & & $ + + X X     o   o @ @ % % : : , , 3 3 4 4 q q q z v v v v v v v v v v z w q q 3 4 3 , , : : : # # o o o   X     o @ # & * 1 2 7 s g g A A S k h h h d a i 5 , ; = = & - & = - ; 5 2 7 i a a a 7 4 2 2 < < < < 3 3 9 0 0 z h b ^ ^ ( ( { { } } } } o.} +.+.+.o.@.O.@.O.O.O.%.%.%.*.%.*.%.=.*.-.;.*.;.;.;.;.;.6.6.6.;.i.i.i.i.i.;.i.i.i.6.i.6.6.6.;.;.;.;.=.=.=.! =.Q *.R R R E I E I R Y Y Y Y o.P o.] ] / / S S b h a g 7 2 , * $ + o o o X X o o # # @ % : : : 3 : 4 3 3 q 4 w w z v v v v v v v v v v z q q 4 4 4 3 , , , % % % @ @ @ X X     X X O + # & & = 1 2 7 s s h h A A A / / / ] ] ] [ [ o.[ o.P P P o.] ] o.] G / / A A g A d a i 2 , = * * & & & & & > > > > , , * & : # o o X X X   X o o % o % % % , , , , 4 4 q 4 q z z v v v v v v v v v v z q q q 4 3 3 , , , % % % % o @ @ o o X X o X   ",
"X X X o o o o o # o # % % , : : 4 , 4 4 q q q z v v v v v v v v v v z z q q 4 4 3 3 , , : : % # # o o o   X X X o o # # * * , 2 7 i g g g k A ^ / / / ] ] o.] L o.[ [ P P P P L L L L L Z S S Z A C A C C A C A C A k k A h g g a a 7 7 - , = & & & # @ X X o     X X @ @ @ % % , % , , 3 4 4 4 q q z v v v v v v v v v v z q z 4 9 4 4 , , , : % % # o o X X     o X O # & & - 1 7 s s k g S b A A h g g d i 7 5 = = & - + = = = ; - 7 7 4 7 s 7 4 2 4 < 3 * < < < - 9 7 w g x c ^ ^ ( / _ _ { } [ } } +. .o.+.o.+.O.O.O.O.*.O.%.W %.*.%.=.%.*.*.*.;.*.;.=.;.;.6.;.;.i.;.i.;.i.i.i.i.i.6.i.i.6.6.;.6.;.;.=.;.=.=.=.*.*.Q *.R E R R I R Y E Y T Y P o.] ] ] ] S S b h g g i 7 , = * # # # o X X o o o o @ % % % : : : 4 , 3 4 q q w z v v v v v v v v v v z q z 4 4 4 3 , 3 , : : % % @ @ o o       X X O # # & = 1 2 2 p s g h h A ^ / / ] ] ] [ [ P [ [ P Y P o.P P o.P ] ] ] / / S k S g g i i 2 2 = = & & # & & > * > > , = , * , : % % @ X o     X o o o o % % : % , , 4 , 4 4 q q q z v v v v v v v v v v z q q 4 4 4 4 , , : , % % # % @ @ @ X @ X X o o ",
"o o X o o o o # # # % % % : , , , 4 4 4 4 q z z v v v v v v v v v v z q q 4 q 4 3 3 , , : : % % o o o o     X X o # # & & , 2 2 i a g g k k ^ G / / ] ] ] L o.P o.[ [ P P P P P L D L L L Z S Z C Z A A C A A A A A A k k g h g g a a 2 2 , = , & & & + @ X X       X X @ # @ % : , , , 3 3 4 q 4 z q z v v v v v v v v v v z q q 4 4 4 3 , , : : % # o o o X   X   o @ @ & * > 2 7 7 g g k b S S A h h g i i i ; ; = = & = & = = - 5 ; 7 7 a 4 7 a 2 2 < < < * < < 3 3 9 8 0 c c c ^ ( ( _ ) { { } [ +.} o.+.o.+.O.+.O.O.%.O.*.O.%.! %.%.! *.*.-.=.*.;.;.;.;.;.;.6.6.;.i.i.i.;.i.i.i.i.i.6.i.i.6.6.;.;.;.;.=.=.=.=.Q =.Q Q Q R R U E R Y Y Y o.Y o.P o.] ] ] S S b h g g i 7 2 > * $ # o o o X X o o # @ % % : : , , , 4 4 4 4 q w z v v v v v v v v v v z q q q 4 4 3 3 : , : : % @ @ @ X X     o X O + # & & 1 2 2 i s g h h A ^ S ] / ] ] [ [ [ o.P Y o.Y Y Y o.P ] o.] ] ] / / G k k f g d i 7 2 = * * & & # & & , > , = , , , * : & # o o X X   X   o o % o % % , , , , 4 4 4 4 q q z v v v v v v v v v v v z q q 3 4 3 3 , , % : % % % o @ @ o o o X X o ",
"o X o o o o # o o # % % : : , , , 4 4 4 q q q v v v v v v v v v v v z q q q 4 3 3 , , , : % % o # o X X   X X o o # # & = , 2 7 7 g g k k ^ / / / ] ] ] P o.P o.[ Y P P P P P P J P L L Z L Z S Z A Z C A Z S S S A A S k A h g g a a 7 7 2 , - > & & # @ o X o     X @ o o % % : : , , 3 3 4 4 4 q z z v v v v v v v v v v w w q 4 4 4 , , , : : % # % o o X X     o X # # & = 1 2 s s g k k S b A h h g g i 7 ; ; = & = + = & = - - 1 7 i 2 s 4 7 9 2 2 < < * < < < - 9 9 g w x b ^ ^ ( ( _ { } { } } o.} +.o.$.o.O.@.O.O.#.%.%.%.%.W *.%.*.*.*.*.;.=.;.=.;.;.6.;.;.i.;.i.;.i.;.i.i.i.6.i.i.6.6.;.6.;.;.=.;.=.=.Q =.Q *.R R R R U R Y R Y Y T Y P o.] ] ] S ] b A h g g 4 7 1 = $ $ # o o X X o o o # @ % % % : : , 3 , 4 4 q w z z v v v v v v v v v z z q q 4 4 3 3 , , , : % % @ @ o X     X X O O # # & = 1 2 7 s g g h h ^ / / / ] ] [ [ [ P P o.Y Y Y Y o.Y P #.] o.] ] G / S S k A g g a 7 2 ; = * & & & & & & > * , , , , , & : # % @ o X     X X o o % % % : : , , , 4 4 q q q q v v v v v v v v v v v q q 4 q 4 4 , 3 : , : : % o % @ o @ X o o o o ",
"o o X @ o o o # # # % % : : , , 4 , 4 q q q q v v v v v v v v v v v q q q 4 4 3 3 , , : : % # # o o o     X X o o # & * , 2 2 a g g g k A S / / ] ] ] o.L o.P o.P P Y P Y P P K P J L D L Z L Z Z Z A Z Z S S Z S S A S A k A h g g 7 a i 2 2 , = > & # + + X X       X @ @ @ % % : : 3 , 3 3 4 q q q w v v v v v v v v v v z w q q 3 4 4 , , , : % # o # o X X     o o @ # & > 1 2 7 s g k b A S A A g h d a i ; 2 = = & = + = & = - 5 2 7 i 2 a 4 2 4 < 2 > > * > < 3 3 9 0 g x c b ^ ( ( _ ) { [ } } } o.} +.o.+.#.O.O.O.O.O.W %.W *.W *.*.#.*.*.*.;.=.;.=.;.;.6.;.;.i.;.i.i.i.i.;.i.i.i.i.6.;.6.;.;.;.;.=.=.=.=.Q *.Q *.R R R R I E Y E Y P Y o.] o.] ] / S S b h g a a 2 , = & # o o o X X X o # o % % : : , , , 3 3 4 q 4 w w v v v v v v v v v v z q z 4 q 4 3 3 , , % : % % @ o o X X     o X @ # & & 1 2 2 p s g h A A / / / ] ] [ [ [ o.Y o.Y Y Y Y Y Y o.P P P P ] ] ] G S S k k f g d 7 2 , = * & & & # & & , > , , , , , , & : @ o X o X   X   o o o % % % : , , , 4 4 4 q q q z v v v v v v v v v v z q q 4 4 4 3 , 3 : : % % % o % @ o @ o o o o ",
"o X @ o o # o # o % % : : : , , , 4 q 4 q q z v v v v v v v v v v z q z 4 4 4 3 3 , , : % % % o o o     X X o X # # & , , 2 a a g g k k S / / ] ] ] o.P o.P o.P P Y P Y P P K P K P K J J D Z D Z S Z D S S Z S S S G A S A A h g g g i 4 7 2 2 1 - & & # @ X o     X X o o # @ % % , : , 3 4 4 4 q q z v v v v v v v v v v z z q 4 9 4 , 3 , : : % # % o o X X       @ @ # & = 1 2 7 s g g k S S b h A g g d i 7 ; = = = + = & & = - 1 2 2 4 a 2 a 4 2 4 < > * * > < < - 9 0 0 g c b ^ ^ ( / { { { } } [ +.+.o.+.#.+.O.O.#.O.*.%.W *.O.*.#.*.*.*.*.=.=.;.=.;.;.;.;.;.i.;.i.;.i.;.i.i.i.i.;.i.i.6.6.;.;.;.;.=.=.=.Q *.*.Q ! R R R Y R I E Y Y T o.P o.] ] ] / S b A h g a 7 2 = * & # # @ X X o o o o # @ % % : : : , , 4 3 4 9 w w v v v v v v v v v v z z q 4 4 3 3 3 , , : : % @ @ @ X X     X X O + # & = 1 2 7 s g h h A ^ / / ] ] [ [ P P P o.Y Y Y Y Y Y Y Y Y o.P ] P ] ] / G A S A g f i 7 7 ; = * & & # & & > & > , , , , , : , # % # o X X     X o X % o % % , : , 4 , 4 4 q q q z v v v v v v v v v v z z q q 4 3 3 3 : , % : % # % o @ @ @ X o o o ",
"o o X o o o # % # # % : : , , , 4 , 4 q q q z v v v v v v v v v v z q q q 4 4 3 , , : : % % o # o X X   X X o # # & * = , 7 a a g g A S ^ / / ] [ ] [ P o.Y Y Y Y Y Y P I K Y K P K J J D D D Z Z D Z S D Z L S L S S G A A j A h g g g i 7 7 1 1 1 = & # + X X X     X X @ @ % % : , , 3 , 3 4 q 4 z w z v v v v v v v v v v w w q 4 4 4 , , , : : % % X o o X X     o @ # # * - 2 7 s g k k S b S A h h g a i 7 ; ; & & = + = = = = - 7 2 7 4 a 2 2 2 1 < < * * * > < 3 4 9 0 z g b ^ ^ / ( _ ] { [ } } [ +.+.o.+.#.+.#.O.#.O.W %.T *.W *.*.! *.*.-.=.=.=.=.;.;.;.6.;.;.i.;.i.i.;.i.i.i.i.i.;.6.;.6.;.;.=.=.=.=.=.Q Q *.Q R E R U R Y E Y Y o.Y o.] o.] ] / S b h h g a 7 2 , * $ + o o o X X o o # o % % : % , , , 4 4 4 q q w z v v v v v v v v v v z q q q 4 4 3 , 3 % : % % @ o o X X     o o @ # & & 1 1 7 i s g k A A / / ] ] [ [ [ o.Y Y Y Y Y E Y E Y Y Y o.P Y o.] P ] G / S A j k g d i 7 2 = = & & & # & & , , * , , , , , : : # @ # X X X     X o o % o % : , , , 4 , 4 q 4 q z v v v v v v v v v v z q q 4 q 4 3 , , : , % % % # % o @ o @ o o o ",
"o o o o # o # o # % % : : : , 4 , 4 q q q q z v v v v v v v v v v q z q 4 4 3 3 , , , : % # % o o o   X X o o o # & * , 2 7 a g g k k ^ / / ] [ ] P P o.P Y Y Y Y Y I Y Y Y K I K K K K D D D D D Z D Z Z L S D S L G A G S A A h g g a a a 7 7 2 1 > & & # @ o o     X X o @ @ % % % , : 3 3 4 4 4 q w z v v v v v v v v v v w w 4 9 4 3 3 , , : : % o % o X X     o X O + & * > 2 7 s g g k b S S A h h h d i 7 2 = = = + = + & & = - 1 2 2 2 a 2 9 4 4 < < * % * * < < - 9 9 s x x b ^ ( ( ) { { { } [ } +.o.+.#.+.#.#.#.#.%.O.%.*.W *.! #.*.*.*.*.=.=.=.;.;.;.;.;.;.i.;.i.i.;.i.i.i.;.i.6.i.6.6.;.;.;.;.=.=.=.Q =.*.Q E R R R R Y R Y Y Y T P P o.] ] ] S S A A g g a 7 , = * $ # # o X X o o o o % @ % % : : , 4 , 4 4 4 q z z v v v v v v v v v v q z q 4 4 3 , 3 : , : % % @ @ X X     X X O + # & = - 2 i s g g h A ^ / / ] ] [ [ P P o.Y Y E I Y E Y Y Y Y Y Y P P P ] ] G G S S A k f g i 7 2 = * * & + & # & : * > , , , , , : : % % o o X X   X X o o o % % % : , , , 4 4 q q q q v v v v v v v v v v z z q q 4 4 3 3 , , : : % % % o % @ @ @ o o o ",
"o o @ @ o # o % # % % : : , , , 4 4 4 4 q z z v v v v v v v v v v z q 4 q 4 3 3 , , : : % # o o o   X   X X o # # & , 2 2 a a g g A S S / ] ] ] [ o.P Y o.Y Y Y Y Y Y I I Y I P K K K K D K D D D D Z J L D L L L S L S S S A k A f g g g 7 a 7 2 2 - = # # + X X       X o @ # % % : : 3 , 3 4 4 q q w z v v v v v v v v v v w z q 4 4 4 , , , : : % % o o o X       o @ # & * = 1 7 p s k k A S b b A g h i a i ; = = = & + = & & = = - 2 2 a 2 4 2 2 1 < < > * * % * < 4 4 7 0 x x c ^ ^ ( ( ] { { [ } [ } o.+.o.#.o.#.o.#.E *.T %.W *.*.! *.E *.*.=.=.=.=.;.;.;.;.6.;.i.;.i.i.;.i.i.i.i.i.;.i.;.6.;.;.=.;.=.=.=.Q Q *.R R R R I R Y R Y Y P o.P ] ] ] / / S b h h a a 7 2 * * & # o o o X X o o # @ % % % , : , , 4 4 4 q q w z v v v v v v v v v v z q 4 q 4 3 3 , , % : % @ @ o o   X     o O # # & > 1 7 7 s g k k A / / ] ] [ [ [ o.Y Y Y Y Y E Y Y E Y Y Y Y Y o.P P ] P L G S A A j g d a i 2 ; * * & & + & # & , > > , , , , , : % @ # o X X     X X o % % % % , : , , 4 4 4 q q q z v v v v v v v v v v w w 4 4 4 4 , 3 , : : : % % # o @ @ @ o o o ",
"o o @ o o o % # # % : : : , , , 4 4 4 q z q v v v v v v v v v v z q q q 4 4 3 3 , , : % % # # o o X     X o o # & * = , 7 a g g k A ^ / / ] ] L o.P P o.Y Y Y Y I Y I I Y I I K I K K K K D K D D D D D J D L D L L G G S S S S A h h g a g i i 7 1 1 > & & @ X o     X X o o @ @ % % , : 3 , 4 4 4 q w w v v v v v v v v v v z q q 9 4 4 3 , , : : % o % o X X     o X O # # * 1 2 2 a g g k b S S A A A g g d 7 2 ; - & & = + + = & = , 2 2 2 4 a 2 4 4 < < > % % * * < < 2 9 0 g x b b ^ ( / ( { ] { } } o.+.o.o.+.#.o.#.#.#.T %.O.*.T ! E *.*.*.*.*.=.=.=.;.;.;.;.;.;.i.;.i.;.i.;.i.i.;.i.6.6.6.;.;.;.;.=.=.=.Q *.*.Q R ! I R R Y R Y Y o.T P o.o.] ] ] S S A h g g i 7 , , * # $ o o X X X o # o @ % % : : : , , 3 4 4 q w w z v v v v v v v v v z q q q 4 4 3 3 , , % % % % @ o X X     X X @ + # > - 2 2 s s h h A ^ / ] ] ] [ [ Y P Y Y Y Y E Y R E I E Y Y Y o.P P P P ] ] / G S A k g g d 7 5 , = * & + & # & & : * > , , , , , : : % # o o X   X X X o o o % % : : , 4 , 4 4 q q q z v v v v v v v v v z z q q q 4 3 3 3 : , : % % # % o % o o o o o ",
"o @ @ o # # o # % % % : , , , 3 4 4 4 q q q v v v v v v v v v v z z q 4 q 4 3 , , , : : % # o o o     X X X # # & > , 2 7 a g h b A S / / ] ] o.[ o.Y Y Y Y Y Y Y I Y I I I I I K I K K K K D D K D K D J J L L D L L G G S S k j A h h g a a a i 7 1 = & # + @ X o     X X @ @ % % : , , : 4 4 4 4 q q w v v v v v v v v v v z z q 4 4 4 3 , , : : % % o @ o X X     o o @ # & = 1 7 7 g g k b S S b A g h g i i 7 ; = = & & & & + = = = 1 1 2 7 4 2 2 3 1 > > > & % * * 3 < 9 7 0 g x b ^ ^ ( ( ] { ] } [ } o.+.o.o.o.#.#.o.#.#.T *.T *.E *.E *.! *.=.*.=.=.;.=.;.;.;.;.;.;.i.i.;.i.i.i.i.i.i.;.6.;.;.;.=.;.=.! =.! Q *.R R R R I R Y E Y Y Y P P ] o./ ] S S b h g a a 2 2 * & $ o # X o X o o o # @ % % % : , , 4 3 4 q 3 w w v v v v v v v v v v z z q 4 4 4 3 , , : , % @ @ @ o o   X   o o O & & & 1 2 7 s g g ^ A S / / ] [ [ [ o.Y Y Y Y E I U Y E Y Y E Y Y Y Y o.P ] ] ] G / S A A j f a i 7 ; , * & & + & # & : > , , , , , : : : % # o o X X   X X o o % % % : , , , 4 4 4 4 q q z v v v v v v v v v v q q q 4 4 4 3 , 3 : : : % % # # o % X % o o ",
"@ @ o # o o # # % % : : : , , , 4 4 q q q z v v v v v v v v v v z q q q 4 3 3 3 , : : % # # o o   X   X X # o # & = , 7 a a g h g S / / ] ] [ [ [ Y o.Y Y Y I Y R Y I I I Y K I I I P K K K D K D D D D J J J D P L L L S G S S A A h g g g g a i 7 1 1 & & # @ o     X   o o @ @ % : % : 3 3 , 4 q 4 w z v v v v v v v v v v z q q 9 4 4 3 , , , : % % @ o X X X   o X O O & & > 1 2 s s g k k S S S A A h g d i 7 2 = & = & + + = + * = - 2 2 4 4 2 4 2 < < > % * % * * * < 2 9 9 x x b ^ ^ ^ / { { { [ } } +.[ $.+.#.o.#.#.#.E #.T *.E *.E ! *.*.! *.=.=.=.=.;.;.;.;.;.;.i.;.;.i.i.i.;.i.i.i.;.6.6.;.;.;.=.=.=.=.Q *.Q E R E R R Y R Y Y T P o.] o.] ] S ] b A h g g a 7 = > & # # o X o X X o o o @ % % : : , , , 3 4 3 q w z v v v v v v v v v v z q q q 4 3 3 3 , , : % % # o o X X     X X # # & = 1 2 a s g h h A / / ] ] [ [ Y P Y Y E Y R Y R E I Y E Y Y Y Y P Y P P ] ] G G S S j k g d i 7 2 = = & * + # # & & > : , , , , , , : % % o o X   X X X X # o % % : : , , , 4 3 q q q q v v v v v v v v v v z z 4 q 4 3 3 3 : , : : % # % o % o @ o o @ ",
"o o @ @ # # o % # % : : , , , 4 , 4 4 q q z v v v v v v v v v v z z 4 4 4 4 3 , , , % % # # o o X X   o X o # & & = , 2 a a b h A b / / ] [ [ o.P Y Y Y Y Y E Y I I I R Y I R Y I K I K Y K K K K K K K K K P J J L L L L S A G k A A f g g g a a 7 2 1 = # # + X o     X X o o # % % , , : 4 3 4 4 q q w z v v v v v v v v v z z q 4 9 4 3 , , : : % % % o o X X     o o # # & = 1 7 a s g k ^ S S ^ b k g h d i 7 ; 2 = + & & & + = & = , 1 2 2 2 4 2 4 < < > % % & % * * 3 4 4 8 0 h c b ^ ( ( / { ] { [ } [ $.[ o.o.#.o.#.#.#.E #.T ! E *.E ! *.*.! =.*.=.=.=.;.;.;.;.i.;.i.;.i.;.i.i.i.i.;.i.;.;.;.;.=.=.=.=.=.Q *.R R R R I E R Y E Y Y o.P #.] ] ] / S S b h g a a 2 , = & $ + o o X o X o # # % @ : % , : 4 3 3 9 9 9 w w v v v v v v v v v v w w q 4 4 4 3 , : : % : @ @ @ o     X   o o @ # * > 2 2 p s g k A S / ] ] ] [ o.P o.Y Y Y U Y U E I E E Y E Y o.Y o.P P P o.] ] G S A A j g f i 7 ; = * * + & + # # & : , , > , , , : : : % # X o     X X X o o % % % , , , 4 , q 4 q q z v v v v v v v v v v z z q 4 4 4 3 3 , : : : % % # % o % X @ o @ ",
"o @ @ o # o # # % : % , : , , , 4 4 q q q z v v v v v v v v v v z q q q 4 3 3 , , : : % % o o X       X o o # # & , , a a g g h A S / ] ] ] [ [ Y o.Y Y Y Y Y I I R Y I U I Y I Y Y Y Y K P K K K K K K K K K P P K L L G G G S A S h A h g g g a i 2 - > & # + @     X X   o @ @ % : % % 3 , , 4 q 4 q w z v v v v v v v v v z q z 9 4 4 4 , , , : % % @ @ X X X     X O O # * * 1 2 7 g g g A ^ S S S A A g g i 7 7 - & = & & + & + * * = 1 2 1 4 2 4 < 3 > > > % % % % * < < 2 9 s w g b b ^ / ( / { ] } [ } o.o.$.#.o.#.o.#.E #.E E #.! E *.! *.! *.*.=.=.=.;.=.;.;.;.;.;.;.i.;.i.;.6.i.;.i.i.;.6.;.;.;.=.=.=.! =.Q *.E R R U R Y R Y Y P T P ] o.] ] ] S S h h g a 7 2 2 * * + # # o o X o o o o @ % % : : , , , 4 3 9 q w w v v v v v v v v v v w z 4 q 4 3 3 , , , % % % @ o o   X   o X @ + & * - 1 7 i g g k A ^ / / ] [ [ [ Y Y Y E Y Y U R I R E I E Y E Y Y Y o.o.P ] ] ] G G S A k g g i i 2 2 = & * # # # # & & , : , , , , , : % % o # X X X   X o X % o % : % , , , 4 4 4 q z q v v v v v v v v v v z q q q 4 3 3 , , % , % % # % o % o % o @ o ",
"@ o @ # o % # # # % : : , , , 4 4 4 4 q q z v v v v v v v v v v q q q 4 4 4 3 , , : : % # # o o X     X o o # & , = 2 7 a g h b A S / / ] [ o.P P Y Y Y Y E I E Y I R I Y U Y Y E Y Y Y Y K I P K K K K K K K K K L L P L S G A S k A k h g g g s a 2 1 = & # # X o     X X o o # @ % , , : 4 3 3 4 q q q z v v v v v v v v v v w q 4 q 4 3 , , : : % % @ @ o X X     o o # # & > - 2 7 s g k k S / S b b k g g d i 2 2 = * & + & + & & * = > 1 2 2 4 2 4 < < > : % % $ % * * < 2 9 0 g x b b ^ ^ { / { { [ } [ } o.o.o.#.#.#.Y #.E #.E E E ! ! *.! *.! ! *.=.=.=.;.=.;.;.;.;.i.;.i.;.i.i.6.i.;.i.;.;.;.;.=.;.=.! =.Q Q Q ! R I R U E Y R Y Y P o.P ] ] ] / S b A h g a 7 2 , * * # # X o o X X @ @ # # @ : % : , , 3 4 4 9 q w z v v v v v v v v v v w q q 4 4 3 3 , : % , @ @ @ o X X   X   o @ # # * 1 2 7 s s h k A / / ] ] [ [ [ o.Y Y Y E E I R U Y R Y E Y Y E o.Y Y P o.P ] ] L / S A k f f d 7 2 = = * + & + # # # & : , , , , , : , : % # o o X   X X X o o % % % , % , , 4 4 q 4 q z z v v v v v v v v v z z 4 q 4 4 3 3 , , % , % % # # o % X @ o @ ",
"o @ @ o # o # # % % : : : , 3 , 4 4 q q q z v v v v v v v v v v q z 4 q 4 3 , 3 : , % % % o o X X     o X @ # & * , 2 a a g g A b S / ] ] [ [ P o.Y Y Y R Y E I I R I Y R Y Y E Y o.E Y Y Y P I K K I K I K K K P P K L L G G G S A S A g A g g a i 7 1 > & # @ o   X   X   o @ @ % : % : , , 3 4 4 4 q z z v v v v v v v v v v q z 9 4 4 4 3 , , : % % @ @ o X X     X O O # & = 1 2 7 s g k k ^ S S S k A A g a 7 7 ; - & & & + + + $ & = 1 1 1 4 2 4 < 3 > > : % $ $ $ % > > 4 2 9 s g x b ^ / ^ { / ] { ] o.o.} o.o.#.o.o.#.E #.E E E ! ! E ! ! ! *.*.=.=.=.=.=.;.;.;.;.i.;.;.;.i.i.;.i.i.i.i.;.i.;.;.;.=.=.=.=.Q *.*.R R R R E I E Y Y Y o.P P o.] / / S S A g g g 7 2 2 * & $ o # o o X o o o o @ % % : : , , 3 3 4 4 q z z v v v v v v v v v v q z 4 q 4 3 3 , , , % % # @ o o       o o O # & : - 2 7 s g h k A / / ] ] [ o.P Y Y Y Y E I E I R R R E Y Y E o.Y Y o.o.P ] o.] / G S S k k g i i 7 2 = * * + # + # # & : , : , , , , : : % % o o X X   X X X % o % % % , , 4 , 4 4 q q q v v v v v v v v v v z q z 4 4 4 4 , , : , : % # % # % o % o # o ",
"@ o @ @ # # # % % % : : , , , 4 4 4 4 z q z v v v v v v v v v v q z 4 4 4 4 3 , , : : % o # X X X   X X o o # & * , 2 7 a g b h S S / ] ] [ P Y Y o.Y Y Y I Y R I I R U Y E E o.E #.o.o.#.Y Y Y I P K I K I K P K K P L L L G S S S k A A g g g g i 2 2 = = # @ + o         o o @ % % : , , , 3 4 4 q q w z v v v v v v v v v v z q q 4 4 , , , , : : % % @ X X X     o o # # * * 1 7 7 s g g ^ S S / S S x g g g i 7 1 - = & + & + + $ & * > 1 1 1 4 1 4 < 3 > : % $ $ $ $ % < < 4 9 8 w h b b ^ / ( { ] { [ } o.o.o.o.o.#.E o.#.E E #.E E E ! ! ! ! ! =.*.! =.=.;.=.;.;.;.;.i.;.i.;.i.i.;.i.i.;.i.;.;.;.=.;.=.=.! =.Q Q E R R I R E I E Y Y Y o.P ] ] ] / S b A h g a 7 2 , = * # # o o o X X o @ # # % % % , , , 3 4 4 9 q q z v v v v v v v v v v z q q 4 4 3 , , , % % : @ @ o X X   X   o @ # & = 1 2 7 s g h k / S / ] ] [ [ o.Y Y Y E Y U U U R I E R E Y Y E o.Y Y o.o.P ] ] ] / G k A k f g i 7 2 = * & $ + # + # # : : , , , , : , : % % o o X X X   X o o % % % : , , , 4 4 4 4 q q z v v v v v v v v v z q q q 4 4 3 3 , , % : : % # # o % o @ o @ ",
"o @ o # # o # # % % : : , , , , 4 4 q q q z v v v v v v v v v v z q q 4 4 3 3 , , : % # % # o X X   X o o o # & * , 2 a g a h A S / / ] ] [ o.P o.Y Y Y E Y R Y I R U Y E E o.E #.o.#.#.Y o.E Y I I I I K I K I K P P J L L G G S S A A k A g g s i 7 2 1 & & # @   X     o o o @ % % % : : 3 , 4 4 4 q w z v v v v v v v v v v q z 4 4 4 4 3 , , : % % @ @ o X       X O O # # = 1 2 7 s g k k ^ S / S b A k g d i 7 7 - & & & + + $ + & : = > 1 1 2 4 < 3 > > > $ $ $ $ $ % * > 2 7 9 g s b b ^ / ( / { ] } ] o.o.o.o.o.#.o.#.#.E #.E E E ! ! ! ! ! =.Q =.=.=.=.=.=.;.;.;.;.=.i.;.i.;.i.6.i.;.i.i.;.;.;.;.=.=.! =.*.Q *.R R R R E I E Y Y Y P P ] o.] ] / S A b g g a i 2 , = $ # # o o X X X o o @ @ % % : : , , 3 3 4 9 q z z v v v v v v v v v v w z 4 4 4 3 3 , , % : @ % o o o   X     @ @ # * * 1 2 7 s g h A A / / ] ] [ [ Y P Y E Y I E U R I R I R Y E E Y Y o.o.P o.] o.] ] / G S A k g d i 7 ; 1 * * + & o # # # : : : , , , , , : % % % o X X   X X o o o % % % , , 4 , 4 4 q q z v v v v v v v v v v z q z 4 4 4 3 , 3 : , : % % % # % o % o o @ ",
"@ o @ @ # # # % % % : : , , 3 4 4 4 4 q q v v v v v v v v v v v q q 4 q 4 4 , , , : : % o o o o X   X X o # # & , , 2 a a b h A b / / ] ] [ [ o.Y Y Y Y I E I E R I E U Y E E #.#.#.#.$.#.o.Y Y Y I Y I I K I K Y K P P L L L G S S S k A g k g s s 2 2 = : # # @ o         o o @ @ : : , , , 3 4 4 q q q z v v v v v v v v v v z q q 4 4 3 , , , : : % % o o X X     o o @ # & & 1 2 7 s g k k S S / S ^ b A g g d 7 2 - = & & + + + # + & > > 1 1 3 3 3 3 3 > : : $ @ % % $ : > < 4 7 0 x g b ^ ^ / ( / { ] } o.o.o.o.o.o.#.E o.! E E E E E E ! ! ! ! *.Q =.=.=.=.=.;.;.;.;.i.;.i.;.i.;.i.6.i.;.i.;.;.;.;.=.=.=.! =.Q Q Q R R I R E I E Y Y Y o.P ] ] ] / / S h h g a 4 2 2 * $ $ + @ o o X X @ o # @ % % % , , , 3 4 4 9 q w z v v v v v v v v v v w w q 4 4 3 , , : , % % @ @ o X X     X o @ # & > 1 7 7 s g h ^ A S ] ] [ [ P o.Y Y Y U E I U U R R R Y E Y Y E o.Y o.Y o.o.] o.G / / S k k j g i i 2 - * * $ + # o # # # : , : , , , : : : % o # X X   X X o o % % % : , , , 4 4 4 q q q z v v v v v v v v v v z q q 4 4 3 3 , , : : : % # # o % o % o o ",
"o @ o # # o # # % % : : , , , , 4 q 4 q z v v v v v v v v v v v q z q 4 4 3 , 3 : , % # # # o X X   X o @ o # & * 2 2 a a g h b S S / ] [ [ P P o.Y Y E Y I R I I I R Y E Y E #.#.#.$.#.#.o.E Y Y I I I I I I I K P K L P L L / G S S S k A g g g p 7 1 > = & @ @   X     X X @ o % % % % , , , 4 4 4 q z z v v v v v v v v v v q z 4 9 4 3 3 , , : % % @ @ o o     o X O O # # = 2 2 i s g g k ^ / / S S S g k g i 7 5 1 = = & + + + + $ & & > 1 1 1 1 3 3 > > : : $ % @ @ $ % * < 2 9 a g x g b ^ / / { ] { o.] } o.o.o.#.o.o.E o.E E E E E ! E ! ! Q *.=.! =.=.=.=.=.;.;.;.;.;.;.i.;.i.6.6.i.i.;.;.i.;.=.;.=.=.=.Q Q *.R R R R R I E Y Y Y P P P o.] ] / S A A h g a 7 7 = > & $ @ o o o X X o o @ @ % % : : , 3 , 4 4 4 q w z v v v v v v v v v v q z 4 4 4 3 3 , , % % % @ o o o       o o # # & = 1 2 7 g g h k S / / ] ] P o.[ Y Y Y Y Y U I U R R I E E Y E o.E Y o.o.o.] o.] ] ] / S S A g g g 7 7 1 = = + # + + o @ % : : , : , , , : : % % o o X   X X X % o % % % , , , , 3 q 4 q q v v v v v v v v v v v q z 4 4 4 3 , , , : : % % % # % o % o o @ ",
"@ o @ # o % # % % % : : , , , 4 4 4 q q q z v v v v v v v v v v q q 4 q 4 4 , , , : : % # o o X X   X X o # # # , , 7 a a g h A b G / ] ] [ o.Y P Y Y Y E Y I U R I E U E E #.#.#.#.#.#.o.#.o.E Y Y U I I I I P I K P P L L L L / / S b S g k g s s 2 2 - : & # @ o   X     o o @ % % : , : 3 3 3 4 q q w z v v v v v v v v v v z q 9 4 4 3 , , , : : % % X o X X     o o @ + & & 1 2 7 s g k k S S / / S S k g g g i 7 - - & & + $ + + # $ & > > 1 3 3 3 > 3 > > % % @ # # # $ > > < 4 7 s x b b ^ ^ / ( ] ] } o.o.o.o.o.o.E #.#.E #.E E E E U ! E ! ! Q =.=.! =.=.=.;.;.=.;.;.i.;.;.i.;.i.i.6.6.i.;.;.;.;.=.=.=.! =.Q Q *.R R I R E I E Y Y Y o.] ] ] ] / S b A h g a 7 2 1 = $ + # + o X o X X @ @ # % % % , , , 4 3 4 9 q w z v v v v v v v v v v z w q 4 4 3 , , % , % @ % o o X X   X X o @ # & > 1 2 7 s g h A A S ] ] ] [ P Y Y Y Y E I E U U R I R E Y E Y E Y o.Y o.Y o.] ] ] ] / G ^ k k f a d 7 1 , * $ + # o # # @ % : , , : , , : : % % o o X X   X o o % % % % , , 4 4 4 4 q q q v v v v v v v v v v z q q q 4 4 3 3 , % , : % % % # o % o % o o ",
"o @ @ o # o # # % % : , : , 4 , 4 4 q q q z v v v v v v v v v v z q q 4 4 3 3 , , : % % o # o X   X X o o o # & * , 2 a a g h b S / / ] ] [ [ P o.Y Y Y Y R Y U I E I E E Y E #.E #.#.#.#.#.E Y I E I I I I I I K Y K P P L L / G S S S A k b g g i 7 1 1 & & # @   X     X o @ @ @ % % % , 3 , 4 4 4 q w z v v v v v v v v v v q z 9 4 4 4 3 , , : % % o % o o       X O O # & = 1 2 7 s g k k ^ / / / / b A k g d i 7 1 , = & + + + X + $ & & > 1 > 3 3 3 > , : : % # # # @ $ % > < 2 9 s s x h b ^ / ] / { ] } ] o.o.o.#.o.o.E Y E E E E E ! R ! ! Q =.! ! =.! =.=.=.=.;.;.;.;.;.i.;.i.;.6.6.i.;.i.;.;.;.=.=.! =.! =.Q Q R R U R I R Y Y Y P P P o.] ] / S S b g g a 7 2 1 = $ $ @ @ o o X X o o @ @ % % : : , , , 4 3 q q w z v v v v v v v v v v w w 4 q 4 3 3 , , : % % # o o o X   X   o @ # & = 1 2 7 s g h A ^ / / ] [ [ P o.Y Y E Y E U U I R R R I E E E Y o.E o.Y o.P P o.] ] / / S k k g g i 7 2 - & * + + # o X % # : : : , , , : : % % % X X X X X o o o % % % , , , , 4 3 q q q v v v v v v v v v v z q z 4 q 4 3 , , , : : % % # # % o @ @ @ o ",
"@ o @ @ # # # % % % : : , , , 4 4 4 4 q z q v v v v v v v v v v q z 4 4 4 4 , , , : : % # o o o X X   X o @ # & , = 2 7 a g b h b / / / [ [ [ o.Y Y Y E Y I E U I U R I R E Y E #.E o.#.E Y E E Y I I U I I I I Y P P K P L L L / G ^ S A k g g s s 2 2 > = # @ @ o       X o o @ % % % , , , 3 4 4 q q q z v v v v v v v v v v z q 4 q 4 , , , , : : % # o o X X     o o # # & > 1 2 7 s g g A S S / / / S b A g g a i 5 = & & $ + + + @ $ $ & > > 1 3 , > 3 , : : % # # o # $ $ : > 2 2 8 s x b b ^ ^ / { ] ] o.o.o.o.o.o.#.E o.#.Y E E E E U ! E ! ! Q =.Q =.=.=.=.=.=.;.;.;.;.i.;.i.;.i.i.6.6.i.;.;.;.;.;.=.=.=.! ! ! Q Q R R I R Y Y E Y Y o.P ] ] ] / / S g k g g 7 7 , = > $ # @ X o X X o @ @ @ % % % , , 3 3 4 4 4 q z z v v v v v v v v v v w w q 4 4 3 , , , % % % @ @ o X X     X o @ # # > - 2 7 s g h k A / / ] ] [ o.P Y Y Y Y U Y U U U U R E I Y E E Y Y o.Y o.o.] ] P ] / / S k k k d s 7 1 1 = $ $ + # o # o % % : : , : , , : : % o % X X X X o o % % % , : , 4 4 4 q 3 q z z v v v v v v v v v z z q 4 4 4 3 3 , , , % % % % # o % o @ o @ ",
"o @ o # # o # # % % : : , : 4 , 4 4 q q q z v v v v v v v v v v z q 4 q 4 4 3 , , : : % # o o X X   X o o o # & * , , a a g h h S S / ] ] [ [ P o.Y Y Y Y E I I U R I R Y U E E E E #.E Y E R Y U I U I I I I I I P K P L P L ] L / G A A k k g g 7 7 - > & # @ o X X   X X o o o % % , % , , 3 4 4 4 q z z v v v v v v v v v v q z 9 4 4 4 , 4 : : % # % o o o     X X O O # & = 1 2 i s g k A ^ / ] / / S b b g g d i 1 1 = & & + + X + @ # & : > , > 3 3 , : , : % % o # @ @ $ & > < 7 9 s g x h ^ / / ( ] ] ] } ] o.o.Y o.o.o.E E Y E E R E R ! Q Q *.Q =.=.! =.=.=.;.=.;.;.;.;.i.;.i.i.;.i.i.;.6.;.;.;.=.=.=.! =.! ! Q R R U U E I E Y Y Y P ] o.] ] / S b A k g a i 1 - , & $ # o o o X X X o @ @ % % : : , , , 4 3 q q q z v v v v v v v v v v w z 4 4 4 3 3 , , , % % % @ o o     X X o o # & & 1 2 7 s g h k ^ S ] ] ] [ [ Y o.Y Y E Y U U U U R R I R E Y Y E o.Y o.P P o.o.] ] ] / S S A g g a 7 7 - = * + # o o X # # % % , : , , : : % % % o o X X X X % o % % % , , , , 4 3 q q q v v v v v v v v v v z q q q 4 4 4 , , , % : % % # # % o % o # o ",
"@ o @ @ @ % o % % % : : , , , 4 , q 4 q q z v v v v v v v v v v q z q 4 4 4 , 3 : , % % # # o o X X X X o @ % # , = 2 7 a a b h b S / ] ] [ [ [ o.Y Y Y E Y E I E I R U R Y R E Y E E E E Y Y R Y R I U I I I Y P I P P P L L ] / / ^ G k b g g s s 2 1 = & # @ o X X     X o @ % @ % % , , 3 , 4 4 q q q z v v v v v v v v v z z w 9 9 4 , 4 : , : % % o # X o       X O # # & > - 2 i s g b k S / / / / S S x A g a i 7 - = $ + $ + + o @ # $ : : 3 , , 3 , , : : % # # o # o $ : > < 1 9 s s x b h ^ / / ] { o.] o.o.o.o.Y Y E o.E E Y E E U E Q ! ! Q *.Q ! =.! =.=.=.;.;.;.;.;.;.i.;.i.i.;.i.i.;.i.;.;.;.=.=.=.! ! ! ! Q R U R I E Y Y Y Y o.P ] o./ / S S b g g g i 7 1 = & & # + o o   X X X @ @ % % % , : , 4 4 4 4 q z q v v v v v v v v v v w w q 4 4 3 3 , , % : % @ @ o o X     X X # @ & > > 2 7 s s h k A ^ S ] ] [ [ o.P Y Y Y Y E I U U U R R Y R E Y Y E Y Y o.P P ] ] ] / / S A k k g d i 2 1 , & $ + + o o o % # % : , , % , % : % % o o o X o o o % % % , : , 4 4 3 q 4 q z z v v v v v v v v v z q q 4 q 3 3 , , , , % : % # % o # o o o @ ",
"o @ @ o # o % # % % : : : , , , 4 4 4 q q z v v v v v v v v v v z q q 4 4 3 4 , , : : % % o o X X X X X o # o & & , 2 4 a g g A k G / / ] ] [ o.P o.Y Y Y Y I E I U I R I R I E R Y E U Y E U Y U I U I I I Y I I Y P P P P ] S ] / G A ^ k h g s 7 2 1 1 : @ # o X     X o o o @ % % , : , , 3 4 q 4 q z z v v v v v v v v v z w q 9 4 4 4 , , , : % # % o o         X @ O # & = 1 2 i s g g A ^ / / ] / S b S g g d i 7 , = = & + @ X + @ @ % % , : > , , , , , % % % o # o @ @ % & > 2 2 a s g h b ^ / / ( ] { ] o.] o.o.o.#.o.E o.E E E R E R E Q Q *.Q Q =.! =.=.=.=.;.=.;.;.;.i.;.i.;.i.i.i.;.i.;.;.;.=.=.=.! =.! ! Q Q R R I R U Y E Y Y P P o.] ] / S S A k g s i 1 1 , = + $ @ o X o X X @ X % o % : % , 3 , 4 3 q q q z v v v v v v v v v v w w q 4 4 3 , 3 : , : : @ @ o o X     X o @ @ & & - 2 2 a g h k k / ] / ] [ [ [ Y Y Y Y E I E U U U R I R R I Y E Y Y o.Y P o.L o.] ] / G S k k g s i i 1 = * $ # o o X @ o % % : : : , , : : % % % o o X X o o % % % : , , , , q 4 q z q v v v v v v v v v v z z q q 4 3 3 , , , : : % # % o % o % o o @ ",
"o o @ @ @ # o % # % % : , , , 4 4 4 q 4 q z v v v v v v v v v v z z q 4 4 4 3 , , , : % # # o o X X X X X o % # : * 2 2 a a g x S ^ A ] / [ [ [ o.Y o.Y Y E Y I E I U I R U U I E E I E U I U U I U I U I I I Y Y Y P P P L [ ] S / S A A k g g s 7 2 - & & # @ o X X     X o @ @ % % : , , , 3 4 4 q w w z v v v v v v v v v z z q 9 4 4 3 , , : : % % o # X o     o X X # # & = 1 2 i s g k k S / ] / / / S b k g g i 7 7 , & & + + + X @ @ # % : , , , , , , : , % # # o o # @ @ : : < 2 7 s g x b A ^ / ] ( [ ] o.o.o.o.Y Y E o.E Y E E E R R R R Q Q Q =.Q =.! =.=.=.=.;.;.;.;.;.;.i.i.;.i.i.i.;.i.;.;.;.=.=.=.! ! ! ! Q Q R R I E Y Y Y Y o.P P ] ] ] / S b k g g a 7 1 , & $ $ X o o   X o o @ @ % % % , : , 4 , 4 4 q q w v v v v v v v v v v z w q q 4 4 3 , , % : % % o o o X     X X o % # : > 1 7 a s g h ^ A S ] ] ] [ [ Y o.Y Y Y E I E U U U U U Y E E Y Y Y Y o.P P o.] ] ] / / ^ A k g g i 7 1 - & & $ + o o X @ # % % , % , : , % : % % X o X o o % o % : , : , 4 4 3 q 4 q z v v v v v v v v v v z q q 4 4 4 3 3 , : , % % % # # o % o % o o ",
"# X @ o # o % o % % : : : , , , 4 4 4 q q z v v v v v v v v v v z q q q 4 4 3 3 , : : % # % o o X X X X o @ @ # & > , 2 a a g k k A / / ] ] [ [ [ o.Y Y Y Y Y E I E I U U I U U U I R I U U U I U I U I I U Y Y Y P P P P [ L / ] / S ^ k h h s p 2 2 > > # % o X X     X o o o % % : : , , 3 3 4 4 q w w v v v v v v v v v v z q q 4 4 4 4 , , , : % # % o o   o   X X O + # & = 1 7 i g g k b S / / ] / / S A b g g g i 1 = = & # @ X o @ o # % : : , , , , : , : % % o # o @ o $ # > > 2 4 a s x g A ^ ^ / ] / o.} ] o.Y o.o.o.E Y E E Y R E R R R Q Q =.Q =.! =.! =.=.=.;.=.;.;.;.i.;.;.i.i.i.;.i.;.;.;.=.;.=.! =.! ! Q Q R R I E I E Y Y Y P o.] o.] / / S b k g s a i 1 = = $ # @ o o X X X X @ X % % : : , , , 4 4 q 4 z w v v v v v v v v v v z q q 4 4 3 3 , , , : % @ % o o X     X X o @ # & = 1 2 7 s g h A A / / ] ] [ P o.[ Y Y E Y E I E I U U U E U Y Y E Y Y Y P o.o.] ] ] / S S A k k g a i 2 , = $ $ o o X o o % % % % , : , : : : % o % o X o o o % % : : , 4 , 3 4 4 q l z v v v v v v v v v v q z 4 q 4 3 3 , , , : % % % # # % o o o o @ ",
"o # o @ @ # # # % % % : , , , , 4 4 4 q q q v v v v v v v v v v z z q 4 q 3 3 , , , : : % o o o o X X X o o @ # % > = 2 7 a a g b A S / ] / [ [ [ [ o.Y Y Y E Y E I R I U U I U U U I U I U I U U I U I E Y I Y Y Y P [ [ ] ] ] / / / A b h g s p 7 1 = & # @ # X X     X o o @ @ % : : , , , 3 4 q 4 w w v v v v v v v v v v z z q 9 4 4 , , , : : % % o o o       X X O @ # & > 2 2 i s g k k S / ] ] / / / S g b g a i 7 , = & # + + X X @ @ # % : : : , , , : : : % # o o o o @ $ $ > < 7 7 s s b b A / / / ] ] [ o.o.o.P Y #.Y E Y E E R I E R R R Q Q ! ! ! ! =.=.=.=.=.;.;.;.6.;.i.i.;.i.;.i.;.i.;.;.;.=.=.=.! =.! Q Q Q R U U E Y E Y Y Y P [ ] ] ] / S b k g g a 7 2 1 & & $ @ o o X   X o o % o % % : , , 4 , 4 4 q q z z v v v v v v v v v z z q q 4 4 3 3 , : : : % @ @ o o X     X o o % & : - 2 7 s s h b A S / ] ] [ [ [ Y Y o.Y E Y E U U E U I U E U Y Y Y Y o.Y P P o.] ] / ] G b k g g g a 7 1 , & + # X o X o o % % % % , : , : % % % o o o o o % % % % , : , 4 4 q 3 q q z v v v v v v v v v v z q q 4 4 4 3 , , : : : % # % o o % o o # o ",
"o o @ @ o # o # # % % : : , , 4 , 4 q 4 q z z v v v v v v v v v v q q q 4 4 3 3 , , : % # # % o o X X X o o @ % & & , 2 2 i g g k A A / / ] ] [ [ o.P o.Y Y Y Y I E I U U I U I U I U I U I U U I U I U I I Y Y P Y [ [ [ [ ] ] / / A ^ h h s s 7 2 1 > & # # o X     X X o o @ % % : : , , 3 4 4 4 q w z v v v v v v v v v v q w q 4 4 4 4 , , : : % # % o o o     X O O # & : - 1 7 a g g k ^ S / / ] / / S b A k g g i 2 2 > & & @ o X o o o # % % : , , , : , : % % # o o X o @ # & * < 1 a a g g h ^ ^ / / { ] [ ] o.o.o.o.Y Y o.E Y R Y R R R R Q Q Q ! ! ! =.! =.=.=.=.;.;.;.;.;.i.;.i.i.i.i.i.;.i.;.;.=.=.! =.! ! ! Q R R U R I E Y Y Y P o.P o.] / / S S A g g i i 1 1 > & $ @ o o   X X o o X % % % , : , , 4 3 q 4 w w z v v v v v v v v v z q z 4 q 4 3 , , , : % % @ @ o X X     X o # @ # = > 2 7 7 g g h A A / / ] ] [ [ P o.Y Y Y Y E I E I U E U I Y E Y E Y Y Y P o.] [ ] ] / ^ S k k g s s 2 1 = & $ # o X o o o % % % , % : , % : % % % o o X % o % % , : , 4 3 4 3 q q l z v v v v v v v v v v q z 4 q 4 3 3 , , , : % % % o % % o o # o o ",
"o o o o @ @ # # % # % : : , , , 4 4 4 q q q v v v v v v v v v v v z q 4 q 3 3 3 , , : : % # o o o o X X o o o @ : : > - 7 4 g g g k ^ S / ] ] ] [ [ o.Y o.Y Y E Y U Y I U U I U U I U U I U U I U Y U Y Y Y Y Y Y [ Y [ [ ] ] / / / A A h g g s 2 2 1 & & # @ o X X   X X o o % @ : : , , , 3 4 4 q q q z v v v v v v v v v v z q q 9 4 3 , 4 : , % % % o o o       X X @ + # = > 2 2 p s k k k S / ] ] ] / / S b g g g a 7 1 - & # # + X X o o # # % % : , , , : : : % # o o o o o @ % & > 2 2 s s g b k A / / ] ] { [ o.[ o.Y o.Y E Y E Y R E R R R R Q Q Q ! =.! =.! =.=.=.;.=.;.;.6.;.i.;.i.i.i.;.i.;.;.;.;.=.=.! ! ! ! ! Q R R I R I E Y Y Y [ P ] [ ] / / b k b g g 7 7 = = & $ @ o o   X X X o % o % % : , : , 4 4 4 q q w z v v v v v v v v v v z w 4 4 4 4 3 , , : : % % o o o X       X o # # & > 1 2 7 s g h ^ A / / ] ] ] [ o.Y [ Y Y Y Y E I E I U U E U Y Y Y Y Y o.Y [ o.] ] ] / / A A k g s a 7 1 1 & & + o o X o o o % % : , : : , % % % % o o o o % % % : , , , 4 4 q 4 q z z v v v v v v v v v v q q q 4 4 3 3 , : , % : % % # o o % o o o o ",
"o o o @ @ @ o % # % % % , : , 4 , 4 q 4 q q z v v v v v v v v v v q q q q 3 4 3 3 , , % % # # o o X o X X o @ @ # : * , 1 i a s g k A A / / ] ] [ [ [ [ Y Y Y Y Y Y Y U U Y U E I U U I E U I E I U I Y E Y Y Y Y Y [ [ ] ] ] / / S ^ h h g s 7 7 1 & > # # o X X     X o o @ @ % % : : , 3 3 3 q 4 q z z v v v v v v v v v z w z 4 4 4 4 3 , , : : % o # o   o   X X X O # & : - 1 i s g g k A / / ] ] ] / S S k k g g s 7 2 , = & # o o o   o o # % % , : , : , : % % # o o X   o @ # & * 1 2 7 s g g h ^ / / / ] ] [ [ o.Y o.Y Y Y E Y R E I R R R R Q Q ! ! ! ! ! =.=.=.=.=.;.;.;.;.i.;.i.;.i.i.i.;.;.;.;.=.=.=.! =.! ! Q Q R U R I E Y Y Y o.Y P o.] ] / S S S g g a i 2 1 > & $ @ o o o   o X o o o % % % , , 4 , 4 4 4 q w z v v v v v v v v v v w w q q 4 3 3 , , : : : @ # o o X X   X X o # # : & - 2 7 a g g h A A / / ] ] [ [ [ Y o.Y Y E Y Y E U E U U Y E E Y Y o.Y o.[ [ [ ] ] / G ^ A k b g s i 2 1 & $ # o X   o X % o % % : : , : : % % % o # o o % % % , : 4 , 3 4 4 q q q v v v v v v v v v v z q z 4 4 4 3 , , 3 % : % % o % o % o o o o o ",
"o o o o o @ # o # % % % : , , , 4 4 4 q q q q v v v v v v v v v v v q q 4 q 3 3 , , : , % % # o o o X X o X o @ # # > > 1 2 s s g k k A / / ] / ] [ [ [ o.P Y Y Y Y E Y Y U I U E I I E I U E I E Y E Y Y Y Y Y P o.[ [ [ ] ] / / A A h g g p 7 2 1 = # % # o X X   X X o o # @ % : : , , 3 3 4 4 q q w v v v v v v v v v v z w w q 4 4 , 4 : , : % % # o o o       o X @ # & & 1 2 7 s s k k ^ S / ] ] ] ] / G S k k g p i 2 1 & & # + o   o o o # % % % : , , : , % % # o o o X X o @ # > > 1 7 s s h b A ^ S / ] ] [ [ [ o.Y o.Y E Y E Y E R I R R R R Q Q ! ! ! =.! =.=.=.=.;.;.;.;.6.;.i.i.;.i.i.i.;.;.;.;.=.=.! ! ! ! Q Q Q R U R I E Y Y Y [ o.P ] ] ] / S b k g g i 7 1 = & $ + + X X     o o o % # % : : , , 4 4 4 q 4 z w v v v v v v v v v v z w q 4 4 4 3 3 , : : % % @ @ o X X X     X o % # > > 2 2 p s g h b A S / ] ] ] [ [ [ Y o.Y Y Y E Y Y U Y U U Y I E Y Y Y [ Y [ [ [ ] ] / S A k g g s i 2 1 = $ $ + o X X o o % % % % : : , : : % % o o o % % % : : , , 4 4 4 q 4 l z v v v v v v v v v v z q q q 4 4 3 3 , : , % % # # # o o # o o o o ",
"o o o o o @ o # # # % % : : , , , 4 4 4 q q z v v v v v v v v v v z q q q 3 4 3 3 , , : : % # # o o o X X o o @ @ % % > = 1 2 i s g h ^ A S / ] ] ] [ [ P o.P Y Y Y Y Y E Y E Y U I E U U Y T E Y E Y Y Y Y Y P o.[ [ ] ] ] / / S ^ h h g s 7 2 1 = > % # o X o     X X o o @ % % : , , 3 3 3 4 4 q w w v v v v v v v v v v z w q 9 4 4 4 , , , : % # # # o       X X O + # & = 1 2 i s g k k S / / ] ] ] / / ^ A A g g s i 2 1 = & # @ X o     o o # % : : : , : : % % # # o     o . @ # & * 2 2 7 s g h h A / / ] ] ] [ [ P o.Y Y Y Y Y E I R U U U U R Q Q Q ! ! Q =.! =.=.=.=.;.;.;.;.i.;.i.i.i.i.;.i.;.;.=.=.=.=.! ! Q Q Q U R R I R Y Y Y Y Y P ] o.] / / S k k g g s 2 2 1 & & # @ X X     X X o o % % % , : 3 , 4 4 4 q w w v v v v v v v v v v z w q q 4 4 3 , , , : : % @ @ o o X     X X o @ # & & > 2 7 p s g h A ^ / / ] ] ] [ P o.[ Y Y Y Y Y E Y E Y U Y E Y Y Y Y Y o.[ [ ] ] / / S ^ k k g s i 7 1 > & $ o o X   X o o % % : % , : : : % % % o o % % % : , , , 3 3 q 4 q l z v v v v v v v v v v z z q 4 4 3 3 , , , : % % # % o % o o o o o o ",
"o o o o o o @ o % # % % : : , , 4 , 4 q q q q v v v v v v v v v v v q z q q , 4 3 , , : : % # o % o o X X X o o @ # # : , - 2 i p s g k b A S / ] ] ] [ [ [ o.Y o.Y Y Y Y E Y E Y E Y Y Y E Y Y Y Y Y Y Y o.P Y [ [ [ ] ] / ] S A A h g s s 7 2 > = # # # o X X     X o o @ @ % : : : , , 3 4 4 q q w z v v v v v v v v v v z q q 9 4 4 , , , , % % % o o o o     X X O @ # & = 1 2 i s g g S b / / ] [ ] ] / / ^ k k g g i 7 1 , & # + X X X   o o % % % : : : , : : % % o o o     X o # & & < 2 7 s s h h A S / / ] ] [ [ o.P o.Y Y E Y Y R I R U U R R U Q Q ! ! =.! =.=.=.=.;.=.;.;.6.;.i.;.i.i.;.i.;.;.;.;.=.=.=.! ! ! Q Q Q U R U I R Y Y Y Y o.P ] ] ] / G b k g g a 7 1 - > $ + o X X X     o o % o % % : , , , 4 4 q 4 z w z v v v v v v v v v v w w 4 4 4 3 3 , , : : % % @ o o X X     o X # # % = = 1 2 p s g g h A A / / ] ] ] [ [ [ o.P Y o.Y Y Y Y E Y E Y E Y Y Y o.P P [ [ ] ] / / A A h g s i 2 2 = & $ + X o X X o o % % % : : : : : : % % o % o % : , : , 4 3 4 4 q q q z v v v v v v v v v v q q q q 4 3 3 , , : : % % % o % X # o o o o o ",
"o   o o o o @ # o # % % : : , , , 4 4 4 q q q z v v v v v v v v v v z q q 3 q 3 3 3 , : : % % % o o o o X X o o @ @ # $ = , 2 2 i s g h k A ^ / / / ] ] [ [ [ [ Y Y o.Y Y Y Y Y Y Y Y Y E Y Y Y Y Y Y P o.Y o.[ [ [ ] ] ] / S A ^ h g g s 7 2 1 = & % # # X X     X X o o o % % : : , , 3 3 4 q 4 q z z v v v v v v v v v v q w q 4 4 4 3 , , : : % o % o o       X O X # # & = 1 i p s g k b S / ] ] ] ] ] / / S b k g s i i 1 - & & # X o     o o o # % : : , : : : % # # o X     o o @ # * > 2 7 7 g g h ^ A / / / ] [ [ [ P Y Y Y Y Y U Y U I R U U U Q Q Q Q ! ! ! =.! =.=.=.;.;.;.;.i.;.i.;.i.i.;.i.;.;.;.=.=.! =.! ! Q Q Q R I R R Y E Y Y o.P o.[ ] ] / ^ S k k g p i 2 1 & & @ + @ o     X X o o # # % : , : 3 , 4 4 4 q w z v v v v v v v v v v z q q q 4 4 3 3 , , : : @ % o o X X     X X o # # # > - 2 2 p s g h A A A / / ] ] ] [ [ P o.P Y P Y Y Y Y Y Y Y Y Y Y Y [ Y o.[ [ ] ] ] S ^ A k g g s 7 2 1 & $ $ o X X   o o o % % : : , : : % % % % o % % : : , , 3 3 3 q 4 l z v v v v v v v v v v v q z 4 4 4 3 3 , , , % % % @ % o # o o o   o X ",
"o o   o o o o @ # # # % % : , , , , 4 q 4 q q z v v v v v v v v v v z z q q 3 4 3 , , , : : % # % X o o X X X o o @ # % & , - 2 i p s g h ^ A / / / ] ] ] [ [ [ [ o.Y [ Y Y o.Y Y Y Y Y Y Y Y Y Y o.Y Y [ [ [ [ ] ] ] / / / ^ A h h g s 7 7 2 - > & # # o X X     X X o @ % @ % : : , , 3 3 4 4 q w w v v v v v v v v v v z z q 4 q 3 3 3 , , : : % # o o o X     X X @ + & & 1 2 2 i s k k k S / / ] [ ] ] / / G k k k g s i 2 1 = # # + X     o   # # # : : : , : : : % # o o X     o @ # & > = 7 a s g h h ^ S / ] ] ] [ [ o.P Y Y Y Y Y U E U I R U R R U Q Q ! ! =.! =.=.=.=.=.;.;.;.6.i.;.i.i.i.;.;.i.;.=.=.=.=.! ! ! Q Q Q U R I R I Y E Y P [ P [ ] ] / / ^ k g g s i 2 1 = & $ + X X X     o o o % % % % , , , 4 4 4 q 4 z w v v v v v v v v v v z z q 4 4 4 3 , , : : : % @ @ o o X X     X X o # % & 1 1 2 7 p g g h ^ A S / / ] ] ] [ [ [ o.Y o.Y Y o.Y Y Y Y Y Y Y Y Y P P [ [ ] ] / / / A k h g s i 2 1 = $ + @ o X X X o % o % % : : , % : % % o % % % : , : 4 3 4 q 3 q q z v v v v v v v v v v z z q q 4 4 3 3 , , % : % % @ % X o o o o o o o ",
"  o o o o o X @ # o # % % : : , , 4 4 4 4 q z q v v v v v v v v v v v q z 4 q 4 4 3 , , , % % % o % o o o X X o X @ @ @ : & 1 1 2 i s g g h h A S / / ] ] ] ] [ [ [ [ Y P o.Y Y P Y o.Y P Y P o.Y P o.[ [ [ [ ] ] ] ] / S A A A h g s p 7 2 1 > & % # o o   X   X X o o o @ % : % , , 3 3 4 3 q q w z v v v v v v v v v v z q q q 4 4 4 , , : : % % % o o o     X X X + # # > - 1 7 s g g k b S / ] ] [ ] ] ] / ^ S ^ g g s i 2 2 : = # @ o o     o o # % % : , : , : : % # # o X   X   @ # & * 1 2 7 p g h A A / / / ] ] [ [ P o.Y Y Y Y E Y U I R U U R U Q Q Q ! ! ! ! =.! =.=.;.;.;.;.;.;.i.i.;.i.i.i.;.;.;.=.=.=.! ! ! Q Q Q U R R R I E Y Y Y Y o.[ [ ] / / S k k g s i 2 - > & # @ X X X     X o o o # % : % , , 3 3 4 4 q q z v v v v v v v v v v z w q q 4 4 3 3 , , , : % @ % @ X X X     X X o # % & : = 2 2 7 s g g h A A S / / ] ] ] [ [ [ [ P o.P Y Y o.P Y Y Y P o.Y Y o.[ [ [ ] ] / S A A h g s s 2 1 = & $ @ o X   X o o # % % : : : , : % % % % % % , : 4 , 3 4 3 q q z z v v v v v v v v v v z q q 4 4 3 3 , , : , % % @ % o # o o   o o   o ",
"o     o o o o o @ # # # % % : , , , 4 4 q 4 q z z v v v v v v v v v v q q q q 3 3 3 3 , : , % % # o % o o X X X o o # # # : > - 1 2 i p g g h ^ A S / / ] ] ] ] [ [ [ [ o.P o.P Y o.Y [ Y o.Y [ o.P [ [ [ [ ] ] ] / / / ^ A h h g s s 7 7 1 = : $ # # o X X     X X o @ % @ % % , : , 3 3 4 q 4 w w z v v v v v v v v v v z q q 4 4 4 , 3 , , % % # o # o   X     o X @ # & & 1 2 i i g k k S S / ] ] [ ] ] ] / / ^ A k g s s 7 1 - & $ + X X X   o o # % % : : , : : : % % o o o X   o o @ & * < 2 2 s g g h ^ S S ] ] ] ] [ o.P Y o.Y E Y U Y R I U U U R R Q Q Q ! *.! =.=.=.=.=.;.;.;.6.;.;.i.i.;.i.;.;.;.;.;.=.! =.! ! ! Q Q Q U I R R I Y Y Y P [ P ] ] ] / ^ A k g g i i 1 = & $ # + X X       o o # % # % , , , , 4 3 q 4 z q z v v v v v v v v v v z w q 4 4 4 3 , , : : : % @ o # X X X     o X o # % & > 1 2 7 7 s g g h ^ A S / S ] ] ] ] [ [ [ [ o.P o.P Y o.P Y o.Y [ o.P [ [ ] ] ] / / ^ A k g g i 7 1 , & $ + o o   o X o # # % % : : : : : % % % % % , , , 4 3 3 q 4 l q z v v v v v v v v v v q z 4 q 4 4 , 3 , : % % % # # o o o o o o   o   ",
"  o o   o X o X # o # # % % , : , 4 , 4 4 q q q z v v v v v v v v v v z z q 3 q 3 3 , , , : : % % % o o o o X X X o o o # % & > - 2 7 i p g h h A A A S / / ] ] ] ] ] [ [ [ [ [ o.[ [ P o.[ [ [ [ [ [ ] ] ] / ] / / S A A A h g s s p 2 1 - > $ % # o X X     X X o o o @ % % , : , 3 3 4 4 4 9 w w v v v v v v v v v v z q z 4 q 4 4 3 , , : : % # % o X o     X X o + # $ = 1 2 i g g g A ^ / / ] ] L [ [ ] / S G k k k g i i 2 1 & & # o o       o o # % : : : , : : % % # o o       o @ # & * 2 7 p s g h A A / / / ] [ [ [ P o.Y Y Y Y Y E I R U R U R U Q Q Q ! ! ! =.! =.=.=.;.;.;.;.;.i.;.i.i.i.;.i.;.;.=.=.=.=.! ! Q Q Q U R R R I Y E Y Y o.P o.[ ] / / S A k g s p 2 2 , & & + @ X o     X o o o o % % : : , , 3 4 4 q q w z v v v v v v v v v v z q q q 4 4 3 3 , , : : % @ % o o X X     X X o # @ : & = > 2 7 p s g h h A A S ^ ] / ] ] ] ] ] [ [ [ [ [ o.[ P o.[ [ [ [ [ [ [ [ ] / ] / S A k g g s 7 2 - = $ $ o X o   o o o % % % % , : : : % % % % , : , , 3 3 q 4 q l z v v v v v v v v v v z z q q 4 4 3 3 , : , : % @ % o # o o o o   o   o ",
"      o   o o o o # # # % % : , , , 4 , q q 4 q z v v v v v v v v v v v q z q 3 q 3 3 3 , : : : % % % X o o X X X X o o @ # % : , 1 2 7 i p g g h ^ A ^ S / / ] ] ] ] ] ] [ [ [ [ [ [ [ [ [ [ [ ] ] [ ] ] ] ] / S / ^ A h h g g p p 2 2 > > & $ # o o X   X   X X o @ % @ % : : , , , 3 4 4 q q w z v v v v v v v v v v z z q q 4 4 , 3 , , : % % # o o o       X X o @ & & = 1 7 i s g k k S / / ] ] o.] ] ] ] / ^ S k g g g i 2 1 = & # + X X     o # # % % : , : : , % % # o o o     o @ # & * < 2 7 s g h h ^ S / ] ] ] [ [ o.Y P Y Y Y E Y U I R I R U R R Q Q ! ! *.! =.=.=.=.=.;.;.;.i.;.i.i.;.i.i.;.;.;.;.=.=.! =.! ! Q Q Q U U I R I Y Y Y Y P [ [ ] ] / S ^ k k g a i 1 - = $ # + X X X     X o # % # % : , , , , q 3 4 q w w v v v v v v v v v v v w w 4 q 4 3 3 , , , % : % @ @ o o X X     X X o # # % > = 1 2 7 p s g g h ^ A / A / / ] ] ] ] ] ] [ ] [ [ [ [ [ [ [ [ ] ] ] ] ] ] ] / / / ^ k h g g i 2 1 > & $ o o X X   o # # % % : % , % : : % % : , , , 4 3 4 4 q q q z v v v v v v v v v v z q q 4 4 4 3 3 , , : % % % @ @ o o o o X   o     ",
"    o   o X o o X # o # % % : : , , , 4 4 4 q q q v v v v v v v v v v v z q q q 3 4 4 , , , : : % % o % o o X X X X o X o # # : & = 1 2 7 p s g g h h A A S / / S ] ] ] ] ] ] ] ] [ ] ] ] ] ] ] ] ] / ] / / / S ^ A A h h g s s p 2 2 - > & % # # o o X     X X o o o @ % : : : , , 3 4 4 4 4 w z z v v v v v v v v v v z q q 4 4 4 4 , , : : % % # o o o     X X   + # # = 1 2 2 i g g k A ^ / ] ] o.] [ [ ] / / / A b k g s i 2 2 > & # @ o   o   o o o % : : : : , : : % % o o X     o o # & * = 2 7 s g g A A A / / ] ] [ [ P [ Y Y Y E Y U Y U U U U R R Q Q Q ! ! ! ! =.! =.=.;.=.;.;.;.;.i.;.i.i.;.i.;.;.=.=.=.=.! ! ! Q Q U U R R R Y E Y Y o.P o.[ ] ] / G A ^ g g s i 2 1 > & # # X X X     o o o o % % : % , , 4 , 4 q 4 q z z v v v v v v v v v v z w q q 4 4 3 3 , : , % % # # o o X X     X X o o @ % # = 1 1 2 7 p s g h h h A A S / / / / ] ] ] ] ] [ ] ] ] ] ] [ ] ] ] ] ] / ] / S S A A k k g s i 7 1 - & $ # @ X   X o o o % % % , % , % : % : : : , , 3 3 4 q q q z v v v v v v v v v v v q z 4 q 4 3 3 , 3 : : % % @ % o o o X o   o       ",
"o         o X o o o # o % % % : , , 4 4 4 4 q q q z v v v v v v v v v v v q z q q , 3 3 3 , , % : % % o % X o X X X X X o o # # : = > 1 2 7 7 s g g h h ^ A A / ^ S / / ] / ] ] / ] ] ] ] ] ] / ] / ] / / S A A A A h h g s s 7 2 2 - > = % # # o X X     X X X o @ % @ % : : , , 3 3 3 4 q q w w v v v v v v v v v v v q z 4 q 4 , 4 , , , : % # % o o X X   X X @ + # & & 1 2 i s s g ^ A G S / ] [ o.P ] ] ] / / S k k g g s 7 1 - & & + + X     o o # # % : : , : : : : # # o o     X o @ # * < 2 7 7 g g h A S / / ] ] ] [ o.P o.Y Y Y Y Y E I R U U U R U Q Q Q ! ! =.! =.=.=.=.;.;.;.;.i.;.i.i.;.i.;.;.;.;.=.=.=.! ! ! Q Q Q Q U R I R Y Y Y Y P [ P ] ] / / S k k g s i i - = & $ @ + X X       o o o % # % , , , , 3 4 4 q q q z v v v v v v v v v v z w w 4 4 4 4 3 , , : , % % @ # o o X X X     X o # # # : & 1 - 2 7 p s s h h h ^ A A S / / / / ] / ] / ] ] ] ] ] / ] / ] / ] / S / A ^ A k h g g s i 7 2 , & & @ o @ X   X o # # % % : , % , : : : , , , 4 3 q 4 4 q l z v v v v v v v v v v v q q q 4 4 4 3 , : , % % # @ # o o o X o       o   ",
"        o   X X o X @ # # % % , : , , , 4 4 4 q z q v v v v v v v v v v v z q q 3 q 4 4 , 3 : , : % % % o # o X X X X X X X # @ % & > = 2 2 7 7 s g g g h h ^ h / A / S / / / / ] / ] / ] / / / / / S S A ^ A ^ h h g g s p p 2 2 1 > : % # # o o X     X X X o @ @ @ % : % , , , 3 3 4 q 9 w w z v v v v v v v v v v z z q q 4 4 4 , , , : % % % o o o X     X X X @ # & = 1 2 i s g k k A / / ] [ ] o.] [ ] ] ] / A S k k s p i 2 1 = & # O X X     o @ # % : : : , : : % % # o o X     o @ # * * 2 2 s s g h h ^ S / ] ] [ [ [ P Y o.Y Y Y E I E I R U U U R Q Q Q Q *.! ! =.=.=.;.=.;.;.i.;.;.i.;.i.;.i.;.;.;.=.=.=.! ! ! Q Q Q U R I R I E Y Y Y o.P o.] ] ] / ^ A k g g i 2 2 1 & & + @ X X     X X X # o % % % , , , 4 4 4 4 q w z v v v v v v v v v v v z q q q 4 4 3 3 , , : : % % o # X o X X     X X o # # # : = > 1 2 7 7 g s g h h h A ^ A S / S / / / ] / ] / / / ] / / ] S S S ^ A ^ k k g g g s i i 7 1 - > % # @ o   X X o o # % % : : , : : : : : , , 3 4 4 4 q q l v v v v v v v v v v v q z q 4 4 4 3 , , , : % % % % o o o X o     o       ",
"          X X o X o o @ # # % : , : 4 , 4 4 q 4 q z z v v v v v v v v v v v q z q 3 4 3 3 , , : : : : % # o o o X X X   X o X % o % & > > 1 2 7 7 p s g g g h A h ^ A / A S / / S S S S S S / S / A ^ A A A h h g g g s 7 7 2 2 1 = : : % # o o X X     X X o o o % @ : : , : 3 , 3 4 4 4 q w z v v v v v v v v v v v z q q 4 4 4 4 , , , % % % o # o X X     X X + + # & , - 7 a s g k k S / ] ] ] [ [ o.L [ ] / / / ^ k k g s i 7 1 = $ # @ O X     o o # # % : : : , : : % # # o X   X o o # # * < 2 7 s g g A A ^ S / ] ] [ [ o.P Y Y Y E Y Y U U I R U R U R Q Q ! ! ! =.! =.=.=.;.=.;.;.i.;.i.i.i.i.;.i.;.;.=.=.=.! =.! ! Q Q Q U U I R Y R Y Y [ Y ] o.G / / / A k g g s i 1 - > & # + X X X     o o o % # % : : , , , 4 4 4 q q w z v v v v v v v v v v z z q 4 q 4 3 3 , , : : : % # o # o X X X     X X o # # # : = > 1 2 7 7 s s g g h h h ^ A A A S / S S / S / S / S S / A A ^ A A h h h h g s s p i 2 1 - > & % % o o X   X X o % # % : : , : : : , , , 4 3 3 q 4 q l z v v v v v v v v v v v z q q q 4 4 , 3 , , : % % @ @ @ o X o X X         o ",
"o         X   X o X @ @ @ % % % : , , , 4 4 4 q q q z v v v v v v v v v v v q q q q 4 4 3 3 , , , : % % % o # o o X X X   X X o # @ % : & = 1 1 2 7 7 s s g h g h h A h ^ A A A A ^ / A ^ / A ^ A ^ h A h g h g g s p 7 7 2 1 - > : % # # o o X     X X X o o o # @ % : : : , , 3 3 4 q 9 w w z v v v v v v v v v v z q z 4 q 4 4 , , , , % % # % o o o     X X X + # & & = 2 2 s s g k S ^ / / ] ] P o.[ o.] ] ] / / A b k g g p 2 2 > = # + O X     o o o % % : : , : : : % % o o o X     @ @ & > = 2 7 7 g h b h / / ] / ] [ [ [ Y [ Y Y Y Y U E I U R U U R Q Q Q Q ! ! ! =.! =.=.=.;.;.;.;.i.;.i.i.;.i.;.;.;.;.=.=.=.! ! Q Q Q Q U R R R I Y Y Y Y P o.[ ] ] ] / k b k g s i 2 1 = & # @ + X X     X o o o # % % : , , 4 , 4 4 q q w z v v v v v v v v v v v w w q q 4 4 3 3 , , : : % % # o o o X X     X X X o # # % & > = 1 2 2 7 p s s g g h h h h ^ A A A ^ A ^ / A / A ^ A A ^ A h h h h g s s p p 2 2 - , > : % % @ # o X X X X o o % % : : : , : : , , 3 3 3 q 4 4 l l z v v v v v v v v v v z q q 4 4 4 3 3 , , : : % # @ @ o o o   X             ",
"X           X   X o o o @ # % % : , , 4 , 4 4 q 4 q z z v v v v v v v v v v z z q q q 3 3 3 3 , : : : : % # o o o X X X X   o o o # o % % > > - 1 2 7 7 p s s g g g h h h b h A h A h ^ h h A h h h h g h g s s s 7 7 2 2 1 - > & % # # o o X X     X X X o o # @ % : : : , , 3 3 4 4 4 q w z v v v v v v v v v v v z w q 4 4 4 4 , , , : : % # o o o X X   X X X # # & = 1 2 i p g g k A / / ] ] [ [ P Y [ [ [ ] / / G k k k s s i 1 - : & # O X X   o o # # % % : , : , : % % # o o X   X o @ # & < < 7 p s g h A A S / ] ] ] [ [ o.Y Y Y Y E Y I E U I R U R U Q Q Q ! *.! =.=.=.=.=.;.=.;.6.;.i.;.i.i.;.i.;.;.=.=.=.=.! ! ! Q Q Q Q U R I R Y E Y P o.[ L o./ / / G k k g s a 7 1 = & & + @ X X X     o o o # # % : : , , 4 , q 4 4 z w z v v v v v v v v v v z w w 4 4 4 4 3 3 , , : : % % # o o o X       X X X o # # % $ > > - 1 2 2 7 p s s g g g h h b h h A h A h ^ h A h h h h h g g g s p p 7 7 2 2 - > = : % # o o X o     X X X # # % % : , : , : , , 3 3 4 4 q q q z v v v v v v v v v v v q z q q 4 4 3 3 , : : : % % @ @ X o X X X           o ",
"  o           X X X X @ @ @ % % : : : , 4 , 4 4 q q q z v v v v v v v v v v v z q q 3 q 3 3 3 , , , : : % % % o o o X X X     X X X # # % # & > = 1 1 2 7 7 7 s g s g g g g h g h h h h h h h g g g g g s s p p 7 7 2 1 - > > # % # # o o X X     X X X o o # @ % % : : , , 3 3 4 3 q 9 w z z v v v v v v v v v v z z q q q 4 q , , , , : % % # # o o       X X @ + # & = 1 2 i s g k A ^ / / ] ] [ P o.P [ [ ] ] ] / ^ A A g g s i 2 1 = & # @ X X     o o # % : : : , : : : % # o o     X . @ # & * 2 2 7 s g h A A ^ / ] ] ] [ [ P o.Y Y Y Y Y E U I U R U U R Q Q Q ! ! ! =.! =.=.=.;.;.;.;.;.;.i.;.i.i.;.;.;.;.=.=.=.! ! ! Q Q Q U U I R R Y Y Y Y Y P o.] ] ] / ^ A k g g p i 2 1 & $ $ X + X     X X o o # % % % , , , , 4 4 4 q q w z v v v v v v v v v v v z w q q 4 4 3 3 , , : : : % % o # o o o     X X X o o o # % % & > = 1 2 7 7 7 p s s g g g g g h g h h h h h h g h g g g g s s p 7 7 2 2 1 = , > % # # # @ o X     X X X o o % % : : : : : , , 3 3 4 3 q 4 l z v v v v v v v v v v v z z q 4 4 4 3 3 , , , : % % @ @ o o X   X             X ",
"o             X   X X o @ @ # % % , , : 4 4 4 4 q 4 q z v v v v v v v v v v v v q z q 4 q , 3 3 , , : : : % % # o o o X X X     X o X @ # % % # > = > 1 1 2 7 7 7 p s s s g s g g g g g g g s g s g s p 7 p 7 2 2 2 1 = > & % % # # o o X X       X X o o # @ % % % : , , , 3 3 4 q 4 q w w v v v v v v v v v v v z w w 4 4 4 , 4 , , % : % % o o o o X   X X @ X # & & 1 1 i i s g b A A / ] ] ] [ o.P o.P ] ] ] ] / / ^ k k g s s i 1 = & # + @ X     o o % % % : : , : : : % % o o o     X o # & & < 2 7 s g g h A S / / ] ] [ [ o.P o.Y Y E Y Y U U R I U R U R Q Q Q ! ! ! =.! =.=.=.;.;.;.;.i.;.i.i.;.i.;.;.;.=.=.=.! =.! ! Q Q Q U U I I R Y Y Y P Y o.] ] ] / / ^ k g g s i 2 1 = & $ + X X X     X o o o % # % : : , , 3 4 4 4 q w q v v v v v v v v v v v z w w q 4 4 4 3 3 , , : : % % # o o o o X       X X X @ o # # % # > = > 1 2 2 7 7 7 p s s g s g g g g g g g g g s g s s p p 7 7 7 2 - 1 = > & % % # o o X o     X X X X o o % % % : : , , , 3 3 4 4 q 4 l q z v v v v v v v v v v v z q q q 4 4 3 3 , : : : % # @ @ X o X X X         X X o ",
"o   X           X X X X @ o # % % : : , , , 4 4 4 q q q z v v v v v v v v v v v z q q q 3 q 3 3 , , , : : % # # # o o o X X X     X X o o o # % % % = > = 1 2 2 2 7 7 7 a p s s s s s s s s s s p 7 7 7 7 2 2 1 1 > = > % % # # # o o X X       X X o o @ o % % % , : , , 3 3 4 4 4 q w w v v v v v v v v v v v v q z 4 q 4 4 4 , , : , % # # # o o X     X X X + $ & = 1 2 i s g g k A / / / ] [ P [ Y P P o.[ ] ] / / S b k g g p 2 2 1 & & # X X     o o o # % : : : , : : % # # o o     o o @ # * > 2 7 a s g h ^ A / / ] ] [ [ [ Y [ Y Y Y Y U Y R I R U U R R Q Q ! Q ! =.! =.=.=.;.=.;.;.i.;.i.;.i.i.;.i.;.;.;.=.=.=.! ! Q Q Q U U R R R Y E Y Y o.P [ [ ] ] / / S k k g s i 2 - , & $ $ @ X o     X o X # o % % % , , , 3 3 4 q 4 q z z v v v v v v v v v v v z w q q 4 4 3 3 , , , : : % # # # o o o X X     X X X o o # # % % : > - > - 1 2 7 2 7 p 7 p p s s s s s s s s s 7 p 7 7 2 2 2 1 > 1 > : % % % @ # X o X   X X X X o o # o o % % : , : , , 3 3 4 4 9 q q z v v v v v v v v v v v z z q q 4 4 4 3 , , , : : # # @ @ o X   X         X   X X ",
"o o   X   X       X X X o @ @ # % % , , , , 4 4 4 q q q q v v v v v v v v v v v v q z q q 4 3 3 3 3 , , : : : % # o o o o X X X       o o o # # # % % & > > = > 2 1 2 2 7 2 7 7 7 7 p 7 7 7 7 7 2 7 2 2 1 1 1 = > & : # % # # X o X X X X       o o o # @ % % % : : , , , 3 3 4 4 q q w z v v v v v v v v v v v z w q q 4 4 3 3 , , , % % % # o o o X     X X @ @ $ & > - 2 i s g k k A / / ] ] [ o.P P o.P [ [ ] ] / / G k k k g s i 2 1 = # # + X X   o   # # % % : , : , : % % # o o X     o @ # & > = 7 p s g h h ^ S / ] ] ] [ [ o.Y Y Y Y Y Y U Y U I R U U R R Q Q ! ! ! =.! =.=.=.;.;.;.;.6.;.i.;.i.i.;.;.;.=.=.=.=.! ! ! ! Q Q Q U I R I Y E Y Y o.P [ [ ] / / ^ A k g g i i 1 - & $ + + X X X   X   o o # # % % : , , , 4 4 4 q q w w v v v v v v v v v v v v w w q q 4 4 3 3 , , : , : % % @ @ o o X X X       X X o o # # # # % : = > 1 1 1 2 2 2 7 2 7 7 7 7 7 7 7 7 7 7 7 2 2 2 2 1 - > = : : % # # o @ X o   X X   X X o o o o % % % % : , , , 3 3 4 4 q 4 l l z v v v v v v v v v v v z q q q 4 4 3 3 , , : : % % @ @ X X X X             X X o ",
"o o X   X         X X X X @ @ # % % : , : 4 , , 4 4 q q z z v v v v v v v v v v v v q q q 3 q 3 3 3 , , : : % % % # # o o o X X       X X X o o # # @ % % & : = > 1 - 1 - 2 1 2 2 2 2 2 2 2 2 1 2 1 - 1 1 : = : & % # % # # o @ X X X         o o o @ o % % % % : , , 3 3 3 4 q 9 q w z v v v v v v v v v v v v q z q 4 4 4 4 , , , : % % % o o o X     X X X + + & & - 1 7 s s s k A ^ / ] ] ] [ [ Y o.Y [ o.[ ] ] ] / ^ S ^ g g s i 2 1 = & & @ X o     o o # % % : : , : : : % # # o X   X . @ # & * 1 2 7 s g h A A / / / ] ] [ [ P [ Y Y Y Y E Y U U U R U R R Q Q Q ! ! ! ! =.=.=.=.=.;.;.;.;.;.i.i.;.i.;.;.;.;.=.=.! =.! ! Q Q Q U U R R I E Y Y Y P o.[ [ ] ] S G A k k s s i 2 1 = & $ @ + X X     X o o o # # % % , , , , 3 4 4 4 w w z v v v v v v v v v v v z w w 4 q 4 4 3 3 , , : : : % % # @ o @ X   o     X X X X o o # % # % % : & > = 1 1 - 1 2 1 2 2 2 2 2 2 2 1 2 1 1 > 1 > = > & : % # # # @ @ o X X X     X X o o o o # % % % , : , , 3 3 4 3 q 4 q l z v v v v v v v v v v v z z q q 4 4 4 3 , , , : : % # @ o o X X X         X X X o @ ",
"o o o X X X       X   X X o @ @ % % % : , , 4 4 4 4 q 4 q z v v v v v v v v v v v v z q q q 4 q , 3 3 , , , : : % % # o o o o X X X     X X X X o o % # # % % : & : > = > 1 - > 1 - 1 1 1 1 - > 1 * 1 & > & % % % # # o o o X X X X     X X o o o # @ % % % % , : , , 3 3 4 4 4 q w w z v v v v v v v v v v v z w q 4 q 3 4 , , , , % % % o # o X X     X X X # $ & > 1 2 i p g k k A S / / ] [ [ [ o.Y [ Y [ [ [ ] ] / / ^ k k g s s 7 1 1 & # + X X X   o o # % % : : : , % : : % o o o X   X o @ & * < 2 2 p g g h ^ S S / ] ] ] [ o.Y P Y Y E Y U Y U U I R U R U Q Q Q *.! =.! =.=.=.;.=.;.;.;.i.;.i.i.;.i.;.;.;.;.=.=.! ! ! ! Q Q Q U U I R I Y E Y Y [ o.] ] ] ] / ^ k k g s a 7 1 - , $ + @ X X X   X   o o # % # % : , , , 4 4 4 q 4 z q z v v v v v v v v v v v z w q 4 4 4 4 3 3 , , : : : % % # # X @ X X       X   o X o o o % # % % % # & : > > = 1 1 = 1 1 - 1 1 = 1 1 = > = : : : % % % o # o o o X X X     X X X X X o o % % % : : : , , 3 3 4 3 q 4 q l l z v v v v v v v v v v v z q q q 4 4 3 , 3 , : : % % @ @ o X X X       X X X X X o o ",
"@ @ X X X X X X X X   X X X o @ @ % % , : , , , 4 4 4 q q q z v v v v v v v v v v v v z q q q 3 q 3 3 3 , : , : % % # # # o o o o   X       X X X o o o # # # # % % % : : : : > & > > > & * : > & : # % % # # % o # o o X X X   X     X X o o o @ o % % % : % , , , 3 3 4 4 4 q q z z v v v v v v v v v v v z w w q q 4 4 4 , , 3 : : # % # o o X X   X X X @ + $ & = - 2 i s g g k b G / ] [ [ P P [ Y Y [ P o.[ ] ] / S G k k k g i i 2 - & & # @ X       o o # % : : , : , : % # # o o X     o # # & = 1 7 s s g h A A / / ] ] [ [ [ P o.Y Y Y Y Y E I R U U U U R Q Q Q ! ! ! =.! =.=.=.;.=.;.i.;.i.;.i.i.;.i.;.;.=.=.=.=.! ! ! Q Q Q U R R R Y E Y Y [ Y P [ [ ] / / S ^ k g g i 7 2 1 & & $ X + X X     X o o o # % % : , , , 3 3 4 4 q w w z v v v v v v v v v v v z z q q q 4 4 3 3 3 , , : : % % % o % X @ X o X         X X X o o o o # # % % % % : : : & > : * > > & > & : : & : % % # % # o % o @ X X X       X X X o X # o # % % : : : , , , 3 3 4 q 4 q q l z v v v v v v v v v v v z z q q 4 4 3 3 3 , : : % : @ @ o o X   X     X X X X X X o @ ",
"@ o o X X X X X X   X   X X o @ # # % : , : , 4 , 4 q 4 q q q v v v v v v v v v v v v v q q q q 3 3 4 3 3 , , : , : % % # # o o o o   X       X X X X X o o o % # # # % # % % % % % % % % % % % % % % # # # # o o o X X X X       X X o X X @ # @ % % % % : , , , 3 3 4 4 q 4 w w w v v v v v v v v v v v v z q w 4 4 4 4 , , , : : % % o # o X X     X X @ + # & & 1 2 i i s k k A G ^ / ] ] [ o.Y Y Y o.Y P [ [ [ ] / / ^ S k g g g i 2 1 = & # + X X   o   # # % % : : , : : : % # o o o   X o o # & * 1 2 7 s g h h ^ S / ] ] ] [ [ P Y o.Y Y E Y Y U I R U U R U R Q Q Q *.! ! =.=.=.=.;.;.;.;.;.;.i.;.i.i.;.;.;.;.=.=.=.! ! ! ! Q Q Q U R I R I Y E Y o.P [ ] ] ] / S A k k g s i 2 1 = & $ $ X X X     X X o o o % % % : , , , 4 3 4 4 q w w z v v v v v v v v v v v z z w q 4 q 4 3 3 3 , , : , % % % o % X o X o X           X X X o o o # o % # # # # % % % % % % % % % % % % # % # # # o # o X X X X X       X X o o o # o # % % % : : , , 3 3 3 4 4 4 q q l z v v v v v v v v v v v v q q q q 4 4 3 3 , , , : % @ % o o X X X   X X X X X X X o @ @ ",
"@ @ @ X X X X X   X X   X X X @ o # % % % , , , , 4 4 4 q q q z v v v v v v v v v v v v z z q q 4 q 4 3 3 3 , , : : : % % % o # o o o X X X       X X X X X o o o o # o # # % o # # @ # % @ # # # # o # o o o X X X X X X       X X X X X # o o % % % % % , , , 3 3 4 3 q 4 q w w v v v v v v v v v v v v z q z 4 q 4 4 4 , , : , % # % # o o X X     X X X + $ & = 1 2 i s g g A A ^ / ] ] [ [ P P o.Y Y P o.[ [ ] ] ] / G ^ A k g s p 2 2 > & # @ O o     o o # % % : : , : : : % % o o X     . @ # # > = 2 7 s g g A A A / / ] ] ] [ o.[ Y Y Y Y Y U Y U I R U R R Q Q Q ! ! Q =.! =.=.=.=.;.;.;.;.i.;.i.i.;.i.;.;.;.=.=.=.=.! ! Q Q Q Q U I R I E Y Y Y P o.P o.] ] / G ^ A k g s i 7 2 1 & & + @ o X X   X X X o # # # % % , , , 3 3 4 q 4 q q z v v v v v v v v v v v v z w w q 4 4 4 3 3 3 , , % , % % % @ # # @ X o X X o     X   X X X X o o o # o # # # # # # # # # # # # # # % o # o o o X X X X X       X     o o o # o # % % % , : , , , 3 3 4 4 4 q q l z v v v v v v v v v v v v z q z 4 4 4 4 , 3 , : : % % % @ @ o X       X X X X X X o o @ @ ",
"# @ @ @ X X X o X     X X   X o @ @ % % % : , , 4 , 4 4 4 q q q z v v v v v v v v v v v v z q q q 4 4 4 3 3 3 , , : : : % % % @ # X o @ X X X X       X X X X X X X o o o @ o % o o % o o % o o o o o o X X X X X X           X o X X @ # o % % % % % , , , , 3 3 4 4 q 4 q w w v v v v v v v v v v v v v q z q 4 4 q , , , , , % % % o # o o X X   X X @ + # $ & 1 2 2 i s g k b A / / ] ] [ [ o.Y Y Y Y o.P P [ [ ] ] / / S b k g g s 7 1 - & & + X X X   o o o % % % : : , : : : # # o o X   X o @ & & < 2 7 7 g g h A S / / ] ] [ [ [ Y o.Y Y Y E Y U U E I R U R U Q Q Q ! *.! =.=.! =.;.=.;.;.6.;.i.i.;.i.;.;.i.=.=.=.=.! =.! ! Q Q Q Q U R R I E Y Y Y [ o.L [ ] / / / A k g g s i 1 1 = & $ + + X X     X o o o # % % % : 3 , , 3 4 4 q 4 z q z v v v v v v v v v v v v z w w q 4 4 4 3 3 3 , , % % , % % o @ o # X X X X X       X   X   X X X X o o o # o o # o # o o % o o o o o o X X X X X X             o o o o o # # % % : : : , , 3 3 3 4 4 q 4 q l l z v v v v v v v v v v v z z q q q 4 4 3 3 , , , : % # @ @ X X X X   X X X X o X o o @ @ # ",
"# # @ X o o o o X X X X   X X X @ @ @ % % , : , , 4 , 4 q 4 q q z v v v v v v v v v v v v v z z q q 4 q 4 4 3 , , , , : : % % % # @ # o X o X X X           X X X X X X X X X X X o o o o X X X X X X X X X   X           X X @ X X % o o % % % % , : , , , 3 3 4 4 4 4 q w z z v v v v v v v v v v v z z z q 4 q 4 , 4 , , 3 : % % % # o o X X   X X X X + $ & = 1 2 i s g g k k G / ] ] ] [ [ P o.Y Y Y Y P o.[ ] [ ] / / S A k g g i i 2 1 = & # @ X X     X # # % : : , : , : % % # o o X     o @ # & * 2 2 p s g h h ^ S / ] ] ] [ [ o.[ Y Y Y Y U Y E I U U U U R Q Q Q ! ! ! =.! =.=.=.;.;.;.;.;.i.;.i.i.;.i.;.;.;.=.=.=.! ! ! Q Q Q U U R I R Y Y Y Y Y P o.] ] ] / / A k k g s i 7 - 1 & & + @ X X X   X   o o o # % % : : , , 3 3 4 4 4 q q z z v v v v v v v v v v v v w q w 4 q 4 4 3 3 , , , , % % % % % % o @ # o o X X X X       X   X X X X X X X X X X o o o o X X X X X X X   X   X         X   o o o o o o # # % : : : : , , , 3 3 4 4 q 4 q q z v v v v v v v v v v v v v z q z 4 4 4 3 3 , 3 : : % % % @ o X X X   X X X X o X o o o @ @ # ",
"# # @ @ X o o o o o X       X X X @ # # % % , : , , 4 4 4 q 4 q q q v v v v v v v v v v v v v q q q q 4 4 4 4 3 3 , , , : : % % % % o @ # X X @ X X X X X         X   X X X X X X X X X X X X X X X X   X       X X X X X o o X o # o % % % % % , % , , , 3 3 3 4 4 q q q w z v v v v v v v v v v v v v w w q q 4 4 4 , , , : : % % o # o o X     X X + o + & & 1 - 2 a s g k k A ^ / ] ] [ o.P Y Y Y Y Y Y o.P [ P ] ] ] / ^ S k k g g a 7 1 = # # + @       o o # % % : : , : : : % % o o o   X o o # & * < 2 7 s g g A A ^ S / ] ] [ [ [ Y o.Y Y Y Y E I U U R U R U R Q Q ! ! ! ! =.=.=.=.=.;.;.;.6.;.i.;.i.i.;.;.;.;.=.=.=.=.! ! ! Q Q Q U U R I R Y Y Y Y [ P o.] ] / / ^ A k g g s i 2 - , & $ + X X X     o X o o # # % % : 3 : 3 4 3 4 q 4 z q z z v v v v v v v v v v v v z w w 4 q 3 4 3 3 3 , , , % , % % % % o o @ X @ X X X X X X       X   X X X   X X X X X X X X X   X X     X       X   X X o X X o # o # # % % : : : , , , 3 3 3 4 4 q 4 q l l z v v v v v v v v v v v v z q z 4 q 3 4 3 3 , : , : % # @ @ @ X X     X X X o o o X o + # # # ",
"# # # # o o o o o o X X X X X X X @ o # % % % , : , 4 , 4 4 q q q z z v v v v v v v v v v v v v z q z 4 q 4 4 3 3 3 , , , : , % % % % % o % o o X @ X X X X X X X   X           X   X     X   X           X X X X X X X @ X o X % o % % % % % : % , , , 3 3 4 4 4 9 q w z z v v v v v v v v v v v v z w w w 4 4 4 4 , , , 3 : % % # # o o X     X X X X + $ & , - 1 i p g g k A ^ / ] ] ] [ [ P o.Y Y Y Y Y Y P P o.] ] / / G ^ A k g s p 2 1 > = # # X o   o   o o % % : : , : : : % # # o X X   . o # # * 1 2 2 s g h b h / / ] / ] [ [ P o.Y Y Y E Y I E U R I U U R Q Q Q Q ! ! =.! =.=.=.;.=.;.;.;.i.;.i.i.;.i.;.;.;.=.=.=.! ! ! ! Q Q Q U R I R I E Y Y o.Y o.] [ ] ] / / A k k g s i 2 1 = & $ @ + @   X     X o o o # # % : : 3 , , 3 4 4 q 4 q w z v v v v v v v v v v v v v w q w 4 q 4 4 3 3 3 , , , % , % % % % % @ @ @ @ X @ X X X X X               X   X   X     X   X       X   X X X X X o X X X # o @ @ % % % : : : , , , 3 3 3 4 4 q 4 q q l z v v v v v v v v v v v v z q z 4 q 4 4 3 3 , , , : % % # # o X X X   X X o o o o o # o @ # # # ",
"& % # @ # o o o + o o X X   X   X o @ @ % % % : , , , 4 4 4 4 4 q q q v v v v v v v v v v v v v v z q q 4 4 q 4 3 3 3 , , , : : % : % % % o % X # X o X X X X X X X X X X   X         X     X   X X X X X X X X X o o @ @ @ @ % # % % % % : , , , , , 3 3 4 4 q 4 q w w z v v v v v v v v v v v v z z w w 4 q 4 3 4 , , , : : % # # o o o o       X o @ + $ & = 1 2 i s g g k ^ G / / ] [ [ P Y Y Y E Y Y Y [ o.P [ [ ] ] ] / G b k k s s i 2 - : & + O X X   o o # # % : : : , : : : % o o o X   X o @ # & * 2 7 7 s g h A A S / ] ] [ [ [ [ o.Y Y Y E Y I E I R U U R U R Q Q ! ! ! =.! =.=.=.;.;.;.;.;.i.;.i.i.;.i.;.;.;.=.=.=.! ! ! ! Q Q Q U U I R Y I E P Y P o.L ] ] ] / ^ A k g g a i 1 1 = & $ + X +         X o o # # % % : : 3 , 4 , 4 4 q q w w z v v v v v v v v v v v v v z w w 4 q 4 4 4 3 3 , , , : : : % % % % # o o o o X o X X X X X X X X   X   X   X   X     X   X X X X X X X X X @ X # o # o % % % % % : , : , , , 3 3 3 4 4 q 4 q l l z v v v v v v v v v v v v v z q q q 4 4 4 3 , , , : : % # @ @ o X X   X X X X o + o o o # # # $ & ",
"& $ $ $ o + o o o o o o X X X X X X @ o # % % % , , , , 4 , 4 q 4 q z q z v v v v v v v v v v v v z z q q q 4 4 4 4 3 3 , , , , , : % % % % # % o % o @ @ X o o o X X X X X X X X X X X X X X X X X X X o X o o o o o o o # # % % % % % , % 3 : , 3 3 4 4 3 q 4 q w w z v v v v v v v v v v v v v z q z 4 q 4 4 4 , , 3 : : % % # # o o       X X X X + $ & = 1 1 i p s g k A S / / ] ] [ P P o.Y Y Y Y Y Y Y Y o.P [ [ ] / / ^ A k g g s i 2 1 = & # @ X o     o o # % % : , : , : % % # # o X     o @ # & < 1 2 7 s g h A A ^ / ] ] ] [ [ Y [ Y Y Y Y Y E I R U U U U R Q Q Q ! Q =.! =.=.=.=.;.;.;.;.i.;.i.;.i.i.;.;.;.;.=.=.=.=.! ! Q Q Q Q U R R I R Y Y Y P o.P o.] ] / / / A A g g p i 2 - , & & + @ X X X     o X o o # # % % , : , , 3 4 4 q 4 q w z z v v v v v v v v v v v v v w q q q 4 9 3 4 3 3 , , , , % , : % % % % # % o % o o X @ X X X X X X X X X X X X X X X X X X X X X X X o o o o o o o @ % % % % % : : : , , 3 3 3 4 4 4 q 4 q w l z v v v v v v v v v v v v v z q q q 4 4 4 3 3 , , : : % % # @ o X X   X X X X + o o o # o # # $ : & ",
": & & $ # o # o o + o o o X   X   X X @ @ # % % : : , , , 4 4 4 q q q z z v v v v v v v v v v v v v v z q l q 4 q 3 4 3 3 3 , , , , % % , % % % % o % o o % X o o X o o o X X X X o X X X o X o o o X X o @ o o % o # # % % % % % % , % , , , 3 3 3 3 4 4 q 4 q w w z v v v v v v v v v v v v v z z q q q 4 4 3 3 , , , : % % # # o o X o     X X + + + $ & , - 7 i s g k k ^ A / ] ] ] [ o.P Y Y Y Y E Y Y Y P [ o.[ ] ] ] / / ^ A k g g a 7 1 = & # + X X X   o o % % % : : , : : : % % o o X     o o # & & 1 2 7 p g g h A S / / ] ] ] [ o.Y P Y Y Y E Y U I R U U R U R Q Q ! ! ! ! =.! =.=.;.=.;.;.;.;.i.i.i.;.i.;.;.;.=.=.=.=.! ! ! ! Q Q Q U U R I R P E Y [ Y [ [ ] ] / / ^ A k g g i i 2 - > & $ + o X X X     o o o o % # % : , , , 3 , 4 4 q 4 w w z z v v v v v v v v v v v v v z w w 9 4 q 3 4 3 3 3 , , , % % % : % % % % # o # o % X @ @ X X X o o o X X X X X X o X X X @ X X o # o o % o # % % % % % % % , : , , , 3 3 3 3 4 4 q 4 l q l z v v v v v v v v v v v v v z z z 4 q 4 4 3 3 , , , : : % # @ @ X X X   X X X o o # o + o # # $ $ & : ",
"* > & $ $ # o + o o + o o X X   X X X o @ # # % % , : , , 4 4 4 4 4 q q q z v v v v v v v v v v v v v v z l q q 4 q 4 4 4 3 3 , , , , , % , : % % % % % % o % o o % o o o o @ X @ X o o X o X o o o X % o o o % o # % % % % % : % , % , , , , 3 3 4 4 4 q 4 w w z z v v v v v v v v v v v v v z w q z 4 4 4 4 3 , , 3 : : % % # o o o o     X X X X + $ & , - 1 i p s g k A A / / ] ] P [ P o.Y Y E Y Y E Y Y o.Y [ [ [ ] ] / / S k k g s p 7 2 1 & & # O X     o o o # % : : : , : : % # # o X X     o @ # * = 1 7 s s h h ^ S S / ] ] [ [ [ P o.Y Y E Y U Y U R I U U R Q Q Q Q ! Q =.! =.=.=.=.;.;.;.;.i.;.i.;.i.i.;.;.;.;.=.=.! =.! ! Q Q Q Q U R I R Y R Y Y Y P o.[ ] ] ] / S A A g g s i 2 1 = & & @ + o X X       o X # o # % % : : , , 4 , 4 4 q 4 z q z v v v v v v v v v v v v v v w w w q 4 q 4 4 3 3 3 3 , , , , : : % % % % % % % o # @ X % o # o o o X o X o X o o o o @ o X % o o o # o % % % % % % % : , : , , 3 3 3 3 4 4 q 4 q q l z v v v v v v v v v v v v v v z q z 4 q 4 4 3 3 , , , : : % # # @ o X   X X X X o + o o # o # # $ $ & : > ",
"> & & & $ # + o + # o # X o o X   X X X o @ # % % : , , , , 4 , 4 4 4 q q z z v v v v v v v v v v v v v v z z w q 4 9 4 4 4 3 3 3 , , , , % : % , % % % % % % # # o % o # o o @ o @ o @ % X % o o # # o % # % % % % % % : % , % 3 , , , 3 3 3 3 4 4 q 4 9 w w w z v v v v v v v v v v v v v v w w q 4 q 4 4 3 3 , , : : % % # # o o X X     X X o @ $ $ & - 1 7 i s g g A A / / ] ] ] o.P P Y Y Y Y U Y Y Y Y Y o.P [ [ [ ] / / G b k k g s i 2 1 = # # O O     o   # # % % : , : , : % % # o o X   X o @ # & * 2 2 p s g h h ^ S / ] ] ] [ [ o.P Y Y Y Y Y U Y U R U U U R R Q Q ! *.! =.=.! =.=.;.=.;.6.;.i.;.i.i.;.i.;.;.;.=.=.=.! ! ! ! Q Q Q Q U U I R Y Y Y Y Y [ o.L ] ] / / ^ k k g s p i 2 1 = & $ + + X X X   X   o o # # # % % , : 3 , 4 4 4 4 q 4 z q z z v v v v v v v v v v v v v z w w q 4 q 4 4 4 3 3 3 , , , , % , % % % : % % % % # # o # o # o o % o % X % o o @ @ @ o % o % # % % % % % % % , % , : , , , 3 3 3 4 4 4 q 4 q q l l z v v v v v v v v v v v v v v z q q q 4 4 4 3 , 3 : , : % # # @ o o X X   X X X o o # + o # # # & % : = : ",
"> > > * $ $ # # o o # + + o X X X   X X X @ @ # % % : : , , , 4 4 4 q 4 q q q z v v v v v v v v v v v v v v z w w q q q 4 4 4 4 3 3 3 , , , , , % , % : : : % % % % % % # % # # # # # # o % o # # % # % % % % % % % % : % , % 3 : , , 3 3 3 4 4 4 q 4 q w w z v v v v v v v v v v v v v v z z w q q q 4 4 3 3 , , 3 : % % # # o o o X       X + X + $ & = 1 1 7 p s g k A A / / ] ] ] P P o.Y Y Y U Y E Y Y Y Y [ Y [ [ ] ] ] / ^ S A g g s i 2 2 & = # # X o     o o # % : : : , : : : % # # o X     o @ @ & * 1 2 7 s s h A A ^ / / ] ] [ [ P o.Y Y Y Y E Y U R I R U R R Q Q Q ! ! ! ! ! =.=.=.;.;.;.;.;.;.i.i.;.i.;.i.;.;.=.=.=.=.! ! ! Q Q Q U U R R I R Y Y Y o.P P o.] ] / / G b k g g s i 2 - 1 & & $ @ X X X     X X o o o # % % % , : , , 3 4 4 4 q q q z v v v v v v v v v v v v v v v z z w q q 4 q 4 4 3 3 3 3 , , , , % , : : % % : % % % % % % # # % o % o % o # # # # # % # % % % % % % : % : , % , , , , 3 3 3 4 4 4 4 q 4 q q l z v v v v v v v v v v v v v v z q q q q 4 4 4 3 3 3 : , : % % % # o o X X   X X X o + + # o & o # & $ % = > > ",
"> 1 : & : $ # # + # o # + o o X X X   X X o @ @ # % % : , , , , 4 4 4 q 4 q q z v v v v v v v v v v v v v v v v z w w q 9 9 9 4 4 4 3 3 3 , , , , : , % % % : % : : % % % % % % % % % % % % % % % % % % % % : : , % , % , , , , 3 3 3 3 3 4 4 q 4 9 w w z z z v v v v v v v v v v v v v v z w w q 4 4 4 3 3 , , : : : % % # # X o X X   X X X o # $ & & 1 1 7 i s g g A A / / / ] L o.] o.Y Y Y Y Y R Y U Y Y Y Y o.[ [ [ ] ] / / ^ A k g s s 7 1 1 & # + X X X   o o # # % : : : , : : % % o o o X     o # & * < 1 7 p g g h A S / / ] ] ] [ o.Y [ o.Y E Y U Y U U I R U R U Q Q Q ! *.! =.=.=.=.=.;.;.;.;.i.;.i.i.;.i.;.;.;.;.=.=.=.=.! ! ! Q Q Q Q U I R I Y E Y Y o.P o.L ] ] / / G k k g s s i 1 1 = & $ + + o X X     X o o o # # % % : , 3 , , , q 3 4 4 z q q z v v v v v v v v v v v v v v z z w w q 9 4 9 4 4 3 3 3 3 , , , , , % , % % : % : % % % % % % % % % % % % % % % % % % % % : : % , % , % , , , , 3 3 3 3 3 4 4 4 q 4 l l l z v v v v v v v v v v v v v v v z l q 4 q 4 4 3 3 , , , : : % # @ @ o X X X X X X o + o # + # o & # & & > > > 1 ",
"1 > = , * $ & # # o # + # + o o X X   X X X @ @ # % % : : : , , 4 , 4 4 q 4 q q q v v v v v v v v v v v v v v v v z w w w q 4 9 4 4 4 4 3 3 3 3 , , , , , , % , : : : % : % : : % % % : % % , : : % : % , : % , % , , , , , 3 3 3 3 4 4 4 4 q 4 q w w z z v v v v v v v v v v v v v v z z w w 4 q 4 4 3 4 , , , , : % # % o o o o X     X X X + + $ $ = 1 2 i s g g k A ^ / / ] ] o.[ Y [ Y Y Y Y E R Y Y E Y Y o.[ Y [ [ ] / ] / S k k k g i i 2 - & & # @ X       o o % % : : , : : : % % # o X X   o o @ # & * 2 7 7 g g h A ^ S / ] ] [ [ [ [ Y Y Y Y Y Y U Y R U U U U R Q Q Q ! Q =.! ! =.=.=.;.;.;.;.;.i.;.i.i.i.;.i.;.;.=.=.=.! =.! ! Q Q Q U U R R I E Y Y Y Y P [ o.] ] ] / ^ A k k g s i 7 2 1 & & $ # X X X     X   o X # o % % : : : , , 4 , 4 4 q 4 q z w z v v v v v v v v v v v v v v v z w w q q 4 q 4 4 4 4 3 3 3 , 3 : 3 : , , % , : : % : % : % : % % % : % % : : % : : % , : % , % , , , , , 3 3 3 3 4 4 4 q 4 q q w l z z v v v v v v v v v v v v v v z z q q q q 4 4 3 3 , , , : : % % # # o X X   X   o o o o # # # # & # & & > = > 1 1 ",
"1 1 1 > & * $ # # # + # # + # o o X X   X X X o @ # # % % , , , , 4 , 4 4 q q q q z z v v v v v v v v v v v v v v v z z w w w 9 9 9 4 4 4 4 3 3 3 3 , , , , , : , : : , % , % : : , % % % : % : : , % 3 : , , : 3 , , 3 3 3 3 3 4 4 4 q 4 q q q w z z z v v v v v v v v v v v v v v v z w w q q 4 4 4 3 , , 3 : : : % # o # X o   X   X X X @ # $ & = = 1 7 i s g k k A S / / ] ] ] o.P Y Y Y Y E I I E Y I Y Y Y P [ o.[ [ ] / / G ^ k g g g i 2 1 = & # O O X   o o o # % : : : , : : : % # o o X   X   @ # & > < 7 7 s g h A A ^ S ] ] ] [ [ P o.Y Y Y E Y I U I R R U R U R Q Q ! ! ! =.=.=.=.=.=.;.;.;.i.;.i.;.i.i.;.;.;.;.;.=.=.=.! ! ! ! Q Q Q Q U I R I R Y Y Y o.P [ L ] ] / / ^ A k g g s i 1 - = & & + + X X X     X o o o # o % % : : , 3 , 4 3 4 4 q 4 q z q z v v v v v v v v v v v v v v v z z w w q 9 9 9 4 4 4 4 3 3 3 3 , , , : 3 : , : 3 % , % , % : , % % : , % : , % : , : , , , , , , 3 3 3 3 3 4 4 4 4 9 9 q w w w z v v v v v v v v v v v v v v v v z q z q 4 4 4 3 3 3 , , : : : % @ @ @ X X X   X X X o # + # # & # # & & > * , 1 1 1 ",
"2 1 1 , , : & & # # # # + & + o o X X   X X X X @ # # % : : : , , , 4 4 4 4 4 q q q z v v v v v v v v v v v v v v v v v z w w w q 9 9 9 4 4 4 4 4 3 3 3 3 3 , , 3 : 3 : 3 : 3 : , : , , , , , , , : 3 : , , , 3 , 3 3 3 3 4 4 4 4 4 9 4 q w w w z z v v v v v v v v v v v v v v v z z w w 4 q 4 4 3 3 , 3 3 : : % # # # # o o   X     X X X + + $ & = 1 7 i s g g k A ^ / / ] ] L o.P o.Y Y R Y Y R E I E Y Y Y Y o.Y [ [ ] ] ] / ^ S k k g s i 2 2 > & # # X X o     # o % % : : , : : : % # # X X     o o # & * = 2 7 s s h h A S / / ] ] [ [ o.[ Y Y Y Y Y E Y U R I U U R Q Q Q ! Q =.! ! =.=.=.;.=.;.;.;.i.;.i.i.;.i.;.i.;.;.=.=.=.! =.! ! Q Q Q U U R R I Y E Y Y Y P P o.] ] / / G ^ k k g s i i 2 1 = & $ $ X @   X       o o o # # % % % , : , , , 4 4 4 4 q w q z z v v v v v v v v v v v v v v v v z w w w q 9 9 9 4 4 4 4 4 3 3 3 3 3 , , , , : 3 : , : , , : , , , : , , : , , , , , , , 3 3 3 3 3 4 4 4 4 4 9 9 q w w w z v v v v v v v v v v v v v v v v v q z q q 4 4 4 3 3 , , , : : : % # # @ o X X   X X o o o o & # & # # & & * * , 1 1 1 1 ",
"2 1 2 1 , = : & # # # & # # # + o o o X   X X X o @ # % # % : , , , , 3 4 4 4 4 q q q q z v v v v v v v v v v v v v v v v v z w w w w 9 4 q 4 4 4 4 4 4 3 3 3 3 3 3 , 3 : 3 : 3 , , , , , , , , , , 3 , 3 3 3 3 3 4 4 4 4 4 4 9 9 q q w w w w z v v v v v v v v v v v v v v v v v z w w q q 4 4 3 3 3 3 : : , % % # # o o o X X     X X X + # $ & = , 1 i i s g k k ^ / / ] ] ] o.P P Y Y Y Y E R I R Y U Y Y Y Y [ o.P [ [ ] ] / / ^ A k g g s 7 1 - & & @ O X X     o # # % : : : , : : % % o # X X   X o @ # * < 1 7 7 g g b A ^ S / ] ] ] [ [ Y o.Y Y Y E I E E I R U U U R Q Q Q ! ! =.! =.=.=.=.;.;.;.;.;.i.;.i.i.;.i.;.;.;.;.=.=.=.! ! ! ! Q Q Q Q U R R I Y Y Y Y o.P o.L ] ] / / S A k g g s i 2 1 - : & $ + X + X     X   o o o o % # % : , : 3 , 3 , 4 q 4 4 z q z z z v v v v v v v v v v v v v v v v z w w w w 9 9 4 q 3 4 4 4 4 3 3 3 3 3 3 , , , , , , , , , , , , , , , , 3 , 3 3 3 3 3 3 4 4 4 4 4 q 4 q 9 w w w z z v v v v v v v v v v v v v v v v z w z q q 4 q 4 3 3 3 , , , : : % # @ @ o X X X   X X o o + # # & # & & & * > = , 1 2 2 2 ",
"4 2 2 1 1 , * & & # # + # & # # + o X X X   X X X o @ @ % % : : : , , 4 , 4 4 4 4 q q z q z v v v v v v v v v v v v v v v v v z z w w w w 4 q 4 q 4 4 4 4 4 4 4 3 3 3 3 3 3 3 3 3 3 , 3 3 3 3 3 3 3 3 3 3 3 4 4 4 4 4 4 4 4 9 9 q w w w w z v v v v v v v v v v v v v v v v v z w w q q q 4 4 3 3 3 3 : , , % % # # # o o X X     X X + X + $ & > - 1 7 i s g g k A S / / ] ] L o.P o.Y Y Y Y E I I R R Y E Y Y Y Y Y P [ [ ] ] ] / S A A g g s i 2 1 = & + @ X X   o   # # % : : , : , : % % % o X X     o @ # * * 2 2 s s g h h A / / ] ] ] [ P o.[ Y Y Y Y Y E I U U U U R R Q Q Q ! ! ! =.! =.=.=.;.;.;.;.i.;.i.;.i.i.i.;.;.;.;.=.=.=.! ! ! ! Q Q Q U U R I R Y E Y Y Y P P o.] ] ] / / A b k g s i i 2 1 = & $ + @ X X X     X X o o # o # % : % 3 : , , 4 3 4 4 q 4 w w w z v v v v v v v v v v v v v v v v v z z w w w q q 4 q 4 9 4 4 3 4 4 3 3 3 3 3 3 3 3 3 3 3 , 3 3 3 3 3 3 3 3 3 3 3 4 4 4 4 4 4 9 4 9 9 q w w w w z v v v v v v v v v v v v v v v v v z q z q q q 4 4 3 3 3 , , , : % % % # @ o X X X   X X o o o # & & & & & & * * = , 2 1 2 4 2 ",
"2 4 2 2 1 , , & & & # & # & & # # o o o X X   X X X o # @ % % % : , : , 3 4 4 4 4 4 4 q q z z v v v v v v v v v v v v v v v v v v z z w w w w q 9 9 9 4 4 4 4 4 4 4 4 4 4 4 3 3 3 4 3 3 3 3 3 3 4 4 3 4 4 4 4 4 4 4 9 9 9 q q w w w w z v v v v v v v v v v v v v v v v v v z z w w q 4 4 4 4 3 3 , 3 : : : % % # # o o X X X     X X X # $ $ & = 1 7 7 s g g k k ^ G / ] ] ] o.P P Y Y Y Y E I R R I R I Y E Y Y Y o.P [ P ] ] / / / ^ k k g s a 7 1 > & # + X X X   o o # # % : : , : : : % % o o X X X o o # # * 1 2 7 s g g A A S / / ] ] [ [ P Y Y Y Y E Y Y U I U R U U R U Q Q ! ! ! ! =.! =.;.=.;.;.;.;.i.i.i.;.i.;.i.;.;.;.;.=.=.=.! ! ! ! Q Q Q Q U R I R Y Y Y Y o.P P o.] ] / / / k k k g s i 7 1 1 = $ $ + + X X X     X   o o # # # # % : , 3 , , 4 , 4 4 q 4 q q z z z v v v v v v v v v v v v v v v v v z z w w w w q 9 9 4 4 q 4 4 4 4 4 4 4 4 4 3 3 3 4 3 3 4 3 3 3 4 4 4 4 4 4 4 4 4 q 4 9 9 q q w w w z z v v v v v v v v v v v v v v v v v v z z q q 4 q 4 4 3 3 3 , , : : : : % @ # o o X X   X X X o + # # & & & & & * * * , 2 , 2 4 2 4 ",
"4 7 4 1 2 , = > & & & # # & & & & o + o X X   X X X o o @ # # % % : , , , , 3 4 4 4 q 4 q q z q v v v v v v v v v v v v v v v v v v v v z z w w w w q q 9 9 9 4 q 4 4 4 4 4 4 4 4 4 4 4 4 4 4 4 4 4 4 q 4 9 4 9 9 9 q q w w w w z z v v v v v v v v v v v v v v v v v v z z w w w 4 q 4 4 3 3 4 , 3 : , : % # % o o o o X X     X X X + + $ $ = 1 2 7 s s g k k ^ / / / ] ] L o.P o.Y Y Y E I R R I R I E U Y Y Y Y P o.P o.] ] ] / S S A k g s p 2 2 - & & # X o     o o o % % : : , : : : % # % o X X     o @ & * > 2 2 p g h h A ^ / / ] ] [ [ o.P o.Y Y Y Y U Y E R I U U R R Q Q Q ! ! =.! =.=.=.=.=.;.;.;.i.;.;.i.i.i.;.i.;.;.=.=.=.=.=.! ! ! Q Q Q Q U I R I I E Y Y Y P o.P ] ] ] / / S k k g g s i 2 - , = $ $ + @ X X X     X o o o o # # % % : : , , , 3 3 4 4 4 q q q w z z v v v v v v v v v v v v v v v v v v z z w w w w q q q 9 9 4 q 4 9 4 4 4 4 4 4 4 4 4 4 4 4 4 4 4 4 4 9 4 9 4 9 9 9 q w w w w w z z v v v v v v v v v v v v v v v v v v z z q q q q q 4 4 3 3 3 , , , : : % % @ # o o X X   X X X o o o # & & & & & * * , = , 2 4 7 2 4 7 ",
"a 4 7 4 1 2 , = & & & & # & & & & # o o o X X   X X X o o @ # % % % : , , , , 4 4 4 4 4 q q q z q z v v v v v v v v v v v v v v v v v v v v z z w w w w w w q 9 9 9 9 9 9 4 q 4 9 4 9 4 9 4 q 4 9 9 9 4 9 9 q q q w w w z w z z v v v v v v v v v v v v v v v v v v v v z w q w 4 q 4 4 4 3 4 : 3 : , % % % # o # X o X       X   + X $ $ & = = 1 7 i s g g k A S / / ] ] ] o.L Y Y Y E Y I R I R R I R I Y E Y Y Y Y [ P [ [ ] ] ] / ^ A k g g s i 1 1 = # # + X X   o o # # % : : : , : : : % o o o X X X o @ # & < ; 7 a s g h ^ A S / ] ] [ [ [ o.P Y Y Y E Y U U I R U U U R R Q Q ! ! ! =.=.! =.;.;.;.;.6.;.i.i.;.i.i.i.;.;.;.;.;.=.=.! ! =.! Q Q Q Q Q U U R I Y Y E Y P P o.P / ] / / / ^ k k s g p i 2 - = : & $ + X X X X     X o o o @ # # % % , : , 3 , 4 3 4 4 4 q q w w w z v v v v v v v v v v v v v v v v v v v v z z w w w w w q w 9 9 9 9 9 4 9 9 4 9 4 4 9 4 4 q 4 9 9 9 4 q 9 q q w w w w z w z v v v v v v v v v v v v v v v v v v v v z z w z q q 4 4 4 3 3 3 , , , : : % % @ @ @ X X X X   X X o o + # & & * * * * * , * 2 , 2 7 4 a 4 4 ",
"4 a 4 7 4 2 , , > & & & & & & * & & + # o X X X   X X X o o # @ % % % : , , , , 3 4 4 4 4 q 4 q q z z v v v v v v v v v v v v v v v v v v v v v v z z w z w w w w w q q q q 9 9 9 9 9 9 9 9 9 9 q w q w w w w w w w z z z v v v v v v v v v v v v v v v v v v v v v z w w q q 4 q 4 4 4 3 4 : 3 3 : : % % # # # o o X       X X + X # $ & * = , 7 i s g g k k ^ / / / ] G o.P Y o.Y Y Y Y R I R I R R R I E Y E Y Y Y P o.[ [ [ ] / / / A k k g s i 2 - > & # O X X     o o # % % : , : , : % % % o o X     o @ # & * 1 2 7 s g h h A / / / ] ] [ [ P o.Y Y Y Y Y U Y R U U U R R Q Q Q ! ! ! =.! =.=.=.=.;.;.;.;.i.;.i.i.i.;.i.i.;.;.=.=.=.=.=.! ! ! Q Q Q U U R I R I E Y Y Y o.P ] o.L ] / / S A k k g s i i 1 1 = & $ + @ + X X X   X   o o o # # # % % : , : 3 , 3 3 4 4 4 q 4 w w w z v v v v v v v v v v v v v v v v v v v v v v z z w z w w w w w q w w q 9 q 9 9 q 9 9 q 9 9 w q w w w w w w w w w v z v v v v v v v v v v v v v v v v v v v v v z q z q q 4 4 4 4 3 3 , , , , : : % # % @ @ X X X X   X X o o o # & & * * * * * = * 2 , 2 7 4 a 4 a a ",
"a 4 a 4 i 2 2 , = * & & & & * & * & & + o + o X X   X X X o @ # # % % % : , , , , 3 3 4 4 4 q q q q q z z v v v v v v v v v v v v v v v v v v v v v v v z v w z w w z w w w w w w w w w w w w w w w w w z w z z z v v v v v v v v v v v v v v v v v v v v v v v v z w w z 9 q 4 4 4 4 , 4 : 4 : : : % % # # o o o o X     X X X X $ + & : = 1 7 7 a s g k k ^ S / / ] ] o.L o.P Y Y Y Y R I R R U U R I R I E Y Y Y Y Y [ o.[ ] ] ] / / ^ k k g g a 7 1 = & # # X X X   o o # # % : : , : : : % % o o X X   X o # & * < 2 7 s g g A A S S ] ] ] ] [ P Y P Y Y E Y Y U I U R U U R U Q Q ! ! *.! =.=.=.=.;.=.;.;.;.;.i.;.i.i.i.;.;.i.;.;.=.=.=.=.! ! ! ! Q Q Q Q U U R I Y Y Y Y Y o.P ] o.] ] / / A A k g g s i 7 1 1 = $ $ + o X X X X   X   o o o # # # % % : , : 3 , 3 4 4 4 4 q 4 q q w z z v v v v v v v v v v v v v v v v v v v v v v v z v w w w w w w w w w w w w w w w w w w w w w w z w z z z v v v v v v v v v v v v v v v v v v v v v v v v z w z q q 4 q 4 3 3 3 3 , , : : : % % # @ @ @ X X X   X X X o + # # * * * * > * , * 2 , 2 4 7 a 4 a a 4 ",
"a a a a 4 7 2 , , * * & & & & * * * & # # o o X X X X X X X X @ # @ % % % : , : , , 3 3 4 4 4 4 q q z w w z z v v v v v v v v v v v v v v v v v v v v v v v v v v z z z z w z w z w z w z w z w z z z v z v v v v v v v v v v v v v v v v v v v v v v v v v v z z w q q 4 q 4 4 4 4 3 4 : 4 : : : % # # # o o o X       X X + X + + $ $ = 1 1 7 a s g g k b S / / ] ] o.L o.P Y Y Y Y E I R R U U U I R I R I Y E Y Y o.Y [ [ [ ] ] / ^ G A k g s p 7 2 1 & & @ X o       o # % % : : , : : : % % % o X X     @ @ # * < 2 2 s s g h A ^ / / / ] [ [ o.P o.Y Y Y Y U Y U R I R U R R Q Q Q ! ! ! =.! =.=.=.;.;.;.;.i.;.i.;.i.i.;.i.;.;.;.;.=.=.=.! ! ! ! Q Q Q Q U R I R I E Y Y Y P P o.] ] ] / / / ^ k k g s s i 2 - , = & $ + + @ X X     X   o o o # # # % % : , : 3 , , 3 4 4 4 4 q q w w w z v v v v v v v v v v v v v v v v v v v v v v v v v v v z v z w w z w w z w w z w w z w z z v z v v v v v v v v v v v v v v v v v v v v v v v v v v z w w q q 4 q 4 4 3 3 3 , , , , : : % % @ # @ o X X X   X X o X # o # & * * > * = > = ; , 2 2 2 a 4 a q a a ",
"a a 4 a a 4 2 2 , > * * & & * * * * * & # @ o o o X     X X X o @ # # # % % : , , , , , 3 3 4 4 4 4 q q w w z z v v v v v v v v v v v v v v v v v v v v v v v v v v v v v v v v v v v v v v v v v v v v v v v v v v v v v v v v v v v v v v v v v v v v v v z w w w q q 4 4 4 4 4 , , , , : , % % % # # o o o o X     X X X X @ $ $ & = = 1 7 i p g g k k S / / ] ] ] ] o.P o.Y Y Y E I R I R U U U U R R I E Y Y Y Y Y [ P [ [ ] ] ] / ^ A k k g s i 2 - = & # +   X   o o o # % : : : , : : % % # o o X X X   @ # & * 1 7 7 g g g ^ A / / ] ] ] [ [ o.Y o.Y Y Y Y E U I R I R U R R Q Q Q *.! ! =.=.=.=.=.;.;.;.;.i.;.i.i.i.i.i.;.i.;.;.=.=.=.=.! =.! ! Q Q Q Q U U I R I Y Y Y Y o.P o.G ] ] / / S ^ k k g s s i 2 1 = & & $ + X X X X X   X X o o o # # # % % : , : 3 , , 4 4 4 4 4 q 4 w w w w z v v v v v v v v v v v v v v v v v v v v v v v v v v v v v v v v v v v v v v v v v v v v v v v v v v v v v v v v v v v v v v v v v v v v v z z w w q q 4 q 4 4 4 3 3 , , , : : : % % # # o @ X X X   X X X o + o & & * * = = , = = , , 2 2 4 a a a a a a a ",
"a a g a 4 a 7 2 2 = * * & * & * * , = : & # + + o o   X X X X X X @ @ # % % % : : , , , 3 3 3 3 4 q 4 q q w w w z z v v v v v v v v v v v v v v v v v v v v v v v v v v v v v v v v v v v v v v v v v v v v v v v v v v v v v v v v v v v v v v v v v v z w w q w 4 q 4 4 4 4 4 , , , , , : % % # # # @ o o o       X X X X + + $ & = = , 7 i s g s k k ^ S / / ] ] L o.Y P Y Y E Y I R I U U U U U U R I R I Y E Y Y Y Y o.[ [ [ ] / / / A ^ g g s i 2 1 > & # @ @ X       o # % % : , : , : : % % o o X     o @ # # > - 2 7 s g h h A S / / ] ] [ [ P [ Y Y Y E Y U Y U U U U R R Q Q Q ! ! ! =.! =.=.=.;.=.;.;.i.;.i.i.;.i.i.;.i.;.;.;.;.=.=.=.! ! ! ! Q Q Q Q U U R R I E Y Y Y Y P P o.] ] ] / / S k A g g s i i 1 - , & & + # + X X X       X o o @ o # % % % : : , , , , 4 , 4 4 4 q 4 q q w w z z z v v v v v v v v v v v v v v v v v v v v v v v v v v v v v v v v v v v v v v v v v v v v v v v v v v v v v v v v v v v v v v v v z z w w q q q q 4 4 4 3 , 3 , , , : : : % % o # @ o X X     X X o o o o # & * * , = , = , 2 , 2 2 2 a a a a g a a s ",
"a s a a a 4 4 7 , , , * * * * * = * , = * & # o o o o X   X X X X o o # # # % % : : , , , 3 3 3 3 4 4 4 4 q q w w w z z v v v v v v v v v v v v v v v v v v v v v v v v v v v v v v v v v v v v v v v v v v v v v v v v v v v v v v v v v v v v v v z w w q q q 9 9 4 4 4 3 3 , 3 , , : : : % # # # o o o o X     X X X X @ $ $ & & 1 2 7 7 i g g k k k S / / ] ] ] o.P P o.Y Y Y E I R R U U U Q U U I R I R I Y Y Y Y o.P o.[ ] ] ] / S S k k g s s 7 1 - & $ + X X X   o o # # % : : , : : : % # o o o X   X o # & * 1 2 7 7 g h h A ^ S ] ] ] ] [ o.Y [ Y Y Y E Y U I U R U U R U Q Q Q ! *.! =.=.=.=.;.;.;.;.;.i.;.i.i.i.;.i.;.i.;.;.;.;.=.=.=.! ! ! ! ! Q Q Q U U I R I Y E Y Y o.P P o.] ] ] / S ^ k k g g s i 7 1 - , & $ + # X + X X X     X o o o # o % # % : : , , , , 4 4 4 4 4 q 4 q q w w w z z v v v v v v v v v v v v v v v v v v v v v v v v v v v v v v v v v v v v v v v v v v v v v v v v v v v v v v v v v v v v v v z w w q q q 4 4 4 4 4 3 3 3 , , , : , : : % # # o o X X   X X X X o o + # & & * , ; , ; , ; , 2 2 2 4 i a a a a g a a ",
"s a a a a a a 2 2 2 = , * * * * * , = = * & & # + o o X X X   X X X @ o # # % % % : : , , , , 3 3 3 4 4 q 4 q 4 q w w w z z v v v v v v v v v v v v v v v v v v v v v v v v v v v v v v v v v v v v v v v v v v v v v v v v v v v v v v v v v v z w w w w q 9 q 4 4 4 4 4 , 4 , , , : : % % # # # o o o o       X X X X @ + $ & & - 1 1 7 s s g g k ^ S / / ] ] L o.P P o.Y Y Y E I R I U U U U U U U R R I R Y Y E Y Y [ Y [ [ [ ] ] / G ^ A k k g i i 2 1 & & # @ X     o X # # % : : : , : : % % % o o X X   o @ # & * 1 7 p s g h A A / / / ] [ [ [ [ Y Y Y Y Y U Y E U I U U U R Q Q Q ! ! ! =.! =.=.=.=.;.;.;.;.i.;.i.i.i.i.i.;.i.;.;.;.=.=.=.=.! ! ! Q Q Q Q U U R R I R Y Y Y Y P o.] P ] / / / G ^ k k g s p i 7 1 - , & & + + X X X X X     X o o o # o # % % : : : , , , , , 3 4 4 4 4 q 4 w w w w z z v v v v v v v v v v v v v v v v v v v v v v v v v v v v v v v v v v v v v v v v v v v v v v v v v v v v v v v v v v z w w w q q q q 4 4 4 3 3 3 , , , , : , : : : % # # @ X X   X X X X o o + # # * * , ; , = , 2 , 2 2 2 2 a a a g a g a s s ",
"s s a g a a a 4 2 , , = * * * * * = , , ; * & & # o o o o X X   X X X o # # # # % % : : : , , , , 3 3 3 4 4 4 q 9 q q w w w z z v v v v v v v v v v v v v v v v v v v v v v v v v v v v v v v v v v v v v v v v v v v v v v v v v v v v v z z w w w q q 4 q 4 9 4 4 3 3 , 4 : , : : : % % # # # o o o   X     X X X X @ + $ & : - 1 2 7 i s g g k A A / / ] ] ] o.] o.P Y Y Y Y I R I R U U Q Q Q U U U R R I E Y I Y Y Y o.Y [ [ ] ] ] / G b k g g g i 2 1 = & # + X X     o o # % % : , : , : : % # o o X   X   @ # & > < 2 7 s g h ^ A A / ] ] ] [ [ P o.Y Y Y Y Y U I E U U U R U R Q Q ! ! *.! =.=.=.=.;.;.;.;.i.;.i.;.i.i.i.i.i.;.;.;.;.;.=.=.=.=.! ! ! Q Q Q Q Q U I R I Y E Y Y P Y o.] o.G ] / / S ^ k k g s s i 2 1 - > $ $ + # X X X X X     X o o o # # # # % % : , : 3 , 4 , 4 3 4 4 4 q 4 q q w w w z z v v v v v v v v v v v v v v v v v v v v v v v v v v v v v v v v v v v v v v v v v v v v v v v v v v v v z v z w w w w q 9 9 4 4 4 4 3 3 , , , , : : : : , : : % % @ o @ X X   X X o o + # # * * = 2 , 2 2 2 2 2 2 2 7 a 7 a g a g a g a s ",
"s s g a g a a a 2 2 ; , * * * * = , , ; , = > & & # + o o X X X X X o o @ @ # # # % % % : , : , , , 3 3 3 4 4 4 4 9 9 q q w w w w z v v v v v v v v v v v v v v v v v v v v v v v v v v v v v v v v v v v v v v v v v v v v v v v v v z z w w w w q q 9 q 4 4 4 4 , 4 , 4 : , , : % % # # # @ @ o o   X     X X X X @ + $ & & = 1 1 7 a s g g k k ^ / / / ] L ] P P P o.Y Y E I R I U U U Q Q Q Q U U U R I R I E Y Y Y Y Y [ [ [ [ ] / ] ^ S k k g s p 2 2 = & # @ @ X o   o o # % : : : , : : : % % o o X     o o # & * = 2 7 s g g h A / / / ] ] [ [ o.[ P Y Y E Y Y E U I U U R R Q Q Q ! ! ! ! =.! =.=.;.=.;.;.;.;.i.i.;.6.i.i.;.i.i.;.;.;.=.=.=.! =.! ! ! Q Q Q U U R R I R Y Y Y Y o.P o.L o.] ] / / S k k k g g i i 2 1 = = & $ + @ + X X X X   X   o o o o # # # % % % , : , : 4 , 3 3 4 4 3 q 4 q 9 w w w w w z v z v v v v v v v v v v v v v v v v v v v v v v v v v v v v v v v v v v v v v v v v v v v v v v v z z w w w w q 4 q 9 4 4 4 3 3 3 3 , , , : : : : : : : % % % # # X X X X X o o o # # * * * 2 , 2 2 2 2 2 2 2 2 a 7 g a a g a g g p s ",
"s s s g a g i a a 2 , ; , * = > * = , 2 2 , ; * & & # o o o o X X X X o o # @ # # # % % % : : , , , , 3 , 4 4 4 4 4 9 9 9 9 w w w w w z z z v v v v v v v v v v v v v v v v v v v v v v v v v v v v v v v v v v v v v v v v v v z z w w w w q q 4 q 4 4 4 4 4 3 , 4 : 3 : , : : % % % # # o o o o X X     X X X o @ + $ & & , - 2 7 i p g g k k ^ S / / ] ] o.] o.P Y Y Y Y Y R I R U U Q Q Q Q Q Q U U I R I R Y E Y Y Y [ Y [ [ [ ] ] / / S ^ k g g a i 1 - > # + X X X     o # # % % : : , : : : % o # X   X X o @ # * < 2 7 7 g g h A A S / ] ] ] [ [ Y o.Y Y Y E I Y U E U U U R U Q Q Q ! ! =.! =.=.=.=.;.;.;.6.;.;.i.i.i.i.6.i.;.;.i.;.;.;.=.=.=.! ! ! ! Q Q Q Q Q U U R I I E Y Y Y P P o.L ] ] ] / / ^ A k g g g i i 2 1 , = & $ + # X X X X     X X X o o o # # # % % % : , , : 4 , 4 3 4 4 4 4 4 q 4 q q w w w w z z z v v v v v v v v v v v v v v v v v v v v v v v v v v v v v v v v v v v v v v v v v v z z w w w w q q 4 q 4 4 4 4 4 3 3 , , , : , : : % % : : : : : % % @ o @ X X X X o # # # & * , 2 2 2 2 2 2 2 2 2 7 7 7 a a g g a g g i g p ",
"p s g a g a a a 7 2 2 , = * * = * , ; , 2 7 , = * * # + # o o o X X X o o o @ o % @ % @ % % : : : , , , 3 , , 4 4 4 4 4 9 9 4 9 q w w w w w z z z v v v v v v v v v v v v v v v v v v v v v v v v v v v v v v v v v v v v z z w w w w w q 9 q 9 9 4 4 4 3 4 3 , 4 : 3 , , : % % % # # # @ o o X   X       X + X o + $ & & , - 1 2 i s g s k b b S / / ] ] P ] o.P o.Y Y Y R I I R U U Q Q Q Q Q Q Q U U R R R R I Y E Y Y Y o.P o.[ ] ] / / S k k k g p i 2 1 & & # + X     o o o # % : : , : , : % % % o o X     o @ # & * 1 2 p s g h A ^ / / ] ] ] [ P o.P Y Y Y Y Y E U R I U U U R Q Q Q Q *.! ! =.=.=.=.;.;.;.;.;.i.;.i.i.6.i.6.i.i.;.;.;.;.=.=.=.=.=.! ! ! Q Q Q Q U U I R R Y E Y Y Y o.L o.] ] ] / / G ^ k A g g g i 7 7 ; , * * $ + @ + X X X X     X X o o o o # # # % % : : , : 3 : 4 , 4 , 4 4 4 9 4 q 9 q q q w w w z z v v v v v v v v v v v v v v v v v v v v v v v v v v v v v v v v v v v v z z z w w w w w q q 9 9 9 4 4 4 4 4 3 3 , , , , , : % % % % % : : : % % % # % o o X X o o + # & * = , 2 2 7 2 7 2 7 2 7 7 i a a a g a g g g g s s ",
"s s s g a g i a i 7 2 2 , = * , = = , 2 2 2 2 2 = * & # + o o o o o o o o o o # o % @ # % @ : : : : : , , 3 , , 3 4 3 4 4 4 9 9 9 4 9 q q w w w w w z z z v v v v v v v v v v v v v v v v v v v v v v v v v v v v z z w w w w w w q w 4 q 9 4 9 4 4 4 3 4 , 3 , , , : : : : % % # # o o o o X X X     X X X X + + $ & & , - 1 i i p g g k k k S S / ] ] ] ] o.P Y Y Y Y E Y R R I U U Q Q Q Q Q Q Q Q U U I R I R Y Y Y Y Y Y P [ [ [ ] ] / / ^ k g g g i 7 1 = $ # # X X     o o # % % : : : : : : % % o o o   X o o # & * 1 2 7 s g h h A S / / ] ] [ [ P o.Y Y Y E Y Y U I R R U R U R Q Q ! ! ! =.! =.=.=.;.=.;.;.i.;.i.;.i.i.6.i.6.i.i.;.;.;.;.;.=.=.! ! =.! ! Q Q Q Q U U I R I Y Y Y Y Y o.P o.G ] ] / / S ^ k k g g s p i 1 - 1 * & $ + + X @ X X       X   o o o o # # # % % % : , : 3 : 4 , 3 4 4 3 4 4 4 9 9 9 q q w w w w w w z z z v v v v v v v v v v v v v v v v v v v v v v v v v z v v z z z w w w w w q q 4 q 4 4 4 4 4 4 3 , , , , , , : : : : % % @ % % % : : : % % # o o o X X o o # & & * , 2 7 2 7 7 7 4 7 7 7 7 i i d g g g g g g g s p ",
"p s g g g i g a a 7 7 , ; , = * = , ; , 2 2 7 2 , * * & # @ + o o o o o o o o o o o o # @ # # # % % , : , : , , 3 , 4 , 4 4 4 4 4 9 9 9 9 9 q q w w w w w w w z z z z v v v v v v v v v v v v v v v v z z z z w w w w w w w q q 4 q 4 9 4 4 4 4 4 3 3 3 , , , , , : : % % # # # # @ o o o   X     X X X + X + # $ & : = - 1 7 i s g s k k b S G / ] ] ] ] o.P P Y Y Y E I I R I U Q Q Q Q Q Q Q Q Q U U U R I R Y R Y Y Y Y P o.[ [ ] ] ] / S S k k g s p 2 2 > = # @ X o     o o # # % : : , , : : % % o o X X     o # # > = 2 2 s g g h A ^ / / ] ] [ [ o.P Y Y Y Y Y U Y U R I U U R Q Q Q Q ! ! ! =.! =.=.=.;.;.;.;.i.;.i.i.i.i.6.i.i.;.i.;.;.;.=.=.=.=.=.! ! ! Q Q Q Q U U R I R I E Y Y Y Y P P o.] ] ] / / / ^ k k g g s i i 2 , = = & $ $ + X @ X X       X   o o o o # # # # % % % , : 3 : , 3 , , 4 3 4 4 4 4 9 9 9 9 q q q w w w w w w w z z z v z v v v v v v v v v v v v v v v z z z z w w w w w w w q q 4 q 9 9 4 4 4 4 4 3 3 , , , , : , : : : % % % # # # % % % : : % % # # # o o o o o # # & * 2 2 7 7 7 4 7 7 i 7 7 i a i g i g g h g g d g s ",
"p d s s g g a i i i 2 2 , = , = * , , ; , 7 2 2 2 , * & # # # o # o o o o # o o o o o o o # # @ # % % % : , : , , , , 3 , 4 3 4 4 4 4 4 9 9 9 9 9 q 9 w w w w w w w w w w w w w z z z z z w w w w w w w w w w w w w q q 9 4 9 9 9 4 9 4 4 4 3 3 , 3 , , , , : : : : % % # # # o o o o o   X     X X X X X # + $ & * = 1 1 i i s s g k k b S / / ] ] ] ] P P o.Y Y Y Y Y R I R R U U Q Q Q Q ! Q Q Q Q Q U U R I R Y R Y Y Y o.Y P [ [ ] ] / / ^ S k g g s i 1 - : & + + X X     o o % % : : : , : : : % # o o   X X o @ # & < 2 7 7 g g h b A / / ] ] [ [ [ o.P Y Y Y E Y E I R U U U R U R Q Q ! *.! =.=.=.=.=.;.=.;.6.;.i.;.i.i.i.i.6.i.6.;.i.;.;.;.=.=.=.=.! ! ! ! Q Q Q Q Q U U I R I E Y Y Y o.P o.L o.] ] / / S b k k g g s s i 7 1 , = $ & $ + X X + X X     X X   o o o @ # # # # % % : : , , , , , , 3 3 4 3 4 4 4 4 9 9 9 9 9 9 q w w w w w w w w w w w w w z z z z z w w w w w w w w w w w w w q q 9 9 9 9 9 4 4 4 4 4 4 , 4 , , , , , : , % : : # # # @ @ @ # # % % : : % % % # o # o o o # o & * , = 2 2 7 7 2 a 2 4 i i i d g a h d g g g g g p d ",
"p s p g g d i g a 7 7 2 2 = * , = * = = 2 , 2 2 2 = * * & & # # @ # o # o o o o o o o o o o o # @ # # % % : : : : , , , 3 , 3 3 3 3 4 4 4 4 4 9 9 9 9 9 9 9 q 9 q w w w w w w w w w w w w w w w w w w w w 9 q 9 9 9 9 9 9 9 9 4 4 9 , 4 4 3 , , 4 , , , , : : : % % # # # # @ o o o   X X     X X X X X # + $ & & = 1 1 7 i s s g k k k S / / / ] ] L o.P o.Y Y Y Y Y R I R U U Q Q Q Q Q ! ! Q Q Q Q U U R R I R I Y E Y Y Y P o.[ [ ] ] / / G ^ k k g s i 2 1 = & # @ X X   o   # # % % : , : : : % % % o o X     o @ # & * 1 2 7 s g h A A / / / ] ] [ [ P o.Y Y Y Y Y U E I R U U U R Q Q Q ! ! ! =.! =.=.=.;.;.;.;.;.;.i.;.i.i.6.i.6.i.i.i.;.;.;.;.=.=.=.! =.! ! ! Q Q Q Q U U R R I Y Y Y Y Y Y P o.] ] ] ] / / G ^ k k g g s i 7 2 - 1 = & $ $ + + X X X X X     X   o o o o o # # # % % % : : : , , , , 3 , 3 4 3 4 4 4 4 4 9 9 9 9 9 9 9 q q q w w w w w w w w w w w w w w w w w w w q q q 9 9 9 9 9 9 4 9 4 4 4 4 , 4 4 , 3 , , , , : , : : : : # # # # @ X @ # % % : % : % : # % # o @ o o o + # & = , 2 2 2 2 7 2 7 7 7 i i i i g g g h g f g d g p ",
"p d g p g g g a g 7 a 2 , ; * * * , * , , ; 2 2 2 2 = > * & & # # # # o # o o o o o o X X X o o # # # # # % % : : : , : , , , 3 3 , , 4 3 4 3 4 4 4 9 4 9 9 9 9 9 9 9 9 9 4 q 9 q 9 q 9 w 9 q 9 9 9 4 9 9 9 9 9 9 4 9 4 4 4 4 4 3 3 4 , , 4 , , : , , : : : % % % # # # o @ o o o   X     X X X X X + + # $ & = = 1 2 7 i p s k g A A ^ G / / ] ] ] P P o.P Y Y Y Y R I R I U Q Q Q Q Q ! ! ! Q Q Q Q Q U U I R I R Y I Y Y Y Y [ o.[ [ ] ] / ^ S k k g s a 7 1 = & # + X X X   o o # % % : : , : : : % # o o o     X o # # > = 2 7 s s h h A S S ] ] ] ] [ o.P o.Y Y E Y Y U U I R U R R U Q Q Q ! ! ! =.! =.=.=.;.;.;.;.i.;.i.;.i.i.i.i.6.i.;.;.i.;.;.=.=.=.=.! =.! ! ! Q Q Q Q U U I R R I Y Y Y Y P [ o.L [ ] / / / / ^ k k g s g s i 2 1 1 = & & $ $ + X X X X X     X X   o o o @ # # # # % % % : : , , , , , , , 3 3 3 3 4 4 4 4 9 4 4 9 9 9 9 9 9 9 9 9 9 q q 9 9 w 9 9 w 9 9 9 9 9 9 9 9 9 9 9 9 4 4 4 4 4 4 3 , 4 4 , 3 , : , , : > : % : % # # # # o o o o o @ % % % : : : % % % # # o # o # # & & = = , 2 ; 2 2 7 2 7 7 7 a g g d g h g f h g g p p ",
"p p p g d g a d a a 7 2 2 , = * * * * = * 2 , 2 2 2 , = , * & & & & # # # o # o o o X X X X X o o o o # # # % % % % : , : , , , : , 4 , , 3 3 3 3 4 3 9 4 4 9 4 4 9 4 9 9 9 9 9 9 9 9 9 9 9 9 9 9 9 9 9 4 9 4 9 4 4 4 4 4 3 3 3 3 3 , 3 , , , , , : : % % % # # # # # o o o o   X X     X X X X X + + $ & & * - 1 1 7 i s g g g k k ^ / / / ] ] ] o.P o.Y Y Y Y Y R I I U U U Q Q Q Q ! ! ! ! ! Q Q Q Q U U R R I R Y Y E Y Y o.Y [ [ ] ] ] / / S A b g g p i 2 1 & & # O X     o o o # % : : , , : : % # # o o X     o @ & & < 2 2 s g g h A ^ / / / ] [ [ [ Y [ Y Y Y Y U Y U R I U U U R Q Q ! Q ! =.! =.=.=.;.=.;.;.i.;.;.i.i.i.i.i.i.i.6.i.i.;.;.;.;.=.=.=.=.! ! ! ! Q Q Q Q U U R R I R Y Y Y Y o.Y P o.] ] ] ] / / S ^ k k k g s i i 2 2 - 1 & & $ + # # X X X X X     X   o o o o o # # # # % % % : : : : , , , , , 3 , 3 3 3 3 3 4 9 4 4 4 4 9 9 4 9 9 9 9 9 9 9 9 9 9 9 9 9 9 4 9 9 4 9 4 4 4 4 4 4 4 4 , 4 3 4 , , , : , , > : > : % : # # # # # o o X X X X % o # % % : : : : # : # # o # + # # * * , = 2 , 2 2 2 7 2 a i a a d g g d h h g g d d p ",
"p d d p g g g g a a 7 7 , , = * * * * * = * 2 = 2 2 2 = = * , * & & & # # # @ o o o X X X X X X X o o o # @ # # % % % % : : : , , , : 4 , , 3 3 3 3 3 3 3 4 3 4 4 9 4 4 4 9 4 4 9 4 9 4 4 4 9 4 4 4 4 4 4 4 3 3 3 4 3 4 , 3 , 3 , , 3 : 3 : : : : : % % % # # # o o o o o X   X     X X X X X # + # $ & & , - , 2 i i s s g k k k S / / / ] / o.] P o.P Y Y Y Y E I R R U U Q Q Q Q ! ! ! ! ! ! ! Q Q Q U U U R R I R Y Y Y Y P o.P P [ ] ] ] / S k k g g s i 2 1 = # # + X X     o # # % % : : , : : : % # o o X   X o @ # & * 2 2 7 s g h b A / / ] ] ] [ [ o.Y Y Y Y Y Y U Y U R U U R U R Q Q ! ! ! =.! =.=.=.;.;.;.;.6.i.;.i.i.i.6.i.i.i.6.i.;.i.;.;.;.=.=.=.=.! ! ! ! Q Q Q Q Q U U I R I E Y Y Y o.P P P o.G ] ] / / S b k k g g g s i 2 1 1 - & & $ + + + X X X X X     X X   o o o o @ # # # # % % % : : : , , , , , 4 , , 3 3 3 3 3 3 4 4 4 4 4 9 4 4 9 3 3 9 9 9 4 9 3 9 4 4 9 4 4 9 4 4 3 3 3 4 3 3 , 3 , , , , , : , % > : : % % # # # # o o o o X X X X X o % % # : : : : : % # # # # o # + & & * * , = 2 2 2 2 2 7 2 a a g a g g h f h g f g p p ",
"p d p g g d g a a a 7 4 2 = , * & & * * * , = , 2 2 2 2 , 2 * = * , & & & # # o # o o X X X   X X X X X o @ o # # # # % % % : : : : , : , , , , , , 3 , 3 , 3 3 3 3 3 3 3 3 3 9 3 4 3 4 3 4 3 4 3 3 3 4 3 3 3 3 3 , 3 , , , , , , , : , : : : % % % # # # # @ @ o o o o X X X     X X X X X + + + $ $ & , - 1 7 7 s s g g k k ^ S / / / ] G o.] P o.Y Y Y Y Y I I R I U U Q Q Q Q ! ! ! ! ! ! ! Q Q Q Q Q U U R I R Y U Y Y Y Y Y P o.] [ ] / / ^ S k k g s i 2 2 & = # @ X X   o   o # % % : , : , : : % # # o X X   o @ @ & * 1 2 7 s g h h A / / / ] ] [ [ P o.P Y Y Y E Y U R I U U R R Q Q Q ! ! ! ! =.=.=.=.=.;.;.;.;.;.i.;.i.i.i.i.i.i.i.i.i.;.;.;.;.;.=.=.=.! =.! ! ! Q Q Q Q U U R I R I E Y Y Y Y P o.L o.] ] / / S G ^ k k g g s p i 7 2 - , = & $ $ # @ + X X X X X     X X   o o o @ o @ # # # % % % : : : : : , : , , , , , , , 3 3 3 3 3 3 3 3 3 3 3 9 3 3 3 3 3 9 3 3 3 3 3 3 3 3 , 3 3 3 , , , , , , , : , % , > : % % % # # # # # o o o X X X X   X X o # @ % : : > : : : : : # # # # # & & * * = , , ; , 2 2 2 7 7 a a g g h g h g f g d d p ",
"p 6 p d s g i g a a a 2 2 , * * * & & * * * , = , 7 2 2 2 , 2 , , = , & & & & # o # X o X X X   X   X X X X o o @ # # # % # % % % % : : : , : , , , , , , 3 , , 3 , 3 3 3 3 , 3 3 3 3 3 3 3 3 3 , 3 3 , 3 , 3 , , , , , , , , : : : : : % % % % # % # # o o o o o o   X     X X X X X + X # + $ $ & = = 1 1 7 i s s g g k k A A / / / ] G o.] o.P P Y Y Y E Y R I R R U Q Q Q Q Q ! ! ! =.! ! ! ! Q Q Q Q U U I R I R Y Y E Y Y P Y [ o.L ] ] / / ^ k k g s s 7 1 1 & $ + X X X   o o # # % : : , : : : : # o o o X   X o # & * < 2 7 p s h h A A / ] ] ] ] [ o.P o.Y Y Y Y U Y U U R U U R U Q Q Q *.! =.! =.=.=.=.;.;.;.6.;.i.i.;.i.i.i.i.i.i.i.6.6.i.;.;.;.=.=.=.=.! =.! ! ! Q Q Q Q U U U I R I Y Y Y Y o.P o.P L ] ] ] / / / ^ k k g g s s i i 1 1 - = : $ $ + + X + X X X X       X X X X o o o @ # # # # # % % % : : : , : , , , , , , , , , 3 , 3 , 3 3 , 3 3 3 3 3 3 , 3 3 3 3 3 , 3 , , 3 , , , , , , , , : : , % : % % % % # # # # o o o o X X X X     X X X o @ % % : & : > : > : & : # # & # & & & * * = = , ; 2 2 2 7 a a g a g g h g h g f p d 6 ",
"p p d p g d g g a a a 2 2 ; > * & & * & & * * , ; , 2 2 7 2 2 2 2 , , = , & & # & o # o o X X X X   X   X X o o o o @ @ @ # % # # % % % : : : : : : : , , : , , , , , , , , 3 , , , , , , , , , 3 , , , , , , , , , : , : : : : : % % % # # # # # o # o o o o o   X X     X X X X X X o + + $ $ $ = - 1 1 7 i s s g g k k A ^ / / / ] G o.] P P o.Y Y Y Y Y R I R U U Q Q Q Q Q ! ! ! ! ! =.! ! ! Q Q Q Q U U R R R I E Y Y Y Y o.P o.[ [ ] ] / / S A k k g a i 2 - & & # @ X       X # # % : : : , : : % % # o o   X   o @ # & * 1 7 7 g g h A ^ / / / ] [ [ [ P Y Y Y E Y Y U Y U I U U U R Q Q Q ! ! ! ! =.=.=.;.=.;.;.;.;.i.;.i.i.6.i.i.i.i.i.i.i.;.;.;.;.;.=.=.=.=.! ! ! ! Q Q Q Q Q U U R I I R Y Y Y Y Y P P o.L o./ ] / / S S b k k g g s i i 7 1 1 = = & $ $ # + X X X X X X X     X X X o o o o o @ # # # # % % % % % : : : : : , , : , , , , , , , , 3 , , 3 , , , 3 , , , 3 , , , , , , , , , , , : : : : : % % % # # # # # o # o o X X X X   X   X X X X X o @ # # : : : > > : * : & & # # & # & & & * * , = , , 2 2 2 a a a g g g g h g f g d p p ",
"6 p p p s g i g a a a 4 2 , = * & & # & * & > * , ; , 7 7 7 4 2 2 2 2 , = , & & # # o o o o o X X X X X X X   X X o o o @ @ @ # # # # # % % % % : : : : : , : , : , , , , : , , , , , , , , , : , , , , : , : : , : : : : % : % % % # # # # # o @ o o o X o   X X     X X X X X X # # + $ $ $ = = , 1 7 7 i a s g g k k ^ S / / ] ] ] o.L o.P Y Y Y Y E Y I R I R U Q Q Q Q Q ! ! ! ! =.=.! ! ! ! ! Q Q Q Q U U I R R I E Y Y Y Y P [ o.[ ] ] ] / G b k g g g i 2 1 = & # + X X   o o o # % % : , : : : : % # o o o   X   @ # & > < 7 7 s g h A A A / ] ] ] [ [ o.P Y Y Y E Y I U E U R U R U R Q Q Q *.! =.! =.=.=.;.;.;.;.;.;.i.;.i.i.i.i.i.p.i.i.i.6.i.;.;.;.;.=.=.=.=.! ! ! ! Q Q Q Q Q U U U R I R Y Y Y Y o.P o.P L o./ ] / / / S b k k g s s s i 7 1 1 - = $ $ $ $ + + X X X X X X       X   X X o o o o @ @ # # # # % % % % % : : : : , : : , : , , , , : , , : , , : , , , , : , , , : , : : : : : : : % % % % % # # # # # o # o o o X X X X X X   X X X X X X o @ # % % : > > > > > > & : & & # & + & & & * = , = , 2 2 7 7 a a g g g h g g g f p p p ",
"p p p s d i g a g a a 7 2 , , * & & & & # & * * = , 2 2 i 4 a 7 a 4 2 , 2 , * , & & # # + o o o X X X X X   X X X X o o o o o @ o # # # # # # # % % % : % % : : : : : : : , : : : : : : : : : , : : : : : : % : % % % % % % # # # # # # # @ o o o o X X X   X       X X X X X X + + + $ $ & = , 2 1 2 i p s g g k k k ^ S / / ] ] ] ] L o.P o.Y Y Y Y Y I R I U U Q Q Q Q Q Q ! ! ! =.=.! =.! ! ! Q Q Q Q U U U R R I E I Y Y Y Y o.Y [ [ ] ] ] / ^ S k k g s p 2 2 , & # @ o   o     o # % % : : : , : : % % o o X     o o # & * = 2 7 s s h h A / / / ] ] [ [ [ Y o.Y Y Y Y E E I R I U R R Q Q Q ! ! ! ! =.! =.=.;.=.;.;.;.i.;.i.i.i.i.i.i.i.i.i.i.i.;.i.;.;.;.;.=.=.=.! =.! ! ! Q Q Q Q Q U R I R I R Y E Y Y Y P P o.] ] ] ] / / S S b k k k g s a i i 2 1 , = = $ & + # + + X X X X X X X     X X X X X o o o o o # # # # # # % % % % % % % : : : : : : : , : : , : : , : : : : , : : : : : : : : % % % % % # # # # # # # o o o X X X X X X X       X X X o o X X o @ # # : > > , , = , * > & : # & + & # & & & * * , ; , 2 4 a a g a g g g g f g p d p 6 ",
"6 p p p s g i g a a a 4 2 2 * * & # & # & & & * * , ; 2 7 a a a a a a 4 , 2 , = * & & # # o # o o o X X X X X     X   X o X o o o o o @ @ # # # # # # # % % % % % % : % : % : : : : : : : : : % : : % % % % % % % % # # # # # # # o @ o o o o X X X X X X     X X X X X @ X + + # $ $ & * = 1 - 1 i i s s g g k k b S / / / ] ] ] ] o.o.P P Y Y Y Y E I R I R U Q Q Q Q Q Q ! ! ! =.! =.=.! ! =.! ! Q Q Q Q U U U I R I E Y E Y Y [ o.P [ [ ] ] / / ^ A k g s s i 1 - > # + + X     o o o % % % : , : : : : # # o o X   X o @ # * < 1 7 7 g g h ^ A S / ] ] [ [ [ o.P Y Y Y E I Y U U U U U R U Q Q Q ! *.! =.=.=.=.=.;.;.;.6.;.i.;.i.i.6.i.i.p.i.i.i.i.i.;.;.;.;.;.=.=.=.=.! ! =.! ! ! Q Q Q Q U U U R I I Y Y Y Y Y o.P P o.G ] ] / / / S b k k g g g s a i 7 1 1 - , & $ $ $ + + X X X X X X X X     X X X X X o o o o o @ @ # # # # # # # % % % % % % : % : % : : % : : % : : % : % : % % % % % % % # # # # # # # @ @ o o o o X X X X X X X     X X X o o o o o X o o @ # : & : > , , , , , = > & & # # # & # & & & * = , ; 2 2 a a a g g g g g g d g p p p ",
"p 5 p p d a g a a a 4 7 7 , > * & & # # & # & & * = , 2 4 a a x a a a a a 2 2 , , * * & # & o # + o + X X X X X X     X   X X X o o o o o o o @ @ @ # # # # % # # # # % # % % % % % % % % % % % % # % # # # % # # # # # @ # @ o o o o o o X X   X X       X X X X X X X X + + $ $ & & = - 1 1 7 i i s s g g k k k S / / / ] ] ] L o.P P Y Y Y Y E Y I R I U U Q Q Q Q Q Q ! ! ! =.! =.=.=.! =.! ! ! Q Q Q Q U U R R R I E Y Y Y Y Y Y P [ [ ] ] / / S A k k g s i 2 1 & & # @ X X   X X # # % : : , : , : % % # o o       o @ # * * 2 2 s s g h A A / / ] ] ] [ [ P o.Y Y Y Y Y E U I R U U U R Q Q Q ! ! ! ! =.! =.=.;.;.;.;.;.;.i.i.i.i.i.i.i.p.i.i.i.i.i.i.;.;.;.;.;.=.=.=.=.! ! ! Q Q Q Q Q Q U R I R I R Y Y Y Y Y o.P ] o.] ] / ] / / / A A k k g g s i i 7 2 1 - = , & & $ # + + # X X X X X   X X     X X X X X o o o o @ o @ @ @ # # # # % # # # # % # % % % % % % % % % % % % # % # # # # # # # # # # @ @ o o o o X X X X X X X       X X X o o o o + o o o o o o # # : > * , , , , , , * * & # # # + # & & & * * = , 2 2 a a g a g g g g g g p d 6 7 ",
"7 p 7 p p p a g a a a 4 2 2 > * & & # + # & # & * * 2 2 2 a g a g a a a a a 7 2 , = , & & & & # + # o o o X X X X X X       X X X   o o o o o o o o o @ @ @ @ # # # # # # # # # # # # # # # # # # # # # # # @ @ @ o @ o o o o o o X o   X   X     X X X X X X X X @ + + # $ $ $ * * = 1 1 2 7 i i g g g k k k ^ S / / / ] ] ] ] o.L o.P Y Y Y Y Y R R I R U U Q Q Q Q Q ! ! ! =.! =.=.=.=.=.! ! ! ! ! Q Q Q Q U U R I R I E Y Y Y Y P o.P [ ] ] ] / G ^ k g g s p 2 2 = $ # + o X     o o # % % : : , : : : % # # o o   X o o # # * 1 2 7 s g g h ^ S / / ] ] [ [ P Y Y Y Y E Y I E U I R U R U R Q Q ! ! =.Q =.=.=.=.=.;.;.;.;.i.;.i.;.i.i.i.i.i.p.i.i.i.i.6.i.;.;.;.=.=.=.=.=.! ! ! ! ! Q Q Q Q Q U U U R I R Y Y Y Y Y o.P P ] o.G / ] / / / ^ k k k g g s s i i 2 1 1 - = & & & $ + + o + X X X X X X X X     X   X   X X o o o o o o @ @ @ o # # # # # # # # # # # # # # # # # # # # # # # # @ @ @ @ o o o o o o o X X X X X X X         X X o o o o o + # # o o o o # @ & : : , , , 2 , 1 , , & & # # # # # + & & & * * 2 , 7 7 a a g g g g g g d p p p 6 ",
"p 5 i p i a g a g a 4 7 7 , , * & # # # + # # & * * = , a a a g g g g a a a 4 2 2 2 = , * * * & & # + # + # X X X X X X   X       X X X X   o X o o o o o o o o o o @ o @ @ @ @ @ @ @ @ @ @ @ @ @ @ @ @ o @ o o o o o o o X X X   X   X       X X X X X X X o + X + + $ $ $ & * = - 1 1 7 i a a g g g k k k ^ / / / / ] ] ] L o.P o.Y Y Y Y Y I R I I U U Q Q Q Q Q Q ! ! ! =.! =.=.=.=.=.=.! =.! ! Q Q Q Q Q U U I R R I Y U Y Y Y o.P o.[ [ ] ] / ^ S k k k s i 7 1 > = # @ X   o   o o o % % : : , : : : % % o o X X     o @ & * > 2 7 7 g h b h / / / ] ] [ [ o.[ P Y Y Y Y E U Y R U U U R Q Q Q Q ! ! =.! =.=.=.;.=.;.;.i.;.i.;.i.6.i.i.i.p.p.p.i.i.i.i.;.i.;.;.;.;.=.=.=.=.=.! ! ! ! Q Q Q Q Q U R I R I R Y Y Y Y Y o.P o.L o.] ] ] / / / S ^ k k k g g g i i 7 7 1 1 - , & & $ $ $ + # X X + X X X X X X X X   X   X   X X X X o o o o @ o o o o @ o @ @ @ @ @ @ @ @ @ @ @ @ @ @ @ o o @ o o o o o o o X X   X X   X   X     X   X X o o o o o # + & # + # o o o o # # & > , , 2 , 2 , , * > & & # # o + $ # & & * , = 2 4 a a x a g g g g g p p p p 7 ",
"7 p 5 i i d a a a a a 4 2 2 , * & # # # # o & # & * , 2 2 a a g g g g g a g a a 7 2 , 2 = , * * * * & # + + # X X o X X X X X             X X X   X   o X o o o o o o o o o o o o o o o o o o @ o o o o o o o o X X X X   X X X X       X X X X X X X + X + X + $ # $ $ & = = 1 1 2 7 7 i s g g g g k k ^ S / / / ] ] ] ] o.P P o.P Y Y Y E Y R I R R U U Q Q Q Q Q ! ! ! =.! =.=.=.=.=.=.=.=.! ! ! ! ! Q Q Q Q U U I R R Y Y Y Y Y Y Y [ o.] ] ] ] / ^ A k g g s i 2 - & & # + X       o # # % % : , : , : % % # o o   X X o @ # & = 1 7 p s g h A A S / ] ] ] [ [ Y o.Y Y Y Y Y U U I R U U R U R Q Q ! ! ! =.! =.=.=.;.;.;.;.6.;.i.i.i.6.i.i.i.p.p.p.i.i.i.i.;.i.;.;.;.=.=.=.=.=.! =.! ! ! Q Q Q Q Q U U U R I R Y Y Y Y Y o.P o.L o.L ] ] / / / S ^ k k k g g g p i i 7 1 1 ; , = & & $ $ + + + X X X X X X X X X X X         X X X   X X X X o o o o o o o o o o o @ o o @ o o o o o o o o o o o X X X   X X X X     X X X X X X X o o o o + o # + # & & & # + + o o # # & : > > , , 4 , 2 , , * & # # # # # o & # & & * , 2 2 4 a a g a g g g d g p p 5 6 ",
"6 5 i i i i a a a a a 4 7 , , * & # # # o # # # & * * , 2 a a a g h x g g a g a 4 7 7 2 , 2 , , , * * & $ $ # # + + @ X @ X X   X X               X X X X X X   X X X X X X X X X X X X X X X X X X X X X   X   X X X   X         X X X X X X X X X X X # + + $ $ & $ = = - 1 1 1 i i s s g g g k k k ^ S / / / ] / ] L o.P P o.Y Y Y Y Y Y I I R U U Q Q Q Q Q Q ! Q =.! ! =.=.=.;.;.=.=.=.! =.! ! ! Q Q Q Q U U R R R I E Y E Y Y Y o.[ [ [ [ ] / / G A k k g s i 2 1 = & # @ X X   o o o # % : : : , : : : % # o o X     o @ # & > - 2 7 s g h A A ^ / ] ] ] [ [ o.P Y Y Y Y E Y I R I R U U R Q Q Q Q Q =.Q =.=.=.=.=.;.;.;.;.i.;.i.i.i.i.i.p.p.p.p.p.i.i.i.i.;.i.;.;.;.;.=.=.=.=.! ! ! ! Q Q Q Q Q Q U U I R I R Y Y Y Y Y Y P o.P ] ] ] ] ] / / / S ^ k k g g g g a i i i 1 , - , = * & $ $ $ # + + X + X X X X X X X X X X       X X X X X X X   X X X X X X X X X X X X X X X o X X o X   X   X X X X X       X X X X X X o o o o o o # o # # & & * * & & # o o # o # # & > , , 2 , 4 2 , , * > # # # o o # o # & & , = , 2 a a g a g g g g g d p 7 p 7 ",
"7 7 5 i i i a i a a a 4 2 2 , * & # # o # o # # & & , ; 2 a a x g x h b g g a a g a 7 7 2 2 2 2 , 2 * = * & & $ $ + + + X o X + X X X X X X     X             X X X X X X X X X X X X X X X X X X X X X X X X         X X X X X X X X X X X + X @ + + # + $ $ & & = = , 1 1 7 7 i i s s g g g k k ^ S S / / ] ] ] o.] o.L o.P Y Y Y E Y R I R I R U U Q Q Q Q ! Q ! ! ! =.=.=.=.;.=.;.=.=.=.=.! =.! ! Q Q Q Q Q U U U I R I E Y Y Y Y [ Y [ [ ] ] ] / ^ A A k g s i 7 1 , & # + X X X   o o # % % : : , : : : % % o o o     o o # & & 1 2 7 s s h h A S S / ] ] [ [ [ o.P Y Y E Y U Y U R I R R U R Q Q ! *.! =.! =.=.=.;.=.;.;.6.;.i.;.i.i.i.i.i.p.p.p.p.p.p.i.i.i.;.i.;.;.;.;.=.=.=.=.! ! ! ! ! Q Q Q Q Q U U U I I R Y I Y Y Y o.P o.P o.L ] ] ] / / / S ^ k k k g g g g a i i 7 1 1 = , = & & $ $ $ + $ o + o X X X X X X X X X                 X X X X X X X X X X X X X X X X X X X X X X X X           X X X X X X X X X o o o o + # # # & & & > * , , * & # # o + # o & : > , , 2 2 , 2 , , * & & # o # o # # # # & * , 2 2 7 a a x a g g a g p p p 5 7 ",
"7 5 i 7 i i 7 g a 4 a 7 4 2 , > : # # o o # o # # & = , 2 a a a g h h h h g g g a a a a a 7 a 2 2 2 2 , , = * * & $ $ $ # + + X + X X + X X X X X X X   X X X X                                               X X X X X X X X X X X X X X + X # + + $ $ $ & * > = - 1 1 1 7 i a s s g g g k k S b S / / / ] ] ] ] ] P P o.Y Y Y Y Y Y R I R I U U Q Q Q Q Q Q Q ! ! =.! =.=.=.=.=.;.;.=.=.=.! =.! ! ! ! Q Q Q Q U U I R I R I Y E Y Y Y o.P [ [ ] ] / / S A k g g s 7 2 = = # # X o     X o o # % : : : , : : % # # o o X     o @ # * < 1 7 a g g h A ^ / / ] ] ] [ [ Y o.Y Y Y Y Y E U I R U U R R Q Q Q Q ! ! =.! =.=.=.;.;.;.;.i.;.i.;.i.i.i.i.p.p.p.p.p.p.i.i.i.i.;.i.;.;.;.=.=.=.=.! =.! ! ! Q Q Q Q Q Q U U R R I R Y Y Y Y Y Y P o.P o.] ] ] ] / / / S S ^ b k k g g g s i i 7 7 2 1 - , = * * & $ + $ + o + # X X + X X X X X X X X X X X   X                                               X   X X X X X X X X X X o o + o # + # # & & & * = = , 2 = , & & + # o o # & : * , , , 2 4 2 , , > : # # # o # o o # # & * = , 7 4 a a a g a g g s p p 7 p 7 ",
"7 5 7 7 7 i a 4 i a 4 i 2 , , * & # o # o o @ # # & * , 2 a a g g x h h h h h g g a a a g a a a a 7 7 2 2 , = = = & & $ & $ $ $ + @ + X X X + X X X X X X X X X X X X X X X X X X X X X X X X X X X X X X X X X X X X X X X X + X X + + # + $ + $ & $ & * = , - 1 1 7 7 i a s s g g g k k k S ^ G / / ] ] ] ] L o.P o.P Y P Y Y Y E I I R R U U U Q Q Q Q Q ! ! ! =.! =.=.=.=.;.;.;.=.;.=.=.=.=.! ! ! ! ! Q Q Q Q U U R R I E Y Y Y Y Y [ o.P [ ] ] ] / ^ A k g g s i 2 1 = $ # + X     o X # # % % : , : , : % % # o o X   X o @ # & * 2 2 8 s g h ^ A / / ] ] ] [ [ P Y Y Y Y Y E Y U R I R U R U R Q Q ! *.! =.=.=.=.=.;.=.;.;.;.i.;.i.i.i.i.i.i.p.p.p.p.p.p.p.i.i.6.6.;.;.;.;.=.=.=.=.! =.! ! ! Q Q Q Q Q Q U U U I R I R Y Y Y Y Y P P P o.L ] ] ] ] / / / S S b k k g g g g a i i i 7 1 1 1 - = > * $ * $ $ + + + # X + X X @ X X X X X X X X X X X X X X X X X X X X X X X X X X X X   X X X X X X X X X X X X X # o # o + # # & & & * = = , , 2 2 2 , = * & & o # # + # & , * 2 , 4 2 , 2 , > : & # o o o o # o & # * , ; 2 4 a a g g a g g a p p 5 7 6 ",
"5 7 7 7 7 7 7 a a a a 4 2 2 , > : # % o o o o @ # & * , 2 2 a a g g g h A h h h g d g g a g a g a a a 7 7 2 2 1 , , = = : & & + $ + # + + $ X + X @ X + X X X X X X X X X X X X X X X X X X X X X X X X X X X X X X + X X X + X + + + $ + $ $ & & : = = - 1 1 2 2 i i s s s g g g k k k A ^ S / / / ] ] ] ] L o.o.P P Y Y Y Y E Y I I R I U U Q Q Q Q Q Q ! ! =.! ! =.=.=.=.;.;.;.;.;.;.=.=.=.! =.! ! ! Q Q Q Q U U U R I R I Y E Y Y Y Y [ [ ] [ ] / / G ^ k k g s p 2 1 > & # @ o o     o o # % : : : , : : : % % o o X   X o @ @ & * 1 2 7 s g h h A / / / ] ] [ [ o.[ Y Y Y E Y I E I R U U R R Q Q Q ! ! ! ! ! =.=.=.=.;.;.;.i.;.i.i.;.i.i.i.p.p.p.p.p.p.p.p.p.i.i.6.;.i.;.;.;.=.=.=.=.! =.! ! ! Q Q Q Q Q Q U U R I R I R Y Y Y Y Y o.P P o.L o.] ] ] ] / / / S A b k k k g g g s a i i 7 7 1 , - , = * * & $ $ $ + $ + # + X # X # X X X X + X X X X X X X X X X X X X X X X X X X X X X X X X X X o X X + o + + + + + $ & & & * * * = , , 2 2 7 7 7 2 2 * & # # # + # # & & , , 4 , 2 2 , , , & : o % o o X o # o & * * , 2 7 4 g a a g a s p p 7 p 7 7 ",
"7 5 7 5 7 7 7 i 4 4 7 4 7 , , * & # o o X o @ o # & & , 2 7 a a x g b h h h h h h h g g g g g a g g a g i 7 7 7 2 1 , - - = & , $ & $ $ $ + $ + + X + X + X + X o X @ X X X X X o X X X X X X X X X X X X X o + o + X $ + + # $ $ $ $ & & & * , = = 1 1 1 2 7 7 i i s s g g g k k k ^ S S / / / ] / ] [ L o.] P Y o.Y Y Y E Y I R I R R U U Q Q Q Q Q Q ! ! ! ! =.=.=.=.=.;.;.;.i.;.;.;.=.=.=.=.! =.! ! Q Q Q Q Q U U I R I R I Y Y Y Y o.Y [ o.] ] ] / / A A k g g i 7 1 - = # + X X X   o o # # % : : : , : : % # # o o     X o # & * < 1 7 p g g h A A / / ] ] [ [ [ Y o.Y Y Y E Y U U I R U U R U Q Q Q ! *.! =.=.=.=.=.;.;.;.;.i.;.i.i.i.6.i.i.p.p.p.p.p.p.p.p.p.i.i.6.;.i.;.;.;.=.;.=.=.! ! =.! ! Q Q Q Q Q Q Q U U U I R I E Y Y Y Y o.P Y o.L P ] ] ] ] / / / / S ^ k k k k g g g s a i i 7 7 1 1 1 , = = > * & $ $ & + $ + + + X + o + X X X X @ X X X X X X X X X X X X X X X X X + X X X @ + X + + + # + $ $ $ $ & $ * * = > , 2 , 7 2 7 7 a a 7 2 , = * & # + # # & & , * , 2 2 , 4 , , > > # % X @ X o o o # # : , , 2 a 4 a g a g g a p p i 7 6 p ",
"7 7 7 7 2 7 i 4 a 7 i 4 , 2 = , : # # o X o X X # # * * 2 4 a a a g g h h A A h h g h h h g h h g g g g a g a 7 7 7 7 2 1 1 , = = , = & & & $ $ $ $ $ # + $ X + + + X + o + o + o + o + o + + X + # X + # + + # + + $ + $ $ $ $ & $ * & , = 1 = 2 1 1 7 7 i i s a g g g g k k k ^ ^ S / / / ] / ] o.] L o.P o.Y o.Y Y Y Y Y I R I R U U Q Q Q Q Q Q ! ! ! ! =.! =.=.=.=.;.;.;.;.;.;.;.=.;.=.=.! =.! ! ! ! Q Q Q Q U U R R I R Y Y E Y Y Y P P [ [ ] ] / G ^ A k g s s i 2 1 & & # o o       o o % % : : , : , : % % # o o   X   o @ # & * 2 7 p s g h A ^ / / ] ] ] [ P o.P Y Y Y Y U Y U R I U U U R Q Q Q ! Q =.! ! =.=.;.=.;.;.;.;.i.;.i.i.i.i.i.p.p.p.p.p.p.p.p.p.p.i.i.6.;.i.;.;.;.=.=.=.=.=.! ! ! ! ! Q Q Q Q Q U U U R I R I Y Y E P Y Y P o.P o.] o.] G ] ] / / / S S A b A g k g g g g s i i i 7 2 2 2 , = , * = * & $ & $ $ $ $ $ + $ + + + + + X + o + + o + + X # X + o + X + @ X + + + + + $ + $ $ $ $ $ & $ * * = , = , 2 2 2 7 7 a a a g a i 2 2 , * & & # + # # & & > 2 , , 4 , 2 , > : : # # o o o X o @ # & * , 2 7 4 a a a s s p p 7 7 5 7 7 ",
"p 5 7 2 7 7 2 i 4 i 4 7 4 , , * & % o @ o X X @ @ % : , , 2 a a g g g h h h A A h A h f h h h h b g h h g g g g a i i i 7 1 2 1 1 - 1 - = , & = $ & & $ $ $ $ $ $ $ + # + + $ + + $ + + $ + + $ + + $ + $ $ + $ $ $ $ & & & = & = = , = 1 1 1 7 1 i i i i a g g g g g k k k ^ S S S / / / ] ] ] ] L o.P P o.P Y Y Y Y Y E I R I R U U U Q Q Q Q Q ! ! ! ! =.! =.=.=.=.;.;.;.;.i.;.;.;.;.=.;.=.=.=.! =.! ! ! Q Q Q Q U U R R I R Y Y Y Y Y o.P P [ ] ] ] / G b k k g s i 2 1 = & # +   X   o   # o % % : , : : : : % # o o o   X   @ # & > < 2 7 s g h A A A / ] ] ] [ [ P o.Y Y Y Y Y U Y R U R U R U R Q Q ! ! ! =.=.! =.=.;.;.;.;.;.;.i.i.;.i.i.i.i.p.p.p.p.p.p.p.p.p.p.i.i.6.;.i.=.;.;.=.;.=.=.=.! =.! ! ! Q Q Q Q Q Q U U U I R I R Y E Y Y Y Y o.P P o.L o.L ] ] ] / / / / S b A k k k g g g g s a a i 7 7 2 2 2 , , - , = * * * $ & $ $ $ $ $ $ $ $ + # + + $ + + $ + + $ + + $ + # + $ $ $ $ $ & $ & $ & & * = = = , = , 2 2 2 7 7 i 7 a a g g g g a 7 2 2 * * & # # + # & * , * 2 , , 2 , , = > # % o o o X X o @ % & , = 2 4 7 a a g a a s i i 7 7 p 5 ",
"5 7 2 7 7 2 7 4 7 4 2 4 2 2 , : : # # o X X o X @ # & * , 2 a a a g g h h A h A A j A A A A A A h A b g A g g g g g s s i i i 7 7 2 1 1 , 1 - , = = * * * > & $ & $ & $ $ $ $ $ $ $ $ $ $ $ $ $ $ $ $ $ & & & & * * * * = = , = 1 1 1 2 1 7 7 i i i a g g g g g k k k k A ^ S / / / / ] ] ] G o.L o.P P o.Y Y Y Y Y Y R I R I U U U Q Q Q Q Q Q ! ! ! ! ! ! =.=.=.=.;.;.=.i.;.;.i.;.;.;.;.=.=.=.=.! ! ! ! Q Q Q Q Q U U R I R Y U Y Y Y o.Y P o.] [ ] / ] ^ S k k g s i 2 2 > & # @ + o     o o # % : : : : , : : % % o o X     o o # & * = 2 7 s g g h A / / / ] ] [ [ o.P Y Y Y E Y Y U I R I U R R Q Q Q ! Q =.! ! =.=.=.;.=.;.;.i.;.i.;.i.i.i.i.p.p.p.p.p.8.p.p.p.p.p.p.i.i.6.;.i.;.;.;.=.=.=.=.=.! ! ! ! ! ! Q Q Q Q Q U U U R I R I I Y Y Y Y Y P o.P P o.] P ] ] / ] / / S S S ^ k k k b g g g g g s a i 7 7 7 2 7 1 1 1 , = , = = = * * * $ & & $ & $ $ $ $ $ $ $ $ $ $ $ $ $ $ & $ $ & & & & & = & = = = 1 = 1 1 , 2 2 7 7 i i a a g g g h h g g a a 7 , = * & & + & # & & * , , 2 2 , 2 , , : : # @ o X X X X @ @ & * , , 2 a 4 s a a p i i 7 7 7 5 p ",
"p 7 ; 2 7 2 7 2 7 4 7 4 2 , , > & % X @ X X X o o % & , = 2 7 a a x g g h h A f A A A A A A A b S b S b A k k g g g g g s s s i i i 7 7 7 1 1 1 1 1 1 = , = = = = = & = : * * * * * * * * * * * * * * = & = , = , = 1 , 1 1 1 7 1 7 7 7 i 7 a a g g s g g k g k k A ^ S S / / / / ] ] ] ] ] o.L o.P o.P Y Y Y Y Y E I I R I R U U Q Q Q Q Q Q ! ! ! ! ! =.=.=.=.=.;.;.;.i.;.i.;.;.i.;.;.=.;.=.=.! =.! ! ! ! Q Q Q Q U U U R I R Y R Y Y Y [ o.P o.] ] ] / / ^ A k g g s 7 1 - & $ + X X     o o # # % : : , : : : : # # o o   X X o @ # * < 1 7 s s h h ^ A / / ] ] ] [ [ o.Y o.Y Y E E Y U U U U U R U Q Q Q ! ! =.! =.=.=.=.;.;.;.;.i.;.i.i.i.6.i.i.p.p.p.p.p.p.p.p.p.p.p.p.i.i.6.;.;.i.=.;.=.=.=.=.=.! =.! ! ! ! Q Q Q Q Q Q U U U I R I R Y Y Y Y Y Y o.P P o.] P ] ] ] ] / ] / / S S ^ k k k k g g g g g g a g 7 i 7 7 7 2 2 2 1 1 1 1 - , - = * = = & = : * * * * * * * * * * * * & > = = & , = , = , 1 1 1 1 7 1 7 7 7 i i a g a g g g g A h h h g a a 7 2 , * * & + # & & & & , = , , 2 , , , > # % # o X X X o o % : & , 2 2 7 a 4 s a i i i i 7 5 7 7 ",
"7 5 i 5 1 7 2 7 4 7 4 2 2 , > > : # # o X X X o @ @ & * , 2 4 a a a g g h h h A A A Z A S S S S S S S S b S b k k k k g g g g s s s s i i i 7 7 7 2 2 2 2 1 1 1 , 1 1 , = , = , = , = , = , = , = , = 1 1 1 1 1 1 2 1 7 2 7 7 i 7 i i s a g g g g g k g k k A A A ^ / / / / / ] ] ] G o.] P P o.P o.Y Y Y Y Y Y R I I R U U U Q Q Q Q Q Q Q ! ! ! ! ! =.=.=.;.=.;.;.;.;.;.;.i.;.i.;.;.;.;.=.=.=.=.=.! =.! ! Q Q Q Q U U R I R I E Y Y Y Y Y Y P [ [ ] ] / / S A A g g p i 2 1 = & # @ X o     o o # % : : : : , : % % # o o       o @ # & * 2 2 7 s g h h A S / ] ] [ [ [ P [ Y Y Y Y Y U Y R I U U R R Q Q Q ! ! ! =.! =.=.=.;.;.;.;.;.i.i.;.i.i.i.i.p.p.p.p.p.8.p.p.p.p.p.p.p.i.i.6.i.;.;.;.;.;.=.=.=.=.! =.! ! ! ! Q Q Q Q Q Q U U R I R I R Y Y E Y Y Y o.P P o.P ] o.L ] ] / ] / / / / S S ^ k k k k k g g g g g g s a i i i 7 7 7 1 7 1 1 1 1 1 1 1 , , - , = , - 1 - , - 1 - , - , - 1 1 , 1 1 1 1 7 1 2 7 7 i 7 i i g a g g g g k g A h A b A h g g a 7 2 2 = * & & & # # & > * , , 2 , , , , : : # # o X X X X @ @ # > * 2 2 4 4 a p i i i 2 7 7 7 7 p ",
"p 7 2 2 2 1 7 2 2 4 2 4 , 2 , : : % @ o X X   X o % # : , 2 2 a a g g g h g h A j S S S S S S S S S S / S S S ^ b A k k k k g g g s g g s s a a i i 7 a 7 7 7 2 7 1 2 2 1 2 2 2 , 2 1 2 1 2 1 1 2 1 7 1 7 1 7 7 7 7 7 i i a a a g g g g g g g k g k k k ^ A ^ S / / / / ] / ] ] ] ] o.L P o.P Y Y Y Y Y Y Y R I I R R I U U Q Q Q Q Q Q Q ! ! ! =.! =.=.=.=.=.;.;.;.i.;.i.;.i.;.i.;.;.;.;.;.=.=.=.=.! ! ! ! ! Q Q Q Q U U R I R I Y R Y Y Y P o.P [ ] ] ] / G b k k g g i 2 1 = & # + o     o   o % # % : , , : : : % # # o o   X o o # & * < 7 7 s g g A A S / / ] ] [ [ o.Y Y Y Y Y Y E I U R U U U R U Q Q ! ! ! ! =.=.=.=.=.;.;.;.i.;.;.i.i.i.6.i.i.p.p.p.p.p.8.p.p.p.p.p.p.p.i.i.6.;.i.;.;.=.;.=.=.=.=.! ! ! ! ! ! ! Q Q Q Q Q U U U U I R I R Y Y Y Y Y Y o.P P o.P o.L ] ] ] ] ] / / / / S ^ S b k k k k g g g g g g g s a a a a i 7 i 7 7 7 2 2 2 7 1 1 2 1 1 1 1 1 1 1 1 1 2 1 2 2 2 2 7 7 7 7 7 i i i i i a g g g g g g g g A x b b S b S b A g g a i 7 , = = & & + & & # & > > , , 2 , , * , & % o o o X X X o # % : , , 7 2 7 a 4 i i i 7 i ; 7 p p ",
"p i 2 5 2 7 1 2 2 2 4 2 2 , > > : # # o X X X X @ @ # > * , 2 a a a a g g h h j A A S S G S G / G ] / / / S / S G ^ A A A A k k k k g g g s g g g s g a a a a a 7 i i i i 7 7 2 7 7 7 7 7 7 7 7 7 i 7 i 7 i i i i a s a g s g g g g g g g k k k b k ^ ^ S / / / / / / ] G ] ] L o.P P P o.P o.P Y Y Y Y Y R I I R I U U U Q Q Q Q Q Q ! ! ! ! =.! =.=.=.=.=.;.;.;.;.;.i.;.i.i.i.;.i.;.;.;.=.;.=.=.! =.! ! ! Q Q Q Q Q U U R I R R E Y Y Y Y o.P o.[ [ ] ] / ^ S A k g s i i 1 > = # @ X o       # o % % : : : : : : % % o o X X   . @ @ & > = 1 7 s s h h A ^ / / ] ] [ [ P o.[ Y Y E Y I E U I R U U R Q Q Q Q ! ! =.! =.=.=.;.=.;.;.;.;.i.i.;.i.i.i.p.p.p.p.p.8.8.8.p.p.p.p.p.p.p.i.i.i.;.i.;.;.;.;.=.=.=.=.=.! ! ! ! ! Q Q Q Q Q Q Q U U R I R I I I E Y Y Y Y Y o.P P P o.L o.L ] ] ] / ] / / / / S S b S b k k k g g k g g g g g s g s s i i a 7 7 i 7 i i 7 7 7 7 7 7 7 7 7 7 7 7 i i i i a i a i s a s s g g g g g g g g k k b b S b S S S S b b h h a i 7 2 ; * * & & # # & & > * , , , , , , : % % # o X X X X o # # : * , , 7 4 4 a i 4 7 i 2 7 7 7 p ",
"p 7 5 2 1 - 7 1 2 2 2 , 2 , > : : % @ o o X X X o # % & > , 2 7 a a g g g h h h j S S G S G ] L ] ] ] ] ] G / ] / / / ^ A A A b A k k k g k g g g g g g g g g a g a s a a s a g i a a a a a a g i a g i g s g g g g g g g g g k g k k k k k ^ A S S S / / / / ] ] ] ] ] o.L o.] P o.P o.Y Y Y Y Y E Y I R I R R U U U Q Q Q Q Q Q ! ! ! ! ! =.! =.=.=.=.;.;.;.;.;.i.;.i.i.6.i.i.;.;.i.;.;.;.=.=.=.=.! =.! ! ! ! Q Q Q U U U R I I I E Y Y Y P Y [ P ] ] ] ] / ^ A k k s s i 2 - & & # + X     o   # # % % : , : , : : % # o o X     o @ # & < 2 7 7 g g h ^ A S / / ] [ [ [ [ Y o.Y Y E Y I E U I R U U R R Q Q ! ! ! =.=.! =.=.;.;.;.;.i.;.i.i.i.i.6.i.p.p.p.p.p.8.8.8.p.p.p.p.p.p.p.i.i.6.;.i.;.;.;.=.;.=.=.=.=.! =.! ! ! Q Q Q Q Q Q Q Q U U U R R I I Y E Y Y Y Y o.P o.P o.P o.] L ] ] / ] ] / / / / / S S ^ b S b k g k g g k g g g g g g g s g g a s a s a s a a a a a a a s s s a s s s s g s g g g g g g g k g k k k b b A S S S S S / S S b S h g g i i 7 , = * * + & + # & & , > , = , , > > : # # o o X X X o # % % , = 2 4 2 4 7 4 7 7 2 i 7 5 p p ",
"p 7 7 7 - 7 1 2 2 2 , 2 2 , > > : # # o X X X o @ X % & , ; , 7 2 g a a g g h h A j S S G J ] ] ] ] ] ] ] ] ] / ] / / / / / ^ G ^ A ^ k A k k k k k g k g g g g g g g g g g g g g g g g g g g g g g g g g g g g g g g k g k k k k b k ^ A ^ S / / / / / / / ] ] ] L ] ] ] o.P P o.P o.Y Y Y Y E Y Y I R I R I U U U Q Q Q Q Q Q ! ! ! ! ! =.! =.=.=.;.=.;.;.;.;.i.;.6.i.6.i.i.;.i.i.;.;.;.;.=.=.=.=.=.! ! ! ! Q Q Q Q U U R R I R E Y Y Y Y Y o.P o.[ [ ] / / G A A g g s i 2 1 > & # @ X o     o o # % : : : , : : % % # # o     o . @ # & * 1 2 7 s g h h A / / ] ] ] [ [ Y o.Y Y Y Y Y E U I R U U R R Q Q Q ! ! ! =.! =.=.=.;.;.;.;.;.;.i.;.6.i.i.i.p.p.p.p.p.8.8.8.8.p.p.p.p.p.p.p.i.i.i.;.i.;.;.;.;.=.=.=.=.=.! =.! ! ! ! ! Q Q Q Q Q Q U U U I R I R I Y E Y Y Y Y Y o.Y P P ] o.o.L o./ ] ] ] ] / / / S / S S S k S b k S g k k g k g g g g g g g g g g g g g g g g g g g g s g g s g g g g g g g k g k k k k b k k b S S S / S / S ] / ] S S b h h g g 7 2 2 = * & & & # & # > & > , , * , , : % % # o X X X X o # @ : * , , 2 2 7 4 7 i 2 7 2 7 7 7 p ",
"p p 2 ; 2 1 ; 1 1 2 2 , , = > : : % # o o X X X o # # : & , 2 2 a 4 g g a h h h h S S S G ] ] J ] P ] ] o.] ] P ] ] ] / ] / / / / / S G b ^ A A k k k k k k k k g k k g k g g g g g g g k g g g g k g k g k k k k k k k b b S b S S S S / / / / / ] ] ] ] ] ] ] ] o.P o.P P o.P Y Y Y Y Y Y Y I R I R I R U U U Q Q Q Q Q Q ! ! ! ! ! =.! =.=.=.=.;.=.;.;.;.i.;.i.i.i.i.i.i.i.i.;.i.;.i.;.;.;.=.=.=.=.! =.! ! Q Q Q Q Q U U I R I R Y E Y Y Y Y [ [ [ ] ] ] / ^ ^ A k g g i 7 1 = & & @ X X X   o o # % % : , : , : : % # o o o     X o # & * < 2 7 s s h b A S / / ] ] [ [ [ Y [ Y Y Y E Y U E I R U U R U Q Q Q *.! ! =.=.=.=.=.;.;.;.;.i.;.i.i.6.i.i.i.p.p.p.p.p.8.8.8.8.p.p.p.p.p.p.p.i.i.i.;.i.;.;.;.;.;.=.=.=.=.! ! =.! ! ! ! Q Q Q Q Q Q Q U U U R I R I I Y E Y Y Y Y o.Y o.P P P o.L o.L ] ] ] ] ] / ] / / / / / S S S b S b k S g A k k k k g k g k g g g g g g g k g g g k g k k g k k k k k k k k A b ^ A S ^ S S S / / / ] ] ] ] ] / / S b A h h a g 7 2 ; , & & + & # & & > > > , , , > : : % # o o X X X o # # % > * 2 , 7 4 7 4 2 7 2 i 2 i p p ",
"p 7 7 2 2 - 1 1 , 2 , , , , , : % % # o o X X X o @ # # * , , 2 7 a a a g g g f A A A G G ] P ] P ] o.P ] o.] ] ] [ ] ] ] ] ] / / / / ^ / / S S ^ S ^ S k ^ A b k A k k k k k k k k k k g k k k k k k k k A k ^ A b S ^ S S S / / / / / / ] / ] ] / ] ] ] L o.P o.P P o.P o.Y Y Y Y Y E Y Y I R I R I U U U Q Q Q Q Q Q Q ! ! ! ! ! ! ! =.=.=.=.;.=.;.;.i.;.;.6.i.i.i.i.i.i.i.;.i.i.;.;.;.;.=.;.=.=.! =.! ! ! ! Q Q Q Q U U R R R I E Y E Y Y o.P P o.[ ] ] / / S k k g s s 7 2 1 & # + X o     o o # # % : : : , : : % # # o X     o o @ # & = 1 7 a g g h A A / / / ] [ [ [ o.Y Y Y E Y I E I U R U U R Q Q Q ! Q ! =.! ! =.=.;.=.;.;.6.;.i.6.i.i.i.i.p.p.p.p.p.8.8.8.8.8.8.p.p.p.p.p.p.p.i.i.i.6.;.i.;.;.=.;.=.=.=.=.=.! =.! ! ! ! ! Q Q Q Q Q Q U U U R I R I R I Y E Y Y Y Y Y Y P o.P o.o.L o.] ] ] ] G ] / ] / / / / / / / / S S ^ S A ^ A b A b k k k k k k k k k k g k k k k k k k k A k k b A b ^ S ^ S S S / / / / ] / ] ] ] ] ] ] ] ] / S S b h g d i i 2 , = * & & # & # # : * , > > , , : : # # % o X X o o o % & & , , 2 2 7 1 7 7 2 2 2 7 7 p p ",
"p p 7 2 2 - 1 - 1 , 2 , = > > : : % @ # o X X o o o % % : > = 2 2 i a a a g h h h A S S G G ] P P P P P P P o.P [ [ ] [ ] ] ] ] ] ] / ] / / / / / / / S S S S S ^ A ^ A ^ A A S b b S b S b S k ^ ^ S ^ S ^ S S S / / / / / / / / ] / ] / ] ] ] ] o.G ] P o.] P P o.P Y Y Y Y Y Y Y Y I R I R I R U U U U Q Q Q Q Q Q Q ! ! ! ! =.! =.=.=.=.;.=.;.;.;.;.;.i.6.i.i.i.p.p.i.i.i.i.i.;.i.;.;.;.;.=.=.=.=.=.! ! ! ! Q Q Q Q U U U R I R I Y Y Y Y Y o.P [ [ ] ] ] / S A k k g s i 2 1 = $ # + X       o o % % % : , : : : : % # o o X   X o @ # & * 2 2 8 s g h A ^ A ] ] ] ] [ [ [ o.Y Y Y E Y Y U U I R U U R Q Q Q ! ! ! =.=.=.=.=.;.;.;.;.6.;.i.;.i.i.6.i.p.p.p.p.p.8.8.8.8.8.8.p.p.p.p.p.p.p.p.i.i.6.;.;.i.;.;.=.=.=.=.=.=.! ! ! ! ! ! ! Q Q Q Q Q Q Q U U U I R I R I I Y E Y Y Y Y Y Y P P P o.P P o.] ] o.L ] ] ] ] ] / / / / / / / / / S S S S ^ S ^ S ^ ^ S k S b S b S b S b A A ^ A S ^ S S S S S S / / / / / / ] ] ] / ] ] ] ] ] P ] ] ] S S S A A h g i i 7 2 = * & & # + & & : : * , , & , : : % # o o o X X o # @ % : , * , 2 2 7 1 7 2 2 2 7 i p p ",
"g 7 i 2 - 1 - , , = , , , , > : % # % o o o X X o # @ % & * , 2 2 4 a a g g d h A j S S G ] ] P P P P Y P o.P o.[ P o.[ [ [ [ [ [ ] ] ] ] ] ] ] ] / / / / / / / / / / / / / / S S S S S S S S / / S / / / / / / / / / / / / ] / ] / ] ] ] ] L o.] L o.P o.P o.P o.Y Y Y Y Y Y Y Y E I R I R I U U U U Q Q Q Q Q Q Q Q ! ! ! ! ! ! =.=.=.=.=.=.;.;.;.i.;.6.i.i.i.p.p.p.p.p.i.i.i.;.i.;.;.i.;.=.;.;.=.=.! =.! ! ! Q Q Q Q Q U R I R I Y R Y Y Y Y [ Y [ [ [ ] / ] ^ S ^ g g s a 2 - > & # # X o       # o % : : : : , : : % # # o X       @ # & * < 2 7 s g h h A / / / ] ] [ [ Y [ Y Y Y Y Y U E I U R U R R Q Q Q ! ! ! =.! =.=.=.=.;.;.;.;.i.;.i.i.i.i.i.p.p.p.p.p.8.8.8.8.8.8.8.8.p.p.p.p.p.p.i.i.i.6.i.;.;.;.;.;.=.;.=.=.=.=.! =.! ! ! ! Q Q Q Q Q Q Q U U U U R I R I R I I Y Y Y Y Y Y Y o.Y P o.P P o.P ] o.] L ] ] ] ] ] ] / ] / / / / / / / / / / / / S S / S S S S S / S S / / / / / / / / / / / ] / / ] / ] ] ] ] ] L ] o.] ] o.] ] ] ] ] / S b h h g g i 7 2 = * * & # & # # & & , > * , : , % % # % o o X o o o # % : & , 2 , 2 1 7 1 2 2 7 7 7 p p ",
"d s 7 2 2 - 1 = , , = > > * , & % % # # X o o o o o # % # , > 2 2 2 a a a g g h h A S S ] ] ] P P P Y P o.Y o.P o.P [ P [ [ P [ [ [ [ ] ] ] ] ] ] ] ] ] ] / ] / ] / / / / / / / / / / / / / / / / ] / / / / ] / ] / ] ] G ] ] L ] o.G ] o.L o.L o.P P o.P Y Y Y Y Y Y Y Y Y E I I I R I R U U U U Q Q Q Q Q Q Q ! ! ! ! ! =.! =.=.=.=.=.;.;.;.;.i.;.;.i.i.i.i.p.p.p.p.p.p.p.i.i.i.;.i.;.;.;.;.=.=.=.=.=.! =.! ! ! Q Q Q Q U U U R R I Y E Y Y Y Y [ o.[ ] ] ] / / A A k g s p 7 1 - = # @ X X   o o o # # % : : , : : : : % o o o X   o o @ & > > 2 7 7 g g b A S S / ] ] ] [ o.Y P Y Y Y U Y I E U I R U R U Q Q Q ! *.! =.! =.=.;.=.;.;.;.;.i.i.;.i.i.i.i.p.p.p.p.p.8.8.8.8.8.8.8.p.p.p.p.p.p.p.p.i.i.6.6.;.i.;.;.;.=.=.=.=.=.=.! ! ! ! ! ! ! Q Q Q Q Q Q Q Q U U U I R I R I R Y Y Y Y Y Y Y Y Y Y o.P P o.P P P o.] ] ] P ] ] ] ] ] ] / ] ] / ] / ] / / / ] / / / / / / / / / / / / / / / / ] / ] ] ] / ] ] ] ] ] ] ] ] ] o.] P o.P P o.] ] ] ] / S S A h h d a 7 2 2 * * & + # # & & : : > > > : : : % # # o o o o o # # # % > * , 2 = 2 2 2 2 2 2 7 7 p g ",
"s p 7 7 1 - , * = , * , * > : : % % # o % X o o o @ @ # : & = , , 2 a a a i h g A A A S G ] ] ] P Y P Y Y Y Y o.Y o.Y o.Y P o.[ [ [ [ P [ [ [ ] ] [ ] ] ] ] ] / ] ] ] ] ] / ] ] ] ] ] ] G / ] ] / / ] ] ] ] ] ] ] ] ] G o.L ] o.P ] o.P P o.P P o.P o.Y Y Y Y Y Y Y Y Y E I I R I R I U U U U Q Q Q Q Q Q Q ! ! ! ! ! =.! ! =.=.=.=.=.=.;.;.;.;.;.6.6.i.i.p.p.p.p.p.p.p.p.i.i.6.i.i.;.i.;.;.;.;.;.=.=.! =.! =.! ! Q Q Q Q U U R I I R R Y Y Y Y o.P P [ [ ] ] / G ^ A k k g i i 2 1 & & @ @ X o     X # # % : > : : , : % # # o o X     o # # & = 1 7 s g g h A A ^ / ] ] [ [ [ P o.Y Y Y Y Y E R I U R U U R Q Q Q ! ! ! ! =.=.=.=.;.;.;.;.i.;.;.i.i.i.i.i.p.p.p.p.p.8.8.8.8.8.8.8.8.8.p.p.p.p.p.p.p.i.i.i.6.;.i.;.;.;.;.=.=.=.=.=.=.! =.! ! ! ! ! Q Q Q Q Q Q Q Q U U U U I R I I R I Y Y E Y Y Y P Y Y o.P o.P o.P P o.o.] ] o.] ] ] L o.] ] ] ] / ] ] ] G / ] / ] ] / ] ] / ] ] / / ] ] ] ] ] ] / ] ] ] ] ] ] L ] o.L P o.P P o.P P o.] o.] ] ] / S A S h h g a 7 7 , = * & & & # # & # : , : : , : % % % o % X o o o @ @ # : & > , , 2 1 1 1 2 2 2 7 p s p ",
"g p 7 2 ; 1 = , * > , * , > : : % % # o o % X o o o # # % : > , ; 2 2 a a g a h h A S S ] ] ] P P P Y Y Y Y Y Y Y Y o.Y o.Y [ Y [ Y [ o.P [ P o.[ [ L o.] P L o.G ] ] ] ] ] ] ] ] ] ] ] o.L ] ] o.G ] ] ] L ] ] o.L ] o.] o.] P o.P P o.P Y o.Y Y Y Y Y Y Y Y Y E Y I R I I R I R U U U U Q Q Q Q Q Q Q ! ! ! ! ! ! =.! =.=.=.=.=.;.;.;.;.;.i.;.6.6.i.i.p.p.p.p.p.p.p.p.p.p.i.i.6.i.i.;.;.i.;.;.=.;.=.=.! ! ! ! ! ! Q Q Q Q U U R R I Y R Y Y Y Y o.P [ [ ] ] / / / A k g g g i 1 1 = & # + X X     o o % # % : , , : : : % # o o X   X o o # & > = 2 7 s g h A A / / ] / [ ] [ P Y o.Y Y Y E Y U U R I U R U R Q Q ! ! ! =.! =.=.=.=.;.;.;.;.i.;.i.i.i.i.i.i.p.p.p.p.p.8.8.8.8.8.8.8.8.8.p.p.p.p.p.p.p.p.i.i.6.;.;.i.=.;.;.=.=.=.=.=.=.! =.! ! ! ! ! Q Q Q Q Q Q Q Q Q U U U U U R I R I R Y Y Y Y E Y Y Y Y Y o.P o.P Y P o.P P o.P o.L ] ] P L ] o.G ] ] o.L ] ] ] L ] ] ] L ] ] o.] ] L ] ] [ L o.G ] o.L o.P o.P P o.P P o.P Y o.P P Y ] ] ] ] ] S S b A h g d i 7 2 , = & # + # # # & & : , : : , % % # # o % o o o o % # % : & , = , 2 = 1 1 2 i 2 p p g ",
"d p i i 1 1 * = * > & , : : : : % # # % # o o o o @ @ # # : * * , 2 7 7 a a g h h A A ] S ] ] P P P Y Y Y Y Y Y E Y Y Y Y Y Y Y Y o.Y P o.P o.[ P P o.P P ] o.L o.L o.] L o.] ] P ] P ] ] ] ] ] ] o.L o.L o.o.P L o.P o.P P o.P P P o.P Y Y Y Y Y Y Y Y Y Y Y E I I R I R U U U U U Q Q Q Q Q Q Q Q Q ! ! ! ! ! ! =.! =.=.=.=.=.=.;.;.=.i.;.;.6.i.i.p.p.p.p.p.p.p.p.p.p.p.p.i.i.i.i.;.i.;.;.;.=.;.=.=.=.=.=.! ! ! Q Q Q Q U U U R I I R Y E Y Y Y P o.[ [ [ ] ] / / A b k g s i 7 2 > & & @ X X   o   # o % : : : : : : : % % o o X     . @ # # * < 2 7 s s h h A S / / ] ] [ [ o.[ Y Y Y E Y I Y U I U R U R Q Q Q ! Q =.! =.! =.=.;.=.;.;.i.;.i.;.i.i.i.i.p.p.p.p.p.8.8.8.8.8.8.8.8.8.8.8.p.p.p.p.p.p.p.p.i.i.6.i.;.i.;.;.;.;.=.=.=.=.=.! =.! ! ! ! ! ! Q Q Q Q Q Q Q Q Q U U U U I R I R I I R I Y Y Y Y Y Y Y Y Y Y P o.Y P o.P P P o.P o.] o.o.] o.L P ] ] o.] L o.] P ] o.] ] ] P ] o.L o.L o.L o.P P o.P P o.P o.P o.P Y Y Y Y o.Y o.P P ] ] / ] S A A h g g i 7 2 ; * & & & # # # & : : : : : : % % # # % o o o o @ o # % & > * , = , 1 1 2 2 2 7 7 p g ",
"g p 7 2 2 - , * * * > & , & : % % % # @ % o % o o o o # % # > , , ; 2 7 a a g g h A A S ] ] ] ] P P P Y T Y Y E Y Y E Y Y Y Y Y Y Y Y Y Y Y [ Y [ o.P o.P o.P o.P P o.P o.P P o.] o.] o.P o.P o.] P P o.P P P o.P P o.P o.P Y o.Y Y Y Y Y Y Y Y Y E Y I E I R I R I R I U U U U Q Q Q Q Q Q Q Q Q ! ! ! ! ! ! =.! =.=.=.=.;.=.;.;.;.;.i.;.i.6.i.i.i.p.p.p.p.p.p.p.8.p.p.p.p.p.i.i.i.i.;.i.=.i.;.;.=.=.=.=.! =.! ! ! Q Q Q Q U U U R R I I Y E Y Y Y P o.P ] [ / / / / k k g g s 7 1 - > # + + X       o # # % % : , , : : : # # o o X   X o @ & & < 2 7 7 g g h ^ A / / ] ] [ [ [ Y o.Y Y Y U E I E U R I R R U Q Q Q ! ! =.! =.=.=.=.;.;.;.;.i.;.i.;.i.i.i.i.p.p.p.p.p.8.8.8.8.8.8.8.8.8.8.8.p.p.p.p.p.p.p.p.p.i.6.6.;.i.;.;.;.;.;.=.=.=.=.=.=.! =.! ! ! ! ! Q Q Q Q Q Q Q Q Q U U U U U I R R I R I R Y I E Y Y Y Y Y Y Y Y Y Y o.P o.P o.P o.P P Y P o.P o.] P o.P ] o.] P P o.P o.] P P o.P P P o.P o.P Y o.P Y Y Y Y Y Y Y Y Y Y Y o.] o.] ] ] ] / / S A h h g i i 2 , = * & # # # # # & : : : : : : % % # o % o o % o # # % % : > * , = , - 1 2 2 i i g d ",
"g p i i 2 , = * & > & : : : % % % % # % o % o o % o # @ # % & * = , 2 2 7 a g g h A S S S ] ] P P P o.T Y Y E I Y R Y Y E Y E Y Y Y Y Y Y Y Y Y Y Y Y Y P Y P Y o.P P o.P P o.P o.P o.P o.P o.P o.P o.P o.P o.Y o.Y Y Y Y Y Y Y Y Y Y Y Y Y Y Y Y I I R I R I R I U U U U U Q Q Q Q Q Q Q Q Q ! ! ! ! ! ! ! =.! =.=.=.=.=.=.;.;.;.;.;.;.6.6.i.p.p.p.p.p.p.p.p.p.p.8.p.p.p.p.p.i.i.i.;.i.;.i.;.;.=.;.=.=.! =.! ! ! ! Q Q Q Q U U R R I R Y E Y Y Y Y o.[ [ [ ] ] ] / A S k g g s i 2 1 & & # @ X X   o   # # % : , : : , : % % # o o X     o @ # & = 1 2 s s g h h A / / ] ] ] [ [ o.[ Y Y Y Y Y E I R I U U U R Q Q Q ! ! ! ! =.=.=.=.;.;.;.;.;.i.;.i.i.i.i.i.p.p.p.p.p.8.8.8.8.8.8.8.8.8.8.8.8.8.p.p.p.p.p.p.p.i.i.i.i.;.i.;.i.;.;.;.;.=.=.=.=.=.! ! =.! ! ! ! ! ! Q Q Q Q Q Q Q Q Q U U U U I R I R I R I I Y I Y E Y Y Y Y Y Y Y Y Y Y Y Y Y Y o.P o.P o.P o.P o.P o.P o.P o.P o.P o.P o.P o.Y o.P o.Y Y Y Y Y Y Y Y Y Y Y Y Y Y Y o.Y Y ] o.] ] ] / S S b A h g i i 2 2 , * & & # + # # # : : : : % : % # # % o % o o o @ # % # & : * > = = , ; 1 7 7 p p g ",
"g p i 2 2 - , * * & : & : : % % % # # % # o % o o o o % @ % : : , = , 7 7 a a g h h b S ] ] ] ] o.P P T P Y Y E R Y R Y Y E Y E Y I Y E Y Y Y Y Y Y Y Y Y Y Y Y Y Y Y Y Y Y P Y Y Y Y Y Y Y Y Y Y Y Y Y Y Y Y Y Y Y Y Y Y Y Y Y E Y Y Y R I R I R I R I R I U U U U U Q Q Q Q Q Q Q Q Q ! ! ! ! ! ! ! =.! =.=.=.=.=.=.;.;.;.;.;.i.;.i.6.i.i.i.p.p.p.p.p.p.p.8.8.8.p.p.p.p.p.p.p.i.i.6.;.i.;.;.;.;.=.;.=.=.! =.! ! ! ! Q Q Q Q U U I R I R Y Y Y Y Y Y P [ [ ] ] / / / ^ k k g s a 7 1 = $ # @ O X     o o # # % : , : : : : % % o o o   X o o # # * 1 2 7 s g g ^ A A / ] / [ ] [ [ Y o.Y Y Y Y E U I R U U R R U Q Q Q *.! =.! =.=.=.=.;.;.;.6.;.i.i.;.i.i.i.i.p.p.p.p.p.8.8.8.8.8.8.8.8.8.8.8.8.8.p.p.p.p.p.p.p.p.p.i.6.6.;.;.;.;.;.;.;.=.=.=.=.=.=.! =.! ! ! ! ! ! ! Q Q Q Q Q Q Q Q Q Q U U U U I R I R R I R I I Y R Y Y Y Y Y Y Y Y Y Y Y Y Y Y Y Y Y Y Y P Y Y Y Y Y Y Y Y Y Y Y Y Y Y Y Y Y Y P Y Y Y Y Y Y Y Y Y E Y E Y Y T Y o.P P ] o.] ] ] S S S h h g g i 7 2 * * * # # # # # # # : % : : % % % # % % o % X % o # # % : & > * * , , 1 2 2 i p s g ",
"g g i i 2 1 * > & % & : # % % % % % # % # % o % o o # o # @ % & * , ; 2 7 a g g h A S S S ] ] ] P P o.Y o.Y E I Y R Y E U E Y Y R Y E I Y Y E Y Y E Y Y Y Y Y Y Y Y Y Y Y Y Y Y Y Y Y Y Y Y Y Y Y Y Y Y Y Y Y Y Y Y Y E Y Y Y R Y I I R I R I R I R I U U U U U Q Q Q Q Q Q Q Q Q Q ! ! ! ! ! ! ! ! =.! =.=.=.=.=.;.=.;.;.;.;.i.;.6.6.i.p.p.p.p.p.p.p.p.p.8.8.8.8.8.p.p.p.p.p.i.i.6.i.i.;.i.;.;.;.;.=.=.=.=.! =.! ! Q Q Q Q U U U R I R R Y U Y Y Y P o.P o.] ] ] / S S b k g s i 7 2 = = # + X o     o o o % % : : : , : : % # # o X X     @ @ & * < 2 7 a g h h A S / / ] ] [ [ P o.Y Y Y E Y U Y U U R U U U Q Q Q ! ! ! ! =.! =.=.;.=.;.;.;.;.i.;.i.i.i.i.p.p.p.p.p.8.8.8.8.8.8.8.8.8.8.8.8.8.8.8.p.p.p.p.p.p.p.p.i.i.i.6.6.i.;.;.;.;.=.;.=.=.=.=.=.=.! ! =.! ! ! ! ! ! Q Q Q Q Q Q Q Q Q Q U U U U U U I R I R I R I R I R Y I Y Y E Y Y Y Y Y Y Y Y Y Y Y Y Y Y Y Y Y Y Y Y Y Y Y Y Y Y Y Y Y Y E Y Y Y Y Y E Y Y E Y Y I E Y Y o.Y Y o.Y P ] ] ] S S b A A g g i 7 2 2 = & & # # # # @ % % % % % % % % # % o % o % o % o # % # : & * > = = - 2 2 7 p g g ",
"g p s 2 2 1 = & & & : # % % % # % # % # % # % o % o o # @ % % & * , , 2 7 7 a g h h b G / ] ] ] P P P Y T Y Y E E I R I E I R R I R I R I R I R Y I E Y E Y E Y Y Y E Y Y Y E Y Y Y Y Y Y Y Y Y Y Y E Y Y Y E Y I Y R I I R I I R I R I R I U U U U U U U Q Q Q Q Q Q Q Q Q Q Q ! ! ! ! ! ! ! =.! =.=.=.=.=.=.;.;.=.;.;.;.i.;.6.6.i.i.i.p.p.p.p.p.p.p.p.8.8.8.8.8.8.8.p.p.p.p.p.i.i.i.i.;.;.i.;.;.;.=.=.=.=.=.! ! ! ! ! Q Q Q Q U U R I I R Y Y Y Y Y P [ [ [ ] ] / / G k k k g a i 1 1 & & # O X     o o # # % % : , : , : : % o o o X     o @ # & < = 7 p s g h A ^ S / ] ] [ [ [ [ o.Y Y Y E Y U Y R I R U R U R Q Q ! ! ! =.=.=.=.=.;.;.;.;.i.;.i.i.;.i.i.i.p.p.p.p.p.8.8.8.8.8.8.8.8.8.8.8.8.8.8.8.p.p.p.p.p.p.p.p.p.p.i.6.6.6.;.i.;.;.;.;.=.;.=.=.=.=.=.! ! ! ! ! ! ! ! ! ! Q Q Q Q Q Q Q Q Q Q U U U U U U I R I R I R I R I R I I Y R Y I E Y Y E Y Y Y E Y Y Y Y Y Y Y Y Y Y Y E Y Y Y Y E Y I Y R Y I R I R I I R E Y Y E Y T o.o.] o.] ] ] ] ] S S A h h g i i 2 , = * & # + o # # # % % % % % % % % # % # % o o o % o % % & & : * > , , 1 i i i s h ",
"g g i i 2 1 * > & & # # % # % % # % # % % % # % o # o o # @ # & : * = 2 2 a a g h A A S S ] ] o.] P o.Y Y Y Y E I E U E U U R I U R I R I R I R I R I R I I I I R I Y I R I Y I Y I E I Y I Y I E I Y I R I I I I R I I R I I R I R I U U U U U U U Q Q Q Q Q Q Q Q Q Q Q ! ! ! ! ! ! ! ! ! =.! =.=.=.=.=.=.;.;.=.;.i.;.;.6.6.i.i.p.p.p.p.p.p.p.p.p.p.8.8.8.8.8.8.8.p.p.p.p.p.p.i.i.i.;.i.i.;.;.;.;.;.=.=.=.! =.! ! ! Q Q Q Q U U R R I R Y E Y Y Y Y o.P o.[ ] ] ] / ^ A A g g s i 2 1 = & # @ X o     o o # % : : : , : : % % # # o     o . @ # & * 2 2 7 s g h h A / / / ] ] [ [ Y [ Y Y Y Y Y Y U I R U U U R Q Q Q ! Q =.! ! =.=.;.=.;.;.i.;.i.;.i.i.i.i.i.p.p.p.p.p.8.8.8.8.8.8.8.8.8.8.8.8.8.8.8.8.8.p.p.p.p.p.p.p.p.p.i.i.6.6.;.;.i.;.;.;.=.;.=.=.=.=.=.=.=.! =.! ! ! ! ! ! ! Q Q Q Q Q Q Q Q Q Q Q Q U U U U U U U I R I R I R I R I R I I R I I I R I Y R I Y I R Y I I Y I R Y I I R I I I I R I R I R I I R R I I E E Y T T o.T Y ] o.] ] ] / / S b A h g g i 7 2 , * & # # # o # # # % % % % % % % % % % o % o % o # # % # : & * * = - 2 2 i p g g ",
"g g p 4 2 1 = & & & # % # % @ # % # % % % % % o # o % o o # % # & , * 2 2 7 g g g h S b ] S ] ] o.] Y o.Y Y Y Y R I R I R U U U U U U I R I R I R I R I R R I R I R I R I R I R I R I R I R I R I R I R I R R I R I R I U U U U U U U U U U Q Q Q Q Q Q Q Q Q Q Q Q ! ! ! ! ! ! ! ! =.! =.! =.=.=.=.=.=.;.;.;.;.i.;.;.i.6.6.i.i.p.p.p.p.p.p.p.p.p.8.8.8.8.8.8.8.8.8.8.p.p.p.p.p.p.i.6.i.;.;.i.;.;.;.;.=.=.=.=.! ! ! ! ! Q Q Q Q U U I R R I Y E Y Y Y [ Y [ [ [ ] ] / / ^ k k g s i 7 1 = & # + X X X   o o # % % : : : , : : % % o o o     o o # & & < 2 7 s g g ^ A A / ] / ] [ [ o.Y [ Y Y Y E Y U E I R U R R U Q Q ! ! ! =.=.! =.=.;.=.;.;.;.;.i.;.i.i.6.i.i.p.p.p.p.p.8.8.8.8.8.8.8.8.8.8.8.8.8.8.8.8.8.p.p.p.p.p.p.p.p.p.p.i.i.6.6.;.;.;.i.;.;.=.=.;.=.=.=.=.=.! =.! ! ! ! ! ! ! ! Q Q Q Q Q Q Q Q Q Q Q Q Q U U U U U U U U U I R I R I R I I R I R I R I I R I R I R I R I R I R I R I R R I R I R I R I R R I R R R I Y E Y Y o.P o.Y ] o.] ] ] / S S b h g a a 7 2 = * & # + # # o # # # % # % % % % % % % # o % o # o # # % # & & * , , 2 7 i s g h ",
"h s s 7 7 = > * & # & o % @ % # # % % % % % % % % @ o @ @ # o # & * * 2 2 7 a g g A b S S ] ] ] ] Y P P Y Y Y E Y R Y R U U U R U U U U R U R R I R I R R I R I R I R I R I R I R I R I R I R I R I R I U U I U U U U U U U U U U U Q Q Q Q Q Q Q Q Q Q Q Q Q ! ! ! ! ! ! ! ! ! ! =.! =.=.=.=.=.=.;.=.;.;.;.;.;.;.6.6.6.i.i.p.p.p.p.p.p.p.p.p.p.8.8.8.8.8.8.8.8.8.8.8.p.p.p.p.p.i.i.i.i.i.i.;.;.;.;.=.;.=.=.=.! =.! ! ! Q Q Q U U U R R I R R Y Y Y Y Y o.P [ [ ] ] / / S k k g g s 7 2 1 & & # X o     o o o # % : : , : : : % # # o X X     @ @ # * < 1 7 s s h h h S S / ] ] [ [ [ [ Y Y Y E Y I E I R U U U U Q Q Q Q ! *.! ! =.=.=.=.;.;.;.;.i.;.i.i.i.i.i.p.p.p.p.p.8.8.8.8.8.8.8.8.u.8.8.8.8.8.8.8.8.8.8.8.p.p.p.p.p.p.p.p.p.i.i.i.6.6.6.;.;.;.;.;.=.;.=.=.=.=.=.=.! =.! =.! ! ! ! ! ! ! ! Q Q Q Q Q Q Q Q Q Q Q Q Q Q U U U U U U U U U U U U U I R I R I R I R I R I R I R I R I R I U U I U U U U U U U U U U R R I I R Y Y Y T o.Y Y o.] ] ] ] / / b A h g g a 7 2 , > * # # # o o # # # # % % % % : % % % % # o # o # # @ # # & & * * - 2 2 i s g g ",
"h g s i 2 1 = & & # # # o % # # % % % % : % % % o % o o @ @ % @ & & * , 7 7 a g h h A S ] / ] ] ] P o.o.Y T Y Y E I R I R U R R U R R R R R R R R R U U U U U U U U U U U U U U U U U U U U U U U U U U U U U U U U U Q Q Q Q Q Q Q Q Q Q Q Q Q Q Q Q Q ! ! ! ! ! ! ! ! ! =.! =.! =.=.=.=.=.=.;.=.;.;.;.;.;.;.i.;.6.i.i.i.p.p.p.p.p.p.p.p.p.8.8.8.8.8.8.8.8.8.8.8.8.8.8.p.p.p.p.p.i.i.i.i.;.i.;.;.;.;.=.=.=.=.=.! ! ! ! Q Q Q Q Q U U I R I Y R Y Y Y Y P [ o.L ] ] / / G b k k g s i 2 1 = $ # + X X     o # # % % : , , : : % % # o o X     o @ # & * 2 2 7 s g h A ^ S / ] ] ] [ [ Y o.P Y Y Y E Y U I R U U R U Q Q Q Q ! *.! =.! =.=.;.=.;.6.;.i.;.i.i.i.6.i.p.p.p.p.p.8.8.8.8.8.8.8.8.u.8.8.8.8.8.8.8.8.8.8.8.p.p.p.p.p.p.p.p.p.p.i.i.i.6.6.;.;.i.;.;.;.;.;.=.=.=.=.=.=.=.! ! =.! ! ! ! ! ! ! ! Q Q Q Q Q Q Q Q Q Q Q Q Q Q Q Q Q U U U U U U U U U U U U U U U U U U U U U U U U U U U U U U U U U U U U U U U U U I R R Y R Y Y Y Y o.P P o.] ] ] S / S b A h g a a 2 , = & & # o # o @ # # # # % % % % : % : % % % o # o # # @ # # & & > 1 2 7 a s g h ",
"h g s i 1 2 > * # # # o # # o # # % % % % : % % % % o o o @ o # # & * = , 7 a a g h b S b ] ] ] o.] o.T P Y Y Y E Y R E U U R U R Q Q Q Q Q Q Q R R Q U Q U Q Q Q U Q U Q U Q U Q U Q U Q U Q U Q U Q U Q Q Q Q Q Q Q Q Q Q Q Q Q Q Q Q Q Q Q Q ! ! ! ! ! ! ! ! ! ! ! ! =.! =.=.=.=.=.=.=.=.;.;.;.=.;.i.;.6.6.6.i.i.i.p.p.p.p.p.p.p.p.p.p.8.8.8.8.8.8.8.8.8.8.8.8.8.8.p.p.p.p.p.p.i.i.i.;.i.;.i.;.;.;.;.=.=.=.! =.! ! ! Q Q Q Q U U U R I R R Y Y Y Y Y o.Y [ [ [ ] ] / ^ S b g g s p 2 1 = & # @ o X   o   o # % : : : : , : : % % o o X   X . @ @ & * 1 2 7 s g h h A ^ / / ] ] [ [ o.[ Y Y Y E Y I E R I U U R R Q Q Q ! ! ! ! =.=.=.=.;.;.;.;.;.;.i.;.i.6.i.i.p.p.p.p.p.8.8.8.8.8.8.8.u.u.u.u.u.u.8.8.8.8.8.8.8.8.8.p.p.p.p.p.p.p.p.p.i.i.i.6.6.i.;.;.i.;.;.;.;.;.=.=.=.=.=.=.=.=.! ! =.! ! ! ! ! ! ! ! ! ! Q Q Q Q Q Q Q Q Q Q Q Q Q Q Q Q Q Q Q Q Q Q Q Q Q Q Q Q U Q U Q U Q U Q U Q U Q Q Q Q Q Q Q Q Q Q Q U U R R R I R Y E Y Y Y Y P o.P ] ] ] ] / S A b h g g 7 7 2 = * & # # o @ @ @ o # % # % % : % : % % % o % o o # @ @ # & # * = 1 2 2 p s g h ",
"g g p i 7 , = & & # o # o # @ % # % % : : : % % % o % X o o @ # # & > > 2 7 7 g g h A b ] S ] ] ] o.P P #.P E Y Y R Y R R I R R U Q Q Q Q Q Q Q Q Q Q Q Q Q Q Q Q Q Q Q Q Q Q Q Q Q Q Q Q Q Q Q Q Q Q Q Q Q Q Q Q Q Q Q Q Q Q Q Q Q Q Q ! ! ! ! ! ! ! ! ! ! ! ! =.! ! =.=.=.=.=.=.=.=.;.;.;.;.;.;.i.;.;.6.6.i.i.i.p.p.p.p.p.p.p.p.p.p.8.8.8.8.8.8.8.8.8.8.8.8.8.8.8.8.8.8.p.p.p.p.p.i.i.i.;.i.;.;.;.;.=.;.=.=.=.! =.! ! ! Q Q Q Q U U U R I I R Y Y Y Y P [ o.[ ] ] ] / / S k k g s i 7 1 , & & + X X X   o o # # % : : , : : : % # # o o X   o o # & * < 2 7 p s h b h / / / ] ] ] [ [ Y o.Y Y Y E Y I U E U U U R U Q Q Q *.! =.! =.=.=.=.;.=.;.;.i.;.i.i.i.i.i.i.p.p.p.p.p.8.8.8.8.8.8.8.u.u.u.u.u.u.u.8.8.8.8.8.8.8.8.p.p.p.p.p.p.p.p.p.p.p.i.i.6.6.6.;.;.;.;.;.;.;.=.=.=.=.=.=.=.=.=.! =.! ! =.! ! ! ! ! ! ! ! Q ! Q Q Q Q Q Q Q Q Q Q Q Q Q Q Q Q Q Q Q Q Q Q Q Q Q Q Q Q Q Q Q Q Q Q Q Q Q Q Q Q Q Q Q Q Q Q Q U U R I R I E Y Y E Y o.P P o.] o.] ] S ( A A h h a g 2 2 , * & # + o o o # # # # % % % : : : % % % # o % o o # o # # & & * - 1 i a s g k ",
"k g g 4 7 - , & & o # @ @ o # o % % % : : : : % % % o # o @ o o # & & = 2 2 a a h h b S S S ] ] o.] P o.P Y Y Y E Y R I R R U U R Q Q Q ! Q ! Q Q Q Q Q Q Q Q Q Q Q Q Q Q Q Q Q Q Q Q Q Q Q Q Q Q Q Q Q Q Q Q Q Q Q Q Q Q ! Q ! ! ! ! ! ! ! ! ! ! ! ! ! ! =.! =.! =.=.=.=.=.=.=.=.;.;.;.;.;.;.;.i.;.6.6.i.i.i.p.p.p.p.p.p.p.p.p.p.8.8.8.8.8.8.8.8.8.8.u.8.8.8.8.8.8.8.8.p.p.p.p.p.i.i.6.i.i.;.i.;.;.;.;.=.=.=.! =.! ! ! ! Q Q Q Q U U R I R R Y E Y Y Y o.Y P [ [ ] ] / G ^ S k g g s i 2 = = # # @ X     o   # # % : : : , : : % % # o o X   . o @ # & * 1 7 7 g g h A A / / / ] [ [ P o.P Y Y Y Y E U E I R U U U R Q Q Q Q *.! ! =.! =.=.;.;.;.i.;.i.;.i.i.6.i.i.p.p.p.p.p.8.8.8.8.8.8.8.u.u.u.u.u.u.u.u.8.8.8.8.8.8.8.8.8.p.p.p.p.p.p.p.p.p.p.i.i.i.6.6.6.i.;.;.;.;.;.;.;.;.=.=.=.=.=.=.=.=.=.! ! =.! ! ! ! ! ! ! ! ! ! ! ! ! Q Q Q Q Q Q Q Q Q Q Q Q Q Q Q Q Q Q Q Q Q Q Q Q Q Q Q Q Q Q Q Q Q Q Q Q Q Q Q Q Q Q U R I R I R E Y E Y Y Y Y P o.] ] ] ] S S A b h g g a 7 2 , * & & o @ o X @ o o % # % % : : : : % % % @ o @ @ X # o # $ $ = 1 2 2 a s g h ",
"h g s i 7 , = * & # o o o @ o % o % % : % : : % % % o o o o @ o # # & * , 7 7 g a h A b / ] S ] ] o.o.P o.Y Y Y Y E Y R I R U R U R Q Q Q ! ! Q ! Q ! ! Q ! Q Q Q Q Q Q Q Q Q Q Q Q Q Q Q Q Q Q Q Q Q Q Q ! Q ! ! ! ! ! ! ! ! ! ! ! ! ! ! ! =.! ! =.! =.! =.=.=.=.=.=.=.=.;.;.;.;.;.;.;.;.;.i.;.6.6.i.i.i.p.p.p.p.p.p.p.p.p.p.8.8.8.8.8.8.8.8.8.8.u.u.u.u.8.8.8.8.8.8.8.8.p.p.p.p.p.i.i.6.i.i.;.i.;.;.;.;.=.=.=.! =.! ! ! ! Q Q Q Q U U R I I E Y Y Y Y Y o.P [ [ ] ] / / G b k k g s i 2 1 = & # + X       o o % % % : , : , : : % # o o X   X o o # & > < 7 7 s g h A A / / ] ] ] [ [ P o.Y Y Y Y Y Y U R I R U R U Q Q Q ! ! ! =.=.=.=.=.=.;.;.;.;.;.i.;.i.i.i.i.i.p.p.p.p.p.8.8.8.8.8.8.8.u.u.u.u.u.u.u.u.u.8.8.8.8.8.8.8.8.8.p.p.p.p.p.p.p.p.p.p.p.i.i.6.6.6.6.;.6.;.;.;.;.;.;.=.=.;.=.=.=.=.=.=.! =.! =.! ! =.! ! ! ! ! ! ! ! ! ! ! ! ! Q Q Q Q Q Q Q Q Q Q Q Q Q Q Q Q Q Q Q Q Q Q Q Q Q ! Q ! ! Q Q ! Q Q Q Q Q U U R R I R Y Y Y Y Y o.P P o.] ] ] ] S ( A h h g a a 2 , = & # # o o o X # o % % % % : % : : % % % % o o o @ o # o & & * , 2 7 a g g h ",
"k g s i 2 2 * * # # o o X o % o % % % % , : : : % o % @ o o X o o # & , = 2 a a g h b S S S ] ] ] ] P o.Y o.Y Y E Y R I E R R U R Q Q Q ! ! Q ! ! ! ! ! ! Q ! ! Q ! Q ! ! ! ! ! Q ! ! ! ! ! Q ! Q Q ! ! ! ! ! ! ! ! ! ! ! ! ! ! ! ! ! ! =.! ! ! =.! =.=.=.=.=.=.=.=.;.=.;.=.;.;.;.;.;.;.6.6.6.6.i.i.p.p.p.p.p.p.p.p.p.p.p.p.8.8.8.8.8.8.8.8.8.u.u.u.u.u.u.8.8.8.8.8.8.8.p.p.p.p.p.p.i.i.i.i.;.i.;.;.;.;.=.;.=.=.=.! =.! ! Q Q Q Q Q U R I R R I E Y E Y Y P o.[ [ [ ] ] / ^ S k k g s i 7 2 > & # @ @ o   o   # o % % : : , : : : % % o o X       @ # & * = 2 7 s s h h A S / / ] ] [ [ o.[ Y Y Y Y Y E U I R I U R R Q Q Q ! Q =.! ! =.=.=.;.=.;.;.;.i.;.i.i.i.i.i.p.p.p.p.p.8.8.8.8.8.8.8.u.u.u.u.u.u.u.u.u.u.u.u.8.8.8.8.8.8.8.8.8.p.p.p.p.p.p.p.p.p.p.p.i.i.i.6.6.;.i.;.;.i.;.=.;.;.=.;.=.=.=.=.=.=.=.=.=.! =.! ! =.! ! =.! ! ! ! ! ! ! ! ! ! ! ! ! ! ! ! Q ! Q Q Q ! ! ! ! ! Q ! Q ! ! ! ! ! ! ! ! ! ! ! Q Q Q Q U U R R I R Y R Y E Y o.Y Y o.] o.] ] S ] S b A h g a a 2 2 = & & # o o X o o % o # % % : , % : : % % @ # o o o o o # # & * - 2 7 s s g h ",
"h g g i 7 , = & & o # X X o o o % % % : : : : : % % o o o o o X # # & * , 2 7 a h g h b S S ] ] ] o.] o.P Y o.Y Y E Y R I R R R R U Q Q Q ! =.! ! ! ! ! ! ! ! ! ! ! ! ! ! ! ! ! ! ! ! ! ! ! ! ! ! ! ! ! ! ! ! ! ! ! ! ! ! ! ! =.! ! =.! =.=.=.=.=.=.=.=.=.=.=.=.;.;.;.;.=.i.;.;.i.;.6.6.6.6.i.i.i.p.p.p.p.p.p.p.p.p.p.p.8.8.8.8.8.8.8.8.8.u.u.u.u.u.u.u.u.u.8.8.8.8.8.8.8.8.p.p.p.p.p.i.i.i.i.;.i.;.;.;.;.=.=.=.! =.! ! ! ! Q Q Q Q U U U I R R I Y Y Y Y Y P o.P ] [ ] / / ^ A k g g s 7 1 - = # + X X X     o # # % : : : , : : : # # o o X   X o @ # * < 1 7 7 g g h ^ A S / ] ] [ [ [ Y o.Y Y Y E I Y U R U U U R U Q Q Q ! ! =.! =.=.=.=.;.;.;.6.;.i.;.i.i.6.i.i.p.p.p.p.p.8.8.8.8.8.8.8.u.u.u.u.u.u.u.u.u.u.u.u.8.8.8.8.8.8.8.8.8.p.p.p.p.p.p.p.p.p.p.p.p.i.i.i.6.6.6.;.;.;.i.;.=.;.;.;.;.=.;.=.=.=.=.=.=.=.=.=.! =.! ! ! ! ! =.! ! ! ! ! ! ! ! ! ! ! ! ! ! ! ! ! ! ! ! ! ! ! ! ! ! ! ! ! ! ! ! ! ! ! ! ! Q Q Q Q U U R R I R Y E Y Y Y o.P P P ] ] ] ] / S S b h g g a a , , * # + # X X X o @ % % % % : : , % : % % % o o o o X o # # & * , 1 i a s k h ",
"k g s a 7 2 = * # & o X X o o % o % % : , % , : % % % o o o X o o # # * = 2 7 a a h A b S S ] ] ] ] o.P P o.T Y Y Y R Y R I R U U R Q Q Q ! ! Q =.! =.! ! =.! ! =.! ! ! =.! ! ! =.! ! ! ! ! =.! =.! =.! ! ! ! ! =.! ! ! =.! =.! =.=.=.=.=.=.=.=.=.=.=.=.;.=.;.;.;.;.;.;.i.;.;.;.6.6.6.i.i.i.p.p.p.p.p.p.p.p.p.p.p.p.8.8.8.8.8.8.8.8.8.8.u.u.u.u.u.u.u.u.u.u.8.8.8.8.8.8.8.p.p.p.p.p.p.i.i.i.;.i.;.i.;.;.;.=.=.=.=.=.! ! ! ! Q Q Q Q U U R R R I Y E Y Y Y Y o.[ [ [ ] ] / / G ^ k g g s i 2 1 & & # @ X X   o   # # % : : , : : : % % # o X X X   o @ # * * 2 2 p s g h h ^ / / / ] ] [ P o.P Y Y Y Y Y E E I R U U U R Q Q Q ! ! ! =.! =.=.;.=.;.;.;.;.;.i.i.i.i.i.i.p.p.p.p.p.8.8.8.8.8.8.8.u.u.u.u.u.y.u.u.u.u.u.u.u.u.8.8.8.8.8.8.8.8.8.8.p.p.p.p.p.p.p.p.p.p.p.i.i.i.6.6.6.i.;.;.i.;.;.;.;.;.;.;.=.;.=.=.=.=.=.=.=.=.=.=.=.=.=.! =.! ! ! =.! =.! ! ! =.! =.! =.! =.! ! ! ! ! =.! =.! =.! ! ! ! ! ! ! =.! ! Q Q Q Q U R I U R I E Y E Y Y Y Y P o.o.] ] ] S S A b h h a a 7 2 = * & # o o X o o o o @ % : % , % , : % % o % o o X X o o + $ * = 7 4 a g g h ",
"h g g a 7 1 , * # o o o X X o o % % % : : , : % : % o % X X X X o # & & , 2 7 i g g h A b ] S ] ] ] ] o.P o.Y T o.Y Y R E R I R R U R Q Q ! ! =.Q =.! =.! ! =.! ! ! =.! ! ! ! =.! ! ! =.! ! ! ! ! ! ! =.! ! =.=.! =.=.=.=.=.=.=.=.=.=.=.=.=.=.=.;.=.;.;.;.;.;.;.;.;.;.6.;.i.6.6.6.i.i.i.p.p.p.p.p.p.p.p.p.p.p.p.8.8.8.8.8.8.8.8.8.u.u.u.u.u.u.u.u.u.y.u.u.u.u.8.8.8.8.8.8.8.p.p.p.p.p.p.i.6.i.i.;.;.;.;.;.;.=.=.=.! =.! ! ! ! Q Q Q Q U U R I R I Y E Y Y Y Y P [ [ ] ] ] / ^ A A k s g a 7 1 = & # + o       o o # # % : : , , % : % % o o X   X   @ # # * 1 2 7 s g g A A A / ] / [ ] [ P o.Y Y Y E Y I U U I R U R U R Q Q ! ! ! ! =.! =.=.;.;.;.;.;.i.;.i.;.i.i.i.i.p.p.p.p.p.8.8.8.8.8.8.u.u.u.u.u.u.u.y.u.u.u.u.u.u.u.8.8.8.8.8.8.8.8.8.8.p.p.p.p.p.p.p.p.p.p.p.p.p.i.i.i.6.6.6.;.i.;.;.;.;.;.;.;.;.;.=.;.;.=.=.=.=.=.=.=.=.=.=.=.=.=.=.! =.! =.! ! ! ! ! ! ! ! ! ! ! ! ! ! ! ! ! ! ! =.! =.! =.=.! ! ! ! ! Q Q Q U U R R I R Y U Y Y Y Y o.P P ] o.] ] ] S ( b A g g a a 2 , * & # o o X X X o # % % % : : , % , % % # o o o X X o # # $ * = 2 7 a s b h ",
"k g s a 7 1 = & & # o X X X X % o % : % , : : , % % % o o X X X o o # & = , 7 a a g h b S S S ] ] ] o.P o.Y Y o.T P E Y R I R R U R Q Q Q Q ! Q =.! =.=.=.=.=.=.=.=.=.! =.=.=.=.! =.=.=.! =.=.=.=.=.=.=.=.=.=.=.=.=.=.=.=.=.=.=.=.=.=.=.=.;.;.;.;.;.;.;.;.;.6.;.6.;.6.6.6.6.i.i.i.p.p.p.p.p.p.p.p.p.p.p.p.p.8.8.8.8.8.8.8.8.8.8.u.u.u.u.u.u.u.u.u.y.u.u.u.u.u.8.8.8.8.8.8.8.p.p.p.p.p.i.i.i.i.;.i.;.i.;.;.;.=.=.=.=.! =.! ! Q Q Q Q Q U U I R R I E Y Y Y Y P o.P o.] ] ] / / S A g k s p 2 2 , & & @ X o     o o # % % : : , : : : % # # o X X   o o @ & * > 2 7 a g h h A / / / ] ] [ [ o.P Y Y Y Y Y E Y U R I U U R Q Q Q Q ! ! =.! =.=.=.;.=.;.;.i.;.i.;.i.6.i.i.p.p.p.p.p.8.8.8.8.8.8.8.8.u.u.u.u.y.y.y.u.u.u.u.u.u.u.u.u.8.8.8.8.8.8.8.8.8.8.8.p.p.p.p.p.p.p.p.p.p.p.p.p.i.i.i.6.6.i.;.6.;.;.i.;.;.;.;.;.=.;.=.;.=.;.=.=.=.=.=.=.=.=.=.=.=.=.=.=.=.=.=.=.=.=.=.=.=.=.=.=.=.=.=.=.=.=.=.=.=.=.=.! =.! ! ! ! Q Q Q U R R I U U R Y Y E Y Y Y o.P o.] ] ] / S S S h b g g 7 2 = , & & o o X X X o o # % % % , : , : % % % % o o X X o o + $ * , 1 7 a g g h ",
"h g g a 7 2 , * + # o X X X o o % # % : : , : : : % % o o X X X X # # & * 2 2 i g g g A S b ] ] ] ] ] o.P P o.Y T #.Y T Y R I R R R U R Q Q Q =.! =.! =.=.=.=.=.=.=.=.=.=.=.=.=.=.=.=.=.=.=.=.=.=.=.=.=.=.=.=.=.=.=.=.=.=.;.=.;.;.;.;.;.;.=.;.;.;.i.;.;.;.i.;.6.6.6.6.i.i.i.p.p.p.p.p.p.p.p.p.p.p.p.p.p.8.8.8.8.8.8.8.8.8.u.u.u.u.u.u.u.u.u.u.y.y.y.u.u.u.u.u.u.8.8.8.8.8.8.8.p.p.p.p.p.i.i.i.i.;.i.;.;.;.;.=.=.=.=.=.! ! ! ! ! Q Q Q Q U U I R R I E Y Y Y Y P [ [ [ ] ] / / ^ S k g g s i 2 1 = # # + X       o o # % : : : , : : : % o # X X   X o @ # & = 1 7 p s g h ^ A S / ] ] ] [ [ o.P Y Y Y E Y U Y R U U U R U R Q Q ! ! ! =.=.! =.=.;.=.;.;.;.i.i.i.i.6.i.i.i.p.p.p.p.8.8.8.8.8.8.8.u.u.u.u.u.y.y.y.y.u.u.u.u.u.u.u.u.u.8.8.8.8.8.8.8.8.8.8.8.p.p.p.p.p.p.p.p.p.p.p.p.p.p.i.i.i.6.6.6.6.;.6.;.6.;.;.i.;.;.;.=.;.;.;.=.;.=.;.=.=.=.=.=.=.=.=.=.=.=.=.=.=.=.=.=.=.=.=.=.=.=.=.=.=.=.=.=.=.=.=.! =.! ! ! ! Q Q Q U R U U R I E E Y Y Y Y Y o.P o.] ] ] / S b A h g a a 7 2 * & # # o X X X o o % % % : , : : , % % % o o o X X X o # & * = 2 7 a g g h ",
"b k s i 7 1 = * $ # o X   X X # o % % : , : , : : % # % o X X X o o # & * , 2 i a g h A b S ] S ] ] o.] P o.Y Y Y T Y Y E I R R U U R Q Q Q ! ! ! ! =.=.=.=.;.;.=.=.=.;.=.=.=.=.;.=.=.=.;.=.=.=.=.=.=.=.;.=.;.=.;.;.=.;.;.;.=.;.;.;.;.;.;.i.;.;.6.;.6.6.6.6.6.i.i.i.i.p.p.p.p.p.p.p.p.p.p.p.p.p.p.p.8.8.8.8.8.8.8.8.8.8.u.u.u.u.u.u.u.u.u.y.y.y.y.y.y.u.u.u.u.8.8.8.8.8.8.8.p.p.p.p.p.p.i.i.i.;.i.;.;.;.;.=.;.=.=.=.! =.! ! ! Q Q Q Q U U R R R I E Y Y Y Y Y o.P o.[ [ ] / / G ^ A g g s i 2 - > & # @ X     o   # # % % : , : , : % % % o o X     o @ # & > - 2 7 s g h h A / / / ] ] [ [ P o.Y Y Y Y U Y U I R U U U R Q Q Q ! ! ! =.! =.=.=.;.;.;.;.i.;.;.i.i.i.i.i.p.p.p.p.p.8.8.8.8.8.8.8.u.u.u.u.y.y.y.y.y.y.y.y.u.u.u.u.u.u.u.u.u.8.8.8.8.8.8.8.8.8.8.p.p.p.p.p.p.p.p.p.p.p.p.p.p.p.i.i.i.6.6.6.6.;.i.;.;.;.;.;.i.;.;.=.;.;.;.;.=.;.;.;.=.;.=.;.=.=.=.;.=.=.=.=.=.=.=.=.=.=.=.=.=.=.=.;.=.=.=.=.=.! ! ! ! Q Q Q R R U U R I U E I Y E Y o.Y P o.] ] ] ] / S S b h g g a 7 , = & & o o X   X X # o % : : % , , : : % # % o X   X X o + $ * 1 1 i s s h h ",
"h g g a 7 2 , & $ + o X X   o o % % % : : , : , : % % o o o X   X o # & * = 2 7 a g h h A S S { ] ] ] o.P P o.Y Y Y T T T E I R R R U R Q Q ! ! =.! ! =.=.=.=.;.;.;.=.;.;.;.;.;.=.;.=.;.=.;.;.;.;.;.;.;.;.=.;.;.;.;.;.;.;.;.i.;.;.;.;.;.6.;.i.;.6.6.6.6.i.i.i.i.p.p.p.p.p.p.p.p.p.p.p.p.p.p.p.8.8.8.8.8.8.8.8.8.8.u.u.u.u.u.u.u.u.u.u.y.y.y.y.y.t.y.y.y.u.u.u.u.8.8.8.8.8.8.8.p.p.p.p.p.p.i.6.i.;.i.;.i.;.;.;.=.=.=.=.! ! ! ! ! Q Q Q Q U U U I R I E Y Y Y Y P Y [ [ ] ] ] / ^ A A k g g i 2 1 = & # + @ X     o o # % % : : , : : : % % o o X     o o # & & 1 2 7 s g g b A A / ] ] ] [ [ o.P o.Y Y Y Y E Y U I R U R R U Q Q Q *.! ! =.=.=.=.=.;.;.;.;.i.;.;.i.i.i.i.i.p.p.p.p.p.8.8.8.8.8.8.8.u.u.u.u.y.y.r.y.y.y.y.y.u.u.u.u.u.u.u.u.u.u.p.8.8.8.8.8.8.8.8.8.p.p.p.p.p.p.p.p.p.p.p.p.p.p.p.p.i.i.i.i.6.6.6.6.;.i.;.;.;.;.i.;.;.;.;.;.;.;.;.;.=.;.;.;.;.;.=.;.;.;.;.;.;.=.;.;.;.;.;.;.=.;.;.;.=.=.=.! =.! ! ! ! Q Q Q R U U I R U Y E Y Y Y Y o.P P o.L ] ] / / S b A g g a a 2 , * # # o X X X X o % % % : , : : , : % % o o o X   X o # & * = 1 i p s h b ",
"h g g i i , = * $ # o X   X o o o % : : % , : : : % # % o X X X X o + # * , 2 7 a g g A b S S S ] ] o.P ] o.Y Y o.T T T T I R R I U R R Q Q Q ! Q ! =.=.! =.;.=.;.;.6.;.;.;.;.;.;.;.;.;.;.;.;.;.;.;.;.;.;.i.;.;.;.;.i.;.;.;.;.;.i.;.6.6.6.6.6.i.i.i.i.i.p.p.p.p.p.p.p.p.p.p.p.p.p.p.p.p.p.8.8.8.8.8.8.8.8.8.p.u.u.u.u.u.u.u.u.u.u.y.u.y.y.y.y.t.y.y.y.u.u.u.u.u.8.8.8.8.8.8.8.p.p.p.p.p.i.i.i.i.i.i.;.;.;.;.=.;.=.=.=.! =.! ! ! Q Q Q Q U U I R I E I Y E Y Y Y o.P [ [ ] ] / / S A k g s p i 2 1 & & # X X     o o o # % : : : , : : % # % o X X     o @ # * < 1 7 s s g h A / / / ] ] [ [ [ Y [ Y Y E Y I E U R U U U U Q Q Q ! Q ! =.! ! =.=.;.=.;.;.;.;.i.i.;.i.i.i.p.p.p.p.p.8.8.8.8.8.8.8.8.u.u.u.u.y.y.y.y.y.y.y.y.y.y.u.u.u.u.u.u.u.u.u.u.8.8.8.8.8.8.8.8.8.8.8.p.p.p.p.p.p.p.p.p.p.p.p.p.p.p.p.i.i.i.i.i.6.6.6.6.6.i.;.i.;.;.;.i.;.;.;.;.i.;.;.;.;.;.;.;.;.;.;.;.;.;.;.;.;.;.;.;.;.;.;.=.;.=.=.=.! =.! ! ! Q Q Q R R U U R I E I Y E Y Y [ Y o.] o.] ] / / S b h g g a 7 2 * * & # o X   X o o o % % : : : , : : % % % o X X X X o o $ * , 2 2 i g g h ",
"h h s s 4 7 > * # # o o X X X o % % % : , : , : : : % o o o X X X o # & & = , 7 i g g h A b ] / ] ] ] ] o.P Y o.Y Y T T T E I R R R R U R Q Q Q =.! ! =.=.=.=.;.;.;.;.;.;.;.;.;.;.;.i.=.i.;.;.;.;.;.;.;.;.;.;.6.;.i.;.6.6.6.6.6.6.6.6.i.i.i.i.i.p.p.p.p.p.p.p.p.p.p.p.p.p.p.p.p.p.p.8.8.8.8.8.8.8.8.8.8.u.u.u.u.u.u.u.u.u.u.u.y.u.y.y.y.t.t.t.t.t.y.y.y.u.u.u.u.u.8.8.8.8.8.8.8.p.p.p.p.p.i.i.i.i.;.i.;.;.;.;.=.=.=.=.=.! ! ! ! Q Q Q Q Q U U R R I E Y Y Y Y Y [ [ o.[ ] ] ] / ^ A k k g s i 2 - = $ # + X X   o   # # % % : , : , : % % # o o X   X o @ # & * 2 2 8 s g h h A S / / ] ] [ [ o.Y Y Y Y E Y I E I R U U R U R Q Q ! ! ! =.=.=.=.=.;.;.;.;.i.;.i.i.i.i.6.i.p.p.p.p.p.8.8.8.8.8.8.8.u.u.u.u.u.y.y.r.y.y.y.y.y.y.y.y.u.u.u.u.u.u.u.u.u.u.p.8.8.8.8.8.8.8.8.8.8.p.p.p.p.p.p.p.p.p.p.p.p.p.p.p.p.p.p.i.i.i.i.i.i.6.6.6.6.6.6.;.i.;.i.;.;.;.;.i.;.;.6.;.;.;.;.;.;.;.i.;.;.;.;.;.i.;.;.;.=.=.=.=.=.! ! ! ! Q Q Q Q R U U I R Y E Y Y Y Y Y [ P o.L ] ] / S S b A h g a 7 2 2 & & # o o X X X o % @ % : : : , : : % % o % X X X X o # # * = 1 i i g g h ",
"b g g a 7 1 = * & # o X X X o o o % % : : : , : : % % # o o X X X o o # & * 2 7 i a g h b S S S ] ] ] o.] Y o.Y Y T o.T T I R R R I R R Q Q Q ! ! ! ! =.=.=.=.=.;.;.;.;.i.;.i.;.i.;.;.i.;.;.;.i.;.6.6.6.6.6.6.6.6.6.6.6.i.i.i.i.i.i.i.p.p.p.p.p.p.p.p.p.p.p.p.p.p.p.p.p.p.p.p.8.8.8.8.8.8.8.8.8.p.u.8.u.u.u.u.u.u.u.u.u.u.u.y.u.y.y.t.t.t.t.t.t.t.y.y.y.u.u.u.u.8.8.8.8.8.8.8.p.p.p.p.p.p.i.i.i.;.i.;.i.;.;.;.;.=.=.=.! =.! ! ! Q Q Q Q U U R R I R I Y E Y Y o.Y Y [ [ ] ] / / G A ^ g g s i 2 1 > & # @ o X     o o # % : : : , : : : % % o o X     o @ @ & * 1 2 7 s g h A A ^ / ] ] ] [ [ P [ Y Y Y Y Y E I E I U U R R Q Q Q ! ! ! =.! =.=.=.=.;.;.6.;.;.i.;.i.i.i.i.p.p.p.p.p.8.8.8.8.8.8.8.u.u.u.u.u.y.y.y.r.y.r.y.y.y.y.y.y.y.u.u.u.u.u.u.u.u.u.u.8.8.8.8.8.8.8.8.8.8.8.8.p.p.p.p.p.p.p.p.p.p.p.p.p.p.p.p.p.p.p.p.p.i.i.i.i.i.6.i.6.6.6.6.6.6.i.;.6.i.;.6.6.i.;.i.;.i.;.;.i.;.;.i.;.;.;.;.=.;.=.=.! =.! ! ! ! Q Q R R U U R U U Y E Y Y Y o.Y o.L o.] ] / ] S S A h g g a 2 , , & & o o X X o o o % % : : , : , : % % # o o X X X o + & $ , 2 2 s s h h ",
"h h s s 7 7 , * $ + o o X X o o % o % % , : : , : % % # # o X X X o # # & , , 2 i g g g A b S S ] ] ] ] o.P Y Y o.Y T T #.T I R R R R R U Q Q Q *.! =.! =.=.=.;.=.;.;.6.;.i.;.i.;.i.;.6.6.6.6.6.6.6.i.i.6.i.i.i.i.i.i.i.i.p.p.p.p.p.p.p.p.p.p.p.p.p.p.p.p.p.p.p.p.p.p.p.8.8.8.8.8.8.8.8.8.8.8.8.u.u.u.u.u.u.u.u.u.u.u.y.u.y.y.y.y.t.t.t.t.r.r.t.t.y.y.y.y.u.u.u.u.u.8.8.8.8.8.8.8.p.p.p.p.p.i.i.i.;.i.;.;.;.;.;.=.=.=.=.! =.! ! ! Q Q Q Q U U I R I R Y I Y Y Y o.P P [ [ ] ] / / A A k g s s 7 1 - = # @ X X X   o o # # % : : : , : : % % o o o X   X o # & * < 1 7 p g g h ^ S S / ] ] [ [ o.Y P o.Y Y E Y U U U U U U R U Q Q Q ! *.! =.! =.=.;.=.;.;.6.;.i.i.;.i.i.i.i.p.p.p.p.p.8.8.8.8.8.8.8.u.u.u.u.u.y.y.y.r.y.r.y.y.t.y.y.y.y.y.u.u.u.u.u.u.u.u.u.u.8.8.8.8.8.8.8.8.8.8.8.8.8.p.p.p.p.p.p.p.p.p.p.p.p.p.p.p.p.p.p.p.p.p.p.p.p.i.i.i.i.i.i.i.i.i.6.6.i.6.6.6.6.6.6.6.6.6.;.i.i.;.;.i.;.;.;.=.=.=.=.! =.! ! ! Q Q Q R U U I R Y U Y E Y Y Y [ o.P ] o.] / S S b b h g a a 7 , = & # + o X X X o o % % % : : , : : : % % o o o X X o # # * = 1 i i s g k ",
"h g g a i 1 = * & # o o X X o o o % % : : : , : : % % # o o X X o o o # & * ; 2 i a g h b b S S ] ] ] ] o.] Y o.Y o.T T T T E I R I U U R Q Q Q ! ! Q =.! =.=.=.;.;.;.;.;.i.;.i.i.i.i.i.i.i.i.i.i.i.i.i.p.p.p.p.p.p.p.p.p.p.p.p.p.p.p.p.p.p.p.p.p.p.p.p.p.p.p.p.p.8.8.8.8.8.8.8.8.8.8.8.8.p.u.u.u.u.u.u.u.u.u.u.u.u.y.u.y.y.y.t.t.t.t.t.r.r.t.r.t.t.y.y.u.u.u.u.u.8.8.8.8.8.8.8.p.p.p.p.p.i.i.6.i.i.;.;.i.;.;.=.;.=.=.! =.! ! ! ! Q Q Q Q U U R R R I E Y E Y Y P o.P [ [ ] ] / / S A k k g i i 2 1 & & @ + X X     o # # % : : , : : : % % % o o X X   o @ # & * 2 7 p s g h A A ^ / ] ] [ [ [ P o.Y Y Y Y U Y R I R U U R R Q Q Q ! ! ! ! =.=.=.=.;.;.;.;.;.i.;.i.i.i.i.p.p.p.p.p.p.8.8.8.8.8.8.8.u.u.u.u.y.y.y.y.r.r.y.r.y.t.y.t.y.y.y.u.y.u.u.u.u.u.u.u.u.u.u.u.u.8.8.8.8.8.8.8.8.8.8.8.8.8.p.p.p.p.p.p.p.p.p.p.p.p.p.p.p.p.p.p.p.p.p.p.p.p.p.p.p.p.p.p.p.i.i.i.i.i.i.i.i.i.i.i.i.;.i.i.;.;.;.=.;.=.=.! =.! ! ! ! Q Q Q R R U U E U E Y Y E Y o.Y P o.o.] ] ] ] S S A h g g a 2 2 * * # # o X X X o # o % : : , : : : % % o # o X X o o + # * = 2 2 a g g h ",
"h g s s 2 2 1 * $ # + o o X X @ # % % % : : : , : : % # # o o X X o + # # * , 2 7 a g h h A b ] S ] ] o.] Y o.Y Y Y Y Y T T T R R R R R U R Q Q Q ! =.! =.=.=.=.=.;.;.;.6.;.i.i.;.i.i.i.i.i.i.i.p.p.p.p.p.p.p.p.p.p.p.p.p.p.p.p.p.p.p.p.p.p.p.p.p.p.p.p.p.8.8.8.8.8.8.8.8.8.8.8.8.8.8.u.u.u.u.u.u.u.u.u.u.u.u.y.u.y.y.y.t.t.t.t.t.t.r.r.r.r.r.t.r.y.t.y.y.y.u.u.u.u.8.8.8.8.8.8.8.p.p.p.p.p.i.i.6.i.i.;.;.;.;.;.=.;.=.=.! =.! ! ! Q Q Q Q Q U U I R R I Y Y Y Y Y P o.P [ ] ] ] / ^ A k g g g i 2 1 = & # + X       o o % # % : , , : : : % # o o X   X   @ # & > < 2 7 s g h A A / / / ] ] [ [ o.P Y Y Y Y Y U Y U I R U U R R Q Q ! ! ! =.! =.=.=.=.;.;.;.6.;.i.;.i.i.6.i.i.p.p.p.p.p.8.8.8.8.8.8.u.u.u.u.u.y.y.r.y.r.r.r.r.y.t.t.y.y.y.y.y.u.y.u.u.y.u.u.u.u.u.u.u.u.u.8.u.8.p.8.8.8.8.8.8.8.8.8.8.p.p.p.p.p.p.p.p.p.p.p.p.p.p.p.p.p.p.p.p.p.p.p.p.p.p.p.p.p.p.p.p.p.p.p.p.i.i.i.i.i.;.;.i.;.;.;.=.;.=.=.! =.! ! ! Q Q Q Q R U U I E I E Y Y Y Y o.Y P P ] ] ] / S S b A g g a 7 2 , & & o o o X X @ o % % % : : , : : : % # o @ X X o o # & & , 1 i a s h h ",
"h k s a i 2 , * & & o o X X @ o o o % % : , : : : % % # # o o o X o o # & * * 2 7 a a g h b S S / ] ] ] ] o.] o.Y Y Y #.T T E I R I R U R Q Q Q ! ! Q =.! =.=.=.;.=.;.;.;.;.i.;.i.i.i.i.i.i.p.p.p.p.p.p.p.p.p.p.p.p.p.p.p.p.p.p.p.p.p.p.p.p.p.p.p.8.8.8.8.8.8.8.8.8.8.8.8.8.8.8.8.u.u.u.u.u.u.u.u.u.u.u.u.y.y.u.y.y.y.t.t.t.t.t.r.r.r.r.r.r.r.r.t.t.y.y.y.u.u.u.u.8.8.8.8.8.8.8.p.p.p.p.p.p.i.i.i.i.;.i.;.i.;.;.;.=.=.=.=.! ! ! ! Q Q Q Q U U U R I I R Y E Y Y Y o.P o.[ [ ] / / G ^ k k g s p 2 1 > & # @ @ o   o   # o % : : : : , : : % % o o X     o o # & * = 2 7 s g h h A S / / ] ] [ [ [ Y o.Y Y E Y Y U E U R U R R Q Q Q ! Q =.! =.! =.=.;.=.;.;.;.i.;.i.i.i.i.i.p.p.p.p.p.8.8.8.8.8.8.8.8.u.u.u.u.y.y.y.y.r.y.r.r.r.r.t.t.t.t.t.y.y.y.y.y.u.u.u.u.u.u.u.u.u.u.u.u.8.u.u.8.8.8.8.8.8.8.8.8.8.8.8.8.p.p.p.p.p.p.p.p.p.p.p.p.p.p.p.p.p.p.p.p.p.p.p.p.p.p.p.p.p.p.p.p.p.i.i.i.;.i.i.;.;.;.;.;.=.=.=.=.! =.! ! ! Q Q R R U U R I E E Y E Y Y Y o.] o.P ] ] ] / S b h b a a a 2 = * & # # o o X o o # # % : : : , : % # # # X o o o o o $ * = 2 2 7 g g h ",
"h g g a 2 2 = * & # # o o o X @ # # % % % : : , : % % % o # X o o o o # & & , 2 2 a g g h A b S / / ] ] o.] T o.Y Y o.T T T T E I R R R R U Q Q Q ! =.! ! =.=.=.=.;.;.;.;.i.;.i.i.;.i.i.i.p.p.p.p.p.p.p.p.p.p.p.p.p.p.p.p.p.p.p.p.p.p.p.8.8.8.8.8.8.8.8.8.8.8.8.8.8.8.8.8.u.u.u.u.u.u.u.u.u.u.u.u.u.u.y.y.u.y.y.t.t.t.t.t.t.r.r.r.r.e.e.e.e.r.r.t.t.t.y.y.u.u.u.u.u.u.8.8.8.8.8.8.8.p.p.p.p.p.i.i.i.i.;.;.;.;.;.;.=.=.=.=.! =.! ! ! Q Q Q Q R U U R R I R Y Y Y Y Y P [ [ [ ] ] / / G b k g s s i 2 - > # + X X X     o # # % % : , : : : : # o # X   X X o @ # * < 1 7 s s g h A ^ S ] ] ] ] [ [ [ Y Y Y Y E I Y U U I R U R U Q Q Q ! ! =.! =.=.=.=.;.;.;.;.;.i.i.;.i.i.i.i.p.p.p.p.p.8.8.8.8.8.8.8.u.u.u.u.y.y.y.y.r.r.r.r.r.r.r.r.t.t.t.t.t.y.y.y.y.y.u.y.u.u.u.u.u.u.u.u.u.u.u.u.8.u.u.p.8.8.8.8.8.8.8.8.8.8.8.8.8.p.p.p.p.p.p.p.p.p.p.p.p.p.p.p.p.p.p.p.p.p.p.p.p.p.p.p.p.p.i.i.i.;.i.;.i.;.;.=.;.=.=.! =.! ! ! ! ! Q Q R R U U R I Y E Y Y Y o.Y o.] ] o.] / / S S h h g a 7 2 2 * & # o o o o X @ # % % % : : : : : % # o # X o o # # $ & , 1 i i s g h ",
"k g s a i 2 1 * & # # @ o o o @ o # # % : : : : : % % # # # o o o o o # # * = , 2 7 a g h h b S S ] ] ] ] P ] Y o.o.T Y T T T T R I R U U R Q Q Q ! ! Q =.=.! =.;.=.;.;.i.;.i.;.i.i.i.i.i.p.p.p.p.p.p.p.p.p.p.p.p.p.p.p.p.p.8.8.8.8.8.8.8.8.8.8.8.8.8.8.8.8.8.8.8.8.8.u.u.u.u.u.u.u.u.u.u.y.u.u.y.u.y.y.u.u.t.t.t.t.t.t.r.r.r.r.e.e.e.e.w.e.r.r.t.r.y.y.y.y.u.u.u.u.8.8.8.8.8.8.8.p.p.p.p.p.p.i.i.i.;.i.i.;.;.;.=.;.=.=.=.=.! =.! ! Q Q Q Q U U R R I R Y Y E Y Y Y o.P [ ] ] ] ] / ^ A k k g s i 2 1 & & # + X     o   # # % : : : , : : % % % o o X     o @ # & * 2 2 7 s g h A A / / / ] ] [ [ Y o.P Y Y Y Y E I R U U U U R Q Q Q ! ! ! ! =.=.=.;.=.;.;.;.i.;.;.i.i.i.i.i.p.p.p.p.p.8.8.8.8.8.8.u.u.u.u.u.u.y.y.r.y.r.r.r.r.r.r.r.r.r.t.t.t.t.t.y.y.y.y.u.y.u.y.u.u.u.u.u.u.u.u.u.u.u.8.u.u.8.8.8.8.8.8.8.8.8.8.8.8.8.8.8.8.8.8.p.p.p.p.p.p.p.p.p.p.p.p.p.p.p.p.p.p.p.p.p.p.p.i.i.i.i.;.i.;.;.;.;.=.=.=.=.=.! =.! ! Q Q Q R U U R I E U Y E Y Y Y P P o.o.] ] ] / S A A h g g i 2 , * & # # o o X o @ o % % : : : : : % # # # @ o o o o # # * = 1 2 i s g h ",
"h g g i 2 2 1 * & # # o # o o @ o # % % % % : : : % % % @ # X o o # o + # & * 2 2 7 a g g A A S S / ] ] o.] o.] T o.Y T o.T T T R R I R R U R Q Q ! ! =.! =.=.=.=.;.=.;.;.;.;.i.;.i.i.6.i.i.p.p.p.p.p.p.p.8.8.8.8.8.8.8.8.8.8.8.8.8.8.8.8.8.8.8.8.8.8.8.8.8.8.u.u.u.u.u.u.u.u.u.u.u.u.u.u.u.y.u.y.y.u.t.t.t.t.t.t.t.r.r.r.r.e.e.e.e.w.e.e.e.e.r.r.t.t.y.y.y.u.u.u.u.u.8.8.8.8.8.8.8.p.p.p.p.p.p.i.6.i.;.i.;.i.;.;.=.=.=.=.=.! ! ! ! ! Q Q Q Q U U I R I R Y I Y Y o.Y P o.P ] ] / / / A k k s g i 2 2 > & # # X X     o o % % % : : : , : : % % o o o   X o o # & * < 7 7 s g h h ^ A / ] ] ] [ [ [ Y Y Y Y Y E Y U I U R U R R U Q Q Q *.! =.! =.=.=.;.=.;.;.;.i.;.i.i.;.i.i.i.p.p.p.p.p.8.8.8.8.8.8.u.u.u.u.u.y.y.y.y.r.r.r.r.w.r.r.r.r.r.t.t.t.t.t.t.y.y.y.y.y.u.y.u.u.u.u.u.u.u.u.u.u.u.u.u.u.u.8.u.p.8.8.8.8.8.8.8.8.8.8.8.8.8.8.8.8.8.8.8.8.8.8.p.p.p.p.p.p.p.p.p.p.p.p.p.p.p.i.6.i.i.;.;.i.=.;.;.=.=.=.=.! ! ! ! ! Q Q Q R U U U I E Y Y E Y o.Y o.P P ] ] ] / S b A h g a a 7 2 > & # # @ o o @ o # o % % : : : : % % # # # X o o # o & & , - 7 a s g h ",
"h g s a i 1 = > & & # # o @ @ o # o # % % : : % : : % # % # # o o o o # + & * , 2 7 i g g h A b S / ] ] ] ] P o.] Y Y o.T T T T E I R R U R Q Q Q Q ! ! ! ! =.=.=.=.;.;.;.;.i.;.i.i.i.i.i.p.p.p.p.p.p.8.8.8.8.8.8.8.8.8.8.8.8.8.8.8.8.8.8.8.8.8.8.8.8.8.u.u.u.u.u.u.u.u.u.u.u.u.y.u.u.y.y.u.y.y.y.y.t.t.t.t.t.t.r.r.r.r.r.e.e.e.w.e.w.q.w.e.r.r.t.r.t.y.y.y.u.u.u.u.u.8.8.8.8.8.8.8.p.p.p.p.p.i.i.i.i.i.;.i.;.;.=.;.;.=.=.! =.! ! ! ! Q Q Q U U U R I R R Y Y E Y Y P o.[ [ [ ] ] / / S A g k s i 7 1 = = # @ X o     o o o # % : : , , : : % % o o X X     @ @ & > = 1 7 a g g b h / / / ] ] [ [ P o.Y Y Y E Y U Y E R I U U U Q Q Q ! ! ! ! =.! =.=.=.;.;.;.i.;.i.;.i.i.i.i.p.p.p.p.p.8.8.8.8.8.8.8.8.u.u.u.u.y.y.y.r.y.r.r.e.r.e.e.e.r.r.r.r.r.t.t.t.t.t.t.y.y.y.u.y.u.y.u.u.u.u.u.u.u.u.u.u.u.u.u.u.u.8.u.u.8.8.8.8.8.8.8.8.8.8.8.8.8.8.8.8.8.8.8.8.8.8.8.8.8.8.8.8.p.p.p.p.p.i.i.i.i.;.;.i.;.;.;.;.=.=.=.! =.! ! ! ! Q Q R R U R Y R U Y E Y Y Y Y o.P ] o.] / ] S S b h g g a 7 , = * & # @ o @ o o o % # % % : : : % % # # @ o # o # # $ * = 1 2 i s g h ",
"h g s i 2 2 1 = * # # # # o o @ # @ % # % % : : : % % % @ @ @ @ o o o # # & & = 2 7 a g g h h S S S ] ] ] o.] Y Y o.Y Y Y T #.T I R I R R R U R Q Q Q =.! =.! =.=.=.;.;.;.6.;.i.;.i.i.i.6.i.i.p.p.p.p.8.8.8.8.8.8.8.8.8.8.8.8.8.8.8.8.8.8.8.u.u.u.u.u.u.u.u.u.u.u.u.u.u.u.u.u.y.u.y.u.y.y.y.y.t.t.t.t.t.t.r.r.r.r.r.e.e.e.e.w.w.w.q.q.w.w.e.e.r.r.t.t.t.y.y.y.u.u.u.u.u.8.8.8.8.8.8.8.p.p.p.p.p.i.i.i.;.i.;.;.i.;.=.=.=.=.=.! =.! ! ! Q Q Q Q R U U R I I R Y Y Y Y Y P [ o.] [ ] / / ^ A k g g s i 2 1 & & + + X     o o # # % % : : , : : : % # o o   X   o @ # & < 2 7 p s g h A A S / / ] [ [ [ [ o.Y Y Y Y Y U I R U U U R U Q Q Q ! ! ! =.=.=.=.=.=.;.;.;.i.;.i.i.i.i.6.i.i.p.p.p.p.8.8.8.8.8.8.8.u.u.u.u.u.y.y.y.r.r.r.r.w.w.e.e.e.e.e.r.r.r.r.t.t.t.t.t.t.t.y.y.y.u.y.u.y.u.u.y.u.u.u.u.u.u.u.u.u.u.u.u.u.u.8.u.8.8.8.8.8.8.8.8.8.8.8.8.8.8.8.8.8.8.8.8.8.8.8.8.8.p.p.p.p.p.i.i.6.i.i.;.;.i.;.=.;.=.=.=.=.! ! ! ! ! Q Q R R U U Y R U Y E Y Y o.Y P o.] ] ] / S S A h g a a 7 2 , * & # # o o @ @ o # % % % % : : % % # # @ % o # o & # * * 1 2 i s g h ",
"h g s a 7 2 , * & & & # # o # @ o # o % # % % % % : % # % % # @ # o # o # & * , , 2 7 i g h A b S S / ] ] ] o.P o.Y Y o.T T T T E I R R U U R Q Q Q ! ! ! ! =.=.=.=.=.;.;.;.;.;.i.;.i.i.i.i.p.p.p.p.p.8.8.8.8.8.8.8.8.8.8.8.8.8.8.8.u.u.u.u.u.u.u.u.u.u.u.u.u.u.u.u.y.u.u.y.y.u.y.y.y.u.t.t.t.t.t.t.t.r.r.r.r.e.e.e.e.e.w.e.w.q.q.q.q.q.w.e.e.r.r.r.t.t.y.y.y.u.u.u.u.8.8.8.8.8.8.8.p.p.p.p.p.p.i.6.i.i.;.;.i.;.;.;.;.=.=.=.=.! ! ! ! Q Q Q Q U U R R I R Y E Y Y Y Y o.P [ [ ] ] / / G ^ k k g s i 2 1 = & # @ X o     o o # % % : , : : : % % # o o X   X . @ # & * 1 2 7 s g h A A ^ / ] ] ] [ [ Y [ Y Y Y Y U Y R I U R U U R Q Q Q ! Q =.! ! =.=.=.;.;.;.;.;.;.i.;.i.i.i.i.p.p.p.p.p.8.8.8.8.8.8.8.u.u.u.u.u.y.y.r.y.r.r.r.r.r.q.e.w.e.e.e.e.r.r.r.r.r.t.t.t.t.t.t.y.t.u.y.u.y.u.u.y.u.u.u.u.u.u.u.u.u.u.u.u.u.u.u.u.u.u.u.u.8.8.8.8.8.8.8.8.8.8.8.8.8.8.8.8.8.8.8.p.p.p.p.p.p.i.i.i.i.;.i.;.;.;.;.=.;.=.=.! =.! ! ! Q Q Q R R U U R U Y E Y E Y Y P o.P ] ] ] / ] b A A g g a 7 2 = * : & # o # @ o o # # % % % % % % @ % # # o # o # # & & = 1 2 a p g h ",
"g g s i 2 2 - > * & # # # # @ # @ o % # % % % % % % : % # # # @ @ o o # + # * * ; 2 a a h g h A b ] G / ] ] ] o.] Y o.Y Y Y T T E I R I R R U R Q Q ! ! =.! ! =.=.=.;.=.;.;.6.i.;.i.i.i.i.i.i.p.p.p.p.p.8.8.8.8.8.8.8.8.8.8.8.u.u.u.u.u.u.u.u.u.u.u.u.u.u.u.u.y.u.y.u.y.u.y.y.y.y.t.t.t.t.t.t.r.t.r.r.r.r.e.e.e.e.e.e.q.w.q.w.q.q.9.q.q.q.e.e.r.r.r.t.y.t.y.y.y.u.u.u.u.8.8.8.8.8.8.8.p.p.p.p.p.p.i.6.i.i.;.;.;.;.;.;.=.=.=.! =.! ! ! ! Q Q Q Q U U I R R I Y I E Y Y P o.P ] [ ] ] / ^ S k k g s a 2 2 > & # + O X     o o # % % : : , , : : % % # o X     X o # & * < 2 7 p g g h A / / / ] ] ] [ o.P Y o.Y E Y U Y U R I R R R U Q Q ! ! ! =.=.! ;.=.=.;.;.;.;.i.;.i.;.i.i.i.i.p.p.p.p.p.8.8.8.8.8.8.8.u.u.u.u.y.y.y.y.r.r.r.e.w.e.q.e.w.e.e.e.e.e.r.r.r.r.r.t.t.t.t.t.t.t.y.t.u.t.u.u.u.y.u.u.u.u.y.u.u.u.u.u.u.u.u.u.u.u.u.u.u.u.u.u.8.u.8.8.8.8.8.8.8.8.8.8.8.8.8.8.8.p.p.p.p.p.i.i.i.;.i.;.;.;.;.;.=.=.=.=.! =.! ! ! ! Q Q R U U I E E I Y Y Y Y o.Y P o.] ] / / S A h g g a 7 2 , = & & # # o o @ @ o % # % % % % % % @ % # # # # # # & * > 1 2 i a g g ",
"h g p i 2 2 , = * & & & # # @ @ @ # o # % # % % % % % # % % # # @ # # o # & & = , 2 7 i a g h A S S / / ] ] o.] Y o.Y Y Y #.T T I R I R U U R R Q Q Q ! ! ! =.=.=.=.=.;.;.;.;.;.i.;.i.i.i.i.p.p.p.p.p.8.8.8.8.8.8.8.8.8.8.u.u.u.u.u.u.u.u.u.u.u.u.u.u.u.u.u.y.u.y.u.y.y.y.y.y.t.t.t.t.t.t.t.r.r.r.r.r.e.e.e.e.e.e.q.w.q.q.q.9.q.9.9.q.q.e.q.e.e.r.r.t.r.y.y.y.u.u.u.u.u.8.8.8.8.8.8.8.p.p.p.p.p.i.i.i.i.;.i.i.;.;.;.=.;.=.=.=.! =.! ! ! Q Q Q U U U R R I R Y E Y Y Y o.P P o.[ ] ] / / S A k g g p i 1 - & & # X   o     o # # % : : , : : : % % o o o     o o @ # & < 2 2 p g g h A A / / ] ] [ [ [ Y o.Y Y Y Y Y U E I R U U U Q Q Q Q ! *.! ! =.! =.;.=.;.;.i.;.;.i.i.i.i.i.p.p.p.p.p.8.8.8.8.8.8.8.8.u.u.u.u.y.y.y.r.y.r.r.r.r.w.w.q.w.q.e.w.e.e.e.e.r.r.r.r.r.r.t.t.t.t.t.t.t.u.t.u.t.u.t.u.y.u.u.u.u.u.u.u.u.u.u.u.u.u.u.u.u.u.u.u.u.u.u.u.u.u.u.8.8.8.8.8.8.8.8.8.p.p.p.p.p.i.i.6.i.i.;.i.;.;.;.;.=.=.=.! =.! ! ! ! Q Q R R R U R I R Y E Y Y Y P P o.P ] ] ] S S A h h g a 7 7 , = * & & # o # @ o # o % # % # % % % % # # % # # # # & & = 1 2 7 p g h ",
"g g s i 7 2 1 = & * & & # # # # o # # o % % # % % % % % # : # # # o # # + # & * , ; 7 a g g h h b S / ] ] ] ] o.P Y o.Y Y T T T Y R R I R U R U R Q Q ! ! ! ! =.=.=.=.;.;.;.6.;.i.i.;.i.i.i.i.i.p.p.p.p.8.8.8.8.8.8.8.u.u.u.u.u.u.u.u.u.u.u.u.u.u.y.y.y.y.y.y.y.y.y.t.t.t.t.t.t.t.t.r.r.r.r.r.r.e.e.e.e.e.w.e.q.q.w.q.q.q.9.q.9.9.9.9.q.q.e.e.e.r.r.r.t.t.y.y.y.u.u.u.u.u.8.8.8.8.8.8.8.p.p.p.p.p.i.i.6.i.;.;.i.;.;.;.=.=.=.=.=.! ! ! ! Q Q Q Q U U U I R I R Y Y Y Y Y o.P [ ] ] ] ] / ^ A k g g s i 2 1 = $ # + X     o o o # % : : : , : : : % # o o o     o @ # & > = 7 9 p g h ^ A S / ] ] ] [ [ P Y Y Y Y E Y Y U U I R U R U R Q Q Q ! =.! =.=.=.=.;.;.;.;.6.i.;.i.i.i.i.i.p.p.p.p.p.8.8.8.8.8.8.8.u.u.u.u.u.y.y.y.r.y.r.r.r.w.w.q.q.q.q.w.w.e.w.e.e.e.e.r.r.r.r.r.r.t.t.t.t.t.t.t.u.t.u.t.u.t.u.y.y.u.y.u.u.u.y.u.u.u.u.u.u.u.u.u.u.u.u.u.u.u.u.u.u.8.8.8.8.8.8.8.8.p.p.p.p.p.i.i.6.i.i.;.;.i.;.=.;.=.=.=.! =.! ! ! ! Q Q R R U U E I E Y E Y Y o.P P ] ] ] L S S b A g g a a 2 2 , * & & # # o o # o # @ % % % # % % @ % # # # # & # & * > - 2 i p s g ",
"h s p i 2 1 - , > * & : & & % o # @ o # o % % # % % % % : # : # # # o # # # & * = , 2 7 i g h A A S / / ] ] P ] o.] Y o.Y Y Y Y R Y I R R U U R Q Q Q ! ! ! =.! =.=.=.=.;.;.;.;.;.;.i.;.i.i.i.p.p.p.p.p.8.8.8.8.8.8.8.u.u.u.u.u.u.u.u.y.u.y.y.y.y.y.y.y.y.y.t.y.t.t.t.t.t.t.t.t.r.r.r.r.r.r.e.e.e.e.e.e.q.e.q.q.q.q.q.9.q.9.9.9.M 9.q.q.q.w.w.e.r.r.t.t.t.y.y.y.u.u.u.u.8.8.8.8.8.8.8.p.p.p.p.p.p.i.i.i.i.;.i.;.;.;.;.;.;.=.=.! =.! ! ! Q Q Q Q U U R R I R Y E Y Y Y Y P P o.[ [ ] / / S S b k g s i 2 2 > & # @ X o     X o # % % : , : , : : % # # o     X   @ # & * 1 2 7 s g h h A / / / ] ] [ [ o.[ Y Y Y Y Y E I U U U U R R Q Q Q ! ! ! =.! =.=.=.=.;.;.;.;.;.i.;.i.i.i.i.p.p.p.p.p.8.8.8.8.8.8.8.u.u.u.u.u.y.y.r.y.r.r.r.w.r.w.q.q.q.q.q.w.q.w.w.w.e.e.e.e.e.r.r.r.r.r.t.r.t.t.t.t.t.t.y.t.u.y.y.u.y.y.u.y.y.u.y.u.u.y.u.u.u.u.u.u.u.u.u.u.u.u.u.u.8.8.8.8.8.8.8.p.p.p.p.p.p.i.i.i.i.;.i.;.;.;.;.;.=.=.=.=.! =.! ! Q Q Q R R U R I E I E Y Y Y Y P P o.P ] / ] S A A h g g 7 7 2 = , * & # % o # o # o % # # % # % # % % # : # : # & & * = 1 1 7 i g h ",
"g g p 7 2 2 1 = = * * & & # # % o % o # % o % % # % % : # : : # # # # o # # & & = 2 2 7 a g g h A S S / ] ] ] o.P Y ] Y Y T #.T Y R R I R R R R U Q Q Q ! =.! =.=.=.=.;.=.;.;.;.i.i.i.i.i.6.i.i.p.p.p.p.p.8.8.8.8.8.8.8.u.u.u.u.u.y.y.y.y.y.y.y.y.y.y.y.t.t.t.t.t.t.t.t.r.r.r.r.r.r.e.e.e.e.e.e.e.q.e.q.q.q.q.q.q.9.9.9.9.9.M 9.M 9.9.q.q.w.e.e.e.r.r.t.t.y.y.y.y.u.u.u.u.8.8.8.8.8.8.8.8.p.p.p.p.p.i.i.i.i.;.i.=.;.;.=.=.=.=.=.! =.! ! ! Q Q Q Q U U U R R I Y E Y Y Y o.Y [ [ ] ] ] / / ^ k k g s s 7 1 - & & + X X X   o o # # % : : , : : : % % o o o X   o o @ & * < 2 7 s s h h ^ A S ] / ] [ [ [ Y o.Y Y Y E I E I U U U U R U Q Q Q *.! ! =.! ;.=.=.;.;.;.6.;.i.i.;.i.i.i.i.p.p.p.p.p.8.8.8.8.8.8.8.u.u.u.u.u.y.y.r.y.r.r.r.w.w.w.q.9.q.9.q.q.q.q.w.w.e.w.e.e.r.e.e.r.r.r.r.r.r.t.t.t.t.t.t.t.t.y.t.y.y.y.u.y.y.y.u.y.u.y.y.y.y.u.y.u.u.u.u.u.u.u.u.u.u.8.8.8.8.8.8.8.p.p.p.p.p.i.i.i.i.;.i.=.;.;.;.=.=.=.! =.! ! ! ! ! Q Q R U U U R E Y I E Y Y o.P P ] ] ] / S S h h g a a 4 7 2 * * * # # # o # o # o % % # % # % % # : # : # : & & * = , 7 2 p s g ",
"g p p i i 2 1 = , * * * : & : o % o # @ o % o % # % % % : : # % : # # # + # & * * , 2 7 i g g h A b S / / ] ] ] ] o.Y o.Y Y T Y E I Y R I U U U R Q Q Q ! ! ! =.! =.=.=.;.=.;.i.;.;.;.i.i.i.i.i.p.p.p.p.p.8.8.8.8.8.8.8.u.u.u.u.y.y.y.y.y.y.y.y.r.y.t.t.t.t.t.r.t.r.r.r.r.r.r.r.e.e.e.e.e.e.q.e.q.w.q.q.q.q.9.q.9.9.9.9.M M M m M 9.9.9.q.q.w.e.r.r.r.r.t.t.y.y.u.u.u.u.u.8.8.8.8.8.8.8.p.p.p.p.p.i.i.i.i.;.i.;.i.;.;.;.;.=.=.! =.! ! ! ! Q Q Q Q U U R R I I R Y E Y Y Y [ P o.[ ] ] ] ^ G A k k g i i 2 > = # # @ X       o # # % : : : , : : % # # o o     . o @ # & * 1 7 7 g g h A A ^ / ] ] ] [ P o.P Y Y Y Y Y E E I R U U U R Q Q Q ! ! ! =.=.! =.;.=.;.;.;.;.i.;.i.i.i.i.i.p.p.p.p.p.8.8.8.8.8.8.8.u.u.u.u.y.y.y.y.r.r.r.r.r.w.w.q.q.9.q.9.q.q.q.w.q.q.w.w.e.q.e.e.e.e.e.e.r.r.r.r.r.r.r.t.t.t.t.t.t.t.t.t.t.t.y.y.y.y.y.y.y.y.y.y.y.y.y.y.u.u.u.u.u.8.8.8.8.8.8.8.p.p.p.p.p.i.i.i.i.;.i.;.i.;.;.=.;.=.=.=.=.! ! ! ! Q Q R R R U U E I R Y Y Y Y P Y ] o.] / G S A A h g g a 7 2 , = , & : # @ # o @ o # o # # # # % # : # % & : & & * * , - 2 2 p p g ",
"g g 7 7 2 1 2 , = , * * * & & # @ @ o # o # % @ # # % % : : : & # % # # # + & & * = 2 7 7 a g h A A S S ] ] ] ] o.] Y Y o.Y Y T Y E R I R R U R U R Q Q Q ! ! ! =.=.=.=.;.;.;.;.6.i.i.;.i.i.i.i.i.p.p.p.p.8.8.8.8.8.8.8.u.u.u.u.u.y.y.y.y.y.r.y.y.r.t.r.r.t.r.r.r.r.r.e.e.e.e.e.e.e.e.w.e.q.w.q.q.q.9.q.q.9.9.9.9.M M M M M m m M M 9.q.q.q.w.e.e.r.r.t.r.y.y.y.y.u.u.u.u.u.8.8.8.8.8.8.8.p.p.p.p.p.i.i.6.i.;.i.;.;.;.;.=.;.=.=.! =.! ! ! ! Q Q Q Q U U I R R Y I Y Y Y Y Y P [ [ ] ] ] / ^ A A g g g i 2 1 = & # + X X     o o # % % : , : , : : % # # o o     o @ # & > = 7 7 s g h A A / / ] / [ [ [ P o.Y Y Y E Y I U E I R U R U R Q Q Q *.! ! =.=.=.=.;.;.;.;.6.;.i.i.;.i.i.i.i.p.p.p.p.p.8.8.8.8.8.8.u.u.u.u.u.y.y.y.y.r.r.r.r.w.w.q.q.9.9.9.9.9.q.9.q.q.q.q.q.e.q.e.e.e.e.e.e.e.e.r.r.r.r.r.r.t.r.t.t.t.t.t.t.t.t.t.t.t.t.y.y.y.y.y.y.y.y.y.y.y.u.u.u.u.8.8.8.8.8.8.8.p.p.p.p.p.i.i.6.i.i.;.;.i.;.;.=.=.=.=.! =.! ! ! ! Q Q R R U R I E Y R Y Y Y P P P L o.G / S S h h h a g 7 7 2 , = > & & # o # o @ o # # # # # % % % : : & : & > & * = , 1 i i s g ",
"g p i i 2 7 1 - , = = * > : # % # # # o o % o # # % % : : : : : : & # # # # + & * * 2 2 a d g h h A S / / / ] o.] Y P o.Y o.T Y E Y I R R I U R R Q Q Q ! ! ! =.! =.=.=.=.;.;.;.;.;.;.i.;.i.i.i.p.p.p.p.p.8.8.8.8.8.8.8.u.u.u.u.u.y.y.r.y.r.y.r.r.r.r.r.r.r.r.r.r.e.e.e.e.e.e.e.q.w.w.q.q.q.q.q.q.9.q.9.9.9.9.M M M M m m m m m M M 9.9.q.q.w.q.e.r.r.r.t.t.t.y.y.u.u.u.u.8.8.8.8.8.8.8.p.p.p.p.p.p.i.i.i.i.i.;.;.i.;.;.;.=.=.=.=.! =.! ! Q Q Q Q U U U R R I R Y E Y Y Y P o.P [ [ ] / / / S k k g s p 2 1 = & # @ @ X o   X o # % % : : , : : : % % o o       o o # & * < 2 7 s s h h A S / / ] ] [ [ o.[ Y Y Y Y Y E Y I R U U R R Q Q Q ! ! ! =.! =.=.=.=.;.;.;.;.;.i.;.i.i.i.i.p.p.p.p.p.8.8.8.8.8.8.8.8.u.u.u.u.y.y.y.r.y.r.r.r.r.w.q.q.q.9.9.9.9.9.q.9.q.q.q.q.w.q.e.q.e.q.e.e.e.r.e.e.r.e.r.r.r.r.r.r.r.t.r.t.t.t.t.t.t.t.t.t.t.t.t.y.y.t.y.y.u.u.u.u.8.8.8.8.8.8.8.8.p.p.p.p.p.i.i.i.i.;.i.;.;.;.;.=.;.=.=.=.! =.! ! Q Q Q R R R I R I R Y E Y Y Y P P o.] ] / S A A h g g a a 2 2 2 , * * # # % o @ o # @ @ # @ % % # : & & , & * * * * , - 1 7 7 p g ",
"g p i 7 2 1 - 1 1 , - , * * : # # @ o @ o o # @ % # % : : : & > & % # # # # & & & = , 2 7 i g h h A A S / ] ] ] ] o.P Y Y Y o.T Y R Y I R U U U R U Q Q Q ! ! ! =.=.=.=.=.;.;.;.;.i.;.i.i.i.6.i.i.p.p.p.p.p.8.8.8.8.8.8.8.u.u.u.u.u.y.y.y.r.r.r.r.r.r.r.r.e.e.e.e.e.e.w.e.w.w.q.e.q.q.q.q.q.9.q.9.9.9.9.M M M M m M m m m t m m M M 9.9.9.q.w.e.e.e.r.r.t.t.y.y.y.y.u.u.u.u.8.8.8.8.8.8.8.8.p.p.p.p.p.i.i.i.;.i.;.;.;.;.;.=.=.=.! =.! ! ! ! Q Q Q Q U U U I R I R Y Y Y Y o.P o.[ [ ] ] / / ^ A k g g s i 2 - > # + X X X   o o o % % % : : , % : : # # o o     X o @ & & < 1 7 7 g g b A ^ S / ] ] ] [ [ Y o.Y Y Y E I E U I R U U R U Q Q Q ! ! ! =.=.=.=.=.=.;.;.;.i.;.i.i.;.i.i.i.p.p.p.p.p.8.8.8.8.8.8.8.u.u.u.u.y.y.y.y.r.r.r.r.w.e.w.q.q.9.9.M 9.9.M 0.9.9.q.q.9.q.q.q.q.e.q.e.e.q.e.e.e.e.e.e.r.r.r.r.r.r.r.r.r.r.r.t.t.t.t.t.t.t.t.t.t.y.y.y.u.u.u.u.u.u.8.8.8.8.8.8.8.p.p.p.p.p.i.i.i.i.;.i.;.;.;.;.=.=.=.! =.! ! ! ! Q Q Q R R U R R I Y I Y Y Y P P L L ] G S S A f g g a a a 2 2 , , * & & o # o @ X @ @ # # # % : : : > & > * * > * = 1 7 2 i p d ",
"d p i 7 2 7 , 2 , = , , * > & & % o # @ o @ o # @ % # : : : > : : & : # # # # # * * = 2 7 i a g h A A S / / ] ] P ] o.P o.o.T Y Y Y R R I R U U U R Q Q Q ! ! =.! ! =.=.=.;.=.;.i.;.i.;.i.i.i.i.i.p.p.p.p.p.8.8.8.8.8.8.8.u.u.u.u.y.y.y.r.y.r.r.r.r.r.w.e.e.e.e.w.e.w.w.w.q.q.q.9.q.q.q.9.9.9.9.9.9.M M M M M m M m m m t t t m m M M 9.q.q.q.w.w.r.r.r.r.t.t.y.y.y.u.u.u.u.8.8.8.8.8.8.8.p.p.p.p.p.p.i.6.i.i.;.i.;.;.;.=.;.=.=.=.=.! ! ! ! Q Q Q Q U U R R I R Y Y E Y Y Y Y [ [ [ ] ] ] / S A k g g s i 2 1 & & # + X     X X # # % : : , : , : % % # o o X     o @ # & * 2 2 s s g h h A S / ] ] ] [ P o.[ Y Y Y Y Y E I R I U U U R Q Q Q ! Q =.! ! =.=.=.;.;.;.6.;.i.;.i.i.i.i.i.p.p.p.p.p.8.8.8.8.8.8.u.u.u.u.u.u.y.y.r.y.r.r.r.r.w.w.w.9.q.9.M M M 9.M 9.9.9.9.q.9.q.q.q.q.q.q.q.e.q.e.q.e.e.e.e.e.e.e.e.e.e.r.r.r.r.r.r.r.r.r.r.r.t.r.t.t.y.y.y.u.u.u.u.8.8.8.8.8.8.8.p.p.p.p.p.p.i.i.i.;.i.;.i.;.;.;.=.=.=.=.=.! =.! ! Q Q R R R U R Y I E Y Y Y Y P L o.P / G S A A A g g a a 7 2 7 , = > : # % o o o @ o @ @ o % # # : : & > > * , * > = 1 - 2 7 p g ",
"g p 7 i 2 2 2 , 2 2 , ; , * > # # # o o @ X # o # # % : : : > : > & & # # # # & & * = 2 7 7 g d g A A S S / ] ] ] P ] Y Y Y Y T Y Y Y R R I R U R U R Q Q Q ! ! =.=.! =.;.=.;.;.;.;.;.i.;.i.i.i.i.i.p.p.p.p.p.8.8.8.8.8.8.8.u.u.u.u.y.y.y.r.y.r.r.e.w.r.w.w.w.w.q.q.q.q.q.q.q.q.q.9.9.9.9.9.9.M M M M M m m m m t t t t t r t t m M 9.9.9.q.q.w.e.e.e.r.t.r.y.y.y.y.y.u.u.u.u.8.8.8.8.8.8.8.p.p.p.p.p.p.i.6.i.i.;.i.;.;.;.=.;.=.=.! =.! ! ! ! Q Q Q Q U U R R I R Y Y Y Y Y P Y [ ] [ ] / / / ^ k k g s a 2 2 = # # # X X     o o # % % : : , : : : % # # o     X o o # & * < 2 7 s g g A A S / / ] ] [ [ P Y Y Y Y Y E I E U U R U R U R Q Q Q *.Q =.! =.=.=.=.;.;.;.;.;.i.;.i.i.6.i.i.p.p.p.p.p.8.8.8.8.8.8.u.u.u.u.u.y.y.y.y.r.r.r.r.w.w.w.q.9.9.9.M m M M M 9.M 9.9.9.9.q.9.q.q.q.q.q.q.q.e.q.e.q.q.e.e.e.e.e.e.e.e.e.e.e.e.r.r.r.r.r.r.t.r.y.y.y.y.u.u.u.u.u.8.8.8.8.8.8.8.p.p.p.p.p.p.i.6.i.;.i.;.;.;.;.;.=.=.=.! =.! ! ! Q *.Q R R R I R E I E Y Y P Y P L [ L / G A A h h d g a a 7 2 2 , = & & # # o o o o @ @ # # % : : : > > * , * = = , - 2 7 i i d ",
"s p i i 2 2 2 2 2 , 2 , , * : : # % o o X @ o @ # # % : : > & > : > : & # # & + & * * 2 2 7 i g h h h S S / ] ] o.] o.P o.Y o.T Y Y R Y I R U U R R Q Q Q ! Q =.! ! =.=.=.=.;.;.;.;.i.;.i.i.6.i.i.i.p.p.p.p.8.8.8.8.8.8.8.u.u.u.u.u.y.y.y.y.r.r.r.e.r.w.q.w.q.q.q.q.q.q.q.9.q.9.9.9.9.9.9.M M M M m m m m m t t t t r r e r t m m M M 9.9.q.q.w.w.w.r.r.r.t.t.t.y.y.u.u.u.u.u.8.8.8.8.8.8.8.p.p.p.p.p.i.i.i.i.;.i.;.;.;.;.;.=.=.=.=.! =.! ! ! Q Q Q Q U U I R I R E Y Y Y Y o.P P o.] ] ] / S S k k g s p 7 1 > = # @ o o     o o # # % : : , : : : % % o o X X     @ @ & * < 2 7 7 g h h A ^ / / ] ] [ [ o.P o.Y Y E Y Y U Y R I U U R Q Q Q ! Q =.! =.=.=.=.;.=.;.;.;.i.;.i.i.i.i.i.p.p.p.p.p.8.8.8.8.8.8.8.8.u.u.u.u.y.y.y.r.y.r.r.e.r.e.q.q.q.9.9.M M m m m M M M M M 9.9.9.9.9.9.q.9.q.q.q.q.q.q.e.q.q.e.q.e.e.q.e.e.e.e.r.e.e.e.e.r.r.r.t.t.y.y.y.u.u.u.u.u.8.8.8.8.8.8.8.p.p.p.p.p.i.i.i.i.i.;.i.;.;.;.=.;.=.=.=.! ! ! =.Q Q Q R R R R R I E I Y Y Y P P P L ] G S S A h h h a g a 4 7 , 2 * , & # o # o X o X # o # % # & > * * , , = , , = , - 2 7 p s ",
"d p 7 2 7 2 2 2 2 2 , 2 , , * & & o # o o X o @ o : % & : > > > > & : & & # # & & & = , ; 7 a g g h A A S / / ] ] o.] Y Y o.Y Y Y E Y R E I R U U R U R Q Q ! ! =.! =.! =.;.;.=.;.6.;.i.;.i.i.6.i.i.p.p.p.p.p.8.8.8.8.8.8.8.u.u.u.u.y.y.y.y.r.y.r.r.e.w.w.q.q.9.q.q.9.9.9.9.9.9.M M M M M M m m m m m t m t t r r r r r r e r t m m M 9.9.q.q.q.e.e.e.r.r.r.t.y.y.y.y.u.u.u.u.u.8.8.8.8.8.8.8.p.p.p.p.p.i.i.i.i.;.i.;.;.;.;.=.=.=.=.=.! ! ! ! Q Q Q Q Q U U I R I I E Y Y Y Y o.P [ [ ] ] / / ^ S k k s s i 2 - : & + +   X     o o % % : : , : , : : # # o o X     o @ # * * 2 7 s s g h ^ A S / ] ] [ [ [ o.P Y Y Y E I E U I R U U R U R Q Q ! ! ! ! =.=.=.=.;.;.;.6.;.i.;.i.i.i.i.i.i.p.p.p.p.8.8.8.8.8.8.8.u.u.u.u.u.y.y.y.r.r.r.r.w.w.w.q.q.9.9.M M m m m m m m M M M M M 9.9.9.9.9.9.q.9.q.q.q.q.q.q.q.e.q.q.e.w.w.e.e.q.e.e.e.e.e.r.r.r.y.r.y.y.u.u.u.u.u.u.8.8.8.8.8.8.8.p.p.p.p.p.i.i.i.i.;.i.;.;.;.;.=.=.=.=.=.! ! ! ! Q Q Q R R R I E I Y E Y P Y P P L L / G S k h h g d a a a 4 7 , , * & & # o o o X o o % @ % : : > > , = , , = = , ; 2 1 i i d ",
"p 7 i 7 7 2 2 2 2 2 2 2 , = > > # # o o X X X o % o % : : > > > > > * : # & # + & & * = 2 7 7 d g h A A S S ] ] ] ] o.] o.Y o.T Y Y Y E I R I U U U R Q Q Q ! ! Q =.! =.=.=.=.;.;.;.;.i.;.i.i.i.i.i.p.p.p.p.p.8.8.8.8.8.8.8.u.u.u.u.u.y.y.r.y.r.r.r.e.e.w.q.q.q.9.9.9.9.9.M 9.M M M M m m m m M t m t t r r r r r r e e r e t t t m M 9.9.9.q.w.q.e.e.r.r.t.t.t.y.y.y.u.u.u.u.8.8.8.8.8.8.8.p.p.p.p.p.p.i.i.i.;.i.;.i.;.;.;.;.=.=.=.! ! ! ! ! Q Q Q Q U U R R R I E Y E Y Y Y [ P o.[ ] ] / / G ^ k g g s i 2 1 = & # @ X     o   # # % : : : , : : % % # # o     o . @ # & * 1 2 7 s g h A A / / / ] ] [ [ P Y Y Y Y Y Y E I R U U U U R Q Q Q ! ! ! =.! =.=.;.=.;.;.;.;.;.i.;.i.i.i.i.p.p.p.p.p.8.8.8.8.8.8.8.u.u.u.u.u.y.y.r.y.r.r.r.r.e.w.q.q.9.9.9.M m m t m m m m m M M M M M M M 9.9.9.9.9.9.q.9.q.q.q.9.q.q.q.q.w.q.q.w.q.e.q.e.e.r.r.t.r.y.y.y.y.u.u.u.u.8.8.8.8.8.8.8.p.p.p.p.p.p.i.i.i.;.i.;.;.i.;.;.;.=.=.=.! =.! ! Q *.Q R R R I R R I E I Y Y Y P P L / G S S A A h g g g a a a 2 2 * , > # # o o X X X o o # % # > > > = , , 2 , , ; , ; 7 2 p p ",
"d p 7 2 7 2 2 4 7 2 2 4 , , = & : # # o X X X o o : # : : > > > > > > & & # & # & & * = , 7 7 i d h h A S S / / ] ] ] Y ] Y Y Y Y Y Y I E I R R U R U R Q Q Q ! =.! =.=.=.=.;.;.;.;.;.;.i.;.i.i.6.i.i.p.p.p.p.p.8.8.8.8.8.8.8.u.u.u.u.y.y.y.y.r.r.r.r.w.w.w.q.9.q.M 9.M M M M m m M m m m t t t t t r r r r r e e e e e e r e t m m m M 9.9.q.q.w.e.e.e.r.r.t.y.t.y.y.y.u.u.u.u.8.8.8.8.8.8.8.p.p.p.p.p.p.i.6.i.;.i.;.;.;.;.;.=.=.=.=.=.! ! ! ! Q Q Q Q U U I R R I Y Y Y Y Y Y P P [ [ ] ] / ^ S A k g s a 2 2 = & # + +       o o # # % : : , : : : % % o o o     o o # # > = 2 7 s g g h A S S ] ] ] ] [ o.P o.Y Y E Y Y U I R U U R U R Q Q Q ! *.! =.! =.=.;.=.;.;.6.;.i.i.i.i.6.i.i.p.p.p.p.p.8.8.8.8.8.8.8.u.u.u.u.y.y.y.y.r.r.r.r.w.w.w.q.q.9.M 9.m m t t n m m m m t M M M M M M M M 9.9.9.9.9.9.q.9.q.q.q.q.9.q.q.q.q.q.q.e.q.e.r.r.r.t.y.r.y.y.y.u.u.u.u.8.8.8.8.8.8.8.8.p.p.p.p.p.i.i.i.;.i.;.;.;.;.=.;.=.=.=.! =.! Q Q Q Q R R R I E I E Y Y I P P P P L G S A Z h h g g g a a a 4 2 2 * & & @ # o X X X X % o : & : > , , , 2 , 2 , , ; , 5 7 i p ",
"p 7 i 7 7 2 7 2 2 4 7 2 2 , , : & # o o X X X X # o % & > > , = , , * * : # # & + & * * 2 2 7 i g g h A A S / ] ] ] o.] o.Y o.Y Y E Y E I E R I U U R Q Q Q Q ! Q =.! =.=.=.=.=.;.;.;.i.;.i.i.i.i.i.i.p.p.p.p.8.8.8.8.8.8.8.u.u.u.u.u.y.y.y.r.y.r.r.e.e.w.w.q.q.9.9.M m M m m m m m t m t t t r r r r r r e e e e e e e r e r t t m M M 9.9.q.q.q.q.e.r.r.r.t.r.y.y.y.u.u.u.u.u.8.8.8.8.8.8.8.p.p.p.p.p.i.i.i.i.i.;.i.;.;.;.=.;.=.=.=.! =.! ! ! Q Q Q U U U R R I R Y R Y Y Y o.P o.[ [ ] ] / G ^ k k g g p i 2 1 & & # X X o     o o % % : : : , : : % # # o X X   . o @ & & < 2 2 s s g h A ^ / / / ] [ [ [ Y [ Y Y Y Y U Y E I R U U R R Q Q Q ! Q =.! =.=.=.=.;.;.;.;.i.;.i.;.i.i.i.i.p.p.p.p.p.8.8.8.8.8.8.u.u.u.u.u.y.y.y.r.y.r.r.e.r.e.w.q.9.q.9.M M m n t t t t t t M t M t m M M M M 9.M M M M 9.9.9.9.9.9.9.q.9.q.q.q.9.q.q.e.e.r.r.r.t.r.y.y.y.u.u.u.u.u.8.8.8.8.8.8.8.p.p.p.p.p.i.i.6.i.i.;.i.;.;.;.;.=.;.=.! =.! ! =.Q *.Q R R R R I R I Y I P Y P P L L G G S A A h h g a g a a 7 7 , , > & & o o X X X o o # # : & > , 2 , , 2 , 2 ; , 2 2 i 7 p ",
"p p 7 2 7 7 2 7 7 7 4 2 2 2 , * & # # o X X X X o % % : : > , , , = , * & & # # & & & * = 2 7 i d g h A A S S / ] ] ] o.P o.Y Y P Y Y Y R I R U U U R U R Q Q ! *.! =.! =.=.;.;.=.;.6.;.i.;.i.i.i.i.i.i.p.p.p.p.8.8.8.8.8.8.8.u.u.u.u.u.y.y.y.r.y.r.r.e.w.w.q.q.9.9.9.M m m t m t t t t r r r r r r e e e e e e e e e e e e r r t m m M M q.9.q.w.e.w.e.r.r.r.t.t.y.y.y.u.u.u.u.u.8.8.8.8.8.8.8.p.p.p.p.p.i.i.6.;.i.;.i.=.;.;.=.=.=.=.! ! ! ! ! Q Q Q Q Q U U I R I E Y Y Y Y Y P P o.] ] ] ] / G b k g g s i 2 1 = # # + X X   o o # # % % : , : , : % % # o o X     o @ # & > = 7 7 g g h ^ A / / ] ] ] [ [ o.Y o.Y Y Y Y U U U I R U R U R Q Q ! *.! =.! =.=.;.;.=.;.;.;.i.;.i.i.i.i.i.i.p.p.p.p.8.8.8.8.8.8.8.u.u.u.u.u.y.y.y.r.y.r.r.w.w.w.w.q.9.9.M M m n t t r r t t t t t m m m t M M t M M M M M M M 9.M 9.M 9.9.9.9.9.q.q.q.q.e.e.r.r.t.t.t.y.y.y.u.u.u.u.u.8.8.8.8.8.8.8.p.p.p.p.p.i.i.6.i.;.i.;.;.;.;.=.=.=.=.! =.! Q Q Q Q R R I R R Y R I Y Y P P K L L G S A S A f h h g a g a 4 2 2 , * & # # o X X X X o # % : > > , , 2 2 , 2 , 2 ; 2 ; 7 i p ",
"p 7 i 7 7 2 7 7 i 4 7 7 4 , = > > # # o X   X o o # # : * , , , , , , > & & & & + & & = = = 7 i i g h h A S / / ] ] o.] ] Y Y o.Y Y Y R Y R I R U U U R Q Q Q ! ! ! ! =.=.=.=.=.;.;.;.;.;.i.;.i.i.i.i.p.p.p.p.p.8.8.8.8.8.8.8.u.u.u.u.u.y.y.r.y.r.r.r.e.r.w.q.q.q.9.M M m m m t t t r e r r r r r r e e e e e e e e e r e r r r t t m M 9.9.9.q.q.q.e.e.r.r.t.t.t.y.y.y.u.u.u.u.8.8.8.8.8.8.8.p.p.p.p.p.p.i.i.i.i.i.;.;.i.;.;.;.=.=.=.=.=.! ! ! Q Q Q Q U U R R I R I E Y Y Y Y o.P [ [ [ ] / / ^ S k k g s i 2 2 & = # @ X X     o o o % : : : , : : : % % o o X   X . @ # & * < 2 7 s g h h A / / / ] ] [ [ P [ Y Y Y Y U Y E I R U U R R Q Q Q ! ! ! ! =.=.=.=.=.;.;.;.6.;.i.i.;.i.i.i.p.p.p.p.p.8.8.8.8.8.8.8.u.u.u.u.u.y.y.r.y.r.r.r.r.e.w.q.q.9.9.9.M m m t t r r r e t t t t t t m t t M M t M m M m M M M M 9.M M M 9.9.9.q.q.e.w.e.r.r.r.t.t.y.y.y.u.u.u.u.8.8.8.8.8.8.8.p.p.p.p.p.p.i.i.i.i.i.;.;.i.;.;.;.=.=.=.=.! ! =.Q Q *.R R R R I R I Y Y Y I P P L L G G S S j h h g g g a a a a 2 = , & # + o X   X X o # # : : > 2 , 4 , 2 2 2 2 , ; 7 2 5 p ",
"p 7 7 ; 7 7 7 4 i a 4 7 2 2 , * & & o o o X X X o # # : > * , 2 , , , * * & # # # & & & = 2 2 7 d g h h A A S / / ] ] o.o.] Y Y Y Y E Y R Y R I R U R R U Q Q Q ! *.! ! =.=.=.=.;.;.;.6.i.;.i.i.i.6.i.i.p.p.p.p.p.8.8.8.8.8.8.8.u.u.u.u.y.y.y.r.r.y.r.r.w.w.w.q.q.9.9.M M t t t t r r e r e e e e e e e e e e r r r r e e e r e t m m m M 9.9.q.q.q.e.e.r.r.r.r.y.y.y.y.y.u.u.u.u.8.8.8.8.8.8.8.8.p.p.p.p.p.i.i.i.;.i.;.;.;.;.;.=.=.=.=.! =.! ! ! Q Q Q Q U U U R I R Y E Y Y Y Y o.P ] [ ] ] / / ^ A k g g i 7 1 1 & $ + X X X   o o # # % : : : , : : % # # o o X   X o @ & * < 2 7 7 g g h A A / ] ] ] ] [ o.Y P o.Y E Y E I E I R U U R U Q Q Q ! *.! ! =.=.=.=.;.;.;.;.i.;.i.i.i.6.i.i.p.p.p.p.p.8.8.8.8.8.8.8.u.u.u.u.y.y.y.r.r.y.r.r.w.w.w.q.q.9.9.M M m m t r r e e e r r r r t t t t t t m m m m m m m m M m M M M M 9.9.q.q.q.e.e.e.r.t.r.t.y.y.y.y.u.u.u.u.u.8.8.8.8.8.8.8.p.p.p.p.p.i.i.i.;.i.;.;.;.;.;.=.=.=.! =.! ! =.Q Q Q R R R R I R I Y I P P P L L G A G k A h h h g g g a a 7 2 , = > # # o o X X X o # # : > > , 2 , 7 4 2 2 2 2 2 2 7 i p ",
"p 5 i 7 7 7 7 a a 4 a 4 7 2 , > * # # o X X X X o # # : * , , , , , , , > & & # & + * * * = 2 7 i a d h A A S S ] ] ] ] P o.o.P Y Y Y Y Y R Y R U U U U R Q Q Q ! ! ! =.! =.=.;.=.;.;.;.;.;.i.;.i.i.i.i.p.p.p.p.p.8.8.8.8.8.8.u.u.u.u.u.y.y.y.y.y.r.r.e.r.w.w.q.9.q.9.M M m m t r e e e e e e e e e e e e r r r r r r r e e e r t t m m M M 9.q.9.e.q.e.e.r.r.t.t.t.y.y.u.u.u.u.u.8.8.8.8.8.8.8.p.p.p.p.p.i.i.6.i.i.;.i.;.;.;.;.=.=.=.! =.! ! ! ! Q Q Q Q U U R R I R I Y E Y Y o.[ P o.[ ] ] ] ^ G A k g s s i 2 - & & # @ X       o # # % : : , : , : % % # o o X     o @ # & * 2 2 p s g h A ^ / / / ] [ [ [ P o.Y Y Y Y U Y U R I U U U R Q Q Q ! ! ! =.! =.=.;.=.;.;.;.;.i.;.i.i.i.i.i.p.p.p.p.p.8.8.8.8.8.8.8.u.u.u.u.y.y.y.y.y.r.r.e.r.e.w.q.9.q.9.M M m t t r e e e e e e e r r r r t r t t t t t m t m m m m m m M M 9.9.9.q.q.e.w.r.r.r.r.t.y.y.y.u.u.u.u.u.8.8.8.8.8.8.8.p.p.p.p.p.i.i.6.i.i.;.i.;.;.;.;.=.=.=.=.=.! =.Q *.Q E R R R I R I Y I Y P K P L G G G S Z A A h h g g a g a 4 7 , , & & # o X X X X o # # & * , 2 , 2 4 2 2 2 2 2 2 5 2 7 p ",
"p 7 7 7 7 7 i a a a 4 a 4 2 , , * & o o o X X X o # # : : > , 2 , 1 1 , * > & & + & + & = = ; 2 i d g h A A S S / ] ] ] ] Y P #.P Y Y Y E Y R I R U U R U R Q Q ! ! ! =.=.! =.=.;.;.;.;.;.i.i.i.i.i.6.i.i.p.p.p.p.8.8.8.8.8.8.8.8.u.u.u.u.y.y.r.y.r.r.r.e.w.w.w.q.9.9.M M M t m r r e e e e e e r e r r r r r r t t t r r e e r r t t M M 9.9.q.q.q.e.w.e.r.r.r.t.t.y.y.y.u.u.u.u.u.8.8.8.8.8.8.8.p.p.p.p.p.i.i.6.i.i.;.;.;.;.;.;.=.=.=.=.! ! ! ! ! Q Q Q Q U U I R I E Y I Y Y Y Y P [ [ ] ] ] / ^ A k k g s i 2 1 = & # + X X     o o % # % : , : : : : % # o o X   X o @ # & > < 7 7 s g h A A A / ] ] ] [ [ [ Y Y Y Y Y Y U Y R U U U R U R Q Q ! ! ! =.=.! =.=.;.;.;.;.;.i.i.;.i.i.i.i.i.p.p.p.p.p.8.8.8.8.8.8.8.u.u.u.u.y.y.y.r.r.r.r.e.w.w.w.q.9.9.9.M m m t t r e e e e e e e e e e r r r r r r t t t t t m t m t m M M 9.q.9.w.w.e.e.e.r.t.r.t.y.y.y.y.u.u.u.u.8.8.8.8.8.8.8.p.p.p.p.p.i.i.6.i.;.i.;.;.;.;.=.;.=.! =.! ! Q Q Q Q R R I R I E I Y I Y P K P L G S S A S f A g h g g a g a 4 2 , * & # o o X X X o o : : > , , 2 2 2 4 2 2 4 2 2 2 5 i 5 ",
"p 7 6 7 7 7 a a a a a a 2 4 2 = > # # + o X X o o o # & > > , , 2 , , , > * & # & + & & * = , 5 i i g h h A S S / ] ] ] o.] o.P P Y Y E Y E I R I U R U R Q Q Q ! Q =.! ! =.=.=.;.=.;.;.6.;.;.;.i.i.i.i.p.p.p.p.p.8.8.8.8.8.8.8.u.u.u.u.u.y.y.y.y.r.r.r.r.e.e.q.q.9.9.9.M m m t t r e e e e r r r r r r r t t t t t t r e e r e r t m m M M 9.9.q.q.q.e.e.r.r.t.r.y.t.y.y.u.u.u.u.8.8.8.8.8.8.8.p.p.p.p.p.p.i.i.i.i.;.i.;.i.;.;.=.;.=.=.! =.! ! ! Q Q Q Q U U U R R I R Y Y E Y Y P o.[ [ [ ] / / G A b k g s p 2 2 > & # @ @ X o     # o % : : : : , : : % % o o X     o o # & * = 2 7 s g g h A / / / ] ] [ [ Y P o.Y Y Y E Y E I R U U R R Q Q Q ! Q =.! ! =.=.=.;.=.;.;.i.;.;.i.;.i.i.i.p.p.p.p.p.8.8.8.8.8.8.8.u.u.u.u.u.y.y.r.y.y.r.r.r.e.e.q.q.q.9.9.M m m t t r e e e e e e e e e e e e r r r r r r r r r r t t m m M M 9.9.q.q.q.e.e.r.r.r.t.y.t.y.y.u.u.u.u.8.8.8.8.8.8.8.8.p.p.p.p.p.i.i.i.6.i.;.i.;.;.;.;.=.=.=.=.! =.*.Q *.R R R R R R I R I Y K P P L L L G Z S j A h h h h g x a a 2 2 = , & # o o X X X o # # & * , , 2 4 4 7 7 7 2 2 ; 7 2 7 p ",
"7 7 7 i 7 i i a a a q a a 2 , , * & # o o X X X o # # & > > , 2 , 2 , , = > & & # & + & & = = 2 7 i d g h A A S / ] ] ] ] o.P #.P Y Y Y Y I E I R R I R R U Q Q Q ! ! =.! =.=.=.=.;.;.;.;.i.i.i.;.i.i.i.i.p.p.p.p.p.8.8.8.8.8.8.8.u.u.u.u.u.y.y.r.r.y.r.e.w.w.w.q.q.9.9.M M m t t t r e e r r r r r r r t t t t t t t t r e e e e r t m M M 9.9.9.q.q.e.e.e.r.r.t.t.y.y.y.y.u.u.u.u.8.8.8.8.8.8.8.8.p.p.p.p.p.i.i.i.i.;.i.=.;.;.;.=.=.=.=.! =.! ! ! Q Q Q Q U U I R R I R Y Y Y Y o.Y P ] [ ] ] / / S k k g g a i 1 - & $ + X X X     o # # % : : , : : : : # # o o X   X o @ # * < < 7 p s h h ^ A / / ] ] ] [ [ o.Y Y Y Y Y E I U I R U U R U Q Q Q ! ! =.! =.=.=.=.;.;.;.;.i.;.i.i.i.6.i.i.p.p.p.p.p.8.8.8.8.8.8.8.u.u.u.u.u.y.y.r.r.y.r.r.w.w.w.q.9.9.9.M M m m t r r e e e e e e e e e e e e e e e e r r r r r r r t m M M 9.9.q.q.e.q.e.e.r.r.r.t.y.y.y.u.u.u.u.u.u.8.8.8.8.8.8.8.p.p.p.p.p.i.i.i.i.;.;.;.i.;.=.;.=.=.! =.! ! =.Q R R R R I R I Y I Y I K P L L S G A A S A j A h g g a q a a 2 , * & # # o X X X o # # : > , 2 2 2 4 4 7 4 7 7 2 ; i 5 7 ",
"p 5 i 5 i i a a g a a a 4 2 2 , * & & o o X X o o o # : * , , , 2 , 2 , , > & # & + & & & = = 2 7 i i h h h A S / / ] ] ] o.P P o.Y Y Y Y E Y U R I U U U R Q Q Q ! ! Q =.! =.=.=.;.;.;.i.;.;.;.i.i.i.i.i.p.p.p.p.p.8.8.8.8.8.8.8.u.u.u.u.y.y.y.y.y.r.r.r.r.e.w.q.q.q.9.M M m m t r e e r r r r t r t t t t t n t n t r r e e r r t t m m m 9.9.q.q.w.q.e.e.r.r.r.t.t.y.y.y.u.u.u.u.8.8.8.8.8.8.8.p.p.p.p.p.p.i.i.i.;.i.;.i.;.;.;.=.=.=.=.=.! ! ! ! Q Q Q Q U U R R I R Y Y Y Y Y Y P P o.[ ] ] ] / ^ S k k g s i 2 1 = & # @ o     o   # # % : : : , : : % % % o o X     o @ # * * 2 2 p s g h h A S / ] ] [ [ [ P P o.Y Y Y U Y E R I U U U R Q Q Q ! ! ! =.! =.=.=.;.;.;.;.;.i.;.i.i.i.i.i.p.p.p.p.p.8.8.8.8.8.8.8.u.u.u.u.y.y.y.y.y.r.r.r.r.w.w.q.q.q.9.M M M t t r r e e e e e e e e e e e e e e e e e e e e r e t t m m M 9.9.9.q.q.q.e.r.r.r.t.t.t.y.y.y.u.u.u.u.8.8.8.8.8.8.8.p.p.p.p.p.p.i.i.i.;.i.;.i.;.;.;.=.=.=.=.=.! =.Q Q *.R R I R I I E I I P P K L L J S G S S j A h h h g g g a 7 2 , , & & o o o X o o o # & * , , 2 4 a 2 a 7 7 2 7 7 ; 7 p ",
"7 7 5 i i i i g a a a a a 4 2 , * & # # o o X o o # # & : , , , 4 , 2 , , = > & # & + & & & ; = 7 7 d i h A A A S / ] ] ] ] o.P Y P Y Y E Y E I E U U U R U R Q Q ! ! =.! =.=.=.=.=.;.;.;.6.i.;.i.i.i.6.i.i.p.p.p.p.p.8.8.8.8.8.8.u.u.u.u.u.y.y.r.y.r.r.r.e.w.w.q.q.9.9.9.M m m t t r e e e r r r t t m t t n n n t t t r r e e r r t m m M M 9.9.q.q.e.e.e.e.r.t.r.y.y.y.y.u.u.u.u.u.8.8.8.8.8.8.8.p.p.p.p.p.p.i.i.6.;.i.;.;.;.;.;.=.=.=.=.! =.! ! ! Q Q Q Q U U U R I R Y E Y Y Y o.P [ L [ ] / / G b k g g g a 7 1 = $ # + X X     o o # % % : , : , : : % # o o o   X o o # # * 1 2 7 s g g A A S / / ] ] [ [ o.Y Y Y Y Y Y E I R U U U R U R Q Q ! ! ! ! =.=.=.=.=.;.;.;.6.;.i.;.i.i.6.i.i.p.p.p.p.p.8.8.8.8.8.8.u.u.u.u.u.y.y.r.y.r.r.r.r.e.w.w.q.9.9.9.M m m t t r r e e r e e e e e e e e e e e e e e e e e r r t t m M M 9.q.q.q.e.q.e.r.r.r.t.t.y.y.y.u.u.u.u.u.8.8.8.8.8.8.8.p.p.p.p.p.p.i.6.i.;.i.;.;.;.;.;.=.=.=.=.! ! *.Q Q E R R R R I I I Y I P P J L S D A G k A A A h h h g a x a 4 , = > # # o o X o o # # : > , 2 4 7 4 a 4 i 7 7 2 7 7 5 7 ",
"5 7 i i i a g a a g a a a 7 2 , , & & o + X o o o @ # # > * , 2 , 2 , 2 , , * & & + & & & & * ; ; 7 i g g h A S S S ] ] ] o.] Y P o.Y Y Y Y I E I R U U R R Q Q Q Q ! ! =.! =.=.=.;.=.;.;.;.;.i.;.i.6.i.i.i.p.p.p.p.8.8.8.8.8.8.8.8.u.u.u.u.y.y.y.y.r.r.r.r.r.w.w.q.q.9.9.M M t m r r e e r r r t m t t t m n n m n t t r r e r e r t t m M M 9.9.q.q.q.w.e.r.r.r.t.t.t.y.y.u.u.u.u.u.8.8.8.8.8.8.8.p.p.p.p.p.i.i.6.i.i.;.i.;.;.;.=.;.=.=.! =.! ! ! Q Q Q Q Q U U R I R I R Y Y Y Y P o.P o.[ ] ] / ^ S k k g s p 2 1 > = # @ o o     o o o # % : : : , : : % # # o X X     @ @ & > = 1 7 a g h h A ^ / / ] ] [ [ P o.[ Y Y E Y I E I R U U U R Q Q Q Q ! ! =.! =.=.=.;.=.;.;.;.i.;.i.i.i.i.i.p.p.p.p.p.8.8.8.8.8.8.8.8.u.u.u.u.y.y.y.y.r.r.r.r.w.e.q.q.q.9.9.M m m m t r e e e r e e e e e e r e e e e e e e e e r e r t m m M M 9.9.9.q.q.e.e.r.r.r.t.t.y.y.y.u.u.u.u.u.8.8.8.8.8.8.8.p.p.p.p.p.i.i.i.i.i.i.;.;.;.;.=.;.=.=.! =.=.Q *.R R E R R I R I Y I I P K L J L S G C S S A h A h g g g a a 2 2 , & & + o o o X # o & & * , , 2 4 a 4 a 4 7 7 7 7 5 7 7 ",
"p 5 i i i d a g a a x a 4 4 2 , = & # # o + o o o # @ & : , , , 2 4 2 , 2 , * * & + + & & & = = 2 7 i d g h h A S / / ] ] ] o.] P Y Y Y Y E Y U E I R U U R U R Q Q ! ! ! =.! =.=.=.;.;.;.6.;.;.i.i.i.6.i.i.p.p.p.p.p.8.8.8.8.8.8.8.u.u.u.u.u.y.y.r.y.r.r.r.w.e.q.q.q.9.9.9.M m t m r r e e r r r t m m m n m m n n n t r r e e e e r m m m M 9.9.q.q.q.w.e.e.r.r.r.t.y.y.y.y.u.u.u.u.u.8.8.8.8.8.8.8.p.p.p.p.p.i.i.i.i.;.;.i.;.;.;.=.=.=.=.=.! ! ! ! Q Q Q Q Q U U R I R I E Y Y Y P Y [ [ ] ] ] ] / ^ S k g g s i 2 - : & + + X     o o # # % % : , : : : : % o o o X     o @ # & < 2 7 p s g h ^ A S / / ] [ [ [ [ Y Y Y Y E Y U E I R U U R U R Q Q ! ! ! =.! =.=.=.;.;.;.;.;.;.i.;.i.i.i.i.i.p.p.p.p.8.8.8.8.8.8.8.u.u.u.u.u.y.y.y.y.r.r.r.e.w.w.q.q.9.9.9.M m t t t r e e r e e e e e e e r r r r r e e e e e e e r t m m M 9.9.q.9.e.q.e.e.r.r.r.t.t.y.y.y.u.u.u.u.u.8.8.8.8.8.8.8.p.p.p.p.p.i.i.i.i.;.i.;.;.;.;.=.=.=.=.! ! =.Q *.R R R I R I I I I P K P J L L D S S S C A A h h h g g a a a 2 , * & # o o o o o # # & , = 2 2 4 a a 4 a i 7 7 i 2 5 p ",
"7 i 6 i a a g g a g a a a a 2 2 * & & # # o o o o o # & & > , , 2 2 , 2 , , , & & & & + & & = = = 7 7 d d g A A S S ] ] ] o.] o.o.P Y Y Y Y Y E I R I U U U R Q Q Q ! ! ! ! =.=.=.=.;.;.;.;.;.i.i.;.i.i.i.i.p.p.p.p.p.8.8.8.8.8.8.8.u.u.u.u.y.y.y.y.y.r.r.r.r.w.w.w.q.9.9.M M m m t r r e e r r r t t m n m m m n m t t t r r e r r r t t m M 9.9.9.q.q.e.e.e.r.r.t.t.t.y.y.y.u.u.u.u.8.8.8.8.8.8.8.p.p.p.p.p.p.i.i.i.;.i.i.;.;.;.;.;.=.=.=.! =.! ! ! Q Q Q Q U U R R I R Y Y Y Y Y Y o.P o.[ [ ] / S G ^ k k g s i 2 1 = & # @ X o     o o # % : : : : , : : % # # o     o . @ # & * 1 2 7 s g h h A / / ] ] ] [ [ Y o.Y Y Y Y Y E I R I U U U R Q Q Q ! ! =.! =.=.=.=.;.;.;.;.;.i.;.i.i.i.i.i.p.p.p.p.p.8.8.8.8.8.8.8.u.u.u.u.y.y.y.y.r.r.r.r.r.w.w.w.q.9.9.M M m m t r r e e e e e e e e e r r r r r r r r r r e r r t t t m M 9.9.9.q.q.e.w.e.r.r.t.t.t.y.y.y.u.u.u.u.8.8.8.8.8.8.8.p.p.p.p.p.p.i.i.i.;.i.;.i.;.;.;.;.=.=.=.=.=.Q *.R R R R R I R I I Y K K P J L J S S Z A S A A A h h h x a a 7 2 * > & # # o o + o @ # & * , , 4 7 4 a a i i i i 2 5 7 7 ",
"7 5 p i d a g a g g a a a 4 2 , , * & # o o # o o # # # * , > 2 , 4 2 , 2 , = > & # + & + & & = ; 2 7 i g f h A A S / / ] ] o.] P Y o.Y Y E Y I E I R U U R U R Q Q ! ! =.Q =.! =.=.;.=.;.;.6.;.;.i.i.i.6.i.i.p.p.p.p.p.8.8.8.8.8.8.u.u.u.u.u.y.y.r.y.r.r.r.r.e.w.q.q.q.9.9.M M t t t r r e e r r t t m m m m n m n n t t r r e e r r t m m m M 9.9.q.q.q.e.e.e.r.r.t.y.t.y.y.y.u.u.u.u.8.8.8.8.8.8.8.p.p.p.p.p.p.i.6.i.;.;.i.;.;.;.;.=.=.=.=.! =.! ! ! Q Q Q Q U U U R I R Y Y E Y Y [ Y [ [ ] ] ] / ^ S k k g s a 7 2 > & & + X X X   o o # % % : : , : : : % % o o o     o o # & * = 2 7 s g g A A S / / ] ] [ [ [ Y [ o.Y Y E Y U I R R U R R U Q Q Q ! ! ! =.! =.=.=.;.;.;.6.;.i.;.i.i.6.i.i.p.p.p.p.p.8.8.8.8.8.8.8.u.u.u.u.y.y.r.y.y.r.r.e.e.w.q.q.q.9.9.M M m t t r r e r r e e e e e e r r t r t r r r r e e r r t m m m M 9.q.q.q.q.e.e.e.r.r.t.y.t.y.y.y.u.u.u.u.8.8.8.8.8.8.8.8.p.p.p.p.p.i.i.i.;.i.;.;.;.;.;.=.=.=.! =.=.Q *.R R R I R I R I I I P K L J S D S S Z A S A A A h g g g a 4 2 2 * & # # # o o o # # & , , 2 2 4 a a a 4 i i i 6 7 5 p ",
"6 i i i a g a g g a x a a 7 2 2 = * & # # + o + @ o # & : * , , , 2 4 2 2 , , * & & & + & & & = = 2 7 7 d g h A S S S ] ] ] ] o.P o.P Y Y Y Y E I E U I R U R R Q Q Q ! Q =.! =.=.=.=.;.;.;.;.;.i.6.i.i.i.i.p.p.p.p.p.8.8.8.8.8.8.8.8.u.u.u.u.y.y.y.y.y.r.r.r.w.e.w.q.9.q.9.M m m m t r e e r r r t t t m n m m m n n t t r e e r e r t t m M M 9.9.q.q.w.q.e.r.r.r.t.r.y.y.y.u.u.u.u.u.8.8.8.8.8.8.8.p.p.p.p.p.i.i.i.i.i.i.;.;.;.;.=.;.=.=.! =.! ! ! ! Q Q Q Q U U I R R I R Y Y Y Y Y o.[ [ [ ] ] / G ^ k k g g p i 1 - & # # X X     o o o # % : : , : : : % # # o X X     o @ # & < 2 2 p s g h ^ A / ] / ] [ [ [ o.Y Y Y E Y U Y U R I U U U Q Q Q ! Q ! =.! =.=.=.;.=.;.;.;.i.;.i.i.i.i.i.p.p.p.p.p.8.8.8.8.8.8.8.u.u.u.u.u.y.y.y.y.r.r.r.r.e.w.w.q.q.9.9.M m m m t r e e e e r e r r r r r t t t t t t r r e r e r t t m M M 9.9.9.q.q.e.e.r.r.r.t.r.y.y.y.u.u.u.u.u.8.8.8.8.8.8.8.p.p.p.p.p.i.i.6.i.i.;.;.i.;.;.=.;.=.=.=.=.Q *.R *.E R R I R I I I P J P J L L D S G A S Z A A h h b g a a a 2 , * & & # o + o + # # & & 2 , 2 4 a a a g a i i i 7 7 7 ",
"5 7 p d d a g g g g a a a 4 7 , , = & & # # o o + # # # & , , , 2 2 , 4 , , ; * & & + & + & & = = ; 7 i d g g h A S / / ] ] ] o.] P Y o.Y Y Y Y R I R R I R R U R Q Q Q *.! =.! =.=.=.;.=.;.;.6.;.i.;.i.i.i.i.i.p.p.p.p.8.8.8.8.8.8.8.u.u.u.u.u.y.y.r.y.r.r.r.e.w.w.q.q.9.9.9.M m t t t r e e r r r t m t m m m n m n t t t r e e e r r t m m M M 9.q.9.w.e.w.e.r.r.r.t.y.t.y.y.u.u.u.u.u.8.8.8.8.8.8.8.p.p.p.p.p.i.i.i.i.;.i.;.;.;.;.=.=.=.=.! =.! ! ! ! Q Q Q Q U U I R R Y R Y Y Y Y P P [ [ ] ] ] / G b k g g s i 2 1 = & # + X X     o # # % % : : , : : : % # o o X   X o @ # & * 1 7 7 g g g h ^ S / ] ] ] [ [ [ o.Y Y Y Y Y U Y R U R U R U R Q Q ! ! ! =.! =.=.=.;.;.;.;.;.i.;.i.i.i.6.i.p.p.p.p.p.8.8.8.8.8.8.8.u.u.u.u.u.y.y.r.y.r.r.r.e.e.w.q.q.9.9.9.M m t t t r e e r r r r r r r t t t t t t t t r e e e r r t m m M M 9.q.9.e.q.e.e.r.r.r.t.t.y.y.y.u.u.u.u.u.8.8.8.8.8.8.8.p.p.p.p.p.i.i.6.i.i.;.;.;.;.;.=.=.=.=.! =.Q *.Q E R R R I I I I K I J L J L S S Z S S A S A A h h g g a a 2 2 * * & # # o + o # # & , * 2 4 7 a a a a a a i i 6 7 5 ",
"7 6 p i i g g a g a g a a a 2 2 = * & & # # + + # o # & : & > 2 , 4 2 4 2 2 , , * & & + & & & & = = 2 7 i d h A A b S / ] ] ] ] o.P o.Y Y Y Y U Y U R I U U U R Q Q Q ! ! ! ! =.=.=.=.=.;.;.;.;.i.;.i.i.i.i.i.p.p.p.p.p.8.8.8.8.8.8.8.u.u.u.u.u.y.y.y.r.r.r.r.r.w.w.w.q.9.9.M M m m t r r e e r r r t t m m n m m n m n t t r r e r r r t t m M 9.9.9.q.q.q.e.e.r.r.t.t.t.y.y.y.u.u.u.u.8.8.8.8.8.8.8.p.p.p.p.p.p.i.i.i.;.i.;.i.;.;.;.;.=.=.=.=.! ! ! ! Q Q Q Q U U R R I I R Y Y Y Y Y Y o.[ [ [ ] / ] ^ S k k g s i 2 2 > & # @ X X   o   o # % % : , : , : : % % o o X   X   @ # & * 1 2 7 s g h A A S / / ] ] [ [ Y [ Y Y Y Y E Y U U R I U R R Q Q Q ! ! ! ! =.=.=.=.=.;.;.;.6.;.i.;.i.6.i.i.p.p.p.p.p.8.8.8.8.8.8.8.u.u.u.u.u.y.y.y.y.r.r.r.r.w.w.q.q.q.9.M M m m t r r e e r r r r r r t t t n t n t t t r r e r r r t t m M 9.9.9.q.q.q.e.e.r.r.t.t.t.y.y.y.u.u.u.u.8.8.8.8.8.8.8.p.p.p.p.p.p.i.i.i.i.;.i.;.i.;.;.=.;.=.=.=.*.*.Q E E E R I R I I I I K P L J Z L D S G A S S A A A h g g g 7 7 , , * & # # # o # + # & * , 2 2 4 a a a a a d i i 7 5 p ",
"7 p p d g d g g g g a g a 7 4 2 , * * & & # # # o # # # & , > , 2 , 4 2 , 2 , = * & & + + & + = & ; 2 7 i d g h A S S / ] ] { o.] P Y P o.Y E Y U Y R U R U R R U Q Q Q *.! =.! =.=.=.;.;.;.;.6.;.i.;.i.i.6.i.i.p.p.p.p.p.8.8.8.8.8.8.8.u.u.u.u.y.y.y.y.r.y.r.r.r.w.q.q.q.9.9.M M m m t r r e e r r t t t m m n m n n n t t r r e e r e t m m m M 9.q.q.q.q.e.e.e.r.r.t.t.y.y.y.y.u.u.u.u.8.8.8.8.8.8.8.8.p.p.p.p.p.i.i.i.;.i.;.;.;.;.;.=.=.=.=.=.! ! ! ! Q Q Q Q U U U R R I E Y Y Y Y o.P o.P ] ] ] / / A A k g s p 7 1 - & $ + X X X   o o # # % : : , : : : % # # o o     o o @ & * < 2 7 7 g g h ^ A S ] ] ] ] [ o.Y P Y Y E Y U Y R I R U U R U Q Q Q *.! =.! =.=.=.;.;.=.;.;.i.;.i.i.i.i.i.i.p.p.p.p.p.8.8.8.8.8.8.8.u.u.u.u.y.y.y.r.r.y.r.r.e.w.w.q.q.9.9.M M m m t r r e e r r r t t t t t n n n m t t r r e e r e r m m m M 9.q.q.q.q.e.e.e.r.r.t.t.y.y.y.y.u.u.u.u.u.8.8.8.8.8.8.8.p.p.p.p.p.i.i.i.i.;.i.;.;.;.;.=.=.=.! =.Q *.R R E I R I R I K I K K J L D S S D S S S S A A h h h a a a 7 2 = > & & # # # # # & # * , , 2 a 4 a a a a i d i i 7 5 ",
"6 i i d i g g g h a g a g 4 2 2 = , * & & # # + # + # # & : = , , 2 2 2 4 2 , , = & & + & + & & = = ; 7 i i g h A b S / / ] ] ] L o.P o.Y Y Y Y Y E I R I U U U R Q Q Q ! ! Q =.! =.=.=.=.;.;.;.;.;.i.i.i.i.i.i.p.p.p.p.p.8.8.8.8.8.8.u.u.u.u.u.y.y.y.y.r.r.r.r.w.e.w.q.q.9.9.M M m t t r e e r r r t t m m n m n m n m t t r r e e e r t t m m M 9.9.9.q.w.q.e.e.r.r.r.t.t.y.y.u.u.u.u.u.8.8.8.8.8.8.8.p.p.p.p.p.i.i.6.i.i.;.i.;.;.;.;.=.=.=.=.! =.! ! ! Q Q Q Q U U R R I R I Y E Y Y [ Y P [ [ ] ] / G ^ A k g g s i 2 1 & & # @ X     o   # # % : : : , : : % % # o o X   . o @ # & * 2 2 p s g h A ^ / / / ] [ [ [ P o.Y Y Y Y Y E I R U U U U R Q Q Q ! ! Q =.! =.=.=.=.;.;.6.;.i.;.i.i.6.i.i.p.p.p.p.p.8.8.8.8.8.8.8.u.u.u.u.y.y.y.y.y.r.r.e.r.w.w.q.9.q.9.9.m M t t r e e r r r t t t m t n t m m t n t r r e r e r t t m m M 9.9.9.9.e.q.e.e.r.r.t.r.t.y.y.u.u.u.u.u.8.8.8.8.8.8.8.p.p.p.p.p.i.i.i.i.;.i.;.;.;.;.;.=.=.=.=.*.*.*.*.R E R I R I I I I K K L J L L D S G S S S A A A h g g g a 7 2 , = & & & # # + # # & * > 2 2 4 a a a g i g i p p 5 p ",
"7 u i d g g g g g g g a a a 7 , , = > * & & # # + # # & & : , , 2 , 4 2 2 , 2 , * * & + + & + & & ; ; 2 7 d d h h A S S / ] ] ] o.] P P Y Y Y Y U Y R I R R U R U R Q Q Q ! =.! =.=.=.=.;.;.;.;.;.i.;.i.;.i.i.i.i.p.p.p.p.8.8.8.8.8.8.8.u.u.u.u.u.y.y.r.y.r.r.r.r.w.w.w.q.q.9.M M m m t t r e e e r r t t m m m n n m n t n t r r e e r r t t M M M 9.q.q.q.w.e.e.r.r.t.r.y.y.y.y.u.u.u.u.u.8.8.8.8.8.8.8.p.p.p.p.p.i.i.6.i.i.;.;.i.;.=.;.=.=.=.! ! ! ! ! ! Q Q Q Q U U I R I E Y Y Y Y Y o.P o.[ ] ] / / G ^ k k g s i 2 1 = & # + X X     o o % % % : , : , : % % # o o X     o @ # & > < 7 7 s g h h A / / ] ] ] [ [ o.P Y Y Y E Y I R Y U R U R U R Q Q Q ! =.! =.=.=.=.;.;.;.;.;.;.i.;.i.i.i.i.i.p.p.p.p.p.8.8.8.8.8.8.8.u.u.u.u.y.y.r.y.r.r.r.e.e.w.w.q.9.9.M M m m t t r e e e r r t t t m n m n n m t t t r e e e r r t m m M M 9.q.q.q.e.e.e.e.r.t.t.t.t.y.y.y.u.u.u.u.8.8.8.8.8.8.8.p.p.p.p.p.i.i.6.i.;.i.;.;.;.;.;.=.=.=.Q *.Q E *.R R R I I I I K K K J L D S J S S S G A S A A h g g a a 4 2 = > * & & & # # # & & * = , 7 7 a a a a g i d i p i 5 ",
"6 i d d g d g g g g a g a 7 4 2 2 = = * & & & # # & # # & & * , , 2 2 4 2 2 2 , = * & & & + & + = & = 2 7 i g g h k S S / / ] o./ o.P o.Y Y Y E Y Y R U R I U R R Q Q Q ! ! ! ! =.! =.=.;.=.;.;.i.;.;.i.i.i.i.i.p.p.p.p.p.8.8.8.8.8.8.8.u.u.u.u.u.y.y.y.y.r.r.r.r.w.w.q.q.9.9.9.M m m t t r e e r r r t t m m n m m n m n t t r e e r e r t m m M M 9.9.q.q.q.e.e.r.r.r.t.t.t.y.y.u.u.u.u.8.8.8.8.8.8.8.p.p.p.p.p.p.i.i.i.i.;.i.;.;.;.;.;.=.=.=.=.=.! ! ! Q Q Q Q U U U R I R I E Y Y Y Y Y P [ ] [ ] ] / ^ S k b g s i 2 2 = & # @ @ o   o   # o % % : : , : : : % # # X X     o o # & * = 1 7 s g h h A S / / ] ] [ [ [ Y o.Y Y Y Y E Y U R I U R R Q Q Q ! ! Q =.! =.=.=.;.=.;.;.;.i.;.i.i.i.i.i.p.p.p.p.p.8.8.8.8.8.8.8.u.u.u.u.u.y.y.y.r.y.r.r.r.w.w.q.q.q.9.9.9.m m t r r e e r r r t t m t m n n m n n t t r r e r e r t t m M M 9.9.q.q.q.e.e.r.r.r.t.t.y.y.y.u.u.u.u.8.8.8.8.8.8.8.8.p.p.p.p.p.i.i.i.6.i.;.i.;.;.;.=.;.=.=.*.*.*.*.E E R I R I I K I K K J J D L S Z G G S S S A A h h g g a 7 2 2 = , & & & # & # & & * , , 2 4 a a a g i g i i p 7 p ",
"p p p g d g h g g g g a a 7 2 2 , , = * * * & & # # # & # * > = , 2 , 2 4 2 2 , , * * + + & + & & = = ; 7 7 d g h A A S S / ] ] o.] o.P Y o.Y Y E I Y R I R U U R U Q Q Q ! =.! =.=.=.=.=.;.;.;.;.i.i.;.i.i.i.i.i.p.p.p.p.p.8.8.8.8.8.8.8.u.u.u.u.u.y.y.r.y.r.r.r.r.w.w.q.q.9.9.M M m t t t r e e r r t t t m m n n m n n t t t r e e e e r t m M M M 9.q.q.w.w.e.e.r.r.t.t.y.y.y.y.u.u.u.u.8.8.8.8.8.8.8.8.p.p.p.p.p.i.i.i.i.;.i.;.;.;.=.=.;.=.=.! =.! ! ! Q Q Q Q U U U R R I Y R Y Y Y [ o.P P ] ] ] / / ^ S g g g s i 1 - > # + X X X     o # # % % : : , : : : # o # X X   X o @ # * < 2 7 s s g h ^ A S / ] ] ] [ [ Y [ Y Y Y E Y U I U R U U R U Q Q Q ! *.! =.! =.=.=.;.;.;.6.;.i.;.i.i.6.i.i.p.p.p.p.p.8.8.8.8.8.8.8.u.u.u.u.u.y.y.y.r.r.r.r.e.w.w.q.9.9.9.M M m m t t r e e r r r t m m n m n n m n n t t r e e r e r m m m M 9.9.q.q.q.q.e.e.r.r.t.t.t.y.y.u.u.u.u.u.u.8.8.8.8.8.8.8.p.p.p.p.p.i.i.i.6.6.;.;.6.;.;.=.=.=.=.Q *.E E E E R I R I I K K K J J L D L S G G A G A A A h h g i a 7 7 , ; * > & & & # & # & * > 2 2 7 4 a g a g a d g p u 5 ",
"6 p d d g h g g d h a g a a 7 2 2 = , = * * & & & + & # & & * , , 2 2 4 2 2 , 2 = * & & & + + & & & ; = 7 i i g g A k S / / { ] ] ] o.P P Y Y Y Y Y E I R U U U U R Q Q Q ! ! ! =.! =.=.=.;.;.;.6.;.;.i.;.i.i.i.i.p.p.p.p.p.8.8.8.8.8.8.8.u.u.u.u.y.y.y.y.r.y.r.r.w.e.w.q.q.9.9.9.M m m t r r e r r r r t m n m m m n n m t t r r e e r r r m t m M 9.9.q.q.q.w.e.e.r.r.r.t.t.y.y.u.u.u.u.u.8.8.8.8.8.8.8.p.p.p.p.p.p.i.i.i.;.i.;.i.;.;.;.;.=.=.! =.! ! ! ! Q Q Q Q U U R R I I R Y Y Y Y Y Y P o.[ ] ] ] / S k k k g p i 2 1 & & # + X     o   # # % : : , : , : % % % o o X     o @ # * * 2 2 7 s g h A ^ / / ] ] ] [ o.[ Y o.Y Y Y U Y E R I U U U R Q Q Q ! Q =.! =.! =.;.=.;.;.;.;.;.i.i.i.i.i.i.p.p.p.p.p.8.8.8.8.8.8.8.u.u.u.u.y.y.y.y.r.y.r.r.r.w.w.q.q.q.9.M M m m t r r e r r r r t m t m n n m n m t t r r e e r r t t t m M 9.9.9.q.q.e.e.r.r.r.r.t.y.y.y.y.u.u.u.u.8.8.8.8.8.8.8.p.p.p.p.p.p.i.6.i.i.;.i.6.;.;.;.=.=.=.*.*.*.*.E E R R I I I K I K J J J D S J S G S G S S S A A h g g a i 2 2 , > = * & & & & & & > = , 2 4 a a a g a d g p p p p ",
"p p p f g g h g g g g a a 7 4 2 2 2 , = > * * & & & # # & & , * , , 2 2 4 2 2 , 2 * * & + & + + & = & ; 2 7 d g g h A S S / ] ] ] o.] P o.Y Y Y Y E Y R I U R U R U R Q Q ! ! ! ! =.=.=.=.;.=.;.;.6.;.i.i.i.i.6.i.i.p.p.p.p.p.8.8.8.8.8.8.8.u.u.u.u.y.y.r.y.r.r.r.r.w.w.q.q.q.9.M M M t t t r e e e r r t t m t m m n n n n t t r r e e r r t m m M M 9.9.q.q.w.e.e.e.r.t.r.t.y.y.y.y.u.u.u.u.8.8.8.8.8.8.8.p.p.p.p.p.p.i.6.i.i.;.;.;.;.;.;.=.=.=.=.! ! ! ! ! Q Q Q Q U U I R R I E Y Y Y Y o.P [ [ ] ] / / / ^ k k s g i 2 2 = $ # # X X     o o # % % : , : : : : % % o o X   X o o # # * < 7 7 s s h h A S / / ] ] [ [ [ Y Y Y Y Y Y E I R U R U R U R Q Q ! ! ! ! =.=.=.=.;.;.;.;.;.i.;.i.;.i.i.i.i.p.p.p.p.p.8.8.8.8.8.8.u.u.u.u.u.y.y.r.y.r.r.r.e.e.w.w.q.9.9.9.M M t t t r r e e r r t t m n m n n m n n t t r r e e r r t m m M M 9.9.q.q.q.e.e.e.r.t.r.t.y.y.y.u.u.u.u.u.8.8.8.8.8.8.8.p.p.p.p.p.p.i.6.i.i.;.;.;.;.;.;.;.=.=.*.*.R *.R E I R I I I K K K J J J D S J G G S S S A A h h g g i i 7 2 , ; * > * & * & & & * > = 2 2 a a a a g i g d p p p ",
"6 p g f g f g h g g a g i a 7 7 2 , = , = = * * & & # & & & * * , 2 2 2 2 4 2 2 , = * & & + + & + & = = 2 7 i a g A A b S / / ] ] [ [ o.Y [ Y Y Y Y U Y R R I U R R Q Q Q Q ! ! =.! =.=.=.=.;.;.;.;.i.;.;.i.i.i.i.p.p.p.p.p.8.8.8.8.8.8.8.u.u.u.u.u.y.y.y.y.r.r.r.r.e.w.w.q.9.9.9.M m m m r r e e r r r t t m m n n M n m n t t r e e r e r t t m M M M q.9.q.w.q.e.r.r.r.t.t.y.y.y.u.u.u.u.u.8.8.8.8.8.8.8.p.p.p.p.p.i.i.i.i.;.i.;.i.;.;.=.=.=.=.=.=.! ! ! Q Q Q Q U U U R R I R Y Y E Y Y P Y [ o.[ ] ] / / S A g k s i 7 1 > = # @ X o     o o o % % : : : , : : % % o o X X     @ @ & > = 1 7 a g h h A ^ / / ] ] [ [ P o.P Y Y E Y I E U R I U U R Q Q Q Q ! ! =.! =.=.=.=.=.;.;.i.;.i.;.i.6.i.i.p.p.p.p.p.8.8.8.8.8.8.8.8.u.u.u.u.y.y.y.y.r.r.r.r.e.w.q.q.q.9.9.M m m m r r e e r r r t t m m n m m n n m t t r r e r e r t t m M M 9.q.9.q.e.q.w.r.r.r.t.t.y.y.y.u.u.u.u.u.8.8.8.8.8.8.8.p.p.p.p.p.i.i.i.i.;.i.;.6.;.;.;.=.=.*.=.E *.E E R R I R I K I K K J J J L G G G G S G S S A A h g g a i 4 2 2 , , = * * & & * & * = , 2 2 a a a g g g d s p d 6 ",
"p d d g f g h h g g d a a i 2 2 2 2 2 2 , = > * * & & # & & & * , , 2 2 4 2 2 , 1 , * & & + & + & & & = ; 7 i d g g b S S S ( ] ] ] [ [ o.Y Y Y Y E Y U I E U U U R U R Q Q ! ! ! =.! =.=.=.;.=.;.6.;.i.i.;.i.i.6.i.p.p.p.p.p.8.8.8.8.8.8.8.u.u.u.u.u.y.y.r.y.r.r.r.w.e.w.q.q.9.9.9.M m t m r r e e r r r t t m m m m n n n n t t r e e e e r m m m M 9.9.q.q.q.e.e.e.r.r.r.t.t.y.y.u.u.u.u.u.u.8.8.8.8.8.8.8.p.p.p.p.p.i.i.i.i.;.i.;.;.;.;.;.=.=.! =.! =.! ! Q Q Q Q Q U U I R I R Y Y Y Y o.P P [ ] ] ] ] ^ S A k g g s i 2 - : & + + X     o o # # % % : , : , : % % # o o X     o @ # & < 2 7 p s g h ^ A / / ] ] ] [ [ P o.Y Y Y E Y I E I R U U R U R Q Q ! ! ! =.! =.=.;.;.;.;.;.6.;.i.i.i.6.i.i.i.p.p.p.p.8.8.8.8.8.8.8.u.u.u.u.u.y.y.y.r.y.r.r.r.w.w.q.q.9.9.M M m t m r r e e r r r t t m n m m m n n t t t r e e e e r m m m M M 9.q.q.q.e.e.e.r.r.r.t.t.y.y.y.u.u.u.u.u.8.8.8.8.8.8.8.p.p.p.p.p.i.i.i.i.;.i.;.;.;.;.;.=.=.*.*.*.R E E Y R I I I K K K F J J Z L L G S G A G k S h h h i a i 7 7 2 2 = , = * * * & * * * , 2 7 a a a a g i g p d p p ",
"p p g f g h h d g h i g a 7 7 7 2 2 2 , ; , = * * & & & & & * , * 2 , 2 2 4 2 2 2 = * * * + + & + + = * ; 2 7 i g g k b S / / ] ] [ ] o.P P o.Y Y Y U Y E I R U U U R Q Q Q Q ! =.! =.! =.=.;.;.;.;.;.i.;.i.i.i.i.i.p.p.p.p.p.8.8.8.8.8.8.8.u.u.u.u.y.y.y.y.y.r.r.r.r.e.w.q.q.q.9.M M m m t r r e e r r r t m m n m n m m m t t t r r e r r r t t m M 9.9.9.q.w.q.e.e.r.r.t.t.t.y.y.y.u.u.u.u.8.8.8.8.8.8.8.p.p.p.p.p.p.i.i.i.;.i.;.;.;.;.;.=.=.=.=.=.! ! ! ! Q Q Q Q U U R R R R Y E Y Y Y Y Y P o.[ [ ] / / G ^ k k g s i 2 1 = & # @ X o     o o # % : : : , : : % % # # o     o . @ # & * 1 2 7 s g h h A S ] / ] ] [ P o.P Y Y Y Y Y E I R U R U U R Q Q Q ! ! =.! =.=.=.=.=.;.;.;.;.i.;.i.i.i.i.i.p.p.p.p.p.8.8.8.8.8.8.8.u.u.u.u.u.y.y.r.y.r.r.r.w.r.w.q.q.9.9.9.M m m t r r e e r r r r m n m n m m n n m t t r e e r r r t t m M 9.9.9.q.q.w.e.e.r.r.t.t.t.y.y.y.u.u.u.u.8.8.8.8.8.8.8.p.p.p.p.p.p.i.i.i.;.i.6.;.6.;.;.=.=.=.=.*.E *.E E R R I I I K K K J J J L J G G G G G S S A A h g g g a 7 2 7 , 2 , * , * * * * * , = 2 2 a a 7 g d g g f p d p ",
"d d d g f g h h g g g i i i 7 2 4 2 2 2 , , 2 * * * & & & & & * , , 2 , 4 2 2 2 1 1 , * + & + + & & & = = 2 7 i d g g b S S / / ] ] [ ] o.P Y Y Y Y Y E I U I R U R U R Q Q ! ! ! ! =.=.=.=.=.;.;.;.;.;.i.i.;.i.i.i.i.p.p.p.p.p.8.8.8.8.8.8.8.u.u.u.u.y.y.r.y.r.r.r.r.w.w.w.q.9.9.9.M M t t t r r e e r r t t m m m m n n n n t t r r e e r r t m m m M 9.9.q.q.q.e.e.r.r.r.t.t.t.y.y.y.u.u.u.u.8.8.8.8.8.8.8.p.p.p.p.p.p.i.6.i.;.i.;.i.;.;.;.=.=.=.! =.! ! ! ! Q Q Q Q U U U I R I Y E P Y Y o.P [ [ ] ] ] / ^ S k k g s i i 1 = & # + O X X   o o # % % : : , : , : % # o o o     o o # & * < 2 7 s g g A A ^ S ] ] ] [ [ P o.Y Y Y Y E Y U I R I U R U R Q Q Q ! ! ! =.! =.=.;.=.;.;.6.;.i.;.i.i.i.i.i.p.p.p.p.p.8.8.8.8.8.8.8.u.u.u.u.y.y.y.y.r.r.r.r.w.w.w.q.q.9.M 9.m m t t r r e e r r t t m m m m n m n t t t r r e e r r t m m m M 9.q.q.q.q.e.e.e.r.r.t.y.t.y.y.y.u.u.u.u.8.8.8.8.8.8.8.8.p.p.p.p.p.i.i.i.;.6.;.;.;.;.;.=.=.=.*.*.E E E E I I I I K K K K J J J L D G S G S S A A A f g g a a a 7 2 2 2 , ; = > * * * = * , 2 2 7 a g i g g d g d d p ",
"p d g f g h h g h d g i i 7 7 7 2 7 4 2 2 2 = , = * * & & & & * = , 2 2 2 2 4 2 1 1 = * & + & + + & + = = 2 7 7 g g k k b S / / ] ] ] o.[ Y o.Y Y E Y I E U R I U U R Q Q Q Q ! Q =.! =.=.=.;.=.;.;.;.i.;.;.i.i.i.i.p.p.p.p.p.8.8.8.8.8.8.8.u.u.u.u.u.y.y.y.y.y.r.r.r.w.e.q.q.q.9.9.M m m m t r e e r r r t t t m n m m m m m t t r r e r e r t t m M M 9.q.9.q.e.q.e.e.r.r.t.t.y.y.y.u.u.u.u.u.8.8.8.8.8.8.8.p.p.p.p.p.i.i.i.i.i.i.;.;.;.;.=.;.=.=.=.=.! ! ! ! Q Q Q Q U U I R R I R Y E Y Y P o.P o.[ ] ] / G ^ k k g g s 2 2 1 & & # X X     o o o # % : : : , : : % # # o X X     @ @ # & < 2 2 s s g h h S S / ] ] ] [ o.[ Y Y Y Y Y U Y U U R U U R R Q Q ! Q ! =.! =.=.=.=.;.;.;.;.i.;.i.;.i.i.i.i.p.p.p.p.p.8.8.8.8.8.8.u.u.u.u.u.y.y.y.r.y.r.r.e.r.w.w.q.9.q.9.M M m t t r e e e r r t t n t m n M n m n n t r r e r e r t t m M M 9.9.9.q.q.e.e.e.r.r.t.r.y.y.y.u.u.u.u.u.8.8.8.8.8.8.8.p.p.p.p.p.i.i.i.6.6.6.;.6.;.;.=.;.=.=.*.*.E *.E I R I I I I K K F J J L D L G G G G S S S h h h d g a 7 a 2 7 2 2 , , = * = * * > ; , 2 7 i a i g d g s d d p ",
"d d d k f g h f g g a g i i 7 7 7 2 2 2 2 2 2 , = * * & & & & * * = , 2 2 4 2 2 2 1 = * * & + + & + & & = - 2 i i g g S b S S ( ] ] ] [ o.[ Y [ Y Y E Y I E U R U U R U R Q Q Q *.! =.! =.=.=.;.;.;.;.;.i.;.i.i.i.6.i.p.p.p.p.p.8.8.8.8.8.8.8.u.u.u.u.u.y.y.r.y.r.r.r.r.w.w.q.q.9.9.9.M m t t t r e e r r r t m t m m n m n n t t t r e e e r r t m m M M 9.q.q.q.w.e.e.r.r.r.t.y.t.y.y.u.u.u.u.u.8.8.8.8.8.8.8.p.p.p.p.p.i.i.i.i.;.i.;.;.;.;.=.=.=.=.! =.! ! ! Q Q Q Q Q U U I R I Y R Y Y Y Y [ P [ [ ] ] ] / G b k g g s i 2 1 = $ # + X X     o # # # : : , : : : : % # o o X     o @ # & > = 7 7 g g h ^ A S / / ] [ [ [ P o.Y Y Y Y Y U Y R I R U U R R Q Q ! ! ! =.! =.=.=.;.=.;.;.;.i.;.i.i.i.i.i.i.p.p.p.p.8.8.8.8.8.8.8.u.u.u.u.u.y.y.y.r.y.r.r.w.w.w.w.q.9.9.M M m m t t r e e r r r t m m n m n m n n t t t r r e e r r t m m M 9.9.q.9.e.q.e.e.r.r.r.t.t.y.y.y.u.u.u.u.u.8.8.8.8.8.8.8.p.p.p.p.p.i.i.i.i.6.6.;.6.;.;.=.=.=.#.*.*.E E E Y R I K K K K K J J J L L D G G S G S A A h g g d a a 7 a 2 2 2 2 , , = * * = * , ; 2 7 a a g i g g f s d d ",
"d d j g f g h h d g d i i i 7 7 7 7 7 7 7 2 2 , , = * * & & & * * , 2 , 2 2 2 7 1 1 , = * + & + + + & & = = 7 7 i g g g A b S / / ] ] [ [ P P Y Y Y Y Y E I R I U U U R Q Q Q ! ! ! ! =.=.=.=.;.=.;.;.i.;.i.i.;.i.i.i.p.p.p.p.p.8.8.8.8.8.8.8.u.u.u.u.u.y.y.y.r.r.r.r.r.w.w.q.q.q.9.M M m m t r r e e r r r t t m n n M n m n n t r r r e r r r t t m M 9.9.9.9.q.e.w.e.r.r.t.r.t.y.y.y.u.u.u.u.8.8.8.8.8.8.8.p.p.p.p.p.p.i.i.i.;.i.;.i.;.;.;.;.=.=.=.=.! ! ! ! Q Q Q Q U U U R R I R Y Y Y Y Y Y o.[ ] [ ] / / ^ S k k g g i 2 - > & # @ o X   o   o # % : : : : , : : % % o o X   X . @ # & * 1 2 7 s g h h A ^ / ] ] ] [ [ o.P Y Y Y Y E Y R I U U U R R Q Q Q ! ! ! ! =.=.=.=.=.;.;.;.i.;.i.i.;.i.i.i.p.p.p.p.p.8.8.8.8.8.8.8.u.u.u.u.u.y.y.r.y.r.r.r.r.r.w.q.q.9.9.9.M m m t t r e e r r r t t n n m m m n m n t t r e e r e r t t m M M 9.9.q.q.q.e.e.r.r.t.t.t.y.y.y.u.u.u.u.8.8.8.8.8.8.8.p.p.p.p.p.p.i.i.6.6.6.;.6.;.;.;.=.;.=.=.=.E E E Y R I I I I K K F K J L J J G G G G Z S A A f h g a g 7 a 7 a 2 2 2 , ; , , = * , = , 2 7 7 d i g g f s d d d ",
"d d h d k f g g h d g i i i 7 7 7 i i 7 7 7 2 2 , , * * & & * & * = , 2 2 2 4 7 1 1 - , * * + & + + & & = = - 7 i d g k b S S S / ] ] ] o.[ o.Y o.Y Y E Y U Y U R U R R U Q Q Q ! =.! ! =.=.=.;.;.;.;.;.i.;.i.i.i.i.i.i.p.p.p.p.p.8.8.8.8.8.8.8.u.u.u.u.y.y.y.y.r.y.r.r.r.w.q.q.q.9.9.M M m m t r r e e r r t t m m n m m n m n t t r r e e r e r m m m M 9.q.q.q.q.e.e.e.r.t.t.t.y.y.y.y.u.u.u.u.8.8.8.8.8.8.8.8.p.p.p.p.p.i.i.i.;.i.;.;.;.;.;.=.=.=.! =.! =.! ! Q Q Q Q U U I R R I E Y Y Y Y [ Y [ o.] ] ] / / ^ S g g s s 7 1 - & $ + X X X   o o # # % : : , : : : % # # o o X   X o @ & * < 2 2 s s h h A A / / / ] [ [ [ o.Y o.Y E Y U Y U R I R U R U Q Q Q *.! =.! =.=.=.=.;.;.;.;.i.;.i.i.i.6.i.i.p.p.p.p.p.8.8.8.8.8.8.8.u.u.u.u.u.y.y.y.r.y.r.e.w.w.w.q.q.9.9.M M m t t r r e e r r t t m m n m m n n n t t t r e e r e r m m M M 9.9.q.q.q.e.e.e.r.r.t.t.y.y.y.y.u.u.u.u.8.8.8.8.8.8.8.8.p.p.p.p.p.i.i.6.6.6.6.;.;.;.;.=.=.=.#.=.E E E E I I I K K K K J K J L L J L G G A S Z A h h g d a g a a a 7 7 2 2 , ; = , = = > ; 2 2 i i g p g g f g d d ",
"d g d k f k g f g g a d i i i i i i 4 7 i 4 2 2 2 = = * * & & * * * , 2 2 1 7 1 7 1 1 = = + * + + + + & & = 1 7 i s g g k b S / / ] ] [ [ [ Y [ Y Y Y Y U Y U R I U U U R Q Q Q ! ! ! =.! =.=.=.=.;.;.;.;.i.;.i.i.i.i.p.p.p.p.p.p.8.8.8.8.8.8.u.u.u.u.u.y.y.y.y.r.r.r.r.w.e.w.q.q.9.9.M M m t t r e e r r r t t t m m n m m n m t t r r e e e r t t m M M 9.9.9.q.q.e.e.e.r.r.r.t.t.y.y.u.u.u.u.u.8.8.8.8.8.8.8.p.p.p.p.p.i.i.6.i.i.;.;.i.;.;.;.=.=.=.=.=.! ! ! ! Q Q Q Q U U R R I R I Y E Y Y Y o.P [ [ ] ] ] / S k k k g p i 2 , = # # @ X     o   # # % : : : , : : % % # o o X     o @ # & * 2 7 7 g g h A ^ / / ] ] [ [ [ Y [ Y Y Y Y Y E U I R U U U R Q Q Q ! ! ! ! =.=.=.;.=.;.;.;.;.i.;.i.i.i.i.i.p.p.p.p.p.8.8.8.8.8.8.8.u.u.u.u.y.y.y.r.y.r.r.r.r.w.w.w.9.q.9.M M m t t r r e e r r t t t m m n m m n m t t r r e e e r t t m m M 9.9.q.9.e.q.e.e.r.r.t.r.t.y.y.u.u.u.u.u.8.8.8.8.8.8.8.p.p.p.p.p.p.i.i.6.6.6.;.i.;.;.;.=.=.#.=.E *.E E Y I I K I K K J K J K L J L G G S G S A A h g f i g a a a a 7 7 2 2 2 , , = = , ; , ; 7 i i s s f g d d d d ",
"d f d g j j g g f g i i i i i 7 i i i a i 7 7 2 2 , = * * * & & * = = , 2 2 1 7 1 2 1 1 & * + & + + + * & = - 2 7 p s k k k b S / / ] ] [ o.P Y Y Y Y Y Y U Y U R U U R U R Q Q Q ! =.! =.=.=.=.;.;.;.;.i.;.i.i.;.i.i.i.i.p.p.p.p.8.8.8.8.8.8.8.8.u.u.u.u.y.y.r.y.r.r.r.r.w.w.q.q.q.9.M M m m t t r e e e r r t m t m m n m n n t n t r r e e r r t t m M M 9.q.q.q.e.q.r.r.r.t.r.y.y.y.y.u.u.u.u.u.8.8.8.8.8.8.8.p.p.p.p.p.i.i.6.i.i.;.;.;.;.;.;.=.=.=.! =.! ! ! ! Q Q Q Q U U U R I R Y Y Y Y Y [ o.P [ ] ] / / / ^ k g g s i 1 ; = & # + X       o o % % % : , : , : : % # o o X   X o @ # & * < 7 7 s g h b A S / ] ] ] [ [ o.Y Y Y Y E Y Y U E I R U R U R Q Q Q *.! =.! =.=.=.;.;.;.;.6.;.i.;.i.i.i.i.i.p.p.p.p.p.8.8.8.8.8.8.8.u.u.u.u.y.y.y.r.r.r.r.r.w.w.q.q.9.9.9.M m m t t e r e e r r t m t m m n m m n n t t r r e e r r t t m M M 9.q.q.q.e.e.e.e.r.t.t.t.t.y.y.y.u.u.u.u.8.8.8.8.8.8.8.p.p.p.p.p.p.i.i.6.6.6.;.;.;.;.;.=.=.=.E #.E E E I I I K K K K J K L K L L J L G S Z S A j h g g d g a a a a 7 7 7 2 2 , , = = , ; 2 2 7 i d s g f g d h d ",
"f d h j k g f g g d g d i i 7 d i a i a a a 7 2 2 2 , = * * & & * * , 2 1 1 7 1 7 1 1 = = * & + + + $ + & = , - i i g g g b S S / / ] ] ] [ o.[ Y Y Y Y E Y U R I U U R R Q Q Q ! ! ! ! =.! =.=.;.=.;.;.;.;.i.;.i.i.i.i.p.p.p.p.p.8.8.8.8.8.8.8.u.u.u.u.u.y.y.y.y.r.r.r.r.w.w.w.q.9.9.9.M m m t t r e e r r r t t m n m m m n m n t t r r e r e r t m m M 9.9.9.q.q.q.e.e.r.r.r.t.t.t.y.y.u.u.u.u.8.8.8.8.8.8.8.p.p.p.p.p.p.i.i.i.i.;.i.;.i.;.;.=.=.=.=.=.! ! ! ! Q Q Q Q U U U R I R Y E Y Y Y Y Y [ [ [ [ ] ] / ^ S k k g s i i 1 > & # @ @ o   o   # o % % : : , : : : % % o o X     o o # & * < 2 7 s s h h A S / / ] ] [ [ P P o.Y Y Y Y U E I R I U R R Q Q Q ! ! ! ! =.! =.=.;.=.;.;.;.i.;.i.;.i.i.i.p.p.p.p.p.8.8.8.8.8.8.8.u.u.u.u.u.y.y.y.r.y.r.r.r.e.e.q.q.q.9.9.M m m m t r e e r r r t t m n m m m n m t t t r e e r e r t m m M M 9.9.q.9.e.q.e.r.r.r.t.t.y.y.y.u.u.u.u.8.8.8.8.8.8.8.8.p.p.p.p.p.i.i.6.6.i.;.;.i.;.;.;.=.=.#.=.E #.E I E I I K K K K K J K J L J L Z G S S S j h h h d g a g a a a i i 4 2 2 2 = , = = , ; 7 7 i i f s g d h d d ",
"d h d j d k g g d g i i d a i i i i g i a a a 7 2 2 , = * * & & & = * , 2 2 1 7 1 2 1 1 = & & + + + + & + = = 1 2 i p g k k b S / / ] ] [ [ [ P o.Y Y E Y U Y R U R I U R U Q Q Q ! *.! =.=.=.=.=.;.;.;.i.;.;.i.i.;.i.i.i.p.p.p.p.p.8.8.8.8.8.8.8.u.u.u.u.u.y.y.r.y.r.r.r.e.w.w.q.q.9.9.M M m t t t r e e r r r t m m n m m m n n t t r r e e r e r t m m M 9.9.q.q.q.e.e.e.r.r.t.t.y.y.y.y.u.u.u.u.8.8.8.8.8.8.8.8.p.p.p.p.p.i.i.i.i.;.;.;.;.;.;.;.=.=.=.=.! ! ! ! ! Q Q Q U U I R R I I Y E Y Y o.Y P [ ] ] ] / / S b k g g s 7 2 - > # + X X X     o # # % : : : , : : : # # o o X   X o @ # * = 1 7 7 g g h A ^ S / / ] ] [ o.Y [ Y Y Y E Y I U U R U U R U Q Q Q ! *.! =.=.=.=.=.;.;.;.;.;.i.i.i.i.6.i.i.p.p.p.p.p.8.8.8.8.8.8.8.u.u.u.u.u.y.y.y.r.r.r.r.w.w.w.q.q.9.9.M M m t t t e e e r r r t t m n m n m m m t t t r e e r e r t M M M M 9.q.q.q.e.e.e.r.r.t.t.t.y.y.u.u.u.u.u.8.8.8.8.8.8.8.8.p.p.p.p.p.i.i.6.6.i.;.;.;.;.=.=.;.=.#.*.E E Y I I I K I K K J K J K L L L G G Z S k A f h d g g g i g a a a a 7 2 2 2 2 = , ; = 2 2 7 i p p f g d d f d ",
"d f f h k g f f g d d d i d i i i g a g a a 7 a 2 7 , = * * & & * * = - 1 2 1 7 2 2 1 1 - & & & $ + + + & & = 1 2 i s g g k b S ^ / ] ] ] [ P o.[ Y Y Y Y Y U I U I U U R R Q Q Q ! ! Q =.! =.=.=.;.;.;.;.;.i.;.i.i.i.i.i.p.p.p.p.p.8.8.8.8.8.8.8.u.u.u.u.y.y.y.y.r.y.r.r.e.e.w.q.q.9.9.9.M m m t r r e r r r t t t m n m m n m n t t r r e e e r t t m M M M 9.9.q.w.q.w.r.r.r.r.t.t.y.y.y.u.u.u.u.8.8.8.8.8.8.8.p.p.p.p.p.p.i.i.i.;.i.i.;.;.;.;.=.=.=.=.! =.! ! ! Q Q Q Q U U R R I R Y E Y Y Y Y P P o.[ ] ] / / S k k k g i i 2 1 & & # + X X   o   # # % : : , : : : % % # o X X     o @ # * * 2 2 s s g h A A / / ] ] [ [ [ [ Y Y Y Y Y Y U E R I U U U R Q Q Q ! ! ! =.! =.=.=.;.;.;.;.i.;.i.;.i.i.i.i.p.p.p.p.p.8.8.8.8.8.8.8.u.u.u.u.y.y.y.r.y.r.r.r.r.w.w.w.9.q.9.M M m n t r r e e r r r t m m n m m m m t n t r r r e r e t t t m M 9.9.q.q.q.e.e.r.r.r.r.t.t.y.y.y.u.u.u.u.8.8.8.8.8.8.8.p.p.p.p.p.p.i.i.6.i.;.;.i.;.;.;.;.=.#.=.#.E E E Y I K I I F J I J K L J L J L G S S S j A h h g g d g g a g a a a 7 2 7 , 2 ; , = 2 2 5 i p d p g f g f d ",
"f d h f j d k d d s i i i i d a g i g i g a g 7 a 2 2 , = * * & & & = , - 1 2 2 2 2 2 - , = $ + + + + + & & = = 2 7 i s g k k S S / / ] ] [ o.P Y o.Y Y E Y Y U U R U U U R R Q Q ! ! =.! =.=.=.=.;.=.;.;.i.;.i.;.i.i.6.i.i.p.p.p.p.p.8.8.8.8.8.8.u.u.u.u.u.y.y.r.y.r.r.r.r.w.w.q.q.q.9.M M m m t t r e e e r r t t m m n m m n m t n t r r e e r r t t m M 9.9.9.q.q.e.e.e.e.r.t.r.y.y.y.y.y.u.u.u.u.8.8.8.8.8.8.8.p.p.p.p.p.p.i.6.i.;.i.;.i.;.=.;.=.=.=.=.! ! ! ! ! Q Q Q Q U U U R I R Y I Y Y Y o.P [ ] [ ] ] / S S b g g g i 7 1 = $ # @ O X     o o # % % : : , , : : % % o o X   X o o # # > < 2 7 s g h h ^ S / / ] ] [ [ P o.P Y Y Y E Y I R U U U R R U Q Q ! ! ! ! =.=.=.=.;.=.;.6.;.i.;.i.i.i.6.i.i.p.p.p.p.p.8.8.8.8.8.8.u.u.u.u.u.y.y.y.y.r.r.r.r.e.w.w.q.9.9.9.M M m t t r r e e r r t t m m n m m n m t t t r r e e r r t m m M M 9.9.q.q.q.e.e.e.r.t.r.y.y.y.y.y.u.u.u.u.8.8.8.8.8.8.8.p.p.p.p.p.p.i.i.6.i.;.;.;.;.;.;.=.=.#.=.E E Y E I I K K I K K K K K L J L Z G G S j S f h f g g g g a g a g a a a 7 2 2 , 2 = 2 = 2 7 i i d g d g f g f ",
"d f f j g j g g g d g d i d i g i g a g a g a a a 2 2 ; * = & & & * * = 1 1 2 2 2 2 1 1 1 & = & + $ + + + & = > 1 2 p s g k x S ^ / / ] ] [ [ [ o.Y Y Y Y Y U Y R I R U R R Q Q Q Q ! ! =.! =.=.=.=.;.;.;.;.i.;.i.i.i.i.i.i.p.p.p.p.8.8.8.8.8.8.8.8.u.u.u.u.y.y.y.y.r.r.r.r.e.w.w.q.9.9.9.M M m t t r e e r r r t m t m m n m n n m t t r e e r e r r m m M M M q.9.q.w.w.w.r.r.r.t.t.t.y.y.u.u.u.u.u.8.8.8.8.8.8.8.p.p.p.p.p.i.i.i.i.i.;.i.;.;.;.;.=.=.=.! =.! ! ! Q Q Q Q Q U U R I R I E Y E Y Y P o.[ o.[ ] / / G ^ k k g s s 2 1 > = # + O X     o o o # % : : , : : : % # # o X X     @ @ & * < 2 2 p g g b h / / / ] ] ] [ o.P Y Y Y E Y I E I R U U U U Q Q Q Q ! ! =.! =.=.=.=.;.;.;.;.;.i.;.i.i.i.i.p.p.p.p.p.8.8.8.8.8.8.8.8.u.u.u.u.y.y.y.r.y.r.r.r.w.e.q.q.q.9.9.M m m t t r e e r r r t t n m m n n m n m t t r e e r e r t t m M M 9.9.q.q.w.q.e.r.r.r.t.t.t.y.y.u.u.u.u.u.8.8.8.8.8.8.8.p.p.p.p.p.i.i.i.i.;.i.;.6.;.;.=.;.#.=.#.E o.E I Y I K I K K K K K L K J L G G Z S S j A h h h d g g h a g g a a a 7 2 2 2 = 2 = 2 ; 7 i p p d g d f f d ",
"f f h f f h d f s d p p g i d i g g g g g a a g 7 7 2 , ; * * & & = & = = 1 1 2 2 2 2 - 1 = & & + + + # + & & = - 2 7 s g g k k S S / / ] [ [ [ [ o.Y Y Y E Y U Y U I R U R U R Q Q ! ! ! =.! =.=.=.;.=.;.6.;.i.;.i.i.i.i.i.p.p.p.p.p.8.8.8.8.8.8.8.u.u.u.u.u.y.y.r.y.r.r.r.r.w.w.q.q.9.9.9.m m t t t r e e r r r t m t m m m m n n t t t r e e e e t t m M M 9.9.q.q.q.e.e.e.r.r.r.t.y.y.y.y.u.u.u.u.u.8.8.8.8.8.8.8.p.p.p.p.p.i.i.i.;.i.;.;.;.;.;.=.=.=.=.! =.! ! ! Q Q Q Q Q U U R I R I Y Y Y Y Y [ Y [ [ ] ] ] / G b k k g p i 2 - : # # O X X   o o # # % : : : , : : : % o # X X     o @ # & > ; 7 a s g h A A S / ] ] [ [ [ o.P Y Y Y E Y U E I R U U R U Q Q Q ! ! *.! =.! =.=.;.=.;.6.;.i.i.;.i.i.i.i.i.p.p.p.p.8.8.8.8.8.8.8.u.u.u.u.u.y.y.y.r.r.r.r.e.w.w.q.q.9.9.M M m m t t e e e r r r t m t m m n n n n t t t r e e r r r t m m M 9.9.9.q.w.w.e.e.r.r.r.t.y.y.y.y.u.u.u.u.u.8.8.8.8.8.8.8.p.p.p.p.p.i.i.i.6.;.i.;.;.;.;.#.=.=.E #.E E Y I I I K I J K K K K L L J G G S C S j k f h h h h g g g g a g a a i 7 2 2 2 = 2 ; 2 5 7 i p d d h d f f ",
"f h f f h d f g f p p d d i i g d g g g g g g a a 7 7 2 , = * & = + = * = 1 2 1 7 2 2 1 1 1 & & $ + + + $ + & = 1 2 7 p s g k b S ^ / ] ] ] [ [ Y [ Y Y Y Y E Y U U U R U U R Q Q Q ! ! ! ! =.=.=.=.;.;.;.;.;.;.i.;.i.i.i.i.p.p.p.p.p.8.8.8.8.8.8.8.u.u.u.u.y.y.y.y.y.r.r.r.w.e.w.q.q.q.9.M M m m t r r e e r r r t t m n m m n n n n t r r r e r r r t t m M 9.9.9.q.q.w.e.e.r.r.t.t.t.y.y.y.u.u.u.u.8.8.8.8.8.8.8.p.p.p.p.p.p.i.6.i.i.;.;.i.;.;.;.;.=.=.=.=.! ! ! ! Q Q Q Q U U R R I R Y E Y Y Y o.Y [ [ [ ] ] / / ^ A A g g s i 2 1 = & # @ X o     o o # % : : : , : : % % % o o     o . @ # & = 1 2 7 s g h A A ^ / ] ] ] [ [ P o.Y Y Y Y Y E I R I R U U R Q Q Q ! ! Q =.! =.=.=.;.;.;.;.;.;.;.i.i.i.i.i.p.p.p.p.p.8.8.8.8.8.8.8.u.u.u.u.u.y.y.r.y.r.r.r.r.e.w.q.q.9.9.9.M m m t r r e e r r r t t m m n m n m n n t r r r r r e r t m m M 9.M q.q.q.w.e.e.r.r.t.r.t.y.y.y.u.u.u.u.8.8.8.8.8.8.8.p.p.p.p.p.p.i.i.6.i.;.i.;.;.;.;.;.=.#.=.#.E Y Y I I I K K I K K K L K J L G G Z S Z k j A h f h g h g g g g g a a a 7 7 2 ; 2 = 2 - 2 7 i p g d d h d f ",
"d f f h f h d d d d p p p d g g g g g g g g g g i 7 7 2 = = * & & = & = = = 1 2 1 7 1 ; 1 = = & $ + $ + + $ & = > 1 7 i s g k k A S S / ] ] [ [ o.Y P Y Y Y Y U Y U U I R R U R Q Q ! ! =.! =.! =.;.=.;.;.;.;.i.;.i.i.i.6.i.i.p.p.p.p.p.8.8.8.8.8.8.u.u.u.u.u.y.y.r.y.r.r.r.r.w.w.w.q.9.9.9.M M m t t r r e e r r t t m m m n m n n t n t r r e e r r t m m m M 9.q.q.q.q.e.e.e.r.r.t.y.t.y.y.y.u.u.u.u.8.8.8.8.8.8.8.p.p.p.p.p.p.i.6.i.i.;.;.;.;.;.=.;.=.=.! =.! ! ! ! Q Q Q Q U U U R I R Y Y E Y Y o.Y [ [ [ ] ] / / ^ k k g s i i 1 > = # + X X X   o o # # % : , : , : : % % o o o     o o # # * < 2 7 s g g h A S / / ] ] ] [ o.P Y o.Y Y E Y U I R I R R R U Q Q ! ! *.! =.=.=.=.=.;.;.;.;.i.i.;.i.i.6.i.i.p.p.p.p.p.8.8.8.8.8.8.8.u.u.u.u.y.y.y.y.r.r.r.r.w.w.w.q.q.9.M 9.m m t t r r e e r r r t m t m n m n m t n t r r e e r e t t M m M 9.9.q.q.q.e.e.e.r.t.t.t.t.y.y.y.u.u.u.u.8.8.8.8.8.8.8.8.p.p.p.p.p.i.i.6.i.;.i.;.;.;.#.;.#.#.=.E E Y Y I K I I K K K K K L J J L Z G A A Z k f h h h h h h h g g g g a a i 7 2 2 ; 2 ; 7 5 i 6 p d g d f f d ",
"f f h f d f g d d p p p d g g d g g g h x g h a g 7 7 2 2 = = & = & & = = , - 1 2 2 2 1 1 - > & & + + @ @ + & & = 2 2 i s g g k b A G / ] ] [ [ [ P o.Y Y Y U Y E I R U U U R Q Q Q Q ! ! ! ! =.=.=.=.=.;.;.i.;.;.i.i.i.i.i.p.p.p.p.p.8.8.8.8.8.8.8.8.u.u.u.u.y.y.y.y.y.r.r.r.r.w.w.q.q.9.9.M m m m t r e e r r r r m t n n m n n t n t t r e e e e r t t m M M 9.9.9.q.e.q.e.r.r.r.t.r.y.y.y.u.u.u.u.u.8.8.8.8.8.8.8.p.p.p.p.p.i.i.i.i.;.i.i.;.;.;.;.=.=.=.=.! =.! ! ! Q Q Q Q U U I R R I R Y Y Y Y Y [ P o.] ] ] / / S A k g g s 2 2 - & # # O X     o o # # % : : : , : : % # # o X X   . o @ & & < 2 7 7 g g h ^ A / ] / ] [ [ [ Y o.Y Y E Y U Y U U U U U U Q Q Q Q ! Q =.=.! =.=.;.=.;.;.i.;.;.i.i.i.i.i.p.p.p.p.p.p.8.8.8.8.8.8.u.u.u.u.u.y.y.y.r.y.r.r.e.r.w.w.w.9.q.9.M M m t t r e e e r r t t m m n m n n n m t t r r e r e r r m t M M 9.9.9.q.e.q.e.r.r.r.r.y.t.y.y.u.u.u.u.u.8.8.8.8.8.8.8.p.p.p.p.p.i.i.i.i.i.;.;.6.;.;.;.-.=.=.#.E Y E I I I I K K I K P K J J L Z G Z S Z k j A j h h h h h g h g h a g a i 7 7 2 2 ; 1 ; 2 ; i p d d d h d f ",
"f f f h f f d d d d p d p d g g h h h h h g g g a g 7 2 2 , = * & & & & - = 1 7 1 2 2 2 - 1 = & & $ + + + # + = & 1 2 7 s s g k k ^ G ^ ] ] ] [ [ o.P Y Y Y Y Y U E I R U U R U R Q Q ! ! =.! =.! =.;.;.=.;.;.i.;.i.;.i.i.i.i.i.p.p.p.p.8.8.8.8.8.8.8.u.u.u.u.u.y.y.r.y.r.r.r.w.w.w.q.q.9.9.M M m t t t r e e r r r t m m n n n t n t t t t r e e e r r t m m M M 9.q.9.q.w.e.e.r.r.r.t.t.y.y.y.u.u.u.u.u.8.8.8.8.8.8.8.p.p.p.p.p.i.i.6.i.;.;.i.;.;.;.=.;.=.=.! ! ! ! ! Q Q Q Q Q U U I R I Y R Y Y Y P Y [ [ [ ] ] / / / k k k g s i 2 1 = & # O O       o o % % % : , : : : : % # o o X     o @ # * * < 7 7 s g h h ^ S / ] ] ] [ [ [ Y [ Y Y Y Y U Y U R U U R U R Q Q ! ! ! ! =.=.=.=.;.;.;.;.i.;.i.;.i.i.6.i.i.p.p.p.p.8.8.8.8.8.8.8.u.u.u.u.u.y.y.y.r.y.r.r.w.w.w.q.q.9.9.M M m m t t r e e r r r t t m m n m n m m t t t r r e e r r t m m M 9.9.q.q.q.e.w.e.r.r.t.r.y.y.y.y.u.u.u.u.u.8.8.8.8.8.8.8.p.p.p.p.p.i.i.6.;.i.;.;.;.;.;.=.#.#.#.#.E Y Y I I K I K K K K K P J J G G G Z A Z k k k j A h h h h h g g g g i i i 7 7 ; 2 5 1 5 7 i i p d d f f f ",
"f h f f f g d d d p p p d g d h d h h h h h g g g a a 7 2 = ; & & & & = & = 1 - 1 2 2 2 1 1 = = & + # + @ + & # = > 2 7 a s g b k A ^ / ] ] ] [ [ P Y Y Y Y Y U Y I U I U U U R Q Q Q ! ! Q =.! =.=.=.=.;.;.;.;.i.;.i.;.i.i.i.p.p.p.p.p.8.8.8.8.8.8.8.u.u.u.u.u.y.y.y.r.r.r.r.r.r.w.q.q.q.9.9.M m m t r r e e r r r t t m n n t n t t t t r r e e r r r t t m M 9.9.9.q.q.e.w.e.r.r.t.t.t.y.y.y.u.u.u.u.8.8.8.8.8.8.8.p.p.p.p.p.p.i.i.i.i.;.i.;.;.;.;.;.=.=.=.=.=.! ! ! Q Q Q Q U U U R I R R Y Y Y Y Y o.P o.[ [ ] ] / A S ^ g g s p 2 1 > & # @ X o       # o % : : : : , : : % # # o X   X . @ # # * 1 2 7 s g h h A / / / ] [ [ [ P o.Y Y Y Y E Y U U I U R U R Q Q Q ! Q ! =.! =.=.=.=.;.;.;.;.;.;.i.i.6.i.i.p.p.p.p.p.8.8.8.8.8.8.8.u.u.u.u.u.y.y.r.y.r.r.r.r.r.w.q.q.q.9.9.M m m t r r e e r r r t m t m m n m m t m t r r r e r e r t m m M M 9.9.q.q.q.e.e.r.r.r.t.t.y.y.y.u.u.u.u.8.8.8.8.8.8.8.p.p.p.p.p.p.i.i.i.i.i.6.;.6.;.;.#.;.=.#.#.Y E I Y I Y K K I K K K J J L L Z Z A Z j S j j A h A h h A h h g h g i g i 7 7 2 7 - ; ; 7 ; u p d f d h f ",
"f f f f d f d d p d p d s f g g A h h h h h b g g i d 7 2 ; , = & = & & = = = 1 2 2 2 1 1 - 1 & & $ + @ + @ # & & = 1 2 7 s g g k k / / / ] ] ] [ o.P Y o.Y E Y E Y U U U U R R U Q Q Q ! =.! =.=.=.=.=.;.;.;.6.;.i.i.i.6.i.i.i.p.p.p.p.p.8.8.8.8.8.8.8.u.u.u.u.y.y.y.y.r.y.r.e.w.e.q.q.9.q.M M M m m t r r e e r r t t t m t n t t t t t t r r e e r e r m m m M 9.q.q.q.q.e.e.e.r.r.t.t.y.y.y.y.u.u.u.u.8.8.8.8.8.8.8.8.p.p.p.p.p.i.i.i.i.;.i.=.;.;.=.=.=.=.=.! =.! ! ! Q Q Q Q U U U R I R Y R Y Y Y [ Y [ [ ] ] ] / / ^ k k g s p 7 2 - & & + X X X o o o # # % : : , : : : % % o o o X   o o # & > > 2 7 p g g b A A S ] / ] [ [ o.P Y Y Y E Y U Y U U R I R R U Q Q Q *.! ! =.=.=.=.=.;.;.;.;.i.i.;.i.i.i.i.i.p.p.p.p.p.8.8.8.8.8.8.8.u.u.u.u.u.y.y.y.r.y.r.e.w.w.w.q.9.9.9.M m m m t r r e e r r t t m m t m n n m t m t r r r e r e r t m M M 9.9.9.q.q.e.e.e.r.t.r.y.y.y.y.y.u.u.u.u.8.8.8.8.8.8.8.8.p.p.p.p.p.i.i.;.i.;.6.;.;.-.;.#.#.=.T #.Y Y I I I I K K K K P K J J Z L Z G A k C A k j A f A h h h b h g g g a a i 7 7 - 7 ; 2 6 i i u p d f f f ",
"f f h f f d d d d p d p f g g f h h h h A h h h g g i i 7 2 = * = & & & & = = - 2 1 2 2 2 1 > = = & # + + @ + & & = 1 2 7 s g g k ^ A / / / ] [ [ P o.[ Y Y Y Y Y U E I R U U U R Q Q Q ! ! ! =.! =.=.;.=.;.;.;.;.i.;.i.i.i.i.p.p.p.p.p.p.8.8.8.8.8.8.u.u.u.u.u.y.y.y.y.r.r.r.r.r.w.w.q.q.9.9.9.M m t t r e e r r r r t m t n t t t t t r r r r e e e r t t m M M 9.9.9.q.q.e.e.e.r.r.r.t.t.y.y.u.u.u.u.u.8.8.8.8.8.8.8.p.p.p.p.p.i.i.i.i.;.i.;.i.;.;.;.;.=.=.! =.! ! ! ! Q Q Q Q U U R I R I E Y Y Y Y Y o.P [ [ ] ] / / G A k k g s i 2 1 & & # @ X         # # % : : : , , : % % # o o X   . o @ # & = 1 7 a s g h A A ^ / ] ] ] [ [ P o.Y Y Y Y Y E Y R I U U U R Q Q Q ! ! =.! ! =.=.=.;.;.;.i.;.;.i.i.i.6.i.i.p.p.p.p.p.8.8.8.8.8.8.8.u.u.u.u.y.y.y.r.y.r.r.r.r.w.w.q.q.9.9.9.M M t t r e e e r r t t t m m n m m m m t t r r r e e r t t m m M 9.9.q.q.e.q.e.r.r.r.t.r.t.y.y.u.u.u.u.u.8.8.8.8.8.8.8.p.p.p.p.p.p.i.i.i.;.6.6.;.;.;.;.#.=.#.#.E Y Y I Y I I K I K K K J J J L Z G C C Z C k Z k k A A h A h h b g h g a d i 7 5 7 2 ; ; 2 7 6 p d f d f f ",
"f f f d f d d d p u p d d g j g k k A A g A g b g g a a 7 2 ; = & & = & = & = - 1 ; 2 2 1 ; 1 > & & $ # + + @ # & = 1 2 7 i s k g k ^ S / ] ] ] [ [ P Y Y Y Y Y U Y U U I R U R U R Q Q Q ! ! ! =.=.=.=.;.;.;.;.6.;.i.;.i.i.6.i.i.p.p.p.p.8.8.8.8.8.8.8.u.u.u.u.u.y.y.r.y.r.r.r.e.w.w.w.q.9.9.M M m m t t r e e e r r t t n t n t t t t t r r r r e e r r t t m M M 9.q.9.e.q.e.e.r.r.r.t.t.y.y.y.u.u.u.u.u.8.8.8.8.8.8.8.p.p.p.p.p.i.i.6.i.;.i.;.;.;.;.;.=.=.=.=.! ! ! ! ! Q Q Q Q U U R I R I Y E Y Y Y P [ o.[ [ ] / / ^ A A g g s i 2 1 = & # O O X   o o o % % % : , : : : : % # o o o   X o o # & > 1 2 p s g h A A / / ] / [ [ [ o.Y [ Y Y Y E I U U U U U R U R Q Q Q ! ! =.=.=.=.=.;.=.;.;.i.;.;.i.i.i.i.i.i.p.p.p.p.p.8.8.8.8.8.8.8.u.u.u.u.y.y.y.r.r.r.r.r.w.w.w.q.q.9.M M m m t t r e e e r r t t m m m m m t m t t t r r r e r r t m m M M 9.9.q.q.w.e.e.e.r.t.t.y.t.y.y.u.u.u.u.u.8.8.8.8.8.8.8.p.p.p.p.p.p.i.i.i.;.6.6.;.-.-.;.#.#.#.#.T Y I I Y K I K I K K J J J Z G C G A C S j A j S k A A A A h h h g g g a a i 7 5 - i ; 5 5 i u p d f f f ",
"f f f f f d d p u d d d g f g k A k A k A A b h h g d i 7 2 = - & = & & & = = - 1 2 1 2 2 1 1 = > & # + @ + # + & & > 1 2 s s s k k A S / / ] ] [ [ o.P o.Y Y E Y Y E I R U U R R Q Q Q ! ! ! =.! =.=.=.=.;.;.;.;.i.;.i.i.i.i.i.p.p.p.p.p.8.8.8.8.8.8.8.u.u.u.u.u.y.y.y.y.r.r.r.r.e.e.q.q.q.9.9.M m m t t r e e r r r t m t t t t t t t r r r r e e r e r t m m M M 9.9.q.q.q.e.e.r.r.t.r.y.t.y.y.u.u.u.u.8.8.8.8.8.8.8.p.p.p.p.p.p.i.i.i.i.i.;.;.i.;.;.=.=.=.=.! =.! ! ! Q Q Q Q Q U U R I R E U Y Y Y Y o.Y [ [ ] ] ] / / S k k g s i 2 2 > & # # X o       # o % % : : : , : : % % o o X       @ # & & - 2 7 s s h h A S / / ] ] [ [ [ [ Y Y Y E Y Y E I U U U R R Q Q Q ! ! ! =.! =.=.=.=.;.;.;.;.;.i.i.;.i.i.i.p.p.p.p.p.8.8.8.8.8.8.8.u.u.u.u.u.y.y.y.r.y.r.r.r.r.w.q.q.9.9.9.M m m m r r e e r r r r m t m m t m m m m t t r r e r e r t t m M M 9.q.9.q.e.q.e.r.r.r.t.r.y.y.y.u.u.u.u.8.8.8.8.8.8.8.8.p.p.p.p.p.i.i.i.;.6.6.;.;.;.;.#.;.#.#.T Y E Y Y I Y K I K K K J J J L Z G C Z A C S k S k S k S A A h A h h g h a d i i ; i ; 2 ; i 5 p d d d f f ",
"f f f d f d d u p p d d d k f k k S A A k A k h h g g i i 7 2 = = & & = + = & - - 1 ; 2 2 1 ; > = # & # + + @ # & & = 1 2 7 s g g k A A / / ] ] ] [ [ o.Y Y Y Y E I E U I U U U R U Q Q Q ! *.! =.=.! =.;.=.;.;.;.;.i.i.;.i.i.i.i.p.p.p.p.p.8.8.8.8.8.8.8.u.u.u.u.u.y.y.r.y.r.r.r.w.w.w.q.q.9.9.M M m t t t r e e r r r t m t t t t t t t r r r r e e r e r t m M M 9.9.q.q.q.e.e.e.r.r.t.t.y.y.y.y.u.u.u.u.8.8.8.8.8.8.8.8.p.p.p.p.p.i.i.i.;.i.;.;.;.;.;.;.=.=.=.! =.! ! ! Q Q Q Q U U U R I I E Y Y Y Y [ o.P [ [ ] ] / / ^ A k g g s 7 1 - : # + O X X     o # # % : : , : : : : # # o o X   X o @ # * < 1 7 7 g g b A ^ S / ] ] [ [ [ Y o.Y Y Y E I E E I U U U R U Q Q Q ! *.! =.! =.=.=.;.;.;.;.i.;.i.i.i.6.i.i.p.p.p.p.p.8.8.8.8.8.8.8.u.u.u.u.u.y.y.y.r.r.r.r.w.e.w.q.q.9.9.M M m t m r r e e e r t t m t m m m m t m t t t r r e e e t t m M M M 9.q.q.q.e.e.e.r.r.t.t.y.y.y.y.u.u.u.u.8.8.8.8.8.8.8.8.p.p.p.p.p.i.i.i.i.;.6.-.;.-.;.#.=.#.#.#.P T Y I I I K I J K K J J Z J Z G C Z A C Z A S k S k b S A h b h h g d a i i 7 ; 7 ; 5 ; p 6 d d f d f ",
"f f f f u d u p d d d d g f k k k k k A S b k A h h g a i 7 2 = = & = + = + = = - 1 2 1 2 2 1 1 : = & # @ @ + # # & = 1 2 2 s s g g k ^ S ] / ] [ [ [ Y [ Y Y Y Y Y U Y R U R U U R Q Q Q ! ! Q =.! =.=.=.;.;.;.;.i.;.;.i.i.i.i.i.p.p.p.p.p.8.8.8.8.8.8.8.u.u.u.u.y.y.y.y.r.r.r.r.r.w.w.q.9.q.9.M M m m t r e e r r r t t t m t t t t t r r r r e e e e r t t m m M 9.9.9.q.w.q.e.e.r.r.r.t.t.y.y.y.u.u.u.u.8.8.8.8.8.8.8.p.p.p.p.p.p.i.6.i.i.;.i.;.;.;.;.=.=.=.=.=.! ! ! ! Q Q Q Q U U R I R R Y E Y Y Y Y Y [ [ [ ] ] / / S A k k g p i 2 1 = & # @ X X   o   # # % : : : , : : % % # o X X     o @ # * * 2 2 s s g h h A / / ] ] ] [ P o.[ Y Y Y Y Y E I R U U U U R Q Q Q ! ! ! ! =.=.=.;.=.;.;.i.;.i.;.i.i.i.i.i.p.p.p.p.p.8.8.8.8.8.8.8.u.u.u.u.y.y.y.r.y.r.r.r.r.w.w.q.q.q.M 9.M m m t r r e e r r r t t m t M t m m m t t r r r e r r r t m m M 9.9.q.q.q.q.e.e.r.r.r.t.t.y.y.u.u.u.u.u.8.8.8.8.8.8.8.p.p.p.p.p.p.i.i.i.;.6.;.6.;.;.#.-.#.#.#.T E Y Y I I P I K I K J J J J Z G C Z A Z A A A A G b S S b b A A h h g g d i i 6 i ; 5 ; i 5 p u d d f f ",
"f f f d f d 6 d 6 d d f f h j A C S S b S b S g A g h d i 7 ; 2 = & & = & = & - = - 1 2 2 1 1 1 - & & # + + o @ # & & 1 1 7 7 s g k k A ^ S ] ] ] [ [ P Y o.Y Y E Y I U I R I Q R U R Q Q ! ! =.! =.=.=.=.=.;.;.;.;.i.i.i.;.i.i.i.i.p.p.p.p.p.8.8.8.8.8.8.8.u.u.u.u.y.y.y.y.r.r.r.e.r.q.w.q.9.9.9.M m m t t r e e e r r t t t t t t t t t r r r r r e e r r t m m M M 9.q.9.q.e.e.e.e.r.t.r.y.y.y.y.u.u.u.u.u.8.8.8.8.8.8.8.p.p.p.p.p.p.i.6.i.i.;.i.;.;.;.;.=.=.=.=.! =.! ! ! Q Q Q Q U U R I R I Y E Y Y Y o.Y [ ] [ ] / / / ^ k g g g i 7 1 = # & @ X X     o o # % % : , : , : : % % o o X   X o o # # * 1 2 7 s g g A A S / / ] ] [ [ P Y Y Y Y E Y Y U I U R U R U R Q Q ! ! =.! ! =.=.=.;.=.;.;.;.;.i.;.i.i.i.i.i.p.p.p.p.p.8.8.8.8.8.8.u.u.u.u.u.y.y.y.y.r.r.r.r.e.w.q.q.9.q.M M M t t t r r e e e r r r t t t M t M t m t t r r r e r r t t m M M 9.9.q.q.e.e.e.e.r.t.r.y.t.y.y.y.u.u.u.u.8.8.8.8.8.8.8.p.p.p.p.p.p.i.i.i.6.6.;.-.;.-.=.#.#.#.#.P T Y Y I I K K I K J F F Z Z Z G C Z A Z A G A A S ^ S b S b A A h g g g d i i ; i ; 7 ; 6 6 p d d f f ",
"f f d f d u d u d d d d g j k A A S b S b S b A b h g g i i 7 - = = - + & & = & = 1 ; 1 2 2 - 1 > * & # # @ + + # # = > - 2 i s g g h A S / / / ] [ [ o.P Y Y Y Y Y E Y U U R I R R Q Q Q Q ! ! ! =.! =.=.;.=.;.;.;.i.;.;.i.i.i.i.p.p.p.p.p.8.8.8.8.8.8.8.u.u.u.u.u.y.y.y.r.y.r.r.r.w.e.q.q.q.9.9.M M m t t r e e r r r t t n t t t t t r t r r r e e r e r t t m M M 9.9.q.q.w.q.e.r.r.r.t.t.t.y.y.u.u.u.u.u.8.8.8.8.8.8.8.p.p.p.p.p.i.i.i.i.;.i.;.;.;.;.=.;.=.=.! =.! ! ! Q Q Q Q Q U U I R R I R Y Y Y o.Y [ P o.] ] ] / S S k k g s s 2 1 > = # @ o   o   o o o % % : : : , : : % # % o X   X   o @ & * > 2 7 p s h h ^ A / ] / ] [ [ o.P o.Y Y Y Y U Y E R I U U R Q Q Q Q ! ! ! =.=.=.=.=.;.;.;.;.i.;.i.i.6.i.i.p.p.p.p.p.8.8.8.8.8.8.8.8.u.u.u.u.y.y.y.r.y.r.r.r.w.e.q.q.q.9.9.M m m m t r r r r r r r r r t t t m t m m t t r r e r e r t t m M M 9.q.9.q.w.w.e.r.r.r.t.t.y.y.y.u.u.u.u.u.8.8.8.8.8.8.8.p.p.p.p.p.i.i.i.6.6.;.6.;.-.;.#.-.#.#.T #.T Y I Y I I I J K J F J J Z Z Z Z A C S Z A S A S S S S S b A A g A g d p p 6 i ; 5 ; 5 5 p 6 u d f f ",
"f f f d u d u p u d d h f A C A A A G ^ S S b S g A g f a i 7 ; - & & & = + = = = = 1 2 1 2 2 1 - > & # # + @ @ @ # & & 1 2 7 s s g k k ^ S ] ] ] ] [ [ o.P Y Y Y E I U Y R U U U R U R Q Q ! ! =.! =.=.=.=.;.;.;.6.;.i.i.;.i.i.i.i.i.p.p.p.p.8.8.8.8.8.8.8.u.u.u.u.y.y.y.y.r.y.r.r.r.w.w.q.q.9.9.9.m m m t t r e e r r r t t m t t t t t r t r r r e e e e r t m m M M 9.q.q.w.e.e.e.r.r.r.t.y.y.y.y.u.u.u.u.u.8.8.8.8.8.8.8.p.p.p.p.p.i.i.i.i.;.i.;.;.;.;.=.=.=.=.=.! ! ! ! ! Q Q Q U U U I R I Y R Y Y Y [ Y [ [ [ ] ] ] / ^ S k k s s i 2 - : & + + X     o o # # % : : , : : : : % o # X X   X o @ # & < - 7 s s g h h ^ S / ] ] ] [ [ o.P Y Y Y E Y U I R U U U R U R Q Q ! ! =.! =.! =.=.;.=.;.6.;.i.;.i.i.6.i.i.p.p.p.p.p.8.8.8.8.8.8.8.u.u.u.u.u.y.y.y.r.r.r.r.e.w.w.q.q.9.9.9.M m t t t r r t r r r r e r r t t m m t t t t r r e e r t t m m M M 9.q.q.q.e.e.e.r.r.r.y.t.y.y.y.u.u.u.u.u.8.8.8.8.8.8.8.p.p.p.p.p.i.i.i.;.6.;.5.;.-.-.#.#.#.#.T T Y Y I P I J I J K F Z Z F Z Z C Z G A A G S S S S S S b S b A k g A g d p i 6 7 ; 5 5 7 6 p d u f f ",
"f f f u d u u u p d f f f f A A A G ^ S S S S b S g A g d i 7 2 = = = & & & = & = - 1 - 2 2 1 1 < 1 & & # @ o + + # # = 1 2 2 i s g h k A / / / ] [ [ [ P o.Y Y Y Y Y Y R I R U U U R Q Q Q ! ! Q =.! =.=.;.=.;.;.;.;.i.;.i.i.i.i.i.p.p.p.p.p.8.8.8.8.8.8.8.u.u.u.u.u.y.y.r.y.r.r.r.w.e.w.w.q.9.9.M M m m t r r e e r r r t m t t t t t t t r r r r r e r r r t m m M 9.9.9.q.q.q.e.e.r.r.t.t.t.y.y.y.u.u.u.u.8.8.8.8.8.8.8.p.p.p.p.p.p.i.i.i.;.i.;.i.;.;.=.;.=.=.=.! =.! ! ! Q Q Q Q U U U R I R R Y Y Y Y Y o.P o.[ [ ] / / S ^ k g g s i 2 1 = & # @ X o     o o # % : : : , : : % % % o o X     o @ # & * 1 2 7 s g h A A / / ] ] ] [ [ P Y Y Y Y Y U Y E I U U U U R Q Q Q ! ! ! ! =.=.=.=.;.;.;.;.;.i.;.i.i.i.i.i.p.p.p.p.p.8.8.8.8.8.8.8.u.u.u.u.u.y.y.r.y.r.r.r.r.e.w.w.q.9.9.M M m m t t m m m m t t r r e r r t t t M t t r r r e r e r t m m M 9.9.9.q.q.q.e.e.r.r.t.r.t.y.y.y.u.u.u.u.8.8.8.8.8.8.8.p.p.p.p.p.p.i.i.6.6.6.6.;.-.;.-.#.#.#.#.#.Y E I Y I I I I J J F F F Z Z Z S Z A Z G A S S / S S S S S S b k A g f g p p i 5 7 5 ; 5 5 d 6 f d f ",
"f f u f u 6 d u d d d f A A C A S A G S S S S S b k g g g i i ; ; = & = + = + = = = - 1 2 1 2 1 1 * * & # # + @ @ @ & & > 1 2 a s s h k A A S ] / ] [ [ o.P o.Y Y Y E Y U U I R U R U R Q Q ! ! =.Q =.! =.=.;.=.;.;.;.;.i.;.i.i.6.i.i.p.p.p.p.p.8.8.8.8.8.8.8.u.u.u.u.y.y.y.r.y.r.r.r.w.w.q.q.q.9.9.M M t t t r r e e r r t t m t n t t t t t r r r r e e r r t t m M M 9.9.q.q.e.q.e.r.r.r.t.y.t.y.y.y.u.u.u.u.8.8.8.8.8.8.8.p.p.p.p.p.p.i.6.i.;.i.;.;.;.;.;.=.=.=.=.! =.! ! Q Q Q Q Q U U U R I R Y U Y Y Y [ Y [ [ ] ] ] / G b A k g g a 7 1 = & # + X X   o   o # # % : : : , : : % % o o o     o o # & > < 2 7 s g g h ^ S S / ] ] [ [ o.P Y o.Y Y Y E I E U U U R U R Q Q ! ! *.! ! =.=.=.=.;.;.;.;.;.i.;.i.i.6.i.i.p.p.p.p.p.8.8.8.8.8.8.8.u.u.u.u.y.y.y.r.y.r.r.e.w.w.q.q.q.9.9.M M m M M M M M 9.M M t t r e e r t t t m t t r r r e r e t t M m M 9.q.q.q.w.q.e.r.r.r.t.t.y.y.y.y.u.u.u.u.8.8.8.8.8.8.8.8.p.p.p.p.p.i.i.6.6.;.6.-.-.-.-.#.#.#.#.T o.Y I Y I I J I F F Z F Z Z Z Z S Z A Z G S G S / / S S S b S k k g k d g p 6 7 5 7 5 5 5 6 u d f f ",
"f d f d u d u d u d f h f C A S S G ^ / / S / b S A A g g d 7 7 - = = & = + & = & = - 2 1 2 2 1 1 > > & # @ @ o + # # & : 1 2 7 i g g h A ^ / / ] ] [ [ [ P Y Y Y E Y U Y U R I U U R R Q Q Q ! Q =.! =.=.=.=.;.;.;.;.i.;.i.i.i.i.i.p.p.p.p.p.8.8.8.8.8.8.8.u.u.u.u.u.y.y.y.y.r.r.r.r.w.e.w.q.9.q.9.M m m m t r e e r r r t t t m t n t t t t t r r r e r e r r m m M M 9.9.q.q.q.w.e.e.r.r.t.r.y.y.y.u.u.u.u.u.8.8.8.8.8.8.8.p.p.p.p.p.i.i.i.i.i.;.i.;.;.;.;.=.=.=.! =.! ! ! ! Q Q Q Q U U R I R Y R Y Y Y Y Y o.[ [ [ ] ] / ^ G A k g s p 7 2 1 & & # X   o     o # % % % : , , : : % # # o X X X   o @ # & = 2 2 s s g h A A / ] / ] [ [ [ o.P Y Y Y E I E I R I R U R Q Q Q Q ! ! ! =.=.=.=.;.=.;.;.;.i.;.i.i.i.i.i.i.p.p.p.p.p.8.8.8.8.8.8.u.u.u.u.u.y.y.y.y.r.r.r.r.e.e.w.q.q.9.9.M M M M 9.q.9.q.9.9.M M t t e r r r t t m t t r r r r e r r m t M M 9.9.9.q.q.e.e.r.r.r.t.t.t.y.y.u.u.u.u.u.8.8.8.8.8.8.8.p.p.p.p.p.p.i.6.6.6.6.-.;.-.;.#.-.#.#.E o.E Y Y I I J I F F F F Z Z Z Z Z Z S G S S G / / / / / S S S S k S k g j p p p p 5 ; 5 5 6 6 p u d f ",
"f f u u d u 6 u d d f f A A C S S S ] / / / S S b A g A f a d 7 2 - = & & + - & = = = - 1 2 1 2 1 < > & & # + o @ @ # & = > 2 2 s s g h b A / / ] ] ] [ [ o.P Y Y Y Y Y U Y U R U U R U R Q Q Q *.! =.! =.=.=.;.;.;.;.;.i.;.i.i.i.6.i.p.p.p.p.p.8.8.8.8.8.8.8.u.u.u.u.u.y.y.y.r.y.r.r.e.w.w.q.q.9.9.9.M m t t t r e e r r r t m t m t t n t t t t r r e e e r r t m m M M 9.q.9.e.w.e.e.r.r.r.t.t.y.y.y.u.u.u.u.u.8.8.8.8.8.8.8.p.p.p.p.p.i.i.i.i.;.;.i.;.;.=.;.=.=.=.! =.! ! ! Q Q Q Q Q U U R I I E Y E Y Y Y [ Y [ [ ] ] ] / ^ A k k g s i 2 1 = $ # + X     o o o # % : : : , : : : % # o o     X X @ # & > < 7 7 g g h A A S / ] ] ] [ [ [ o.Y Y Y Y Y E U I R I R R U R Q Q ! ! ! ! =.=.=.=.;.;.;.6.;.i.;.i.i.i.i.i.i.p.p.p.p.8.8.8.8.8.8.8.u.u.u.u.u.y.y.y.r.y.r.r.e.w.w.q.q.9.9.9.9.q.q.q.q.q.q.q.q.9.M M t t t e r r t t M t r r r e e r r t m m M M 9.q.q.q.q.e.e.r.r.r.t.y.y.y.y.u.u.u.u.u.8.8.8.8.8.8.8.p.p.p.p.p.p.i.6.6.;.6.-.-.-.-.#.#.#.#.T o.E I Y I I J I F F Z D D Z Z Z G C G G S G G / / / / / / S ^ A k k j g f p p 7 5 5 5 5 5 p u u d f ",
"f u f d u u u u f d f h C C S S S / / / / / S S S A A k g g i i - - = = & = + & & = = 1 1 2 2 1 1 1 * > # # @ + @ + # & & = 1 2 7 s g h k A / / / ] ] [ [ P o.Y Y Y Y U Y U R I U U U R Q Q Q ! ! ! ! =.=.=.=.=.=.;.;.i.;.i.;.i.i.i.i.p.p.p.p.p.8.8.8.8.8.8.8.u.u.u.u.u.y.y.r.y.r.r.r.r.w.w.w.q.9.9.M M m m t r r e e r r r t t m t m n t n t t t t r r e r r r t t m M 9.9.9.q.q.q.e.e.r.r.t.t.t.y.y.y.u.u.u.u.8.8.8.8.8.8.8.p.p.p.p.p.p.i.i.i.;.i.i.;.;.;.;.;.=.=.=.=.! ! ! ! Q Q Q Q U U U R I R I E Y Y Y P Y o.[ [ [ ] / / / A A g g s i 2 1 = & # @ X o       o # % % : , : : : : % # # o X X   o @ # & * 1 2 7 s g h h A ^ / / ] ] [ [ P Y Y Y Y Y E U Y R U U U U R Q Q Q ! ! ! =.! =.=.;.=.;.;.;.;.;.i.;.i.i.i.i.p.p.p.p.p.8.8.8.8.8.8.8.u.u.u.u.u.y.y.r.y.r.r.r.r.w.w.q.q.q.9.9.q.q.q.w.q.e.q.q.q.9.9.9.t t e r r r t t t t t r r e r e r t m m M 9.9.9.9.q.e.w.e.r.r.t.r.t.y.y.y.u.u.u.u.8.8.8.8.8.8.8.p.p.p.p.p.p.i.i.6.6.6.;.5.;.-.#.-.#.#.#.o.E Y Y Y P I I F F D D D Z Z J Z Z G Z S G G / ] / / / / / S S S A k k g g d p u 7 5 7 5 5 6 6 u f d ",
"f d u u u 6 u d d f f f A A S S L S / / / / / S S S k k g f i i 5 - = & = + & & = & = - 1 1 2 2 1 1 > * & # # @ X @ # # & > - 1 7 s g g h A S / ] / ] [ [ o.P o.Y Y Y Y U Y U U R U R R U Q Q Q *.! =.! =.=.=.;.;.;.;.;.;.i.i.;.i.i.i.i.p.p.p.p.p.8.8.8.8.8.8.8.u.u.u.u.y.y.y.r.y.r.r.r.r.w.q.q.q.9.9.M M m m t r r e e r r t t m m t m t t n t t t r r e e r e r m m m M 9.q.q.q.q.e.e.e.r.r.t.t.y.y.y.y.u.u.u.u.8.8.8.8.8.8.8.8.p.p.p.p.p.i.i.i.;.i.i.;.;.;.=.;.=.=.! =.! =.! ! Q Q Q Q U U I R R I I Y E Y Y P [ o.[ ] ] ] / / ^ A k g s s 7 1 1 & & + X X   o o o # # % : : , , : : % # o o o   X X o @ & & < 2 7 7 g h h ^ S S ] ] ] ] [ o.P Y Y Y Y Y Y U I R U U U U R Q Q Q ! *.! =.! =.=.;.=.;.;.;.i.i.i.;.i.i.i.i.p.p.p.p.p.8.8.8.8.8.8.8.u.u.u.u.u.y.y.y.r.y.r.r.r.w.w.q.9.9.q.q.w.w.w.e.q.e.q.q.9.q.M M t t e r r r t t t t r r r e r e t t m M M 9.q.q.q.q.e.e.e.r.r.t.t.y.y.y.y.u.u.u.u.u.8.8.8.8.8.8.8.p.p.p.p.p.i.i.6.6.6.-.-.-.-.#.-.#.T #.Y Y E I I I J I F F D Z D Z Z Z Z G G G G G G / ] / / / / / S ^ S k k f f s d p u 5 5 5 5 6 p u d f ",
"d f u u u u u u d f f C A Z S S S ] / / ] / / / / b S k f g i i 7 ; - = + = + = + = = 1 1 2 1 2 1 1 > > : # @ o + @ @ # # = > 2 7 s s g h A ^ S / ] ] [ [ [ P Y Y Y E Y Y U Y R I U U U R Q Q Q ! ! ! =.! =.=.=.=.;.;.i.;.i.;.i.i.i.i.p.p.p.p.p.p.8.8.8.8.8.8.8.u.u.u.u.y.y.y.y.r.r.r.r.w.e.w.q.q.9.9.M M m t t r e e r r r t t t m m n n m t n t t r r e e e r t t m m M 9.9.9.q.w.q.e.r.r.r.r.t.t.y.y.u.u.u.u.u.8.8.8.8.8.8.8.p.p.p.p.p.i.i.6.i.i.;.;.;.;.;.;.=.=.=.=.=.! ! ! ! Q Q Q Q U U R R I R Y E Y Y Y o.Y P [ [ ] ] ] / S k k k g a i 2 = = # # @   o     X # # % : : , : : : % % # o X X     o @ # & = 1 7 p s g h A A ^ / / ] [ [ [ o.P o.Y Y Y E I E I R U U R U Q Q Q ! ! ! ! =.=.=.=.;.=.;.i.;.;.;.i.i.6.i.i.p.p.p.p.p.8.8.8.8.8.8.8.u.u.u.u.y.y.y.r.y.r.r.r.w.r.q.q.q.q.q.e.q.e.e.q.w.w.q.q.q.9.M M m t r e r r t t t t r r r e e e t t m m M 9.9.9.q.q.e.e.r.r.r.t.y.r.y.y.u.u.u.u.u.8.8.8.8.8.8.8.p.p.p.p.p.p.i.6.6.6.-.6.-.-.-.-.#.#.#.#.#.E Y Y P I I K F D D D D Z Z Z G Z G G L L / ] / ] ] / / / S / A A j k k d d p 5 p 6 5 5 6 6 u d f ",
"f u d u u u u u u f f A C S Z S / / ] ] / / ] / S S A k k f g i 5 - - = = + = + = & - = 1 1 2 2 1 1 < > & : # + o @ + @ & & 1 1 2 7 s g h A A ^ S ] ] ] [ [ o.P o.Y Y E Y Y U U U R U R U R Q Q Q ! ! ! =.=.=.=.;.=.;.;.6.;.i.i.i.i.6.i.i.p.p.p.p.8.8.8.8.8.8.8.8.u.u.u.u.y.y.y.y.r.r.r.r.w.w.q.q.q.9.M M m m t t r e e e r r t t m m m n n m t n t t r r e e r r t t M M M 9.q.q.q.e.w.e.r.r.t.r.y.t.y.y.u.u.u.u.u.8.8.8.8.8.8.8.p.p.p.p.p.i.i.6.i.i.;.i.;.;.;.=.;.=.=.! =.! ! ! ! Q Q Q Q U U U R I R Y I Y Y Y o.P [ [ ] ] / / G ^ k g g g i 2 1 = & # + X       o o % % % : : , : : : % # # o X     o @ # & * 1 2 7 s g h A A / / ] ] ] [ [ [ Y Y Y Y E Y Y U E I R U U R R Q Q ! ! *.=.! =.=.=.;.;.;.;.6.i.;.i.i.i.i.i.i.p.p.p.p.p.8.8.8.8.8.8.8.u.u.u.u.y.y.y.r.r.r.r.r.w.w.w.q.q.e.q.e.q.w.w.q.q.q.q.9.M M M t t r r e r r t t t t r r r e r r t t M M M 9.q.q.q.q.e.e.e.r.r.t.y.y.y.y.y.u.u.u.u.8.8.8.8.8.8.8.p.p.p.p.p.p.i.6.5.6.-.;.-.-.$.#.-.#.#.T o.Y I I P K K F F D D Z Z Z J Z L Z G G / L ] ] / / ] / / / S A A A j g d d p u 5 5 5 5 6 6 u u f ",
"d d u u 6 u u u f f C C C S S G G ] ] / ] ] / / / S S k k g d p i ; - - & = + = + = & = - 2 1 1 2 1 < > > # # @ @ X @ @ & & & 1 2 7 s g h h A / / / ] ] [ [ [ Y Y Y Y Y Y E U I R I U R R Q Q Q ! ! ! =.! =.=.;.=.;.;.;.;.i.;.;.i.i.i.i.p.p.p.p.p.8.8.8.8.8.8.8.u.u.u.u.u.y.y.y.r.t.r.r.r.w.w.w.q.9.9.9.M m m t t r e e r r r t m t m n n m n m n t t r e e r e r t m m M M 9.9.q.q.q.e.e.r.r.r.t.t.y.y.y.u.u.u.u.8.8.8.8.8.8.8.p.p.p.p.p.p.i.i.i.i.;.i.;.;.;.;.;.=.=.=.=.! ! ! ! Q Q Q Q Q U U R I R Y U Y E Y Y P o.[ [ [ ] ] / ^ S A k g s i 2 2 > & # @ @ o   o   # o % % : : , : : : % % o o X     o o # & * = 2 7 s g h h A S / / ] ] [ [ P o.Y Y Y Y Y E U I U R U R R Q Q Q ! ! ! ! =.! =.;.=.;.;.;.;.;.i.i.;.i.i.i.p.p.p.p.p.8.8.8.8.8.8.8.u.u.u.u.u.y.y.y.r.y.r.r.r.w.e.q.q.q.q.w.q.q.q.0.q.9.q.9.9.M M m m t r e e r r t m t r r r e r e r t m t M M 9.9.9.q.e.q.e.r.r.t.r.y.t.y.y.u.u.u.u.8.8.8.8.8.8.8.8.p.p.p.p.p.p.6.6.6.6.;.5.-.-.-.-.#.#.#.o.E E Y Y K I K F D D D D F Z Z G Z G G L L L ] ] / ] / ] / / S S A A k f k d u p 6 5 6 5 6 6 6 d d ",
"f d u u u u u f u C f A Z S S S L / ] ] / ] / ] / S ^ S k g f s i 7 - - & & = + = + - = > 1 2 2 1 1 1 > : & # # o @ @ + @ & = > 2 7 7 g g h ^ A / / ] ] ] [ [ o.P Y Y Y E I Y U U R U U R U R Q Q ! *.! =.=.! =.=.;.;.;.6.;.i.i.;.i.i.i.i.p.p.p.p.p.8.8.8.8.8.8.8.u.u.u.u.y.y.y.y.r.r.r.r.r.w.q.q.q.9.9.M M m m t r r e e r r r t m m m n n m n n t t t r e e e e r t m M M 9.9.9.q.e.q.e.e.r.r.t.t.y.y.y.y.u.u.u.u.8.8.8.8.8.8.8.8.p.p.p.p.p.i.i.i.i.;.;.i.;.;.;.=.=.=.! =.! ! ! ! Q Q Q Q U U I R I R Y Y Y Y Y Y P o.P ] ] ] / / ^ A k g g s 7 1 - & & + X X X     o # # % : : , , : : : # o # X X   X o @ # * < 2 7 7 g g h ^ A / / ] ] [ [ [ P o.Y Y Y E I Y U U I R U R U Q Q Q ! *.! =.=.! =.;.=.;.;.6.;.;.i.i.i.6.i.i.p.p.p.p.p.8.8.8.8.8.8.8.u.u.u.u.u.y.y.y.r.r.r.r.r.w.w.q.q.q.q.q.q.9.9.9.M M M M M M m t t r e e e r r t t t t r r e e e t t M M M M q.q.q.q.e.e.e.r.r.t.r.y.y.y.u.u.u.u.u.u.8.8.8.8.8.8.8.p.p.p.p.p.p.6.6.5.;.-.-.-.-.-.#.#.#.#.Y Y Y Y I K K F F D Z F Z F Z J G G J L L ] L ] ] ] ] / ] / / S S A A j d k p p 6 6 5 5 6 6 d u f ",
"u d u u u u u u f f j Z A D S L / ] ] ] ] / ] / / S S A k j g p i 6 - = = = + & + = & = - 1 1 1 2 1 1 > > : # @ @ @ o @ # & & > 2 2 p s g h h A / / ] ] [ [ [ [ Y Y Y Y Y Y E U U I U U U R Q Q Q ! ! ! =.! =.=.;.=.;.;.;.;.i.;.i.i.i.i.i.p.p.p.p.p.8.8.8.8.8.8.u.u.u.u.u.u.y.y.r.y.r.r.r.w.e.w.q.q.q.9.M M m t t r r e r r r t t t m n n m n n m t t r r e e r e t t m m M M 9.q.q.q.w.e.r.r.r.r.t.t.y.y.u.u.u.u.u.8.8.8.8.8.8.8.p.p.p.p.p.p.i.i.i.;.i.i.;.;.;.=.;.=.=.=.=.! =.! ! Q Q Q Q U U R R R I Y E Y Y Y Y o.[ [ [ ] ] ] / S A k g g p i 2 1 = & # @ X     o   # # % : : : : , : % % % o o X     o @ # * * 1 2 s s g h h A / / / ] ] [ P o.P Y Y Y Y Y E R I R U U U R Q Q Q ! ! ! ! =.=.=.=.;.;.;.;.;.i.;.i.i.i.i.i.p.p.p.p.p.8.8.8.8.8.8.8.u.u.u.u.y.y.y.r.y.r.r.r.w.e.w.q.q.q.9.q.9.M M M M m M t M t t t r e e e e r t r m t r r r e r e t t t m M 9.9.9.q.w.q.e.r.r.r.r.t.y.y.y.y.u.u.u.u.8.8.8.8.8.8.8.p.p.8.p.p.p.6.6.5.6.5.;.5.-.-.#.-.#.#.#.o.E Y I Y K K F F D F Z F Z J Z L J L L L L ] ] ] ] ] ] / / / G A A A j k d d u p 6 5 6 5 6 6 u d ",
"d u u 6 u u f u B f C C S S S L L ] ] ] ] ] ] / ] / S A A k f d i i ; - = & = + & & & = = > 2 1 1 3 1 1 > : : @ @ o @ o # # & : 1 2 7 s g g A A S / / ] ] [ [ P o.Y Y Y Y E Y I E U U U R U R Q Q ! ! ! ! =.=.=.=.;.=.;.;.6.;.i.;.i.i.6.i.i.p.p.p.p.p.8.8.8.8.8.8.u.u.u.u.u.y.y.y.r.y.r.r.r.w.w.q.q.9.9.9.M m m t t r e e e r r t t m m m n M n n n t t r r e e r r t t m M 9.9.9.q.q.q.e.e.e.r.t.r.y.t.y.y.y.u.u.u.u.8.8.8.8.8.8.8.p.p.p.p.p.p.i.i.6.;.i.;.;.;.;.=.;.=.=.=.! ! ! ! ! Q Q Q Q U U I R R I Y E Y Y Y Y P [ [ [ ] / / / A A k g s s 7 1 = $ # + o X     o o # % % : , : : : : % % o o o   X o o # # * 1 2 7 s g g ^ A S / ] / ] [ [ P o.Y Y Y E Y Y U R I R U R U R Q Q Q ! =.! ! =.=.=.;.=.;.;.6.;.i.;.i.i.6.i.i.p.p.p.p.p.8.8.8.8.8.8.u.u.u.u.u.y.y.y.y.r.r.r.r.e.w.q.q.q.9.M M M m t t t t t t t r r r e e e e e r t t t t r r r e r r t m m M M 9.q.9.q.e.w.e.e.r.t.r.t.y.y.y.u.u.u.u.u.8.8.8.8.8.8.8.p.p.p.p.p.p.6.6.5.;.5.-.-.-.-.#.#.#.#.#.Y Y Y K P K J F D D Z Z F Z J Z L L L P L ] ] ] ] ] ] ] / / / G A A C k d d d u 6 6 5 6 6 6 d d ",
"d u u u u u u u f C C A Z S G L ] ] ] G ] ] ] ] / S G S k k g g p 6 ; - = = + = + & = & = 1 1 1 2 2 1 > > > # # @ @ o @ @ # & = > 2 7 s g h h A ^ / / ] ] [ P o.[ Y o.Y E Y I E I U U U R R Q Q Q Q ! ! =.! =.=.=.=.;.;.;.;.i.;.i.i.i.i.i.p.p.p.p.p.8.8.8.8.8.8.8.8.u.u.u.u.y.y.y.y.r.r.r.r.e.w.w.q.q.9.9.M m m m r r e e r r r t t m m n M n m n m t t r e e r e r t m m M M 9.9.q.q.e.q.e.r.r.r.t.t.y.y.y.u.u.u.u.u.8.8.8.8.8.8.8.p.p.p.p.p.i.i.6.i.i.;.i.;.;.;.;.=.=.=.! =.! ! ! Q Q Q Q U U U R R I R E Y Y Y Y P o.[ o.] ] ] / G ^ k k g s p 2 1 > = # @ X X     o o o % % : : : , : : % % o o X X     @ @ & > = 2 2 s g h h A A / / ] ] [ [ o.P Y Y Y Y Y U Y I R U U U R Q Q Q ! ! ! =.! =.=.=.=.;.;.;.;.i.;.i.i.i.i.i.p.p.p.p.p.8.8.8.8.8.8.8.8.u.u.u.u.y.y.y.r.y.r.r.r.w.w.w.q.9.9.9.M M m t t r r e e r e e e e e e e r r t t t t r r e r e r t t m M M 9.9.q.q.q.w.e.r.r.r.t.t.y.y.y.u.u.u.u.u.8.8.8.8.8.8.8.p.p.p.p.p.p.6.6.5.6.5.;.-.-.-.#.-.#.#.#.o.Y Y Y K K F F F D F F Z J J L L J L L ] ] ] ] ] ] ] ] ] / G ^ S C A j j d d d 6 6 6 6 6 6 u d ",
"d d u u u u u B B f Z Z S D G G ] L ] o.] ] ] ] / ] S ^ S k j f p i 5 - - = & + = + & = = = 1 2 1 1 1 1 > : : @ @ @ o o @ # # > = 1 7 p s g h ^ A / / ] ] ] [ [ Y [ Y Y Y E Y U E I R U U R U R Q Q ! ! ! =.! =.=.;.;.=.;.;.;.i.;.i.i.i.i.i.i.p.p.p.p.8.8.8.8.8.8.8.u.u.u.u.y.y.y.y.r.y.r.r.r.w.q.q.q.9.9.9.M m t m r r e e r r r t m t m m m n n n t t t r e e e e r t m m M M 9.q.q.q.e.e.e.r.r.r.t.t.y.y.y.u.u.u.u.u.8.8.8.8.8.8.8.p.p.p.p.p.i.i.i.i.;.;.i.;.;.=.;.=.=.=.! =.! ! ! ! Q Q Q Q U U I R I I E Y Y Y Y [ Y [ [ ] ] / / / A k g g s i 2 - : & # + X     o o # # % % : , : , : % % # o o X     o @ # & < 2 7 7 s g h A ^ S / ] ] [ [ [ o.P Y Y Y E Y E U I U U U R U Q Q Q ! ! ! =.=.! =.=.;.;.;.;.;.i.;.i.i.i.i.i.i.p.p.p.p.8.8.8.8.8.8.8.u.u.u.u.u.y.y.y.r.r.r.r.r.w.w.q.q.9.9.9.m m m t t r e e e e e e e e e e e r r r t t t r r e e r r t m M M M 9.q.q.q.e.w.r.r.r.r.t.t.y.y.y.u.u.u.u.u.8.8.8.8.8.8.8.p.p.p.p.p.6.5.6.5.-.5.;.-.-.-.#.#.#.o.E Y Y K K K J F Z F Z F F Z J J L P L P L P ] o.] ] ] ] / L / G A A C k j d d u p 6 6 6 6 6 d u ",
"d u 6 u u u f B f C C A D S G L L ] P ] ] ] ] ] ] / S G A C k g p p 7 ; - = + = + = & & = > 1 1 1 4 1 1 3 : : % # o o o @ @ & & * 1 2 7 s g h h A / / / ] ] [ o.[ Y Y Y Y Y Y E I U I U U U R Q Q Q ! ! =.! =.=.=.=.=.;.;.;.i.;.i.;.i.i.i.i.p.p.p.p.p.8.8.8.8.8.8.8.u.u.u.u.u.y.y.r.y.r.r.r.w.e.e.q.q.q.9.M M m m t r r e e r r r t t m n n m m m n n t r r r e r r r t m m M 9.9.9.q.q.w.w.e.r.r.t.t.t.y.y.y.u.u.u.u.8.8.8.8.8.8.8.p.p.p.p.p.p.i.i.i.;.i.i.;.;.;.;.;.=.=.=.=.! ! ! ! Q Q Q Q U U R R R I E Y E Y Y o.Y [ [ [ ] ] ] / A ^ k k g s i 2 1 = & # @ X o     o o # % : : : , : : % % # # o     o . @ # & * 1 2 7 s g h A A / / / ] ] [ [ P o.Y Y Y Y Y U Y R U R U U R Q Q Q Q ! ! =.! =.=.=.;.=.;.;.6.;.i.;.i.i.i.i.p.p.p.p.p.8.8.8.8.8.8.8.u.u.u.u.u.y.y.r.y.r.r.r.e.e.w.q.q.q.9.M M m m t t r e e e e e e e e e e e r r t m t r r r e r e t t m m m 9.9.9.q.w.q.e.e.r.r.t.t.t.y.y.y.u.u.u.u.8.8.8.8.8.8.8.p.p.8.p.p.p.p.6.5.;.6.5.-.-.-.#.-.#.o.E o.Y Y I P K F F F Z F F Z J J L J L L ] P ] P ] ] o.] ] ] ] / G S S A C k f d d u 6 6 6 6 u 6 d ",
"d 6 d 6 u f u f B C Z Z S L L L L P ] ] ] o.] ] ] / ] S S A j j p p 6 - - = = + & + = & = = > 1 2 1 3 > < > : % # @ o o o @ # & = > 2 7 p g g A A S S ] ] ] [ [ [ o.P Y Y E Y I E U U R U R U R Q Q Q ! ! ! =.! =.=.;.=.;.;.;.i.;.i.i.i.6.i.i.p.p.p.p.p.8.8.8.8.8.8.u.u.u.u.u.y.y.y.r.y.r.r.r.w.w.q.q.9.9.9.M M t t t r r e e r r t t m m m n n n m t n t r r e e r r t t m M M 9.9.q.q.w.e.e.e.r.r.t.t.y.y.y.y.u.u.u.u.8.8.8.8.8.8.8.p.p.p.p.p.p.i.6.i.;.i.;.;.;.;.=.=.=.=.=.! =.! ! Q Q Q Q Q U U I R R I E Y Y Y Y [ Y [ [ [ ] / / / A k k g g i 2 2 = & # + o X     o o # % % : : : : , : % # o o o     X o # & * = 2 7 s g g h A S / ] ] ] ] [ o.P Y o.Y Y E Y U I R I U R U R Q Q ! ! *.! =.=.=.=.=.;.;.;.;.i.;.i.i.i.6.i.i.p.p.p.p.p.8.8.8.8.8.8.8.u.u.u.u.y.y.y.r.y.r.r.r.w.e.q.q.q.9.9.M M m t t r r e e e e e e e e e e r r t t t t r r r e e e t t m M M 9.9.q.q.w.w.e.e.r.r.t.t.t.y.y.y.u.u.u.u.8.8.8.8.8.8.8.p.p.p.p.p.i.6.5.6.5.-.5.-.-.-.$.#.#.#.E Y Y P K K J F F F F Z F J J J L K P L ] P ] P ] ] ] ] ] L / / G A S C j f d d u 6 6 6 6 6 u d ",
"u d u u u u u B C C Z S Z G L L P ] P ] o.] ] ] ] ] / G A A k g f p i 5 - - & = + & & & & = 1 1 1 3 3 3 < > : % # o # o o @ @ & & 1 1 7 s s h h A ^ / / ] ] ] [ [ Y o.Y Y Y Y E U Y U I U U R R Q Q Q ! ! =.! =.=.=.=.;.;.;.6.;.i.;.i.i.i.i.p.p.p.p.p.8.8.8.8.8.8.8.8.u.u.u.u.y.y.y.y.r.r.r.r.e.e.w.q.q.9.9.M m m m t r e e r r r t t m m n n M m n m t t r r e r e r r m m m M 9.q.9.q.q.e.w.r.r.r.t.t.y.y.y.u.u.u.u.u.8.8.8.8.8.8.8.p.p.p.p.p.i.i.i.i.i.;.i.;.;.;.;.;.=.=.! =.! ! ! ! Q Q Q U U U R R I R Y Y Y Y Y Y o.P [ ] ] ] / / S ^ k g s i i 2 > = # # X o     o o o # % : : , , : : % # # o X     o o @ # & < 2 2 p g g h ^ S S / / ] [ [ [ Y o.Y Y E Y U Y U U R U U R R Q Q Q ! ! ! =.! =.=.=.;.;.;.6.;.i.;.i.i.i.i.p.p.p.p.p.8.8.8.8.8.8.8.8.u.u.u.u.y.y.y.y.r.r.r.r.e.w.w.q.9.q.9.M M m t t r e e e e e e e e e e r r t t t t t r r e e r e t t m m M 9.9.q.q.q.e.e.r.r.t.r.t.y.y.y.u.u.u.u.u.8.8.8.8.8.8.p.p.8.p.p.p.5.8.6.5.;.5.-.-.-.-.#.-.#.#.o.Y Y Y K K K F F Z F F J J J J P L L P P ] P ] ] P ] ] ] ] / G S S C A j f f d d 6 u 6 6 p 6 u ",
"p u u u u u B B f C Z Z L G L P L ] P P ] P ] ] ] ] / / S A A j d p p 5 - - = + = + & & = = > 1 1 2 1 1 1 > > % # @ o o o # @ # & = 1 2 p s g h A A S / / ] [ [ [ P Y Y Y Y E Y I U E U U U R U R Q Q Q *.! ! =.=.=.=.;.;.;.;.;.i.i.;.i.i.6.i.p.p.p.p.p.8.8.8.8.8.8.8.u.u.u.u.u.y.y.r.y.r.r.r.w.w.w.q.q.9.9.9.M m t t t r e e r r r t m t m m n m n n t t t r e e e r r t m M M M 9.q.q.q.w.e.e.r.r.r.t.t.y.y.y.u.u.u.u.u.8.8.8.8.8.8.8.p.p.p.p.p.i.i.6.;.i.;.i.=.;.;.=.=.=.=.=.! ! ! ! Q Q Q Q Q U U I R I R Y E Y Y Y P o.P [ ] ] ] / S k k k g s i 2 1 & & # + X X     o # # % % : : , : : : % # o o X   X o @ # & * 1 7 7 s g h h ^ S / ] ] ] [ [ [ Y P Y Y Y Y U Y R I R U U R R Q Q ! ! =.! =.=.=.=.;.=.;.;.;.i.i.;.i.i.6.i.p.p.p.p.p.8.8.8.8.8.8.8.u.u.u.u.u.y.y.y.r.y.r.r.r.w.w.q.q.9.9.M M m m t t r e e e e e e e e e r r r t t m t t r r e e r r t m m M M 9.9.q.q.q.e.e.r.r.t.t.t.y.y.y.u.u.u.u.u.8.8.8.8.8.8.p.p.8.p.p.p.6.5.5.6.;.5.-.-.-.-.#.#.o.#.Y Y P I K J J F F Z F J J J J J P P L P P P o.] ] o.] ] ] L / G S S C A f f f u u 6 6 6 6 d p ",
"d 6 u u f u B B C Z S Z L J L L L P ] ] o.] o.] ] ] G / G A C k j p i 7 ; - & = & & + & & = > 1 1 1 4 3 > 3 : : % # o o o o @ # & * 1 2 7 s g g k A ^ / ] ] ] [ [ o.[ Y Y Y Y Y E E I U U U U R Q Q Q ! ! ! =.! =.=.=.=.=.;.;.i.;.;.i.i.i.i.i.p.p.p.p.p.8.8.8.8.8.8.8.u.u.u.u.u.y.y.y.r.y.r.r.r.r.w.q.q.q.9.M M m m t r r e e r r r t t m n m m m n m n t t r e e r r r t t m m 9.9.9.q.q.w.e.e.r.r.t.r.t.y.y.y.u.u.u.u.8.8.8.8.8.8.8.p.p.p.p.p.p.i.i.i.i.i.;.;.i.;.=.;.;.=.=.! =.! ! ! Q Q Q Q U U U R I R E I Y Y Y Y o.P o.] [ ] / / ^ S A g g s i 2 1 = & # @ o X   o   o # % % : , : : : : % % o o X       @ # & * 1 2 7 s g h A A ^ / / ] ] [ [ P o.Y Y Y Y U Y R I U U U R R Q Q Q ! ! ! ! ! =.=.=.=.;.;.;.i.;.;.i.6.i.i.i.p.p.p.p.p.8.8.8.8.8.8.8.u.u.u.u.u.y.y.r.y.r.r.r.e.r.w.q.q.q.9.9.M m m t r r e e e e e e e e r r r t t t m t r r r e r e t r m m M 9.9.q.9.q.e.w.e.r.r.r.t.t.y.y.y.u.u.u.u.8.8.8.8.8.8.8.p.8.p.p.p.p.5.6.6.5.5.-.5.-.-.#.-.#.#.#.Y Y Y P K J J F F F F J J P J P K L P P P ] ] o.] P ] ] ] ] / G S S A C j f d d u 6 u p 6 6 d ",
"d d 6 u u u B B C C Z L Z L P L P P o.] P ] P ] ] ] ] / G A A j g f p 6 - - = & & + = + = & = 1 1 1 1 3 < > > : % o o o o o @ # & > > 2 7 s s h b k / S / ] ] [ [ [ Y o.Y Y Y E Y I U I R U R R U Q Q Q ! *.! =.=.=.=.;.;.;.;.;.i.;.i.;.i.i.i.i.p.p.p.p.p.8.8.8.8.8.8.8.u.u.u.u.y.y.y.r.r.r.r.r.w.w.w.q.q.9.9.M M m m t r r e e r r r t m m n m m n n m t t r r e e r e r m m M M 9.9.q.q.q.e.e.e.r.r.t.t.y.y.y.y.u.u.u.u.8.8.8.8.8.8.8.8.p.p.p.p.p.i.i.i.;.i.;.;.;.;.=.=.=.=.=.! =.! ! ! Q Q Q Q U U U R I I E Y Y Y Y Y [ [ o.] ] ] / / ^ A k g s s 7 1 1 = # + X X X   o o # # % : : , , : : % # # o o X   o o @ & * < 2 2 p g g h A S / / ] ] [ [ o.P o.Y Y E Y E Y U R I R U R U Q Q Q *.! =.! =.=.=.=.;.;.;.;.i.;.i.i.6.i.i.i.p.p.p.p.p.8.8.8.8.8.8.8.u.u.u.u.u.y.y.r.y.r.r.r.w.w.w.q.9.9.9.M m m m t r r e e e e e e r r r r t t m t t t r r r e r e t t m m M 9.9.q.q.q.e.e.e.r.t.r.t.y.y.y.y.u.u.u.u.8.8.8.8.8.8.8.p.8.p.8.p.6.5.5.6.5.;.-.-.-.-.#.-.o.#.Y Y P K K P J F F F F J J J K L P P P P P o.] P o.] ] o.] ] G / G A S C C j f d u u 6 6 d 6 u ",
"d 6 u u u B B C C Z Z Z L L L P L P ] o.] P ] ] o.] / / G S A k f d p i 6 - = = & = + & & & > > 1 1 3 1 3 > > : % % # o o o @ @ # & = 2 2 s g g h A A / / ] ] ] [ P o.[ Y Y Y Y I E E R I U U U R Q Q Q ! ! =.! ! =.=.=.=.;.;.;.;.i.;.i.i.i.i.p.p.p.p.p.p.8.8.8.8.8.8.u.u.u.u.u.y.y.y.y.y.r.r.r.e.e.w.q.q.9.9.M M m t t r e e e r r t t t m m n m m m t n t r r e r e r t t m m M M 9.q.q.w.q.e.r.r.r.t.t.t.y.y.u.u.u.u.u.8.8.8.8.8.8.8.p.p.p.p.p.i.i.6.i.i.;.i.;.;.;.;.;.=.=.! =.! =.! ! Q Q Q Q U U R I R R Y E Y Y Y [ Y P [ [ ] ] ] / S k k k g i i 2 - & & # @ X     o o o # % : : , : : : % % # o o X   . o # # & = 1 7 s s g h ^ A / / ] ] ] [ [ P Y Y Y Y Y Y U R I R U U U R Q Q Q ! ! Q =.! =.=.;.=.;.;.;.;.i.;.i.i.i.i.p.p.p.p.p.p.8.8.8.8.8.8.8.u.u.u.u.y.y.y.y.r.r.r.r.e.e.w.q.q.9.9.9.M M t t r e e e r e e r r r r t t t m t m t r r e e r e t t m M M M 9.q.q.q.w.e.e.r.r.r.t.t.y.y.u.u.u.u.u.8.8.8.8.8.8.p.8.p.p.p.6.8.5.6.5.;.5.5.-.-.-.-.#.#.o.o.Y I P P K J J J F J J K K L I L I P P P P o.P P ] o.] ] L ] G G G C S C f f u d u 6 u 6 6 p ",
"6 d u u f u B C C Z Z L D L L P P P P P o.] o.] ] P ] G S S A C k f p p 2 ; - & & + & + & = = > 1 1 1 3 1 3 > : : @ o o o o o @ # & > - 2 7 s g h A ^ A / ] ] ] [ [ P Y Y Y Y E Y I U U U R U R U R Q Q Q ! ! =.=.=.=.=.;.;.;.;.6.;.i.i.i.i.6.i.i.p.p.p.p.8.8.8.8.8.8.8.u.u.u.u.u.y.y.r.y.r.r.r.r.w.w.q.q.q.9.M M m m t t r e e r r r t t m m m n m n m t t t r r e e r r t t M m 9.9.9.q.q.e.q.e.r.r.r.t.t.y.y.y.u.u.u.u.u.8.8.8.8.8.8.8.p.p.p.p.p.i.i.6.i.i.;.;.i.;.;.=.;.=.=.! ! ! ! ! ! Q Q Q Q U U R I R I Y E Y Y Y P o.P [ ] ] / / / ^ k g g g i 2 1 = & # + X X     o # # % % : : , : : : % # o o X   X o o # & * 1 2 7 s g h h ^ S / ] / [ [ [ o.Y P Y Y E Y Y R U I R U R U R Q Q Q ! =.! =.=.=.=.;.;.;.;.6.;.i.;.i.i.6.i.i.p.p.p.p.p.8.8.8.8.8.8.u.u.u.u.u.y.y.y.y.r.r.r.e.w.w.q.q.q.9.M M m m t t r e e r r r r r r t t m t m m t t t r r e e r r t t m M 9.9.9.q.w.w.e.e.r.r.t.t.t.y.y.y.y.u.u.u.u.8.8.8.8.8.8.p.8.p.8.p.6.8.5.5.5.;.-.5.-.$.#.$.o.#.Y o.P K K K J K J J J K J K K P I ] P P P P ] o.] P P ] ] ] ] L G A G C A j f B u d u 6 u 6 d ",
"p d u f u B B C Z Z L Z J P L P P P ] o.P o.P ] o.] ] / G G S A j f d i 6 ; - = & = + & & & & > 1 1 1 3 3 > > > % % % o o o o @ # & & 1 2 7 s s h h A S / / ] ] [ [ o.[ Y Y Y Y Y E Y U R I U R R Q Q Q ! ! ! =.! ! =.=.;.=.;.;.;.i.;.;.i.i.i.i.p.p.p.p.p.8.8.8.8.8.8.8.u.u.u.u.u.y.y.y.r.y.r.r.r.w.w.w.q.9.9.9.M m m t t r e e r r r t m t n m m m m n n t t r r e r e r r m m M M 9.9.q.q.q.e.e.r.r.t.t.t.t.y.y.u.u.u.u.8.8.8.8.8.8.8.p.p.p.p.p.p.i.i.i.i.;.i.;.;.;.=.;.=.=.=.=.=.! ! ! Q Q Q Q Q U R I R I E U Y Y Y Y o.P o.[ ] ] ] / A S b k g s i 7 1 > & # @ o   o   o o # % % : : , : : : % % o o X     . @ # # > = 2 7 s g h h A S / / ] ] [ [ [ P o.Y Y Y Y U Y I R U U R R Q Q Q ! ! Q =.! =.=.=.=.;.;.;.;.i.;.i.i.i.i.i.p.p.p.p.p.8.8.8.8.8.8.8.8.u.u.u.u.y.y.y.r.y.r.r.r.r.w.w.q.9.9.9.M m m t t r e e e r r r r t t t t m m m t t t r r e r e r t m m M M 9.9.q.q.q.e.e.r.r.r.t.t.y.y.y.u.u.u.u.8.8.8.8.8.8.p.8.8.p.p.8.6.6.5.6.5.5.5.-.-.-.$.-.#.#.o.Y Y P P J K J K J K J K K L I P P P P P P o.P o.] ] o.P ] L L G G Z A C C f f f u u p 6 u p ",
"d 6 d u f f B Z C D Z L L J P P P P o.P P o.] P ] ] o.] G S A A A j d p i ; ; = & + = + & & = > > 1 1 3 1 > 3 : : % o o o X o @ @ # * > 2 7 7 g g k A ^ S ] ] ] [ [ [ Y o.Y Y Y E I U Y U R U U R U R Q Q ! *.! =.=.=.=.=.;.;.;.6.;.i.i.;.i.i.i.i.p.p.p.p.p.8.8.8.8.8.8.8.u.u.u.u.u.y.y.y.r.r.r.r.r.w.q.q.q.9.9.M M m t t t r e e r r r t m m n m m n m n t t r r e e r e t t m M M 9.9.q.q.w.e.w.e.r.r.t.t.y.y.y.y.u.u.u.u.8.8.8.8.8.8.8.8.p.p.p.p.p.i.i.i.i.;.i.=.i.;.;.=.=.=.=.! =.! ! ! Q Q Q Q U U U I R I E Y Y Y Y Y P [ [ [ ] ] / / S k k g g a i 2 - > # + + X       o o % % % : : , : : : # # o o X   X o @ & & < 2 2 p s g b A ^ S / ] ] [ [ [ o.Y Y Y Y U Y U E I R U U R U Q Q Q ! *.! =.=.! =.;.=.;.;.;.;.i.i.;.i.i.i.i.p.p.p.p.p.8.8.8.8.8.8.8.u.u.u.u.y.y.y.y.r.r.r.r.w.w.w.q.q.9.9.M M m t t t r e e r r r t t t m m t m m m t t t r r e e e r t m M M 9.9.9.q.q.w.e.e.r.r.r.t.t.y.y.y.u.u.u.u.8.8.8.8.8.8.p.8.p.8.p.8.5.6.5.6.5.;.5.-.-.$.#.#.o.#.Y P Y K P J K J K J K K K I L P I P P Y P o.P P o.o.] P ] ] L G G A Z Z A f f d u d u p 6 d ",
"6 d u f f f C C Z Z L J J P L P P Y P P o.P o.] o.P ] / G G S A C g f p 6 2 - = = = + & & & & > 1 < 1 1 3 3 , > % % % @ o o o o @ # & = 2 2 s s g h k A / / / ] ] [ [ o.P Y Y Y Y Y Y U R I U U U R Q Q Q ! ! Q =.! =.=.=.;.;.;.;.;.i.;.i.i.i.i.i.p.p.p.p.p.8.8.8.8.8.8.8.u.u.u.u.y.y.y.y.r.t.r.r.e.w.e.q.q.9.9.9.M m m t r r e e r r t t m t m m n m n m t t r r e e e r r t m m M 9.9.9.q.q.q.e.e.r.r.r.t.t.y.y.y.u.u.u.u.8.8.8.8.8.8.8.p.p.p.p.p.p.i.i.i.;.i.;.i.;.;.=.;.=.=.! =.! ! ! ! Q Q Q Q U U R R R I Y E Y Y Y Y o.P [ [ ] ] ] / ^ S k k g s i 2 1 & & # @ X X   o   # # % : : , : , : % % # o X X     o @ # & * 1 7 a g g h h A / / ] ] ] [ [ Y [ Y Y Y Y Y E I R I U U U R Q Q Q ! ! ! =.! =.=.=.;.;.;.;.i.;.;.i.i.i.i.i.p.p.p.p.p.8.8.8.8.8.8.u.u.u.u.u.u.y.y.r.y.r.r.r.r.w.w.q.q.q.9.M M m m t r r e e r r r t m t m t M t m t m t r r e e r e t t m m M M 9.q.q.q.e.e.e.r.r.t.t.y.y.y.u.u.u.u.u.8.8.8.8.8.p.8.8.p.p.8.6.p.5.6.5.;.5.-.5.-.-.-.o.#.o.Y Y K P K K J K K K J K K L I I P P Y P P Y P o.P P P ] ] P L G G G Z A C C f f d f 6 u u p ",
"d 6 d d f C C C Z S D L L K P P P P P P o.P P o.] ] P ] L G G A A j g d i 6 - - & & & + & & & : > 1 < 3 1 3 > > , % % @ o X X o o # & & 1 2 7 s g g ^ A A / ] ] ] [ [ [ o.Y Y Y Y E Y U I R U U R U R Q Q ! ! =.! =.=.=.=.;.=.;.;.6.;.i.;.i.i.i.i.i.p.p.p.p.p.8.8.8.8.8.8.8.u.u.u.u.y.y.r.y.r.r.r.r.w.w.q.q.q.9.M M m m t t r e e e r r t t m n m m n m n t n t r r e e r r t t m M M 9.q.q.q.e.e.e.e.r.t.r.t.y.y.y.y.u.u.u.u.8.8.8.8.8.8.8.p.p.p.p.p.p.i.i.6.;.i.;.;.;.;.=.;.=.=.! =.! ! ! ! Q Q Q Q U U I R R I Y E Y Y Y Y P o.[ [ ] / / / ^ k g g g a 2 2 = $ # @ X X     o o # % % : : , : : : % % o o X   X o o # & * < 2 7 s g g A A S / / ] ] [ [ P Y o.Y Y Y E Y U U R U U R U R Q Q ! ! ! ! =.=.=.=.=.;.;.;.;.i.i.;.i.i.6.i.i.p.p.p.p.p.8.8.8.8.8.8.u.u.u.u.u.y.y.y.r.y.r.r.r.r.w.q.q.9.9.9.M M m t t r r e e r r t t m t M t M t M t t t r r e e r r r t m M 9.9.9.q.q.q.e.e.e.r.r.t.t.t.y.y.y.u.u.u.u.8.8.8.8.8.p.8.8.p.p.8.5.6.5.6.5.5.;.-.-.$.#.-.o.o.o.Y P K P K P K J J I J I I ] I P P P Y P P o.P o.] P o.] ] ] L L Z S Z C C C f d u d p d u ",
"8 d d f f C C Z Z D D L J P P P P P Y o.P P o.P P o.] ] L L A S A j f d d 2 2 - = = & & + & & = > 1 1 > 3 3 > , : : % o o X X o @ @ & > - 1 7 s g h h A / / / ] ] [ [ [ Y o.Y Y E Y U Y U U U U R R Q Q Q Q ! ! ! =.! =.=.=.;.;.;.;.i.;.i.i.i.i.i.p.p.p.p.p.8.8.8.8.8.8.8.u.u.u.u.u.y.y.y.y.r.r.r.r.e.w.w.q.9.9.9.M M m t r r e e r r r t t m m n m m n n m t t r e e r e r t m m M M 9.9.q.q.q.w.w.r.r.r.t.t.y.y.y.u.u.u.u.u.8.8.8.8.8.8.8.p.p.p.p.p.i.i.6.i.i.;.i.;.;.;.;.=.=.=.=.! =.! ! Q Q Q Q U U U R R I R E Y Y Y Y P o.[ [ ] ] ] / S S k k g s i 7 1 > = # + X o     o o o % % : : , : : : % # # o X X   . o # # * 1 1 7 7 g h h A ^ / / ] ] [ [ o.[ Y Y Y E Y U Y R I R U U R Q Q Q Q ! ! =.! =.=.=.;.=.;.;.i.;.;.i.i.i.i.i.p.p.p.p.p.8.8.8.8.8.8.8.8.u.u.u.u.y.y.y.y.r.r.r.r.w.e.q.q.q.9.9.M m m t t r e e r r r t t t m t m t m t t t r r r e e e r t m m M M 9.9.q.q.w.q.e.r.r.t.r.t.y.y.y.u.u.u.u.u.8.8.8.8.p.8.8.p.8.8.6.8.5.6.5.5.5.-.5.-.$.-.o.$.#.Y P Y K P K K J J I J I P J I P I P Y P o.Y P o.P o.P P ] P ] L G L S Z A C f f f d d d 6 p ",
"d d d f f C C Z Z D L D P J P P Y P P P o.P P o.] P ] ] ] L G A Z k k p p u ; - = & & & & + & & > > 1 3 > 3 3 > : : % % o o X X o @ # & > 2 7 7 s g h A A S / ] ] [ [ [ [ Y Y Y Y Y Y U Y R I R U R U R Q Q ! ! =.! =.=.=.=.;.=.;.6.;.i.;.i.;.i.i.i.p.p.p.p.p.8.8.8.8.8.8.8.u.u.u.u.u.y.y.r.y.r.r.r.r.w.w.q.q.9.9.9.m m m t t r e e r r r t t m m n m m n n t t t r e e r e r t M m M 9.9.9.q.w.e.e.e.r.r.r.t.t.y.y.y.u.u.u.u.u.8.8.8.8.8.8.8.p.p.p.p.p.i.i.i.i.;.;.i.;.;.;.=.=.=.=.=.! ! ! ! ! Q Q Q U U U I R I I E Y Y Y o.P P [ [ ] ] / / ^ S k g g s i 2 - & & # + X     o o # # % % : , : , : : % o # X X   X o @ # & > ; 7 a s g h ^ A / / ] ] ] [ [ P o.Y Y Y Y Y U Y R I U U R U Q Q Q ! ! ! =.! =.=.=.;.;.;.;.i.;.i.;.i.i.6.i.p.p.p.p.p.8.8.8.8.8.8.8.u.u.u.u.u.y.y.r.y.r.r.r.e.w.w.q.q.9.9.9.M m m t t r e e r r r t t t t t t t t t t t r r r e r e r t m m M 9.9.9.q.w.w.e.e.r.r.t.t.t.y.y.y.u.u.u.u.u.8.8.8.8.8.8.8.p.p.8.6.8.5.6.5.;.5.;.$.-.$.#.o.o.Y o.P P K P K P I J I I J I P I P Y P Y Y P o.P Y o.] P P ] ] L L Z L Z Z C C f f d d d d d ",
"p d f f f C C S D S J J P P I P P P o.Y Y P o.P P P o.] L G G S A A f f d i 7 - = = & & + & # > & > 3 < 3 3 > , , : % @ @ o X X o @ # & = 1 2 7 s g h h ^ / / / ] ] [ [ Y P o.Y Y Y U Y R I R U U U R Q Q Q ! ! ! ! =.=.=.=.;.;.;.;.;.;.i.i.i.i.i.i.p.p.p.p.p.8.8.8.8.8.8.8.u.u.u.u.y.y.y.y.y.r.r.r.w.e.w.q.q.q.9.M M m m t r r e e r r r t m n n m m n n m n t r r r e r e t t t m M M 9.q.q.q.q.e.e.r.r.t.t.t.y.y.y.u.u.u.u.8.8.8.8.8.8.8.p.p.p.p.p.p.i.i.i.;.i.i.;.;.;.;.;.=.=.=.! =.! ! ! Q Q Q Q U U R R R I E Y Y Y Y Y Y o.P [ [ ] / / G b k k g s i 2 1 = & # @ X o     o o # % : : : , : : % % % o o X     o @ # & = 1 2 7 s g h h A / / / ] ] [ P o.[ Y Y Y Y U Y U U U U U R R Q Q Q ! Q =.! =.=.=.=.;.;.;.;.;.i.;.i.i.i.i.i.p.p.p.p.p.8.8.8.8.8.8.8.u.u.u.u.y.y.y.y.y.r.r.r.r.w.w.q.q.q.9.M M m m t r r e e r r r t t t r t r r r r r r r r e e e r t t t m M M 9.q.q.q.w.e.e.r.r.r.t.t.y.y.y.u.u.u.u.8.8.8.8.8.8.8.p.8.8.6.8.5.6.5.5.5.5.-.-.$.$.-.o.#.o.Y P I P K J I J J I J I P I I Y P Y Y P Y P o.P P o.P ] P P L L L S Z S C C f f f d d d p ",
"d d d f C C Z Z D D L K L K P Y P Y P o.P o.Y o.o.] P ] ] L G S A A j g p p 5 2 - & & & & + & & > > > 1 3 > 3 > , : : % o o X X X o # & * - 2 7 s g g A A S S ] / ] [ [ P o.Y Y Y E Y Y U U I R U R U R Q Q ! ! =.! ! =.=.=.=.;.;.;.6.;.;.i.i.i.6.i.i.p.p.p.p.p.8.8.8.8.8.8.8.u.u.u.u.y.y.r.y.r.r.r.r.w.w.w.q.9.9.9.M m m t t r r e e r r r t m m m n M n n t n t r r e e r e t m m M M 9.9.q.q.w.e.e.e.r.r.t.t.y.y.y.y.u.u.u.u.8.8.8.8.8.8.8.p.p.p.p.p.p.i.6.i.;.;.i.;.;.;.;.=.=.=.=.! ! ! ! ! Q Q Q Q U U U R I R Y E P Y Y P [ o.[ ] ] ] / ^ G k k g s a 2 1 , & # + X X X   o o # % % : : , : : : % % o o X     o o # & & 1 2 7 s s h h A S S ] ] ] ] [ P Y Y o.Y E Y U I Y R U U U R U Q Q ! ! ! ! =.! =.=.=.;.;.;.;.;.i.i.;.i.i.i.i.p.p.p.p.p.8.8.8.8.8.8.8.u.u.u.u.y.y.r.y.r.r.r.r.r.w.q.q.q.9.9.M m m t t r r e e r r r r r r r r r r r r r r r r e e e r t m m m M 9.9.q.q.q.e.e.r.r.r.t.y.y.y.y.y.u.u.u.u.8.8.8.8.8.8.8.p.8.8.6.8.5.6.5.5.5.5.-.-.$.$.o.o.o.Y Y P K P I J I P I I J I P I Y I P Y Y P Y Y o.P Y o.P ] ] P J G G S Z C A C f f d d d d ",
"d d f f C C Z Z Z L J L K P P P Y P Y P o.Y P P P P P P ] L G G Z A k f f i i ; = = = & + & & & & > > > 3 3 3 , , : % % @ o X X   o @ # * 1 1 7 s s h h A ^ / / ] ] [ [ o.[ Y Y Y Y Y U Y U U U U U R R Q Q Q ! ! Q =.=.! =.;.=.;.;.;.;.i.;.i.i.i.i.p.p.p.p.p.8.8.8.8.8.8.8.u.u.u.u.u.y.y.y.y.t.r.r.r.r.w.q.q.q.9.9.M M m t t r e e e r r t t m m n m m m n m t t r r e r e r t t m m M 9.9.q.q.q.w.e.e.r.r.t.t.y.y.y.u.u.u.u.u.8.8.8.8.8.8.8.p.p.p.p.p.i.i.i.i.i.i.;.;.;.;.=.;.=.=.=.! =.! ! ! Q Q Q Q U U I R R I E Y E Y Y o.Y [ [ [ ] ] / G ^ A k g g p i 2 = = # # X o     o o o % % : : : , : : % # # o X X     o @ # * < 1 7 a g g h A ^ / / / ] [ [ o.P o.Y Y Y Y Y E R I R U U R Q Q Q Q ! Q =.! =.=.=.;.=.;.;.;.i.;.;.i.i.i.i.p.p.p.p.p.8.8.8.8.8.8.8.u.u.u.u.u.y.y.y.y.y.r.r.r.w.e.w.q.9.q.9.M M m t t r e e e r r r r r r e r e r e r r r r r e e e r t t m M M 9.9.q.9.e.q.e.e.r.r.t.r.t.y.y.u.u.u.u.u.8.8.8.8.8.8.p.8.8.6.8.5.6.5.6.5.5.-.-.$.-.o.$.#.o.o.P P P I L I I J I J I P I P I Y Y P Y o.Y o.P o.P P P P P L L L L Z S Z C C f f f d d d ",
"d g f C C A Z D L D P J P I P I P Y Y Y Y o.Y o.o.P P P ] J G G A Z k j p d i i - = & & & + & # > > > 3 > 3 3 > , : : % % o o   X o @ # & > - 2 p s g h h S S / ] ] ] [ [ Y P o.Y Y E Y U Y U U U U R U R Q Q ! ! =.! =.=.=.=.;.;.;.;.;.i.i.;.i.i.6.i.i.p.p.p.p.8.8.8.8.8.8.8.u.u.u.u.u.y.y.y.r.y.r.r.w.e.w.q.q.9.9.M M m m t t r e e r r r t m t m m n m n n t t t r e e e r r t m M M M 9.q.q.q.w.e.e.r.r.r.t.t.y.y.y.u.u.u.u.u.8.8.8.8.8.8.8.p.p.p.p.p.i.i.i.i.;.i.;.;.;.;.=.=.=.=.=.! ! ! ! Q Q Q Q Q U U I R I Y I Y Y Y Y o.P P ] [ ] / / / k k g g s i 2 1 = & # + X       o # # % : : , : , : % % # o o X   X o @ # & * 2 2 p s g h ^ A / / ] ] ] [ [ o.Y P Y Y Y E Y U R I R U U R R Q Q ! *.! =.=.! =.=.;.;.;.;.6.i.;.i.i.i.6.i.p.p.p.p.p.8.8.8.8.8.8.8.u.u.u.u.u.y.y.y.r.r.r.r.r.w.w.w.q.9.9.M M m m t r r e e r r r r r r r r r e r e e e e e e e e r r t m m M M 9.q.q.q.e.e.e.r.r.r.t.t.y.y.y.u.u.u.u.u.8.8.8.8.8.8.p.p.8.6.8.5.5.5.5.5.5.-.-.$.$.#.o.o.Y o.Y P P I P I I I I I I P I P Y Y Y Y Y Y P Y P o.P P P P ] L J L L Z S C C C h f d d d ",
"d f f f C Z Z S D J L K K P Y P Y Y Y o.Y Y o.P Y P P ] P ] L G S A C k j p p ; 2 = = & & + # & & : > > > 3 > 3 , : , % @ @ X X X o @ # # = 1 2 7 s g g A A ^ / / ] ] [ [ P o.Y Y Y Y Y Y U I U U U U R Q Q Q ! ! ! ! =.=.=.=.=.;.;.;.i.;.;.i.i.i.i.i.p.p.p.p.p.8.8.8.8.8.8.8.u.u.u.u.u.y.y.r.y.r.r.r.r.e.w.q.q.q.9.9.M m m t r r e e r r r t t m n m m n m n n t t r r e r e t t t m M M 9.9.q.q.w.w.e.r.r.t.r.t.y.y.y.u.u.u.u.8.8.8.8.8.8.8.p.p.p.p.p.p.i.i.i.;.i.;.i.;.;.;.;.=.=.=.! =.! ! ! Q Q Q Q U U R R I R R Y E Y Y Y P P o.[ ] ] ] / A S b k g s i 2 1 > & # @ o o   X o o o % % : : , : : : % # # o X     o @ @ & * 1 2 7 s g h h A / / / ] ] [ [ P [ Y Y Y E Y I E I U U U R R Q Q Q ! ! ! ! ! =.=.=.;.=.;.6.;.;.i.;.i.i.i.i.p.p.p.p.p.8.8.8.8.8.8.8.u.u.u.u.u.y.y.r.y.y.r.r.r.w.w.q.q.9.9.9.M m m t t r e e e e e e e e e e e e e e e e e e e e e r r t m m M 9.9.9.q.q.q.w.e.r.r.t.t.t.y.y.y.u.u.u.u.8.8.8.8.8.8.p.8.8.8.p.p.5.8.6.5.5.-.5.$.$.$.#.o.o.o.Y P P I P I P I I P I I Y I Y I Y Y Y Y Y o.Y o.Y P P P ] I P L L Z S Z Z A C f f d f d ",
"d h f C A Z S D L J J P P I P Y P Y Y Y o.Y Y o.P o.P P ] ] ] G G A A j g f i i ; - & & & & + & & : > > 3 > 3 , , , : % % @ o X   X o # & * > 2 7 s s h h ^ S S ] ] ] ] [ o.P Y Y Y Y E I E E I U U R R U Q Q Q *.! =.! =.=.=.;.;.=.;.;.i.i.;.i.i.i.i.i.p.p.p.p.p.8.8.8.8.8.8.8.u.u.u.u.y.y.y.r.y.r.r.r.w.w.w.q.9.q.M 9.m m m t r r e r r r r t m m n m m n m n t t r r e e r e t m m M M 9.9.q.q.w.e.e.e.r.t.t.t.y.y.y.y.u.u.u.u.8.8.8.8.8.8.8.8.p.p.p.p.p.i.i.i.;.i.;.;.;.;.=.;.=.=.=.! =.! ! ! Q Q Q Q U U U R I I E Y Y Y Y Y [ [ o.] ] ] / / ^ k k g s p 7 1 - & $ + X X     o o # % % : : : , : : % # o o o X     o # & * < 2 2 p g g h A A / ] ] ] ] [ P Y o.Y Y Y E Y U U R I R U R U Q Q Q ! *.! =.=.=.=.=.;.;.;.6.;.i.i.;.i.i.i.i.p.p.p.p.p.8.8.8.8.8.8.8.u.u.u.u.y.y.y.r.r.r.r.r.r.w.q.q.q.9.9.M M m m t r r e e e e e e e e e e e e e e e e e e e r r r t t m m M 9.9.q.q.w.e.e.e.r.r.t.t.y.y.y.y.u.u.u.u.u.8.8.8.8.8.p.8.8.2.5.6.5.5.5.5.5.-.-.$.$.$.o.o.o.Y Y P Y Y I I P I I P I I Y I Y Y Y Y Y o.Y o.Y P o.P P P ] J L L L D S Z C A f C g d d ",
"d f f A C Z Z L J L P K I P I P Y Y Y Y Y Y o.Y Y P P P P ] L G S G C k f d p i ; 1 = = & # # # & : > > > 3 , 3 , : , % % @ o   X   o @ # & = 2 2 p g g h A A / / / ] [ [ [ P o.Y Y E Y Y E I U U U U U R Q Q Q ! ! ! ! =.=.=.=.=.;.;.6.;.;.i.;.i.i.i.i.p.p.p.p.p.8.8.8.8.8.8.8.u.u.u.u.y.y.y.y.r.r.r.r.r.w.w.q.q.9.9.M M m t t r e e e r r t t t m m m m m n m t t r r e r e r t t t M M 9.9.q.q.q.w.e.e.r.r.r.t.t.y.y.u.u.u.u.u.8.8.8.8.8.8.8.p.p.p.p.p.i.i.6.i.i.;.i.;.;.;.;.=.=.=.! =.! ! ! ! Q Q Q Q U U R R I R R Y Y Y Y o.Y P [ [ ] ] ] ^ G A k k g i i 2 1 & & # o X o     X # # % : : , : : : % % % o X X   o o @ # & * 2 7 a s g h A ^ / / / ] [ ] o.o.[ Y Y Y Y U Y E I R U U U R Q Q Q ! Q =.! ! =.=.=.;.;.;.;.;.i.;.i.i.i.i.p.p.p.p.p.p.8.8.8.8.8.8.8.u.u.u.u.y.y.y.y.y.r.r.r.w.e.w.q.q.9.9.9.M m t t r r e e e e e e e e e e e r r r r r r r r r r r t t m M M M 9.q.q.q.q.e.e.r.r.r.y.t.y.y.u.u.u.u.u.8.8.8.8.8.8.8.8.8.6.8.8.5.6.5.5.-.5.$.$.$.o.#.o.o.Y o.Y P I P Y I P I I I Y I Y Y Y Y Y Y Y Y Y P o.Y P P P P P L L J S Z S Z C A f f h d ",
"h f h C S Z L D L K L P P I P Y I Y Y Y Y Y Y o.Y P o.P P ] ] L G A A A j f p i 7 - - & & & + & # : > > > > 3 , , , : : % @ @ o   X o o # & > 1 2 7 s g h h ^ S / ] ] ] [ [ o.P Y Y Y E Y I E I U U U R R U Q Q Q *.! =.! =.=.=.;.;.;.;.6.;.i.i.i.i.6.i.i.p.p.p.p.8.8.8.8.8.8.8.8.u.u.u.u.y.y.y.y.r.r.r.e.w.w.q.q.q.9.M M m m t t r e e r r r t m t m m n n m t n t t r r e e r r t m m M M 9.9.q.q.w.e.e.r.r.t.r.y.t.y.y.u.u.u.u.u.8.8.8.8.8.8.8.p.p.p.p.p.i.i.6.i.i.;.i.;.;.;.;.=.=.=.! =.! ! ! ! Q Q Q Q U U I R I Y U Y Y Y Y o.P P [ ] ] ] / ^ A A g g g i 2 1 = & # +       o o o # % % : , , : : : % # o o X X   o @ @ & > < 2 p s g h A A A / ] ] ] [ [ [ Y Y Y Y Y Y U I E I R U R U Q Q Q ! ! ! =.=.=.=.=.=.;.;.;.6.;.i.i.i.i.6.i.i.p.p.p.p.p.8.8.8.8.8.8.8.u.u.u.u.y.y.r.y.r.r.r.r.w.w.q.q.9.9.M M M m t t r e e r r r r r e r r r r r r r r r r r r r r t t m m M 9.9.9.q.w.e.e.e.e.r.t.r.y.t.y.y.u.u.u.u.u.8.8.8.8.8.8.8.8.8.6.5.8.5.5.5.5.-.5.$.$.$.o.o.o.o.Y Y Y P I P I I Y I I I Y T I Y Y Y Y Y Y o.Y Y P P Y P P ] I L L J S Z S C C h f f h ",
"d h C A Z S Z L L J P I I P I Y Y Y E Y Y o.Y Y o.Y P P P P ] G G G S C k k p p 2 ; = = * # & # & : : > > 3 , 3 , , : : % @ o o   X   @ # # = > 2 7 s s h A A S / / ] ] [ [ [ Y o.Y Y Y Y E I U U U U R U Q Q Q ! ! ! ! =.! =.=.;.=.;.;.;.i.;.;.i.i.i.i.p.p.p.p.p.8.8.8.8.8.8.8.u.u.u.u.u.y.y.y.r.t.r.r.r.e.e.q.q.9.9.9.M m m t r r e e r r r t t m n m n m n m n t r r r e r e r t t m M M 9.q.9.q.e.q.e.r.r.r.t.t.y.y.y.u.u.u.u.8.8.8.8.8.8.8.p.p.p.p.p.p.i.i.i.i.;.i.;.;.;.;.=.;.=.=.=.! =.! ! Q Q Q Q U U U R I R R Y E Y Y Y P o.[ [ [ ] / / / S k k g s i 2 2 > & # @ o o     X o # % % : : : , % : % # # o X     o o # & * = 2 7 s s h h A / / / ] ] [ [ P Y o.Y Y E Y Y E I R U R U R Q Q Q ! Q =.! ! =.=.=.;.=.;.;.;.i.;.;.i.i.i.i.p.p.p.p.p.8.8.8.8.8.8.8.u.u.u.u.u.y.y.y.r.y.r.r.r.e.w.w.q.q.9.9.M m m t t r r r r r r r r t t t t t t t t t t r t r t t t t t m M M 9.9.q.q.q.q.e.r.r.r.t.t.y.y.y.u.u.u.u.u.8.8.8.8.8.8.8.8.8.5.8.5.6.5.5.5.1.-.$.$.o.$.o.o.Y o.Y Y Y Y Y I Y I Y I Y I I Y E Y Y E Y Y Y Y Y o.Y P P P P L L J S D S Z A Z h C h d ",
"f h C A Z L L D P P K P P I P I Y Y Y Y Y Y Y Y Y o.Y P P ] ] ] G S A A C g f a i 2 1 = # & # + # & : > > , , , 3 : , : % % @ o     X o @ # * - 2 7 7 g g h ^ A / / ] ] [ [ [ Y [ Y Y Y E Y E I U U U U R R R Q Q ! *.! =.=.=.=.=.;.;.;.6.;.i.i.;.i.i.i.i.p.p.p.p.p.8.8.8.8.8.8.8.u.u.u.u.y.y.y.y.r.t.r.r.w.w.w.q.q.9.9.M M m m t r r e e r r r t t m m n n m n m t t r r r e e e t t m M M M 9.q.q.q.e.e.e.r.r.t.t.y.y.y.y.u.u.u.u.8.8.8.8.8.8.8.8.p.p.p.p.p.i.i.i.i.;.i.;.;.;.;.=.=.=.! =.! ! ! ! Q Q Q Q U U U R I I E Y Y Y Y Y P o.P ] ] ] / / ^ A k g g s 7 2 - & & + + X     o o # # % : : , : , % % % o o o X   o o @ # * < 2 7 7 g g h ^ A / / ] ] ] [ o.P Y o.Y Y E I E U I R I R R U Q Q Q ! ! =.! =.=.=.=.;.;.;.6.;.i.i.;.i.i.i.i.p.p.p.p.p.8.8.8.8.8.8.8.u.u.u.u.u.y.y.y.r.r.r.r.r.w.q.q.q.9.9.M M m t t t t t r t t t t t t t t t t t t m t m t m t m t t m m m M 9.9.9.q.e.e.e.e.r.r.t.t.t.y.y.y.u.u.u.u.u.8.8.8.8.8.8.8.8.8.5.8.5.5.5.5.-.$.1.$.$.o.$.o.o.Y o.Y Y T Y Y I T I Y I Y I Y I Y Y Y Y Y Y o.Y Y P Y P P ] I L L L L Z S Z A C h f h ",
"h f A Z S S D L L K P P I I Y Y Y I Y Y E Y Y o.Y Y P P P P ] L G G G A k j g d i 2 - = = & # # & # : : > > > 3 , , , : % % @ o   X   o @ # * * 1 2 p s g h h A / / / ] ] [ o.[ Y P Y Y Y E I E U I U U R U Q Q Q Q ! ! =.! =.=.=.;.;.;.;.;.i.;.i.i.i.i.i.p.p.p.p.p.8.8.8.8.8.8.u.u.u.u.u.u.y.y.r.t.r.r.r.r.w.w.w.9.q.9.M M M t t r r e r r r r t m m t m m n m t m r r r e e r e t t m m m 9.9.q.q.q.w.w.r.r.r.r.t.t.y.y.u.u.u.u.u.8.8.8.8.8.8.8.p.p.p.p.p.p.i.i.i.;.i.;.i.;.;.;.=.=.=.=.=.! ! ! ! Q Q Q Q U U R R I R Y E Y Y Y Y o.[ [ [ ] ] ] / S k k k g s i 2 > = & # O X X     o o # % : : : , : : % % % o X X     . @ & & * 1 2 p s g h h A S / ] ] [ [ [ o.[ Y Y Y Y E Y I R U U U U R Q Q Q ! ! ! =.! =.=.=.;.;.;.;.;.i.;.i.i.i.i.i.p.p.p.p.p.8.8.8.8.8.8.8.u.u.u.u.y.y.y.y.r.y.r.r.w.e.w.w.9.q.9.9.M m m t t t t t m t m t t t m t t t m m t m t m t m t m m t m m M 9.9.q.q.q.q.w.r.r.r.r.t.t.y.y.u.u.u.u.u.u.8.8.u.8.8.8.8.p.2.8.6.5.5.5.-.5.1.$.$.$.#.o.o.o.o.Y Y Y P P T I Y I I T I Y I Y E Y Y Y Y Y Y Y Y Y P P P I P L J L D S D S A C V A f ",
"h C A S Z L L L K P K P Y Y I T Y Y Y Y Y Y Y Y o.Y Y o.P P P ] L G S A C k j p p 2 2 = & & & # # & # > > > > , , , , : , % @ o o       @ # # = 1 2 7 s g g ^ A S / ] ] ] [ [ P o.Y Y Y Y Y E I E U U R U R R Q Q *.Q *.! =.=.=.=.;.=.;.;.6.;.i.;.i.i.6.i.i.p.p.p.p.p.8.8.8.8.8.8.u.u.u.u.u.y.y.y.y.r.r.r.r.e.w.q.q.9.9.9.M m m t t r e e e r r t t m m t m m n n t m t r r r e r r t m m M M 9.9.q.q.e.e.e.e.r.t.r.y.t.y.y.y.u.u.u.u.8.8.8.8.8.8.8.p.p.p.p.p.p.i.6.i.i.;.;.;.;.;.;.=.=.=.! =.! ! ! ! Q Q Q Q U U I R R I Y E Y Y Y [ Y [ [ [ ] / / S S b g g g i 2 2 > & # # X X     o o # % % : : : , : : % % o o X X   o @ @ & * < 2 7 s g g A A S / / ] ] [ [ [ Y Y Y Y Y Y U E I R U U R U R Q Q Q ! =.! =.=.=.=.;.=.;.;.6.;.i.;.i.i.6.i.i.p.p.p.p.p.8.8.8.8.8.8.u.u.u.u.u.y.y.r.y.r.r.r.r.w.w.q.q.9.9.M M m m t t t t m t m t m m m m m m m m M m M m M m M m M m M M m M M 9.9.q.q.e.e.e.e.r.t.r.y.t.y.y.y.u.u.u.u.u.8.8.8.8.8.8.p.8.5.8.6.8.5.5.-.1.$.o.$.} #.$.o.o.o.o.T #.P T P R P T I T I E I Y Y E P E Y Y Y Y Y Y P P P P P L L L S S Z Z A B h h ",
"B A V Z G L L J P P P I Y I Y Y I Y Y E Y Y Y Y Y Y P Y P P ] ] L G G A A k g p i i 1 - = & # & # # : : : > , > 3 , : , : : @ @ X X   o o @ & > - 1 7 a g h h A S S / ] ] [ [ o.P Y Y Y E Y I E I U R I R R Q Q Q Q ! Q =.! =.=.=.=.;.;.;.;.i.;.i.i.i.i.i.p.p.p.p.p.8.8.8.8.8.8.8.8.u.u.u.u.y.y.y.r.y.r.r.r.w.e.q.q.q.9.9.M m m m r r e e r r r t t m t m t m n m m t r r r e r e r t t m M M 9.9.q.q.q.w.w.r.r.r.t.t.y.y.y.u.u.u.u.u.8.8.8.8.8.8.8.p.p.p.p.p.i.i.i.i.;.i.;.i.;.;.;.=.=.=.=.! =.! ! Q Q Q Q U U U R R I I E Y Y Y Y Y P o.[ ] ] ] / G ^ k k g s i 7 1 - & & @ X o   o   o # # % : : , : : : % # # o X     o o # # > = 2 7 a g h h A ^ / / ] ] [ [ P o.P Y Y E Y E I E I R U U R Q Q Q ! ! ! ! ! =.=.=.=.;.;.;.;.i.;.i.i.i.i.i.p.p.p.p.p.8.8.8.8.8.8.8.8.u.u.u.u.y.y.y.y.r.r.r.r.r.w.w.q.q.9.9.M M m m m m m m m m M m M M M M M M M M M M M M M M M M M 9.M M M 9.9.9.q.q.q.w.w.r.r.r.t.t.y.y.y.u.u.u.u.u.u.8.8.8.8.8.8.2.6.8.8.5.5.5.5.5.$.1.$.$.$.#.o.o.o.o.T P T T Y T P T Y T I Y I Y E Y Y E Y Y Y Y Y Y P Y P P P J P L L L D S S A A C h ",
"h A S S S L L P P K Y P I P T Y Y R Y Y Y E Y Y Y Y Y P P P P ] ] L G S A C k g p i ; 1 = & & # # # & % > : 3 , , , , : % : @ @ o     X o @ # & > 2 7 p s g h A ^ S / ] ] ] [ [ o.P Y Y Y E Y U E I U U U R U R Q Q ! *.! =.! =.=.=.;.=.;.;.;.i.;.i.i.i.i.i.i.p.p.p.p.8.8.8.8.8.8.8.u.u.u.u.u.y.y.t.r.r.r.r.r.w.w.q.q.9.9.9.m m t m r r e e r r r t m t m m t m n t m t r r r e e r r t m m M 9.9.q.q.q.e.e.e.r.r.r.t.t.y.y.y.u.u.u.u.u.8.8.8.8.8.8.8.p.p.p.p.p.i.i.i.i.;.i.;.;.;.;.=.=.=.=.=.! ! ! ! ! Q Q Q U U U I R R I E Y Y Y o.P P [ [ ] ] / / / A k g g s i 2 1 & & + + X     o o # # % : : , : , : : % o # X X     o @ # & < < 7 p s g h ^ A S / / ] ] [ o.P o.Y Y Y E Y U U R I U U R U Q Q Q ! ! =.! =.! =.=.;.=.;.6.;.i.;.i.i.i.6.i.i.p.p.p.p.8.8.8.8.8.8.8.u.u.u.u.u.y.y.r.y.r.r.r.w.e.q.w.9.q.9.9.m m m m M M M M M M M M M M M M 9.M 9.M 9.M 9.9.9.9.9.9.M 9.9.9.M 9.9.q.q.q.e.e.e.r.r.r.t.t.y.y.y.u.u.u.u.u.u.8.u.8.8.8.8.8.5.5.8.5.5.5.5.-.$.$.o.$.} #.o.#.o.o.#.P T T o.T T T I Y R I Y I E Y Y Y E Y Y Y Y Y P Y I ] P ] J L L S D S Z A V V ",
"V V S S L L L P K P P I P T T I Y Y R Y Y Y E Y Y Y Y Y P P P P ] / G S S A g f p i 7 1 = & & # # # # : : , : , , , , : , % % @ X X X   o @ # & = 1 2 7 s g h A A ^ / ] ] ] [ [ P o.Y Y Y Y Y E I R U U U U R Q Q Q ! ! ! ! =.! =.=.;.;.;.;.6.;.i.;.i.i.i.i.p.p.p.p.p.8.8.8.8.8.8.8.u.u.u.u.y.y.y.t.y.r.r.r.w.e.w.q.q.q.9.M M m m t r r e e r r t t t m t t m t m m t t r r r e r e t t m m M 9.9.9.q.w.q.e.e.r.r.t.t.t.y.y.y.u.u.u.u.8.8.8.8.8.8.8.p.p.p.p.p.p.i.i.i.;.i.;.;.;.;.=.;.=.=.=.! =.! ! ! Q Q Q Q U U R R R I E Y Y Y Y Y Y P o.[ ] ] ] / A ^ k k g s i 2 1 = & # @ X o     o o # % : : : , : : % % % o o X   o . @ # & * 2 2 7 s g h A A / / ] ] [ [ [ [ Y Y Y Y Y Y Y R I U R U U R Q Q Q ! ! Q =.! =.=.=.;.;.;.;.;.;.i.;.i.i.i.i.p.p.p.p.p.8.8.8.8.8.8.8.u.u.u.u.y.y.y.y.y.r.r.r.r.e.w.q.q.q.9.M M M M M 9.M M M 9.M M 9.9.9.9.9.9.9.9.9.9.9.9.9.9.9.9.9.9.9.9.9.9.9.9.9.q.w.q.e.e.r.r.t.t.t.y.y.y.u.u.u.u.u.u.8.8.8.8.8.8.5.8.8.5.5.5.5.1.1.$.1.$.$.$.o.o.o.#.o.T Y o.T T T T T Y R Y Y I E Y Y E Y Y Y Y Y Y Y Y P P P P J P L L L S S S C A V ",
"V S S G G L P P P P I P T P T Y I Y Y Y E Y Y Y Y Y Y Y Y P P ] P L / G A A k g g i 2 2 = = # & # # # & : : , , , , , , % : % @ o X   X X o # # * 1 2 7 s s h h A / / / ] ] [ [ o.P o.Y Y E Y I U Y R U U R U R Q Q Q ! =.Q =.=.=.=.=.;.;.;.;.i.;.i.i.i.6.i.i.p.p.p.p.p.8.8.8.8.8.8.u.u.u.u.u.y.y.t.r.y.r.r.r.w.w.w.q.9.9.9.M M m t t r r e e r r t t t m m t m m m t m r r r r e r e t t m M M 9.q.9.q.w.e.e.e.r.r.t.t.y.y.y.y.u.u.u.u.8.8.8.8.8.8.8.p.p.p.p.p.p.i.6.i.;.i.;.i.;.;.;.=.=.=.=.! ! ! ! ! Q Q Q Q U U R I R I E Y Y Y Y o.P [ [ [ ] ] / G b A k g s a 2 2 > & # + X X     o o # # % : : , : : : % % o o X     o o # & & < 2 7 s g g h A S / / ] ] ] [ P o.P Y Y Y E I Y U R I R R U R Q Q ! ! =.! =.=.=.=.=.;.;.;.;.i.;.i.;.i.i.i.i.p.p.p.p.p.8.8.8.8.8.8.8.u.u.u.u.y.y.r.y.r.r.r.r.w.e.q.q.9.9.9.M M 9.9.M 9.9.9.M q.9.9.9.9.9.q.9.9.9.q.9.q.9.q.9.q.9.q.q.q.9.q.q.9.q.9.q.q.w.w.e.r.r.r.t.y.t.y.y.y.u.u.u.u.u.u.8.8.8.8.8.8.5.8.8.5.5.5.5.1.$.$.o.1.o.$.#.o.#.o.#.#.T o.T P T T T T I R Y I E Y Y E Y Y E Y Y Y P Y P I P P L L L L L S S S V A ",
"A V S G ] L L P P Y Y P Y T I Y Y R Y E Y Y E Y E Y Y Y P P P P ] L G S G A k g f p i 2 1 > & # # # # % : : , : , , , % , : % % @ X X     o @ & & - 1 7 p g g h A A / / ] ] [ [ [ P Y Y Y Y Y E Y U I R U U R Q Q Q Q ! Q =.! =.=.=.;.=.;.;.6.;.i.;.i.i.i.i.p.p.p.p.p.8.8.8.8.8.8.8.8.u.u.u.u.y.y.y.y.t.r.r.r.e.e.q.q.q.9.9.M m m t t r e e e r r t t m t t m m t m m t t r r e e e r t t m M M M 9.q.q.w.w.w.r.r.r.r.y.t.y.y.u.u.u.u.u.8.8.8.8.8.8.8.p.p.p.p.p.i.i.i.i.i.i.;.;.;.;.=.;.=.=.=.! =.! ! ! Q Q Q Q U U I R I R Y E Y Y Y P o.[ [ [ ] ] / ^ G A k g g p i 2 - & & # o X o     o # # % : : : , : : % # # o X X     o @ # * = 1 7 a s h h ^ A / / ] ] [ [ o.[ Y Y Y E Y Y U E I R U U R Q Q Q Q ! ! ! =.! =.=.;.=.;.;.i.;.;.i.i.i.i.i.p.p.p.p.p.8.8.8.8.8.8.8.u.u.u.u.u.y.y.y.y.t.r.r.r.e.w.w.q.q.9.9.9.9.9.9.9.9.9.9.q.9.9.q.9.q.q.q.9.q.q.q.q.q.q.q.q.q.q.q.q.q.q.q.q.q.q.q.q.q.q.e.w.r.r.r.r.t.t.y.y.u.u.u.u.u.u.8.8.u.8.8.8.8.8.p.5.5.5.5.5.$.1.$.$.o.$.$.o.$.o.#.o.T o.T T #.T T T Y R Y I R Y E Y Y Y E Y Y Y Y Y I P P P P P P L L S L S S A A ",
"A S S / L P P P P P Y T Y Y T I E Y E I E Y Y Y Y Y Y Y Y P P P ] ] L G ^ A k j g p i 2 - = & & # # # # : : , , , , , , : : : @ @ o X     o @ # & * 2 2 7 s g h ^ A S / ] ] ] [ [ o.P Y Y Y Y Y U E U I R U R U R Q Q ! *.Q =.! =.=.=.;.;.;.;.;.i.i.;.i.i.i.i.p.p.p.p.p.8.8.8.8.8.8.8.u.u.u.u.u.y.y.y.r.y.r.r.e.w.w.q.q.9.9.9.M m m t t r e e e r r t t m m t m m t m t t t r r e e r r t m m M 9.9.9.q.q.e.e.e.r.r.t.r.y.y.y.y.u.u.u.u.u.8.8.8.8.8.8.8.p.p.p.p.p.i.i.i.i.;.i.;.;.;.;.=.=.=.=.=.! ! ! ! Q Q Q Q Q U U R R I E Y Y Y Y Y P Y [ [ ] ] ] / ^ A k g g s i 2 1 = # # + X     o o o % % % : , : , : % % # o o X   X o @ # & * 2 2 p s g h h ^ S / / ] ] [ [ Y o.P Y Y Y E Y U R I U U R U R Q Q ! ! ! ! =.=.=.=.;.;.;.;.6.i.;.i.i.i.i.i.p.p.p.p.p.8.8.8.8.8.8.8.u.u.u.u.u.y.y.r.y.r.r.r.r.w.w.q.q.q.9.9.9.q.9.q.q.q.q.q.q.q.q.q.q.q.q.w.q.q.w.q.q.q.w.q.q.w.q.q.q.w.q.w.w.q.w.q.w.q.w.e.e.r.r.t.r.y.y.y.y.u.u.u.u.u.u.8.8.u.8.8.2.p.5.8.5.5.5.1.5.$.1.$.$.o.$.#.o.#.#.#.Y #.Y T T T T T T Y R Y Y R Y R Y E Y Y Y E Y Y P T P P P P L L L L / S S S V ",
"A S / L ] [ [ P Y Y P Y Y T Y E I Y R Y Y Y E Y Y Y Y Y P T P P P ] L / G S A k g s i 2 2 > = & # # # # : : , : , , , , , : % % @ X X     o @ # & * 1 2 7 s g h h A / / / ] ] [ [ P o.Y Y Y Y U Y U I U R U U R Q Q Q ! Q =.Q =.=.=.=.=.;.;.;.6.;.;.i.i.i.i.i.p.p.p.p.p.8.8.8.8.8.8.8.u.u.u.u.u.y.y.r.y.r.r.r.r.e.w.q.q.q.9.M M m m t r r e e r r r t t t t m m t m m t t t r r e r e r t m m M M 9.q.q.q.w.w.e.r.r.r.y.t.y.y.y.u.u.u.u.8.8.8.8.8.8.8.p.p.p.p.p.p.i.i.i.;.i.;.i.;.;.;.;.=.=.=.! =.! ! ! Q Q Q Q U U R R I R I Y E Y Y Y o.P [ [ [ ] / / / A k k g s i 2 1 > & # @ X o       # o % : : : , : : : % # # X X     o @ # & * 1 2 7 s s h A A S / ] ] ] [ [ o.[ Y Y Y E Y I E I U R U R R Q Q Q ! ! ! =.! =.=.=.=.;.;.;.;.;.i.;.i.i.i.i.p.p.p.p.p.8.8.8.8.8.8.8.u.u.u.u.u.y.y.y.r.t.r.r.r.w.w.w.q.9.q.q.q.q.q.q.q.q.q.q.w.q.q.w.w.w.w.q.w.e.q.e.w.e.w.w.e.w.e.w.e.w.e.w.w.w.w.w.w.w.e.w.e.r.r.r.t.t.t.y.u.y.u.u.u.u.8.8.u.8.8.8.8.2.8.5.8.2.5.5.$.1.$.1.o.$.$.o.$.#.#.o.#.Y #.T #.T T E I R Y R R Y R Y E Y I E Y Y Y Y Y P Y P P ] P P L ] L ) S A A ",
"A / / ] ] [ [ P P P Y T Y T T Y E I Y R Y E I E Y Y Y Y Y P P P P ] ] L / S k k k d a i 1 1 & & # # # # # : : , , : , , : : : % X @ X X X   o @ & * > 2 7 s g g h ^ A S ] ] ] ] [ o.P o.Y Y E Y U Y U U I R R R U Q Q Q ! ! =.! =.=.=.;.;.=.;.;.6.i.;.i.i.6.i.i.p.p.p.p.p.8.8.8.8.8.8.8.u.u.u.u.y.y.y.r.y.r.r.r.e.w.q.q.q.9.9.M m m m t r r e e r r r r t t t m m m t m t t r r r e r e t t m M M 9.9.q.q.w.e.e.e.r.r.r.y.y.y.y.y.u.u.u.u.8.8.8.8.8.8.8.8.p.p.p.p.p.i.i.i.;.i.;.;.;.;.;.=.=.=.=.! =.! ! ! Q Q Q Q U U I R I R Y I Y Y Y Y o.P [ ] ] ] / / ^ k k g s s 7 1 - = # + o X     o o # # % : : : , : : % % o # X X     o # # > > 2 7 p g g h ^ A S / ] ] ] [ [ Y o.Y Y Y E Y U U E I R U R U Q Q Q *.! ! =.=.=.=.=.;.;.;.6.;.i.i.;.i.i.i.i.p.p.p.p.p.8.8.8.8.8.8.8.u.u.u.u.u.y.y.y.r.r.r.r.r.w.q.q.q.q.q.q.q.w.q.q.e.q.e.w.w.e.w.w.w.e.e.w.e.e.w.e.e.e.r.e.r.e.r.e.r.e.r.e.r.e.e.e.e.w.e.e.e.r.r.t.t.y.y.y.u.u.u.u.u.u.8.8.8.8.8.8.8.5.2.5.5.5.5.1.1.$.$.$.$.o.$.o.#.o.#.#.#.T #.T T T T E Y R Y I E Y R Y E Y Y Y Y Y Y Y Y P Y P P ] L ] ] ] / / / A ",
"S / ] ] ] [ P P o.T o.T Y T Y E I Y R Y R Y Y Y E Y E Y P Y Y P P ] ] / G A S k g g a i 2 1 = & & # # @ % : : : : , , , , , % % % @ X X     o # # & - 1 7 p s g h A A / / / ] [ [ [ P Y Y Y Y Y Y E U I U U U U R Q Q Q Q =.! ! =.=.=.=.=.;.;.6.;.;.i.i.6.i.i.p.p.p.p.p.p.8.8.8.8.8.8.u.u.u.u.u.y.y.y.y.t.r.r.r.w.e.w.q.q.9.9.9.M m t t r r e e r r r r r r t t t t m m t t r r e e e r r t m m M 9.9.9.q.q.w.e.r.r.r.t.r.t.y.y.u.u.u.u.u.8.8.8.8.8.8.8.p.p.p.p.p.i.i.6.i.i.;.;.i.;.;.=.;.=.=.! =.! ! ! ! Q Q Q Q U U R R I R I Y E Y Y o.[ P o.[ ] ] / / G A k k g i i 2 1 & & # o X     o X # # % : : , , : : % % # o X X   o o @ # & = 1 7 p s g h k ^ / / / ] [ [ P o.P Y Y Y Y Y U E I U U U U R Q Q Q ! Q =.! ! =.=.;.=.;.;.;.;.i.;.i.i.i.i.i.p.p.p.p.p.8.8.8.8.8.8.8.u.u.u.u.y.y.y.r.y.r.r.r.w.e.w.q.w.w.w.w.w.w.w.e.w.e.w.e.e.e.e.r.r.r.r.r.r.r.r.r.r.r.r.r.r.r.r.r.r.r.r.r.r.r.r.r.r.r.r.r.r.r.t.r.t.t.y.y.y.u.u.u.u.u.8.u.8.8.8.8.5.8.8.5.2.5.1.5.$.1.$.1.o.$.$.#.$.#.#.#.T #.T #.T T E Y R I E R Y R Y E I Y Y R Y Y Y T P P Y P P o.P [ ] ] ) / / S ",
"^ / ] ] [ ] P P Y P T o.T T T Y E R Y E Y R Y E Y Y Y Y Y o.P P P P ] ] / G ^ A k g d a 2 1 > & # # # # @ % : , , : , , : : , % o @ o X X   o o # & > 1 2 7 s g h A ^ S / ] ] ] [ [ o.P Y Y Y E Y I U E U U U R U R Q Q ! ! ! =.! =.=.=.;.;.;.;.6.6.;.i.i.i.6.i.p.p.p.p.p.8.8.8.8.8.8.8.u.u.u.u.u.y.y.r.y.r.r.r.r.w.w.q.q.9.9.M M m m t t e e e e r r r r r r r t t t m t t t r r e e r r t t m M M 9.q.9.w.w.w.e.r.r.t.t.t.y.y.y.u.u.u.u.u.8.8.8.8.8.8.8.p.p.p.p.p.i.i.6.i.i.;.;.;.;.;.=.;.=.=.! =.! ! ! Q Q Q Q Q U U R R I E Y Y Y Y Y Y [ [ [ ] ] / / ^ A A g g g i 2 1 > & # + X X     o o % % % : : : , : % % # o o X   X   @ # & * 1 2 7 s g h A A / / ] ] ] [ [ P o.Y Y Y Y E Y I R U R U R U R Q Q Q *.! =.! =.=.=.;.;.;.;.6.;.i.i.;.i.i.i.i.p.p.p.p.p.8.8.8.8.8.8.8.u.u.u.u.y.y.y.r.t.r.r.r.w.w.w.w.w.w.e.e.e.r.e.r.r.r.r.r.r.r.r.r.r.r.r.r.r.r.r.r.r.r.r.r.r.r.r.r.r.r.r.r.r.r.r.r.r.r.r.r.r.r.t.t.t.t.y.u.y.u.u.u.u.u.8.u.8.8.2.8.5.2.8.5.5.1.1.1.$.$.$.$.$.#.$.#.#.#.#.#.T #.E #.T T E Y R I E I E U Y E Y R Y Y E Y P T o.P Y P P P ] ] ] ] / / ^ ",
"/ / ] [ ] o.o.P P o.T Y T T Y R I Y R I R Y R Y Y R Y Y o.T Y P P ] ] L ] / S A k g s a 2 1 = > & # # @ % % : : : , , , , , % % % @ o X     o @ # # * - 2 7 s g h h A S / / ] ] [ [ P o.Y Y Y Y Y E Y U I R U U R Q Q Q ! Q =.! =.! =.=.;.=.;.;.;.;.i.;.i.6.i.i.p.p.p.p.p.8.8.8.8.8.8.8.u.u.u.u.u.y.y.y.r.t.r.r.r.w.w.q.q.q.9.9.M m n t t r r e e e r r r r r r r t t t t t t r r e r e r t m m M 9.9.9.q.q.q.e.e.r.r.r.t.t.y.y.y.u.u.u.u.8.8.8.8.8.8.8.p.p.p.p.p.p.i.i.i.i.;.i.;.i.;.;.;.=.=.=.=.! ! ! ! Q Q Q Q U U U R I R I E Y Y Y Y o.P [ [ [ ] ] / / S k k g s i 2 2 = & # + O X o     # o % % : : , : : : % % o o X     o o # & > = 2 7 s g h h A S / / ] ] ] [ o.[ Y Y Y E Y I E I R I U R R Q Q Q ! ! ! ! =.=.=.=.=.;.;.;.;.;.i.;.i.i.i.i.p.p.p.p.p.8.8.8.8.8.8.8.u.u.u.u.u.y.y.t.t.t.r.r.r.e.e.w.e.r.r.r.r.r.r.r.r.r.r.r.r.r.r.r.r.r.r.t.r.t.t.t.t.t.t.t.t.t.t.t.t.t.t.t.t.t.t.t.t.t.t.t.t.t.r.r.t.t.y.y.t.u.u.u.u.u.8.u.8.u.8.8.8.8.5.8.5.5.5.1.1.$.1.$.$.$.$.$.#.$.#.#.#.#.#.T T E E Y R I E R Y R Y R Y R Y Y Y Y o.T P Y Y P P ] o.] [ ] ] / / / ",
"/ / ] ] [ [ o.o.o.T o.T Y T E Y R E Y R Y E Y R Y Y Y Y Y P Y Y ] P ] ] / / S b k k g i i 2 1 & & # # # @ % % : : : 3 , , : , % % o o o X X   o @ & & 1 2 7 7 g g h A ^ S ] ] ] [ [ [ P o.Y Y Y E I E U U I R U U R R Q Q ! ! ! =.=.=.=.=.;.;.;.6.;.6.i.6.i.6.i.i.p.p.p.p.p.8.8.8.8.8.8.8.u.u.u.u.u.y.y.y.r.t.r.r.r.w.w.q.q.9.9.M M m m t e r e e e e e r r r r r r r t t t t t r r e r e r t m m M 9.9.0.q.w.w.e.e.r.r.r.t.y.y.y.y.u.u.u.u.8.8.8.8.8.8.8.8.p.p.p.p.p.i.i.i.i.;.;.;.;.;.;.=.=.=.=.! =.! ! ! Q Q Q Q U U I R I R Y I E Y Y [ o.P P ] ] ] / / ^ A k g g s 7 1 1 & & # X X X     o # # % : : , , : : : # # o o X   X o @ # * > 2 7 7 g g h A ^ S / ] ] [ [ [ Y o.Y Y Y E Y U R I R U U R U Q Q Q ! ! =.! =.=.=.=.;.;.;.;.i.;.i.i.;.i.i.i.p.p.p.p.p.8.8.8.8.8.8.8.u.u.u.u.u.y.y.t.r.r.r.r.r.r.r.r.r.r.r.r.r.r.r.t.r.t.t.t.t.t.t.t.t.t.t.t.t.t.t.t.t.t.t.t.t.t.t.t.t.t.t.t.t.t.t.t.t.t.t.t.t.t.t.t.t.t.y.u.u.u.u.u.u.u.8.u.8.8.8.2.8.8.5.2.5.5.1.$.1.$.1.$.$.$.#.$.#.#.#.#.#.T #.E T E E Y R I E R Y R Y R Y R Y E Y T o.T Y o.P Y o.] o.] [ ] ] / / ",
"/ ] { [ ] o.] o.T o.Y Y #.E Y R Y I R Y E I R Y E Y E Y Y Y Y Y P ] o.] ] / S S A g g s i 2 > = > # # @ # # % : : 3 % , , , % % % % o X X     o @ # & * 1 2 s s g h A A / / / ] ] [ P o.[ Y Y Y Y Y U Y U U U U R R Q Q Q ! Q =.! =.=.=.=.;.;.;.;.;.i.;.i.6.i.i.p.p.p.p.p.p.8.8.8.8.8.8.8.u.u.u.u.y.y.y.r.y.r.r.r.w.r.w.q.9.q.9.M M M t t t e r e e e e e e e r r r r r r t t r r e e e r t t m m M M 9.q.q.q.w.e.e.r.r.t.t.t.y.y.y.u.u.u.u.8.8.8.8.8.8.8.p.p.p.p.p.p.i.i.i.;.i.i.;.;.;.=.;.=.=.=.=.! =.! ! Q Q Q Q U U R R R I E Y Y Y Y Y Y P o.[ ] ] ] / S ^ k g g s i 2 - > & @ + o     o   # # % : : : : , : % % # o X X     o @ # & = 1 2 s s g h k A / / ] ] ] [ P o.[ Y Y Y Y Y U Y R U U U U R Q Q Q ! ! ! =.! =.=.=.;.=.;.i.;.i.;.i.i.6.i.i.p.p.p.p.p.8.8.8.8.8.8.8.u.u.u.u.y.y.y.t.t.t.r.r.r.r.r.r.r.r.r.r.t.t.t.t.t.t.t.t.t.y.t.y.y.t.t.u.t.y.y.y.y.y.y.y.y.y.y.y.y.y.y.y.y.y.y.y.y.y.t.t.t.y.t.y.t.t.y.t.y.u.u.u.u.8.u.8.8.u.2.8.p.5.2.5.2.5.1.1.5.$.$.$.$.$.$.#.#.-.#.#.E #.#.E E Y E R Y R R Y R Y R Y R Y E Y Y T Y Y Y Y Y P P o.] [ ] ] / ] / ",
"/ ] ] [ [ $.o.o.P T #.Y T T T Y R E I E U Y R Y I E Y Y Y Y Y o.P o.] ] ] ] / ^ b k g g 4 2 2 > & & # @ # # % % : : 3 , , : , % % % o o X X   o o # & * 1 2 7 s g g ^ A A / ] ] ] [ [ P Y Y Y Y E Y Y U I U U R U R R Q Q Q *.Q =.! =.=.=.;.=.;.;.6.;.i.6.i.6.6.i.i.p.p.p.p.p.8.8.8.8.8.8.8.u.u.u.u.y.y.y.r.y.r.r.r.w.w.w.q.9.9.9.M m m t t t e r e e e e e e e r r r r r r t r r r e r e r t m m m 9.9.9.q.q.w.w.r.e.r.r.t.y.y.y.y.y.u.u.u.u.8.8.8.8.8.8.8.p.p.p.p.p.p.i.6.i.;.i.;.i.;.;.=.=.=.=.=.! ! ! ! ! Q Q Q Q U U I R R I E Y Y Y Y o.P [ [ [ ] / / / A k k g s s 7 1 = # & @ X X     o o # % % : , : : : : % % # o X   X o o # # * 1 2 7 s g g ^ A A / ] / [ ] [ P Y P Y Y Y E Y U I R U U R R U Q Q ! ! ! ! =.! =.;.=.;.;.;.;.;.i.;.i.i.i.i.i.p.p.p.p.p.8.8.8.8.8.8.u.u.u.u.u.y.y.t.t.r.t.r.r.r.t.t.t.t.t.t.t.t.t.y.t.t.y.y.y.y.y.y.u.u.u.u.u.u.u.u.u.u.u.u.u.u.u.u.u.u.u.u.u.u.u.u.u.u.u.u.u.y.y.y.y.y.y.u.u.u.u.u.u.u.8.u.8.8.8.8.2.8.5.5.5.5.1.1.1.1.$.$.$.$.$.$.#.#.#.#.#.E E #.T E Y R E E I E I E Y R Y R Y Y E Y T o.Y Y Y o.] P o.] [ ] { / ] ",
"( ] ] } o.] o.Y o.o.T Y T E Y R E I E U Y R Y R E Y Y E Y T o.Y P P ] o.] / / S S k g g a a 1 1 & & # # @ # % % % 3 : : , , , % % # % o X X     @ @ & * - 1 7 s g h h h / / / ] ] [ [ o.P o.Y Y Y Y E I E U R I R R Q Q Q ! Q =.Q =.! =.=.=.;.;.;.;.6.;.6.i.6.i.i.p.p.p.p.p.8.8.8.8.8.8.8.u.u.u.u.u.y.y.t.y.r.r.r.r.w.e.q.q.q.9.M 9.m m n t r t r r e r e e e e e e r r r r r r r r r e e r t t m M M 9.9.q.q.q.e.w.r.r.t.r.t.t.y.y.u.u.u.u.u.8.8.8.8.8.8.8.p.p.p.p.p.i.i.i.i.i.;.i.;.;.=.;.;.=.=.! =.! ! ! ! Q Q Q U U U R R I R I Y E Y Y [ Y [ [ [ ] ] / / S k k g s p 2 1 = = # @ X o     o o o % % : : : , : : % % o o X X     o @ & * 1 1 7 7 g h h k / / / ] ] [ [ o.P o.Y Y E Y U Y U I R U U U Q Q Q Q ! ! =.! =.=.=.=.;.;.;.;.i.;.i.i.i.i.i.p.p.p.p.p.8.8.8.8.8.8.8.8.u.u.u.u.y.y.y.t.t.r.t.t.t.t.t.t.y.y.t.y.y.y.y.u.u.u.u.u.u.u.u.u.u.u.u.u.u.u.u.u.u.u.u.u.u.u.u.u.u.u.u.u.u.u.u.u.u.u.u.u.u.u.u.u.u.u.u.u.u.u.u.u.8.u.8.u.u.p.2.8.2.5.8.2.5.1.1.1.$.1.$.$.$.-.#.-.#.#.#.#.#.#.E E E E E E I E R U I E U R Y R Y T T T T o.Y o.Y o.o.o.] [ } ] ] / ",
"] { ] [ o.o.o.o.Y #.Y #.T T E Y R E I R E I E Y I E Y Y Y Y Y o.P o.] ] ] ] / / b k g g s 7 1 1 > & # # @ @ # # : % 3 % , , % , % % o o o X X   o @ # & 1 2 7 7 s g h ^ A S / ] ] [ [ [ o.P Y Y Y E I E I U R U U R U R Q Q ! ! =.! =.=.=.=.;.;.;.;.;.6.6.6.i.6.i.i.p.p.p.p.p.8.8.8.8.8.8.8.u.u.u.u.u.y.y.t.y.r.r.r.e.w.w.q.q.9.9.M M m n t m r t t r e r e e e e e e r r e r r r r e e e e r m m m M 9.9.9.q.w.w.e.e.r.r.t.t.y.y.y.y.u.u.u.u.u.8.8.8.8.8.8.8.p.p.p.p.p.i.i.i.;.i.;.;.i.;.=.=.=.=.=.! =.! ! ! Q Q Q Q Q U U I R R Y E Y Y Y Y o.P [ [ ] ] / / ^ S k g g s i 2 1 & & + + X     o o # # % % : , : , : % % # o o X   X o @ # & > ; 7 a s g h ^ A S / ] ] [ [ [ o.P Y Y Y Y Y U E U I R U R U R Q Q ! ! ! =.=.! =.=.;.=.;.6.;.i.;.i.i.6.i.i.p.p.p.p.p.8.8.8.8.8.8.8.u.u.u.u.u.y.y.t.t.t.t.y.y.t.y.y.y.u.u.u.u.u.u.u.u.u.u.u.u.u.u.u.u.u.u.u.u.u.u.u.u.u.u.u.u.u.u.u.u.u.u.u.u.u.u.u.u.u.u.u.u.u.u.u.u.u.u.u.u.u.u.u.u.u.u.8.8.2.8.2.8.2.5.5.5.5.1.1.1.-.$.5.$.$.$.-.#.-.#.#.E #.#.E E E Y R R I E R E I E Y R Y E Y Y T P T o.Y o.Y ] o.o.] ] ] { / ",
"/ [ } ] o.o.o.o.#.Y #.T #.E Y E E I R E I E I R E Y R Y Y #.Y Y o.P o.] ] ] / S S b k g a a 2 1 = & # # @ # # % % , % , , , , % % % % o o X     o @ # & * 1 2 7 s g h A A / / / ] ] [ [ P Y Y Y Y Y Y Y U R I U U U R Q Q Q ! ! Q =.! =.=.=.=.;.;.;.6.;.6.i.6.i.i.i.p.p.p.p.p.8.8.8.8.8.8.8.u.u.u.u.y.y.y.y.r.t.r.r.r.w.w.q.q.q.9.M M M m m t m t t t t r r e e e e e e e r r r r r r e e r t t t m M M 9.q.q.q.w.e.e.r.r.t.r.t.y.y.y.u.u.u.u.8.8.8.8.8.8.8.p.p.p.p.p.p.i.6.i.i.;.;.i.;.;.;.;.=.=.=.=.! ! ! ! Q Q Q Q U U R R R I E I Y Y Y Y P o.[ [ ] ] ] / S ^ k k g s p 2 1 = & # @ X o     o o # % : : : , : : % % % o o X     o @ # & = 1 2 7 s g h h A / / / ] ] [ [ P Y Y Y Y Y U Y U I R U U U R Q Q Q ! ! ! =.! =.=.=.;.;.;.;.;.i.;.i.i.i.i.i.p.p.p.p.p.8.8.8.8.8.8.8.u.u.u.u.u.y.y.y.t.y.y.y.y.u.u.u.u.u.u.u.u.u.u.u.u.u.u.u.u.u.u.u.u.u.u.u.u.u.u.u.u.u.u.u.u.u.u.u.u.u.u.u.u.u.u.u.u.u.u.u.u.u.u.u.u.u.u.u.u.u.u.u.8.u.8.u.u.8.8.5.8.2.5.2.2.1.1.5.$.1.1.$.-.$.-.#.-.#.#.=.#.#.E #.E E E R Y R R E I E I R Y R Y Y T T #.Y Y Y o.P o.o.] o.[ { ] ] ",
"] ] [ } o.o.#.o.o.#.Y #.T T T E Y R E I E U U Y R Y Y E Y T o.Y Y o.] o.] ] ] / S ^ g k g i 7 1 > & & # @ @ # # % % , % 3 % , , % % % o o X X     @ @ & * 1 2 7 p g g h A S / ] / ] [ [ o.P o.Y Y Y E Y U I E U U R U R Q Q ! ! =.! =.=.=.=.=.;.;.;.;.6.;.6.6.i.i.i.i.p.p.p.p.p.8.8.8.8.8.8.8.u.u.u.u.y.y.t.t.r.r.r.r.r.w.w.q.9.q.M M M M m m m t t t t t e r r r e e e e e r r e r r e e e r t m m m 9.9.9.0.q.w.w.r.e.r.r.t.y.t.y.y.y.u.u.u.u.8.8.8.8.8.8.8.p.p.p.p.p.p.i.6.i.i.;.;.;.;.;.;.=.=.=.! =.! ! ! ! Q Q Q Q U U U I R I E Y Y Y Y Y [ [ [ [ ] / / / A A k g s a 2 2 > & # + O X X   o o # % % : : : : , : % # o o o     o o # # * < 2 7 s g g A A A / ] / ] [ [ o.P Y o.Y E Y U Y U I R U R U R Q Q ! ! *.! =.=.=.=.=.;.;.;.;.;.i.;.i.i.6.i.i.p.p.p.p.p.8.8.8.8.8.8.8.u.u.u.u.u.y.y.u.u.u.u.u.u.u.u.u.u.u.u.u.u.u.u.u.u.u.u.u.u.8.u.8.u.8.u.u.u.u.u.u.8.u.8.u.8.u.8.u.8.u.8.u.u.u.u.u.u.8.u.8.u.u.u.u.u.u.u.u.u.u.u.u.u.u.8.8.2.8.2.8.5.8.5.1.5.1.1.5.$.5.$.$.-.$.-.-.#.#.#.#.E E E E E E E R E I R U U E I E E I E Y Y T #.o.Y o.o.o.o.o.] } ] } ] ",
"{ ] { o.o.o.o.o.#.Y #.T #.T E E E R I E R R Y R Y R E Y Y T o.T o.P o.] o.] / ( S b S g g i 4 1 > > $ # # @ @ # # , % , : , 3 % : % # % o X X   o o @ & & - 1 7 s s h h ^ S S / ] ] [ [ [ Y [ Y Y E Y U Y U U U U U R Q Q Q Q ! ! Q =.! =.=.;.=.;.;.6.;.6.6.6.6.i.i.p.p.p.p.p.p.8.8.8.8.8.8.u.u.u.u.u.y.y.y.t.t.r.r.r.w.w.q.q.q.9.9.9.M M M M m m m m t t t t r e r e e e e e e r e r e e e r t t m M M M 9.q.q.q.e.w.r.r.r.t.r.y.y.y.u.u.u.u.u.8.8.8.8.8.8.8.p.p.p.p.p.i.i.i.i.;.i.i.;.;.;.=.;.=.=.=.! =.! ! ! Q Q Q Q U U I R I R Y Y E Y Y o.P P o.] ] ] / G ^ A k g g p i 1 - & & # X X     o o o # % : : , , : : % # # o X X X   o @ & & < 2 7 7 g g h ^ S S / ] ] [ [ [ o.P Y Y Y Y Y E U R I U U R R Q Q Q ! ! ! =.! =.=.;.=.;.;.;.i.;.i.i.i.i.i.p.p.p.p.p.p.8.8.8.8.8.8.8.u.u.u.u.u.u.u.u.u.u.u.u.u.u.u.u.u.u.u.u.u.u.u.8.u.u.u.u.8.u.8.u.8.u.8.8.8.8.8.8.8.8.8.8.8.8.8.8.8.8.8.8.8.8.8.8.8.u.8.u.8.u.8.u.u.u.u.u.u.u.u.u.u.8.u.u.8.8.8.2.2.5.2.5.5.1.5.$.5.$.$.5.$.-.-.#.-.#.#.=.#.*.#.E E E R Y R R Y U E I R E I E Y T #.T o.T o.T P o.o.} o.] } ] ] ",
"] } [ o.} o.o.#.o.#.#.T T #.T E I E R R I E U E I Y R Y E P T o.P o.] o.] ] ] / S b b g g g 7 2 1 & & # @ @ # # % % % , : 3 % , % % % % X X X X   o @ # & * 2 2 p s g h h ^ S / ] ] ] [ [ o.Y Y Y Y Y Y U E I U U U R U R Q Q ! ! =.! =.=.=.=.;.;.;.;.6.6.;.6.i.i.i.i.p.p.p.p.p.p.8.8.8.8.8.8.u.u.u.u.u.y.y.t.y.r.r.r.r.w.w.q.q.9.q.9.9.9.M M M M m m m t m t t t r r e e e e e e r r e e e r r t m m M 9.9.q.q.q.w.e.e.r.r.t.t.t.y.y.y.u.u.u.u.u.8.8.8.8.8.8.8.p.p.p.p.p.i.i.6.i.;.;.i.;.;.;.=.=.=.=.=.! ! ! ! Q Q Q Q Q U U R R I R Y Y Y Y Y o.P [ [ [ ] / / G b k g g s i 2 1 = $ # + X X   o   # # % % : : , : : : % # o o     X   @ # & * 1 7 a s g h h ^ S / ] ] ] [ [ [ o.Y Y Y E Y I E U R U U R U R Q Q Q *.! ! =.=.=.=.;.;.;.6.;.i.;.i.i.i.6.i.p.p.p.p.p.8.8.8.8.8.8.8.8.u.u.u.u.u.u.u.u.u.u.u.u.u.u.u.u.8.u.u.8.u.8.u.8.8.8.8.8.8.8.8.8.8.8.8.8.8.8.8.8.8.8.8.8.8.8.8.8.8.8.8.8.8.8.8.8.8.8.8.8.8.8.8.8.u.8.u.8.8.u.8.u.8.u.u.u.2.8.8.5.2.5.5.2.5.1.5.$.5.$.-.-.-.$.-.#.-.#.#.E #.E #.E E E R R R R R I R U Y R Y R Y T T #.Y o.o.#.o.o.] } o.] } ] ",
"] { o.} #.o.#.o.#.#.T #.#.E E E E R E I R I R I R E Y R P #.T P #.P #.] ] { ] / S S b b g a a 2 1 > & $ # # @ # # # , % , % , , : : % o % o X     o @ @ & * 1 2 7 s s h A A ^ / / ] [ [ [ P [ Y Y Y Y U Y I U I U U U R Q Q Q Q *.! Q =.=.=.=.;.;.;.;.6.;.6.6.6.i.i.i.p.p.p.p.p.8.8.8.8.8.8.8.u.u.u.u.u.y.y.y.r.y.r.r.e.r.w.w.q.q.9.q.9.9.9.9.M M M M m m t n t t t r r r r e e e e e e e e e t t n m M M 9.9.q.q.w.w.e.r.r.r.t.t.y.y.y.u.u.u.u.8.8.8.8.8.8.8.p.p.p.p.p.p.i.i.i.i.;.i.;.;.;.;.;.;.=.=.! =.! ! ! Q Q Q Q U U U R I R Y U Y Y Y [ Y o.[ [ ] ] ] / ^ S k k g s i 2 2 > & # @ X o     o o # % % : , : : : : % # # o X X   o @ # & * 1 2 7 s g g A A ^ / / ] ] [ [ P Y Y Y Y Y Y E I R I U U R R Q Q Q ! ! ! =.! =.=.;.=.;.;.;.;.;.i.;.i.i.i.i.p.p.p.p.p.8.8.8.8.8.8.8.u.u.u.u.u.u.u.u.u.u.u.u.u.8.u.u.8.u.8.8.8.8.8.8.8.8.8.8.8.8.8.8.8.8.8.8.8.8.8.8.8.8.8.8.8.8.8.8.8.8.p.8.p.8.8.8.8.8.8.8.8.8.8.8.8.8.8.8.8.u.8.u.u.u.u.8.2.8.2.2.8.2.5.2.5.1.5.1.1.5.5.$.5.$.-.#.;.#.=.#.=.#.E E E E E R Y R R I R U Y R E R Y E Y #.Y o.#.Y o.o.o.o.o.o.} ] ] ",
"} [ } o.} $.o.#.o.#.#.T E T E Y R R R R R R I R Y R E Y E Y o.#.P o.] o.o.] ] { S S b k g g a 4 1 1 & $ @ @ # o # % % , % , : 3 % : % % o o X X X   o # & * < 2 7 s g g h A S / ] / ] [ [ o.Y P o.Y E Y U Y U E U U R R U Q Q Q Q *.=.! =.=.=.=.;.;.;.;.6.6.6.6.i.i.i.i.p.p.p.8.p.8.8.8.8.8.8.8.u.u.u.u.u.y.t.t.r.r.r.r.w.w.w.w.w.q.q.q.9.9.9.9.M M M M M m m t n t t t e e r e e e e e e e e r t n m M M 9.9.q.q.q.e.e.r.r.r.r.y.y.y.y.y.u.u.u.u.8.8.8.8.8.8.8.8.p.p.p.p.p.i.i.i.i.;.i.=.;.;.=.=.=.=.=.! =.! ! ! Q Q Q Q U U I R I R Y R Y Y Y [ Y [ o.] ] ] / / ^ k k g s s 7 1 - & & + X X X   o o # # % : : , , : : % # o o o   X X o @ & * 1 - 7 s s h h A S / / ] ] ] [ o.P Y Y Y Y E Y U Y U R U U R U Q Q Q ! *.! =.! =.=.;.=.;.;.6.;.i.i.;.i.i.i.i.p.p.p.p.p.8.8.8.8.8.8.8.u.u.u.u.u.u.u.u.u.8.u.8.u.8.8.8.8.8.8.8.8.8.8.8.8.p.p.p.p.p.8.8.8.8.8.8.8.8.8.8.8.8.8.8.8.8.8.8.8.8.8.8.8.8.8.8.8.8.8.8.p.8.8.8.8.8.8.8.u.8.8.u.8.u.2.u.8.8.2.5.2.2.5.5.5.1.5.1.-.1.-.-.-.-.-.#.-.#.#.#.E =.E E E E R R I R R I R R I E Y E Y E T #.T o.#.o.o.o.o.} o.] } } ",
"] } o.} o.o.#.o.#.#.T #.#.E E E R E I R R I U R R R Y E Y T #.T o.Y o.o.] o.] ] S ( S b g g a 7 2 > : $ $ @ o # # # : : , % 3 % , : % % @ @ X X     @ @ # & = 1 7 7 s g h A ^ S / ] ] ] [ [ P o.Y Y Y Y Y E U I R U U U R Q Q Q *.! Q =.! =.=.=.;.;.;.;.6.6.6.i.;.i.i.i.p.p.p.p.p.8.8.8.8.8.8.8.u.u.u.u.y.y.y.y.t.r.r.r.r.r.w.e.w.w.w.q.q.q.9.q.9.9.9.M M M m m m t n t t t r e r e e e e e r r t t m m M 9.9.9.q.w.w.e.e.r.r.t.t.t.y.y.u.u.u.u.u.8.8.8.8.8.8.8.p.p.p.p.p.i.i.i.i.;.i.;.i.;.;.;.;.=.=.! =.! ! ! ! Q Q Q Q U U R R R I E Y Y Y Y Y o.[ [ [ ] ] ] ^ G A k k g i i 2 > = # # @ X       X # # % : : , : : : % % # o X X     o @ # & * 2 7 7 g g h ^ A / / / ] [ [ [ o.P o.Y Y Y U Y U R I U U U R Q Q Q ! ! ! ! =.=.=.=.;.;.;.;.;.i.;.i.i.i.i.i.p.p.p.p.p.8.8.8.8.8.8.8.u.u.u.8.u.8.8.8.8.8.8.8.8.8.8.8.8.8.p.8.p.8.8.8.8.8.8.8.8.8.p.p.p.p.p.p.p.p.p.p.p.p.p.p.p.p.p.p.p.p.p.p.p.p.p.p.p.p.p.8.8.8.8.8.8.8.8.8.8.8.u.8.u.8.8.8.8.2.8.2.8.2.5.2.1.5.1.5.1.5.-.5.-.-.-.-.-.#.=.#.*.#.E E E E E R R R R U R I R I E E Y E Y #.o.T o.o.o.#.} o.o.} } ] ",
"} ] } o.$.o.o.$.#.#.#.E E #.E E E R R I R U R I R Y R Y E Y T o.T o.o.o.] ] } ] ] S b b b g a a 1 1 = $ @ # # o # # # : : , : , % : : % # @ o X       @ # & > 1 2 p s g h A A ^ S ] ] [ [ [ o.P Y Y Y Y E I E U I R U R U R Q Q Q *.*.Q =.*.=.=.;.;.;.;.;.6.6.6.6.i.i.i.p.p.p.p.8.p.8.8.8.8.8.8.8.u.u.u.u.y.y.t.t.r.r.r.r.r.r.w.w.w.w.w.q.q.q.9.9.9.9.9.M M M M m m t t t t t r e r e e e e e r r t m m M 9.9.9.q.q.w.w.e.r.r.r.t.t.y.y.y.u.u.u.u.u.8.8.8.8.8.8.8.p.p.p.p.p.i.i.6.i.;.i.;.;.;.;.=.;.=.=.! =.! ! ! ! Q Q Q Q U U R I R I Y E Y Y Y Y P [ [ ] ] ] / ^ A A g g g i 2 1 = & # + X X     o o % % % : : , : : : % # # o X     o @ # & * 1 2 7 s g h h ^ S / ] ] ] [ [ [ Y Y Y Y Y Y U Y U R U U R U R Q Q ! ! ! =.! =.=.=.=.;.;.;.6.;.i.i.;.i.i.i.i.p.p.p.p.p.8.8.8.8.8.8.u.8.8.u.8.u.8.8.8.8.8.8.8.8.p.8.8.8.8.8.8.p.p.p.p.p.p.p.p.p.p.p.p.p.p.p.p.p.p.p.p.p.p.p.p.p.p.p.p.p.p.p.p.p.p.p.p.p.p.p.p.p.p.p.8.p.8.8.8.8.p.8.8.u.u.8.2.u.2.2.5.5.2.5.5.5.5.5.5.-.5.-.-.-.-.#.-.#.#.=.#.E #.*.R E R E R I R R I R R R Y R E Y #.T #.Y #.o.o.o.o.} o.o.] } ",
"] $.} $.o.o.$.#.#.#.#.E #.E E E E R R R U R I R R R Y E Y #.T #.P o.#.] o.o.] ] ( S S S g x s a 2 1 > & $ # o o # # : % : , : , : : : % % o X X X   o @ # # * - 2 7 s g h h A / / / ] ] [ [ [ Y P Y Y E Y Y U I R I U R R Q Q Q ! ! Q =.*.=.=.=.=.;.;.;.;.6.;.i.i.i.i.i.p.p.p.p.p.p.8.8.8.8.8.8.u.u.u.u.u.y.y.y.t.t.t.r.r.r.r.r.r.r.w.w.w.w.q.q.q.q.9.q.M 9.M M M m m m m t t t t e r r e e e e t t t n M M 9.q.9.q.q.e.e.r.r.r.t.t.y.y.y.u.u.u.u.8.8.8.8.8.8.8.p.p.p.p.p.p.i.i.i.i.i.;.;.i.;.;.;.=.=.=.=.! =.! ! Q Q Q Q Q U R I R I E E Y Y Y Y P o.[ [ [ ] / / / S k k g s i 2 2 = & # @ O o   o   # o % % : : , : : : % % o o X     o o # & & 1 2 7 s s h h A S / / ] ] [ [ P o.Y Y Y E Y Y U R I U U R R Q Q Q ! Q =.! =.! =.=.;.=.;.;.;.;.i.;.i.i.i.i.p.p.p.p.p.p.8.8.8.8.8.8.8.8.8.8.8.8.8.8.8.8.8.p.8.8.8.8.8.p.p.p.p.p.p.p.p.p.p.p.p.p.p.p.p.p.p.p.p.p.p.p.p.p.p.p.p.p.p.p.p.p.p.p.p.p.p.p.p.p.p.p.p.p.p.p.p.p.p.p.p.p.8.p.8.8.p.2.8.2.5.8.2.8.2.2.5.5.5.5.-.5.5.-.-.-.-.-.;.#.=.#.#.=.E E E E E R R R R U R R R Y R E Y E T Y #.#.o.o.$.o.o.o.o.} } [ ",
"} [ } o.$.#.o.#.#.#.#.#.E #.E E E R I R R U U R I E R Y E E o.T #.o.Y o.] ] } ] ] ( S b A g g a 7 1 , & $ @ # o o # # : : : : , , % : % % % X X X X   o @ & & 1 1 7 7 g g h ^ A / / / ] [ [ [ o.Y Y Y Y E Y E U U U U U R U Q Q Q ! *.Q =.=.=.=.=.;.;.;.;.i.6.;.i.i.i.i.i.p.p.p.p.p.p.8.8.8.8.8.8.u.u.u.u.u.u.y.y.y.t.t.r.t.r.r.r.r.r.e.w.w.w.w.q.q.q.9.q.9.9.M M M M m m m t t t t e r e e e r r t n m M M 9.9.q.q.w.w.e.r.r.r.r.t.y.y.y.y.u.u.u.u.8.8.8.8.8.8.8.8.p.p.p.p.p.i.i.i.;.i.;.;.;.;.;.=.=.=.! =.! ! ! ! Q Q Q Q U U U I R I Y U Y Y Y o.Y [ [ [ ] ] / / ^ A k g g s i 1 - > $ + X X       o # # % : : , , : : : # o # X X   X o @ # * = 2 7 7 g g b A ^ S / ] ] [ [ [ P o.Y Y Y E I Y U R I R U R U Q Q Q ! ! =.! =.=.=.=.;.;.;.;.i.;.i.i.i.6.i.i.p.p.p.p.p.p.8.8.8.8.8.8.8.8.8.8.8.p.8.p.8.p.8.p.p.p.p.p.p.p.p.p.p.p.p.p.p.p.p.p.p.p.p.p.p.p.i.p.i.p.i.p.i.p.i.i.p.i.p.i.p.i.p.p.p.p.p.p.p.p.p.p.p.p.p.p.p.p.p.p.p.p.p.8.8.2.8.8.2.8.2.5.2.5.5.5.2.5.5.5.5.-.5.-.-.;.-.#.;.#.=.#.E =.E E E E R R R I R U I R R Y R E Y #.#.T #.#.o.o.$.o.} #.o.} } ",
"[ { #.} $.o.$.$.#.#.#.E #.E E E E R R R R U R I R R E E Y Y E o.E P o.o.o.o.] { ] / / b b g g a i 1 > = $ # # o # o # : : : , : , : : % % @ @ X X     o @ # & * 2 2 s s g h h A / / ] ] ] [ [ P o.Y Y Y Y E I E I R U U U R Q Q Q ! Q =.Q *.=.=.=.;.;.;.;.;.;.i.;.i.i.i.i.p.p.p.p.8.p.8.8.8.8.8.8.u.u.u.u.u.u.u.y.y.y.t.y.r.t.r.t.r.r.r.r.r.w.w.w.w.q.q.q.9.9.9.9.M M M m m m m t t t r e r e e e t t m m M M 9.q.q.q.w.w.e.r.r.t.t.t.y.y.y.u.u.u.u.8.8.8.8.8.8.8.p.p.p.p.p.p.i.6.i.i.;.i.;.;.;.=.;.=.=.=.=.! ! ! ! Q Q Q Q U U R R R I R Y Y Y Y Y [ P o.[ ] ] ] / S A A g g p i 2 1 & & # @ X o   o   # # % : : : : , : % % % o o   X   o @ # * * 1 2 s s g h h A / / ] ] ] [ P o.P Y Y Y Y Y E R I R U U U R Q Q Q ! ! ! ! =.=.=.=.;.;.;.6.;.;.i.;.i.i.i.i.p.p.p.p.p.8.8.8.8.8.8.8.8.u.p.8.p.8.p.p.p.p.p.p.p.p.p.p.p.p.p.p.p.p.p.p.i.p.i.i.i.p.i.i.i.i.i.i.i.i.i.i.i.i.i.i.i.i.i.i.i.i.i.i.i.i.i.i.i.i.i.i.i.p.p.p.p.p.p.p.p.p.p.8.8.8.p.2.8.2.2.8.5.2.5.2.5.5.5.5.-.5.-.5.-.-.-.;.#.=.#.#.=.E E *.E R R R R R R R R R R R Y E #.T T #.#.o.#.#.o.o.$.} } o.} ",
"} $.{ $.o.$.o.#.#.#.#.#.E E E E E E R R I R U R R I E Y E E Y #.o.#.o.o.o.] o.] ] ( S ( b A g a 4 2 , & & $ o # o # # # : : : , % , : : % % X o X X X o o # & * 1 2 7 s g g A A S / ] / [ ] [ o.P Y Y Y Y Y E I U I U U R U R Q Q ! ! ! =.=.! =.=.;.;.;.;.;.i.;.i.i.i.i.i.p.p.p.p.p.8.p.8.8.8.8.8.u.u.u.u.u.u.u.u.u.u.y.y.y.t.t.r.r.r.r.r.r.r.w.w.w.w.q.q.q.q.9.9.9.M 9.M m m m t m t t t e e r r t t t m M 9.9.9.q.q.w.e.e.r.r.r.t.t.y.y.y.y.u.u.u.u.8.8.8.8.8.8.8.p.p.p.p.p.p.i.6.i.i.;.i.;.;.;.=.;.=.=.! =.! ! ! ! Q Q Q Q U U U I R I E Y Y Y Y Y [ [ [ [ ] / / / ^ k k g s i 2 2 = $ # + X X     o o # % % : , : : : : % % o o o   X   @ # # * 1 2 7 s g g A A S / / ] ] [ [ P o.Y Y Y E Y Y U U I R U R U R Q Q Q *.! =.! =.=.=.=.;.;.;.;.i.;.i.i.i.6.i.i.p.p.p.p.p.p.8.8.8.8.p.8.p.8.p.p.p.p.p.p.p.p.p.p.p.p.p.p.p.i.p.i.i.i.i.i.i.i.i.i.i.i.i.i.i.i.i.i.i.i.i.i.i.i.6.i.i.i.i.i.i.i.i.i.i.i.i.i.i.i.i.i.i.i.i.p.p.p.p.p.p.p.p.8.8.5.8.2.5.8.2.2.5.8.5.2.5.5.5.5.;.5.-.-.-.-.#.;.#.=.#.#.=.E E E E E R R R I R R R I E E Y E #.T #.o.#.o.$.o.$.o.o.} } [ ",
"[ { $.o.o.$.#.$.#.#.#.#.*.#.E E E R R R R R R R I R E E E Y E o.E P #.o.] o.{ ] { ] S S b x g g a 7 1 , $ $ # o # o # % % : , % , : : : % # % o X X     @ @ & * - 1 7 a g h h A ^ / / ] ] [ [ P o.Y Y Y Y E I Y U U R U R R Q Q Q ! Q =.! ! =.=.=.=.;.;.;.i.;.i.i.;.i.i.i.p.p.p.p.p.8.8.p.8.8.8.8.u.8.u.u.u.u.u.u.u.u.u.u.y.y.y.t.t.t.r.r.r.r.r.r.e.w.w.w.q.q.q.q.9.9.9.M M M m m m t n t t t e e e t n n M M 9.9.9.q.w.w.e.r.r.r.t.t.y.y.y.u.u.u.u.u.8.8.8.8.8.8.8.p.p.p.p.p.i.i.i.i.;.i.;.;.;.;.;.=.=.=.=.! =.! ! ! Q Q Q Q U U I R I R Y E Y Y Y o.Y [ [ ] ] ] / / S k k g s i i 1 > = # @ o   o   o o o % % : : : , : : % % o o X     o o @ & * 1 1 7 7 g h h A ^ / / ] ] ] [ o.P Y Y Y Y Y U Y U U R U U R Q Q Q ! ! ! ! =.! =.=.;.=.;.;.i.;.i.;.i.6.i.i.p.p.p.p.p.p.8.p.p.8.p.8.p.p.p.p.p.p.p.p.p.p.p.p.p.p.i.p.i.i.i.i.i.i.i.i.i.i.i.i.i.6.6.6.i.6.6.6.6.i.i.i.i.i.i.i.6.6.6.6.6.6.6.6.6.6.i.6.i.6.i.i.i.i.i.i.i.i.i.p.i.p.p.p.p.5.8.8.5.8.5.2.2.8.2.5.5.5.5.5.5.5.-.5.-.;.-.-.;.#.=.#.=.E E *.R E R R R R R R R I R E E E E T #.T #.#.#.o.$.o.o.$.{ $.} ",
"} $.} $.$.o.$.#.#.#.#.E #.E E *.R R R R R I R R R R I E E E o.E o.#.P #.o.o.] o.] { S S S b g g a 4 2 = & $ # o o # o # % : : : , , : : : % o @ X X X   o @ # & > 2 7 p s g h A A S / ] ] [ [ [ [ o.Y Y Y Y E U Y U I U U R U Q Q Q ! ! =.! =.=.=.=.=.;.;.;.;.;.i.i.i.i.i.i.p.p.p.p.p.8.8.8.8.8.8.8.u.8.u.u.8.u.u.u.u.u.u.u.u.y.y.y.t.t.r.r.r.r.r.r.w.e.w.w.q.q.q.q.9.9.9.9.M M M m m t t t t t e t t t m m M 9.9.q.q.q.w.e.e.r.r.r.t.t.y.y.y.u.u.u.u.u.8.8.8.8.8.8.8.p.p.p.p.p.i.i.i.i.;.i.;.;.;.;.=.=.=.=.=.! ! ! ! Q Q Q Q Q U U R R I R Y Y Y Y [ o.P P [ ] ] / / ^ A k g g s i 2 - & & # +       o o # # % % : , : , : % % # o o X   X o @ # & = 2 7 s s g h ^ A / / ] ] [ [ [ o.P Y Y Y E Y E I R I R U R U R Q Q ! ! =.! =.=.=.=.;.;.;.;.6.;.i.i.i.i.6.i.p.p.p.p.p.p.8.p.p.p.p.p.p.p.p.p.p.p.p.p.p.i.i.i.i.i.i.i.i.i.i.i.6.6.6.6.6.6.6.6.6.6.6.6.6.6.6.i.6.i.;.i.;.i.6.i.6.6.6.6.6.6.6.6.6.6.6.6.6.6.6.6.6.i.i.i.i.i.i.i.i.p.p.6.8.5.p.8.5.2.5.5.2.5.2.5.5.5.5.5.5.;.;.5.-.-.-.#.;.#.=.E =.E E *.R E R R R R I R R R I E E E #.T #.#.o.#.o.$.o.o.o.$.} [ ",
"o.} $.o.o.$.#.$.#.#.#.=.#.E E E E R R R R R R R R I R E E Y E #.o.Y #.o.o.] o.{ ] ] ( / b b g g a i 1 , * $ + # o o # # % : % , : : : : % % % @ o X     o @ # & = 1 2 7 s g h h ^ / / ] ] ] [ [ Y [ Y Y Y Y E Y U U U R U U R Q Q Q ! ! Q *.*.=.=.=.;.;.;.;.;.i.i.;.i.i.i.i.p.p.p.p.p.8.8.8.p.8.8.8.8.8.8.8.u.8.u.u.u.u.u.u.u.u.u.y.y.t.t.t.t.r.r.r.r.r.w.e.w.w.q.q.q.9.q.9.M 9.M M m m m t t t t e t t n M m 9.9.9.q.q.w.w.e.r.r.t.t.t.y.y.y.u.u.u.u.8.8.8.8.8.8.8.p.p.p.p.p.p.i.i.i.;.i.;.i.;.;.;.;.=.=.=.! ! ! ! ! Q Q Q Q U U R R I R Y E Y Y Y Y Y P o.] [ ] / / G A k k g s i 2 1 > & # @ X X     o o # % : : : , : : % % # # o X     o @ # & * 1 2 7 s g h h A S / ] ] ] [ [ P o.Y Y Y Y Y I E I R U U U R Q Q Q ! ! ! ! =.=.=.=.=.;.;.;.;.i.i.;.i.6.i.i.p.p.p.p.p.p.p.p.p.p.p.p.p.p.p.p.i.p.i.i.i.i.i.i.i.i.6.i.i.i.6.6.6.6.6.6.6.6.6.6.6.6.6.;.6.6.6.;.i.;.i.;.i.;.i.;.6.6.6.6.6.6.6.6.6.;.6.6.6.6.6.6.6.6.i.i.;.i.i.i.i.i.5.p.6.p.5.5.8.5.5.8.5.2.1.8.5.5.5.5.5.5.5.-.-.;.-.;.#.;.#.=.E E *.E R R R R R R R R R R R E Y E Y #.#.#.#.#.$.o.$.o.$.} o.} ",
"+.} $.$.$.#.$.#.-.#.#.E #.*.E E E R R R R R R I R R E Y E E Y E #.o.#.o.o.o.o.] { ] ] S ( b g g g 4 2 , * $ # o # o o # % % : : , , : : : % % X o X X     @ # & & - 2 7 s g g A A S S / ] ] [ [ o.Y P Y Y E Y Y U I U I R R R U Q Q Q ! =.! *.=.=.=.=.;.;.;.i.;.;.i.i.;.i.i.p.p.p.p.p.p.p.p.8.8.p.8.8.8.8.8.8.u.8.u.u.u.u.u.u.u.u.u.u.y.y.t.t.t.r.r.r.r.r.e.w.w.w.w.q.q.9.9.9.9.M M M M m m t t t t t t t m M M 9.q.q.q.w.e.e.e.r.r.t.t.y.y.y.y.u.u.u.u.8.8.8.8.8.8.8.p.p.p.p.p.p.i.6.i.;.i.;.;.;.;.;.=.=.=.=.=.! ! ! ! Q Q Q Q U U I R I I Y E Y Y Y o.P [ P ] ] ] / ^ S k k g s i 7 1 = & # + @ X     o o # % % : : : : , : % # o o o     o o # & * = 2 7 s g g A A ^ S / ] ] [ [ o.P Y o.Y Y E Y U E I R U R U R Q Q ! ! *.! =.! =.=.;.=.;.;.6.;.;.i.i.i.6.i.i.p.p.p.p.p.p.p.p.p.p.p.p.i.i.i.i.i.i.i.i.i.i.6.i.6.i.6.i.6.6.6.6.6.6.6.6.;.6.6.6.6.6.6.6.6.6.6.;.i.;.i.;.i.;.i.;.;.i.;.i.6.6.6.6.6.6.6.6.6.6.6.6.6.;.i.i.i.;.i.i.6.6.6.5.6.5.5.6.5.5.5.8.5.8.5.8.5.5.5.5.5.;.5.-.-.-.-.=.#.=.#.*.*.E E *.R R R R R R R I R R E E E E E #.#.#.#.o.$.o.$.o.$.} $.",
"} $.} o.$.$.#.-.#.#.=.#.=.E *.R E R R R R R R R R E R E E Y E #.o.Y o.#.o.o.] o.] { / ( S b b x s a 7 , = $ # # o # o o % % % , % % , : : % # % o X X   o o @ # * 1 1 7 s s h h A ^ / / ] ] [ [ [ P o.Y Y Y Y U Y E U U U U U R Q Q ! ! ! ! =.*.=.=.=.;.;.;.;.;.i.i.;.i.i.i.i.p.p.p.p.p.p.p.p.8.p.p.p.p.8.8.8.8.8.8.8.u.u.u.u.u.u.u.u.u.y.y.y.t.t.t.r.r.r.r.r.e.w.w.w.q.q.q.q.9.9.9.M M M m m m t t t t m t M M 9.9.9.q.q.w.e.r.r.r.r.y.t.y.y.u.u.u.u.u.8.8.8.8.8.8.8.p.p.p.p.p.i.i.i.i.i.;.i.;.;.;.=.;.=.=.=.! =.! ! ! Q Q Q U U U R R I R R Y Y E Y [ Y P o.] ] ] / G ^ A k g g s 7 2 1 & & # X X     o o o # % : : , , : : % # # o X X     @ O # * < 1 7 7 g g h A A / / ] ] [ [ [ P o.Y Y E I Y R I R U U U R Q Q Q Q ! ! ! ! =.=.=.=.;.;.;.;.;.i.6.i.i.i.i.i.p.p.p.p.p.p.p.p.p.i.i.i.i.i.i.i.i.i.6.6.6.6.6.6.6.6.i.;.i.6.6.6.6.6.6.;.6.;.;.;.;.;.;.;.;.;.;.;.;.;.;.;.;.;.;.;.;.;.;.;.;.;.;.;.;.;.;.;.;.;.6.6.;.i.;.i.;.i.;.i.6.6.5.6.5.6.5.5.5.2.5.5.5.5.5.5.5.5.5.5.;.5.-.6.-.-.;.#.=.=.#.=.E *.*.R R R R R R R R R E R E E #.E #.#.#.#.#.#.#.$.o.$.o.} +.",
"} $.$.$.o.$.-.#.#.-.#.#.E #.E *.R *.R R R R R R R R Y R E E #.Y E #.o.o.o.o.o.{ o.] ] / S S x g g a 4 2 > * $ + o o # o # % % : , , : : : % % # o o X     o @ # & * 2 2 p s g h h S S / / ] [ [ [ o.P Y Y Y Y Y U I E U U U R U R Q Q ! ! ! ! =.=.=.=.;.;.;.;.i.;.i.i.i.i.i.i.i.i.p.p.p.p.p.p.p.p.p.p.8.p.8.8.8.8.8.8.8.8.u.u.u.u.u.u.u.u.u.y.y.t.t.t.t.r.r.r.r.r.w.w.w.w.q.q.9.q.9.9.M M M m m n t t t n m m M 9.9.q.q.q.w.e.e.r.r.t.r.y.y.y.y.u.u.u.u.u.8.8.8.8.8.8.8.p.p.p.p.p.i.i.6.;.i.;.i.=.;.;.=.=.=.=.! ! ! ! ! Q Q Q Q Q U U I R I Y R Y Y Y Y P o.[ [ ] ] / / G b k g g s i 2 1 = # # + X X     o # # % % : : , : : : % # o o X     o @ # & * 2 2 p s g h A ^ S / / ] ] [ [ o.P Y Y Y E Y Y R I R U U R U R Q Q ! ! =.! =.=.=.=.;.;.;.;.6.;.i.;.i.i.6.i.p.p.p.p.p.p.i.i.i.i.i.i.i.i.6.6.6.6.6.6.6.i.6.i.6.i.;.i.;.;.;.;.;.;.;.;.;.;.;.;.;.;.;.;.;.;.=.;.;.=.;.;.;.=.;.;.;.;.;.;.;.;.;.;.;.;.;.;.;.;.;.;.;.;.;.;.i.;.i.;.6.6.6.;.5.5.5.5.5.-.5.5.5.5.5.5.5.6.5.5.5.5.;.-.-.;.-.;.#.=.=.#.*.E E *.R R R Q R R R R R E E E E #.E #.#.#.#.$.o.$.o.1.} $.} ",
"$.} $.o.$.$.$.#.-.#.#.=.#.E *.E E Q R R R R R R R R R E E E Y E #.o.o.#.o.#.{ o.] { ] ( S b b k g a 7 2 = * $ # + o o o % # : % % : : , : : % % @ X X X   o @ @ & * 1 2 7 s g g A A ^ / ] ] ] [ [ P Y o.Y Y Y U Y E I U U U U R Q Q Q ! ! ! =.*.=.=.=.=.;.;.;.;.;.i.;.i.i.i.i.i.i.i.i.p.p.p.p.p.p.p.p.p.p.p.p.p.8.8.8.8.8.u.8.8.u.u.u.u.u.u.u.u.y.y.t.t.t.r.r.r.r.r.w.e.w.q.q.q.q.9.9.9.9.M M m m m t t t n m M M 9.9.q.q.w.w.e.r.r.r.y.t.y.y.y.u.u.u.u.8.8.8.8.8.8.8.p.p.p.p.p.p.i.i.i.i.i.;.;.i.;.;.;.=.=.=.=.=.! ! ! Q Q Q Q U U U R R I R Y Y Y Y Y o.P [ [ [ ] ] / ^ S k k g s i 2 1 = & # @ o     o   o # % % : , : : : : % # # o X     o @ # & * 1 2 7 s g g b k / / ] ] ] [ [ P Y Y Y Y Y Y E I R I U R U R Q Q Q ! ! ! ! ! =.=.=.=.;.;.;.;.i.;.i.i.i.i.i.i.i.p.p.i.i.i.i.i.i.i.6.6.6.6.6.6.6.6.6.i.;.i.;.;.;.;.;.;.;.;.;.;.;.;.;.;.;.;.;.;.=.;.;.;.=.;.=.=.;.=.;.=.;.=.;.=.=.;.=.=.;.=.;.;.;.;.;.;.;.;.;.;.;.;.;.;.;.;.6.;.5.;.5.;.5.5.-.5.5.5.5.5.5.5.5.5.5.5.5.5.-.5.5.;.-.;.#.;.#.=.E =.E *.R R *.Q Q R R R R R R E E E E #.#.#.#.$.#.#.$.$.o.$.$.} ",
"+.$.} -.$.$.#.-.#.-.#.#.=.E #.*.R E Q *.R R R R R R E R E E #.Y E o.#.o.o.o.o.o.{ ] { ] ( S b g g a a 2 1 * $ + # o o # o : % : , % , : % : % # o @ X X   X o # & * < 2 7 7 g h h ^ S S / ] ] ] [ o.P Y Y Y E Y E I U E I U R R U Q Q ! ! ! ! =.! =.=.;.;.;.;.i.;.i.i.;.i.i.i.i.i.i.i.i.i.p.p.p.p.p.p.p.p.p.p.8.p.8.8.8.8.8.8.8.8.u.u.u.u.u.u.u.u.y.y.y.t.t.r.r.r.r.r.e.w.w.w.w.q.q.9.9.9.9.M M M m m t t n m m 9.9.9.q.q.q.e.e.e.r.r.r.y.y.y.y.y.u.u.u.u.8.8.8.8.8.8.8.8.p.p.p.p.p.i.i.i.;.i.;.;.;.;.;.=.=.=.=.! =.! ! ! Q Q Q Q U U I R R I R Y Y Y Y Y o.P [ ] ] ] / / ^ A k g s s 7 1 1 & & + X X X   o o # # % : : , , : : % # o o o X     o # # * 1 - 7 s s h h A A / / ] ] ] [ o.P o.Y Y Y E I E U U R I R R U Q Q Q *.! =.! =.=.=.=.;.;.;.6.;.6.i.;.i.i.i.i.i.i.i.i.i.i.6.6.6.6.6.6.6.6.6.6.6.6.6.;.;.;.;.;.;.;.;.;.;.;.;.;.=.;.=.;.=.;.=.;.;.=.=.=.=.=.=.=.=.=.=.=.=.=.=.=.=.=.=.=.=.;.=.=.=.;.*.;.=.;.;.;.;.;.;.;.;.;.;.;.;.-.5.;.;.1.5.;.5.-.5.5.5.5.5.5.5.5.5.5.6.-.;.-.;.-.;.#.;.#.*.E =.R *.R Q Q Q Q Q Q R R E E E E #.E #.#.#.#.$.$.o.$.o.$.} $.",
"$.} $.o.$.$.-.#.-.#.#.=.E =.E *.R Q Q Q Q Q R R R E R E E Y E E #.E o.#.#.o.o.] o.o.] / / S b b g g i 2 1 * & # o # o o o @ # : % % : , , : % % % o X X     o @ # & = 1 7 s s g h A A / / ] ] [ [ [ o.P Y Y Y Y I E E I R U U U R Q Q Q ! ! *.! =.=.=.=.=.;.;.;.;.i.;.i.i.;.i.i.i.i.i.i.i.i.i.i.i.p.p.p.p.p.p.p.p.p.p.p.8.8.8.8.8.8.8.u.u.u.u.u.u.u.u.y.y.t.t.t.r.r.r.r.r.e.w.w.q.q.q.q.9.9.9.M M M m m m t m M M M 9.9.q.w.q.e.r.r.r.t.r.t.y.y.u.u.u.u.u.8.8.8.8.8.8.8.p.p.p.p.p.i.i.6.i.i.;.i.;.;.;.;.=.=.=.! =.! ! ! ! Q Q Q Q U U R R I R Y R Y Y Y o.[ [ o.[ ] / ] / A A k g g s i 2 = = # # + X     o   # # % : : , : : : % % # o X X   o o @ # * * 2 7 7 g g h A ^ / / / ] [ [ [ Y [ Y Y Y Y Y U Y R I U U U R Q Q Q ! ! ! =.=.! =.;.=.;.;.;.;.i.;.i.i.i.i.i.i.i.i.i.i.6.6.6.6.6.6.6.6.6.6.6.;.;.;.;.;.;.;.;.;.;.;.;.=.;.*.;.;.*.;.*.;.=.=.=.*.*.*.*.*.=.*.=.*.=.! =.! =.*.*.=.*.*.*.*.*.=.=.=.=.;.*.;.*.;.=.;.=.;.=.;.;.=.;.;.;.-.;.$.;.-.-.-.5.-.5.-.5.5.5.5.-.5.6.5.;.5.-.;.-.-.;.=.#.=.*.E *.*.Q Q Q Q Q Q Q R R E E E E E #.E #.#.#.$.#.#.$.$.} $.+.",
"} $.1.$.$.#.-.-.#.=.#.#.*.E E E *.R R Q Q Q Q R R R E E E E #.Y #.#.o.o.#.o.o.o.] } ] { / S b k k g a 7 , = * # + o o o # % # : : , % : : : : % # @ X X X X o o # & * 1 2 p s g h h ^ S / ] ] ] [ [ [ Y o.Y Y E Y I E U I R U R U R Q Q ! ! ! =.*.=.=.=.;.;.;.;.;.;.i.;.i.i.;.i.i.i.i.6.i.i.i.i.i.i.i.p.p.p.p.p.p.p.p.8.p.8.8.8.8.8.8.8.u.u.u.u.u.u.u.u.u.y.t.t.t.t.r.r.r.r.w.e.w.q.q.q.q.9.9.9.M M M m m m t m M 9.9.q.q.q.w.e.e.r.r.t.t.y.t.y.y.u.u.u.u.u.8.8.8.8.8.8.8.p.p.p.p.p.i.i.6.i.i.;.;.;.;.;.;.=.=.=.=.! ! ! ! ! Q Q Q Q U U R R I E Y Y Y Y Y Y P [ [ [ ] / / / ^ k k g s i 2 1 = & # + X       o o % % % : : , : : : % # # X X     o o # & * 1 2 7 s g h A A A / ] ] ] [ [ o.Y o.Y Y Y E Y U I R R U R U R Q Q Q ! ! ! =.=.=.=.;.;.;.;.;.6.6.i.;.i.i.i.i.6.6.i.6.6.6.6.6.6.6.6.;.;.;.;.;.;.;.;.;.;.;.;.=.=.=.=.=.=.=.*.=.*.*.*.*.*.*.*.*.*.*.*.*.! =.=.=.=.=.=.=.*.=.*.*.*.*.*.*.*.*.*.*.*.*.*.*.*.=.=.=.=.=.=.=.=.;.=.;.;.*.-.;.$.;.$.;.$.;.-.5.-.5.;.5.5.6.5.;.5.;.5.-.;.-.#.=.=.#.=.*.E Q *.R Q Q Q Q Q Q R R E *.E #.E #.#.#.#.#.$.$.$.o.$.} $.",
"$.1.o.$.$.$.-.#.-.#.#.=.*.E *.*.R *.R Q Q Q Q Q R R R E E E E E #.Y #.#.o.o.o.o.} ] { ] ( S S b g g a 7 2 = & & # o o o o o % # % : : , , : : % % @ X X X     @ # & * 1 2 7 s s h A A S / / ] ] [ [ P o.Y Y Y Y Y E I U U U U R R Q Q Q ! ! ! ! =.! =.=.;.=.;.;.;.;.;.;.;.;.i.;.i.;.i.6.6.6.i.6.i.i.i.i.i.p.p.p.p.p.p.p.p.p.p.8.8.8.8.8.8.8.u.u.u.u.u.u.u.u.y.y.t.t.t.r.r.r.r.e.e.w.w.q.q.q.9.9.9.9.M M m m n m M M 9.9.q.q.w.w.e.r.r.r.t.r.y.y.y.u.u.u.u.8.8.8.8.8.8.8.p.p.p.p.p.p.i.i.i.i.;.i.;.i.;.;.=.;.=.=.! =.! ! ! Q Q Q Q Q U U R I R I Y E Y Y Y P o.[ [ ] ] ] / / A b k g s i 2 2 1 & # @ @ o   o   # o % % : : , : : : % % o o X     o @ # & & 1 2 7 s s h h A / / / ] ] [ [ [ Y [ Y Y E Y E I R R I U R R Q Q Q ! ! ! =.! =.=.=.;.=.;.;.6.;.6.6.i.i.i.i.6.6.6.6.6.;.6.6.;.6.;.;.;.;.;.;.;.;.;.=.=.=.;.=.=.=.=.*.=.=.*.*.*.*.*.*.*.*.*.*.*.*.*.*.! =.! ! ! ! ! ! ! ! ! ! ! ! *.*.*.*.! *.*.*.*.*.*.*.*.*.*.*.*.=.=.=.=.=.-.*.-.;.-.*.$.;.#.-.-.5.-.-.-.5.-.6.-.5.5.5.5.;.-.;.-.=.;.#.=.E *.R *.Q *.Q Q Q Q Q Q R E E E E E *.#.#.#.$.#.$.$.o.$.$.$.+.",
"+.$.$.$.$.-.$.-.#.;.#.#.#.*.E *.Q Q *.Q Q Q Q Q Q E E R E E E #.Y #.Y o.#.o.o.} o.] ] ] / / ^ S g g i i 2 , * & o + o o o # @ % % % : : , % : % % o @ X X X X o @ # * 1 - 7 7 g g h ^ A / / ] ] ] [ o.P Y o.Y Y E Y E I U U U U R U Q Q Q ! ! =.! =.*.=.=.;.=.;.;.;.;.;.;.;.;.i.;.i.;.i.6.6.6.6.6.i.i.i.i.i.i.p.p.p.p.p.p.p.p.p.8.8.8.8.8.8.8.8.u.u.u.u.u.u.u.y.y.t.t.t.r.r.r.r.e.w.w.w.w.q.q.9.9.9.M 9.M m m m M M 9.9.9.q.w.e.w.e.r.r.t.t.y.y.y.y.u.u.u.u.8.8.8.8.8.8.8.8.p.p.p.p.p.i.i.i.i.;.i.=.;.;.;.=.=.=.=.! =.! ! ! Q Q Q Q U U I R I R Y I E Y Y o.P Y [ [ ] ] / / S k k g g s 7 1 - > # + X X X     o # # % : : : , : : : # @ o o X X   o @ # * = 2 7 7 g g h ^ A / / ] ] [ [ [ o.Y Y Y Y Y I E I R R U U R U Q Q Q ! *.! =.=.! =.=.;.;.;.;.6.;.6.6.6.6.6.6.6.6.;.6.6.;.6.;.;.;.;.;.;.;.;.;.=.=.=.=.=.*.=.*.*.*.=.! =.*.*.*.*.*.! ! ! ! ! ! ! ! ! ! ! ! ! ! ! ! ! ! ! ! ! ! ! ! ! ! ! ! ! ! ! *.! *.*.! *.*.*.*.*.*.=.*.*.*.*.*.#.*.-.#.-.$.;.-.#.;.-.-.-.5.-.6.-.6.-.6.-.6.-.;.-.=.=.=.=.E *.Q *.Q Q Q Q Q Q Q Q R R E E E #.#.=.#.#.$.#.#.$.o.1.} $.",
"$.} $.$.$.$.-.#.;.#.=.#.=.*.E *.R *.Q Q Q Q Q Q Q R Q E E E #.E E #.#.#.o.#.o.o.o.o.] { ] / / k k g g i 2 2 * & & + o o o o @ % % : : , : , : % % % o X X     o @ # & * 2 2 s s g h h A / / / ] [ [ [ P o.P Y Y Y E I E I U U U U R R Q ! ! ! ! ! =.=.=.=.=.=.=.=.=.;.;.;.;.;.;.;.;.;.6.6.6.6.6.6.6.6.i.i.i.i.i.i.p.p.p.p.p.p.p.p.p.8.8.8.8.8.8.8.u.u.u.u.u.u.u.u.y.y.t.t.t.r.r.r.r.r.w.w.w.q.q.q.9.9.9.M M m m m M M 9.q.q.q.q.e.r.r.r.r.t.t.y.y.u.u.u.u.u.8.8.8.8.8.8.8.p.p.p.p.p.p.i.i.i.;.i.;.i.;.;.;.=.=.=.=.=.! ! ! ! Q Q Q Q U U R R R I E Y Y Y Y Y o.P [ [ ] ] ] / ^ S k g g i i 2 1 & & # + X     o   # # % : : , : , : % % % o o X     o O # * * 1 2 p s g h h A S / ] ] ] [ [ [ Y P Y Y Y E Y U R I U U U R Q Q Q ! ! ! ! =.=.=.;.=.;.;.6.;.6.;.6.6.6.6.6.6.6.6.6.;.;.;.;.;.;.;.=.=.=.=.=.=.=.*.=.*.*.*.=.*.*.! =.! ! ! ! ! ! ! ! ! ! ! ! ! Q ! Q ! Q ! Q ! Q ! Q ! Q ! Q ! Q Q ! Q ! ! Q ! ! ! ! ! ! *.! ! *.! =.! *.*.*.*.#.*.=.#.*.#.=.#.#.;.#.-.-.;.-.;.-.;.-.6.-.6.-.;.-.=.;.#.=.E *.*.*.Q Q Q =.Q Q Q Q R R *.E E *.#.E #.#.-.#.$.$.$.$.$.$.+.",
"+.$.1.$.$.-.$.-.#.-.#.=.#.*.*.E *.Q Q *.Q Q Q Q Q R E E E E E #.#.E o.#.o.o.#.o.] } o.] ( / ^ ^ k g g i 2 = = & + + o o o o # # % % : : , : : : % % o o X X X   @ # & * 1 2 7 s g g ^ A A / ] ] ] [ [ P Y Y Y Y Y Y E I E I U U R U R Q Q ! ! ! =.! =.! =.=.=.=.=.=.=.=.;.=.;.;.;.;.;.;.;.;.6.6.6.6.6.6.i.i.i.i.i.i.i.p.p.p.p.p.p.p.p.p.8.8.8.8.8.8.8.u.u.u.u.u.u.u.y.y.t.t.t.r.r.r.r.e.w.w.w.q.q.q.9.9.9.M M M m M 9.9.9.q.q.e.w.e.r.r.t.r.y.y.y.y.y.u.u.u.u.8.8.8.8.8.8.8.p.p.p.p.p.p.i.i.6.;.i.;.;.;.;.;.=.=.=.=.! =.! ! ! Q Q Q Q U U I R R I E Y Y Y Y [ o.P ] [ ] / / / ^ k k g g a 7 1 = $ # # X X     o o # # % : : , : : : % % o o X     o @ # # * 1 2 7 s g g A A S / / ] ] [ [ P o.Y Y Y E Y U Y R U R U R U R Q Q ! ! *.! ! =.=.=.;.=.;.;.;.6.6.6.6.6.6.6.;.;.;.;.;.;.;.;.;.=.;.=.=.=.*.*.*.*.*.*.*.*.! ! ! ! ! ! ! ! ! ! Q ! Q Q Q Q Q Q Q Q Q Q Q Q Q Q Q Q Q Q Q Q Q Q Q Q Q Q Q Q Q Q Q Q Q Q Q ! Q ! ! ! ! ! ! ! *.! #.! #.#.#.#.*.#.=.#.#.;.#.;.#.-.-.-.;.-.-.;.5.;.-.;.-.=.;.#.=.*.Q *.*.Q Q Q Q Q Q Q *.R E E ! #.E =.o.=.#.-.#.$.$.$.$.} $.",
"$.$.$.$.-.$.-.#.-.=.#.=.#.=.E *.Q *.Q Q ! Q Q Q Q ! Q E ! E #.E E o.#.#.o.#.o.o.o.o.] ] ] / / S k g d i 7 2 = * $ # o o o o @ @ % % : : : , : % % % @ o X     o o @ & * > 2 7 a g h h A / / / ] ] ] [ o.P o.Y Y E Y I E U U U U U R R Q Q ! ! ! ! ! ! =.! =.! =.*.*.=.=.=.=.=.;.=.;.;.;.;.;.6.6.6.;.6.6.6.6.6.i.i.i.i.i.i.p.p.p.p.p.p.p.p.8.8.8.8.8.8.8.u.u.u.u.u.u.u.y.y.t.t.t.t.r.r.r.r.w.w.w.q.q.q.9.9.9.9.M m M M 9.9.q.q.q.w.e.r.r.r.t.r.y.y.y.u.u.u.u.u.8.8.8.8.8.8.8.p.p.p.p.p.i.i.6.i.i.;.i.;.;.;.=.;.=.=.! =.! ! ! Q Q Q Q U U U R R I R Y U Y Y Y Y P [ o.] ] ] / S S k k g s p 2 2 > = # @ X o     o o # % % : : , : : : % @ % o X X   o o @ & * 1 2 2 s g h h A ^ / / ] ] [ [ o.P Y Y Y Y Y Y R Y R I U U R Q Q Q ! ! ! ! =.*.=.=.=.;.;.;.6.6.;.6.6.6.;.;.;.;.;.;.=.;.;.=.=.=.*.*.=.*.*.*.*.*.*.! ! ! ! ! ! ! ! Q ! Q Q Q Q Q Q Q R R R R R R U Q U Q U Q Q Q Q Q Q Q Q Q Q R R U R U R R R R R Q Q Q Q Q Q Q ! Q ! ! ! E ! E E E E ! #.#.#.#.=.#.#.#.-.=.-.;.-.-.;.-.;.-.;.-.=.-.=.=.*.*.*.*.Q Q Q Q ! Q Q Q Q Q E ! E E =.o.=.#.#.#.$.$.$.$.$.$.+.",
"+.$.$.$.$.-.-.-.#.-.=.#.=.E =.R *.Q *.Q Q Q Q Q Q Q E Q E E E #.#.E o.#.#.o.o.o.o.] ] o./ / / A A g g g 7 2 , * + + + o X o o @ # % : : , % , : : % % X o X   X o @ # & = 2 2 p s g h A A S / ] ] [ [ [ o.P Y Y Y E Y I E I U U U U R U Q ! Q ! ! ! ! ! ! ! =.! =.*.*.*.=.=.=.=.=.=.;.;.;.;.;.;.;.6.6.6.;.6.6.6.i.i.6.i.i.i.i.p.p.p.p.p.p.p.p.8.8.8.8.8.8.8.u.u.u.u.u.u.u.y.y.t.t.r.r.r.r.r.w.w.w.q.q.q.9.9.9.M M M M 9.9.q.q.q.e.w.e.r.r.t.t.y.t.y.u.u.u.u.u.u.8.8.8.8.8.8.8.p.p.p.p.p.i.i.i.i.;.;.i.;.;.;.=.=.=.=.=.! ! ! ! Q Q Q Q Q U U I R I E Y Y Y Y Y o.P [ [ ] ] / / G b k k s s i 1 - : & + + X X     o o # % : : , : , : % % o o o X     o @ # & = 2 7 7 s g h ^ A S / / ] [ [ [ o.P Y Y Y E Y U U I R U U R U Q Q Q ! ! *.! =.=.=.=.;.;.;.;.6.6.6.;.;.;.;.;.;.;.=.;.=.=.=.*.*.*.*.*.*.*.! ! ! ! ! ! ! Q Q ! Q Q Q Q Q R R R R R U R R U U U U U U U U U U U U U U U U U U U U R R R R U R R U R U R R R R R R Q Q Q Q Q E E E E E E Y E E #.E #.=.#.=.#.#.=.#.;.-.-.;.;.-.;.;.-.;.#.=.#.*.*.Q *.Q =.Q Q Q Q Q Q R E E *.E E =.#.#.#.-.#.$.$.$.$.$.1.",
"$.1.$.-.$.-.-.#.-.=.#.=.E *.E *.Q *.Q ! Q Q *.Q ! Q ! E E E E #.E #.E #.o.o.#.o.o.o.o.] ] ] / A k k g i i 2 ; * * + o o o X @ @ % % % : : , : : % % @ @ X X X   o @ # & * 1 2 p s g h h ^ / / / ] ] [ [ P Y Y Y Y Y Y E I E U U U R U R R Q Q Q Q ! Q ! ! ! ! ! ! *.! =.! =.=.*.=.=.=.=.;.;.;.;.;.;.;.;.6.6.6.6.6.6.i.6.i.i.i.i.i.p.p.p.p.p.p.p.8.8.8.8.8.8.8.u.u.u.u.u.u.u.y.y.t.t.t.r.r.r.r.e.w.w.w.q.q.9.9.9.9.M M M 9.9.q.q.w.e.e.r.r.r.t.t.y.y.y.u.u.u.u.8.8.8.8.8.8.8.p.p.p.p.p.p.i.i.i.;.i.i.;.;.;.;.;.=.=.=.! =.! ! ! Q Q Q Q U U U R I R I Y E Y Y o.P Y [ [ ] ] ] / ^ A A g g s i 2 1 = & # @ X X   o   # # % : : : , : : % % % # o X     o @ # & * 1 2 7 s g h A A / / ] ] ] [ [ P o.Y Y Y Y U Y Y U U U U U R Q Q Q ! ! ! ! =.*.=.=.=.;.;.;.;.;.;.;.;.;.=.;.;.=.;.=.*.*.*.*.*.*.*.! ! ! ! ! ! ! ! Q Q Q R R Q U Q U R R R U U U R U U U U U U U U U U U U U U U U U U U U U U U U U U U R U R R R R U R U R U R R R R R R R I R E E E E Y E #.E #.#.E =.#.=.=.#.=.=.;.#.;.=.-.;.=.=.=.=.*.*.*.*.Q Q ! ! Q Q Q R *.R ! E E =.#.#.#.-.#.-.$.$.$.$.+.$.",
"$.$.1.$.-.-.-.-.-.#.;.#.=.=.*.*.*.Q *.Q ! Q Q Q Q Q Q ! E E ! E #.E #.o.#.Y o.o.o.P o.] ] / / S A k g d i 2 = = & $ + o X o o @ @ % % : : , , % : % % o o X   X X @ @ & > > 2 7 p g g A A S S ] ] ] [ [ o.P o.Y Y Y E Y U I U U U U R R U R R R R R Q Q Q Q ! ! ! ! ! ! =.! =.=.*.=.*.=.=.=.=.;.;.;.;.;.;.;.6.;.6.6.6.i.i.6.i.i.i.i.i.p.p.p.p.p.p.p.8.8.8.8.8.8.u.8.u.u.u.u.u.y.y.y.t.r.r.r.r.r.w.w.w.w.q.q.9.9.9.M M 9.M q.q.q.q.e.e.r.r.r.r.y.y.y.y.y.u.u.u.u.8.8.8.8.8.8.8.p.p.p.p.p.p.i.6.i.;.;.i.;.;.;.;.=.=.=.=.! =.! ! ! Q Q Q Q U U U R I R Y Y Y Y Y o.P [ P ] ] ] / / ^ k k g g a 7 1 = & & + X X     o o # % % : : , : , : % @ o o X X   o o # & * = 2 7 s g g h A S S / ] ] [ [ o.P o.Y Y Y Y U E I U R U R R U Q Q Q *.! *.! =.=.=.;.=.;.;.;.;.;.;.=.;.;.=.=.*.*.*.*.*.*.*.*.! ! ! ! ! ! Q Q Q Q R R R U R U R U R U U U U U U U U U U U U U U U U U U I U U U U I U U I U U U U U U R U U U U U U R U R R R R R R R R U R R I R I E E E E E E E #.#.#.*.#.#.=.#.=.#.;.=.-.;.;.-.=.=.=.E =.*.Q =.Q Q Q Q Q *.Q Q *.E E *.E =.#.=.#.-.#.-.$.$.$.1.+.",
":.$.$.-.$.-.-.-.#.;.#.=.#.=.E *.Q =.Q ! Q Q ! Q Q Q ! E ! E E #.E #.#.E o.#.o.Y o.o.P ] ] ] / S A k f g i 7 2 = * + # o o X X @ @ % % : % , : : : % % % o X X X   o @ & & - 2 2 s s h h A ^ / / ] ] ] [ [ Y P Y Y E Y U Y U E U U U U U R U U U R U R R R Q Q Q Q Q ! ! ! ! ! ! *.*.*.=.=.=.=.=.;.=.;.;.;.;.;.6.6.;.6.6.6.i.6.i.i.i.i.i.p.p.p.p.p.p.p.8.8.8.8.8.8.8.u.u.u.u.u.u.y.y.t.t.t.r.r.r.r.e.w.w.q.q.q.q.9.9.9.M 9.9.9.q.w.w.e.e.r.r.y.r.y.y.y.u.u.u.u.u.8.8.8.8.8.8.8.p.p.p.p.p.i.i.i.i.i.i.;.;.;.;.=.;.=.=.! =.! ! ! ! Q Q Q Q U U R I R Y U Y E Y Y P o.P o.[ ] ] / / S A k g s p 7 2 1 & # # X   o   X o o % % : : : , : : % % % o X X     @ O # & 1 2 2 s s h h A ^ / / ] ] [ [ [ P Y Y Y Y E Y I E R I U U U Q Q Q ! Q *.! *.*.=.=.=.;.;.;.;.=.;.;.;.=.=.*.*.*.*.*.*.*.*.! ! ! ! ! Q Q Q Q R U R U R R R R R U U U U U U U U U I U U U E U E U I E I U U U T T U E U U U E I U U U E I U R I R U R I U R U U U R R R I R R I R I R R I R Y R E Y E E E #.E =.#.=.#.=.#.=.=.=.#.=.;.#.=.=.*.Q =.Q ! ! Q =.Q Q Q Q ! R *.#.! #.#.#.-.#.-.$.$.$.$.$.$.",
"$.1.$.$.-.-.-.-.;.#.=.=.=.E =.*.*.Q *.Q =.Q ! Q *.Q Q ! E ! E E #.E Y #.E o.Y o.o.P o.] ] ] G S A k k d a i 2 = * $ + + X o o o @ # % : : , , % : % % o @ X X   X   @ # & * 2 2 p s g h h S S / / ] [ [ [ o.Y o.Y Y Y Y U U I U U U I U U U U U U R U R R U R R Q Q Q Q ! ! ! ! ! ! =.! *.*.*.=.=.;.=.;.;.;.;.;.;.6.6.;.6.6.i.6.i.i.i.i.i.i.p.p.p.p.p.p.8.8.8.8.8.8.8.u.u.u.u.u.u.u.y.y.t.t.r.r.r.r.w.r.w.q.q.q.9.9.9.M 9.9.q.q.q.w.w.r.r.r.r.y.t.y.y.y.u.u.u.u.u.8.8.8.8.8.8.8.p.p.p.p.p.i.i.i.i.;.i.;.;.;.;.=.=.=.=.! =.! ! ! ! Q Q Q Q U U R R I Y R Y Y Y Y [ Y ] [ ] ] / / G b k k g i i 2 1 = & # + X     o o # o % : : , : : : : % o o o X X   o @ # & * 1 7 7 s g h A A / / / ] ] [ [ o.P Y Y Y Y U E I R U U U R R U Q Q ! ! *.! *.=.=.;.=.;.;.;.;.=.=.=.=.*.*.*.*.*.! ! ! ! ! Q Q Q Q Q R R U R R R R U U U U U I U U U U U E I E U U Y U I U I U E I E Y E T T T T T T T T U U Y U I U E U Y R I R U U R I R R U I R R R I I R I R I I R I R Y R E E E E E #.E =.E #.=.=.#.=.=.=.;.#.;.=.E =.*.Q =.Q ! ! Q ! Q *.Q Q *.E *.#.*.*.#.#.-.#.-.-.$.$.$.:.",
"1.$.$.5.-.-.-.-.#.;.#.=.#.*.*.*.Q =.Q ! Q Q Q Q Q ! Q ! E E ! #.E E #.E o.E o.o.Y P ] o.] ] / / A S g g d 7 2 2 * * + X o o X o o % % % % , % , : : % % @ o X     o @ # & * 1 2 7 s g g A A ^ / ] ] ] [ [ P [ Y Y Y Y E Y I E U I U E U U U U U U U U R U R U U R R R R Q Q ! ! ! ! ! ! *.*.*.*.*.*.=.;.=.;.;.;.;.;.;.6.6.;.6.6.i.6.i.i.i.i.i.p.p.p.p.p.p.p.8.8.8.8.8.8.u.u.u.u.u.u.u.y.y.t.t.t.r.r.r.w.e.w.w.q.q.q.9.9.9.9.9.q.q.w.e.e.r.r.t.r.t.y.y.y.u.u.u.u.8.8.8.8.8.8.8.p.p.p.p.p.p.i.i.i.;.i.;.i.;.;.;.;.=.=.=.=.! ! ! ! Q Q Q Q U U U R I R R Y Y Y Y Y Y P o.[ [ ] ] / ^ S k g g g i 2 1 = & # @ o o       o # % : : : : , : % % % # o X     o @ # & * 1 2 7 s g g k A S / ] ] ] [ [ P o.Y Y Y E Y Y U I R U U R U Q Q Q ! ! ! *.*.*.=.=.;.;.;.=.=.=.=.*.*.*.*.*.*.! ! ! ! Q Q Q Q R U R U R R R U U U U U U U U E U I U Y U I U U U Y U Y U Y E Y I E Y T T T T T T T Y Y E Y Y U Y U Y U Y U Y U U Y R I R E I R R R I R I R I R I I R I R I R I E R Y E E E E #.E =.! #.*.*.#.;.*.*.=.=.*.*.*.=.Q ! ! ! ! ! Q Q *.! ! E ! #.*.#.#.-.#.-.-.$.$.$.1.$.",
"$.$.1.$.-.-.-.-.-.=.;.#.=.=.*.*.*.Q =.Q =.Q Q =.Q Q ! R ! E E E E #.E #.Y o.E Y o.o.P P ] ] L S A A k g d i 7 = = & $ + X o X o o % o % , % , , % : % % @ o o   X X o @ & > < 2 7 s s h h A S / / ] ] [ [ o.Y P Y Y E Y E Y U Y U I U U I E U U U U U U U U U U U R R R R R Q Q ! ! ! ! ! ! *.*.*.*.*.*.;.=.=.;.;.;.;.;.6.6.6.6.6.i.i.6.i.i.i.i.i.p.p.p.p.p.p.8.8.8.8.8.8.8.u.u.u.u.u.u.y.y.t.t.t.r.r.r.w.w.w.w.q.q.9.9.9.9.9.q.q.q.e.e.e.r.r.t.y.t.y.y.y.u.u.u.u.u.8.8.8.8.8.8.8.p.p.p.p.p.i.i.i.;.i.;.;.;.;.;.=.=.=.=.=.! ! ! ! Q Q Q Q U U U R I I R Y Y Y Y o.P [ [ ] ] ] / / ^ A k g s s 7 1 1 & $ + X X X   o o # # % : : , : : : % # o o X X     o @ & & 1 2 2 s s h h ^ A S / ] ] ] [ o.P o.Y Y Y E Y U E I U U U R R Q Q Q *.! ! *.*.=.=.=.=.=.=.=.*.*.*.*.*.! ! ! ! Q Q Q R R R R U R R R U U U U U I E U U I U U U E I E Y E Y Y Y E Y E Y E Y E Y Y E Y Y Y Y Y Y Y E Y Y E Y Y E Y E Y E Y E Y Y R Y R Y I R I E I R I R I I I R I I I I R I R I E R E E E E E E E =.E *.#.=.! =.*.=.*.=.*.*.Q =.! ! ! ! Q ! Q Q *.E ! *.E #.*.$.#.;.#.-.-.$.$.$.1.",
"$.1.$.$.;.$.-.;.#.;.#.=.=.E =.*.Q =.Q =.Q =.Q Q Q ! ! ! E ! E E E E Y E Y E o.Y o.Y P ] P L / G S A k f g i 7 2 = * + # o o X X o o % % % : : , % : % % @ o X X X   @ @ # & * 2 7 7 g g h ^ A / / / ] [ [ [ P o.Y Y Y Y Y E Y E Y E Y Y E I U E I U U I U U U U U U U U U R R R Q Q Q ! ! ! ! ! *.*.*.*.*.=.=.=.;.=.;.;.;.;.;.6.;.6.6.i.i.i.i.i.i.i.p.p.p.p.p.p.8.8.8.8.8.8.8.u.u.u.u.u.u.y.y.t.t.t.r.r.r.r.w.w.w.q.q.q.9.9.9.9.q.w.q.e.e.r.r.t.r.y.y.y.u.u.u.u.u.8.8.8.8.8.8.8.p.p.p.p.p.i.i.6.i.i.;.i.;.;.;.;.=.=.=.=.! =.! ! ! Q Q Q Q U U R I R R Y E Y Y Y P o.P o.[ ] ] / / S k k k g i i 2 - & & # o X     o   # # % : : : , > : % % % X X X   o o @ # & - 1 7 p g g h A ^ / / / ] [ [ [ Y [ Y Y Y Y E Y I R U R U R U Q Q Q Q ! *.! *.*.=.=.=.=.*.*.*.*.*.! ! ! ! Q Q Q R U R U R U R U U U U U I U U U U U Y U Y E Y Y E Y E Y E Y E Y Y Y Y Y Y Y Y Y Y Y Y Y Y Y Y Y Y Y Y Y Y Y Y Y Y Y Y Y Y Y E Y E Y Y E Y E I E I R Y R I R I I R I R I I I R I E I E R E E E E E ! E *.! #.*.*.! =.=.=.Q =.Q ! ! ! Q =.Q Q *.! ! *.E *.*.#.*.-.#.-.-.$.-.$.1.$.",
"$.$.5.$.$.;.-.-.;.#.;.#.=.=.! *.*.Q =.Q Q Q =.Q *.Q Q ! ! E ! E E E E Y E Y E o.Y P P o.] ] L / S A k g f i i ; , * $ + o o X X X @ % % % % , % , % : % % o o X   X   @ # & > 1 2 7 s g h h ^ S / ] ] ] [ [ o.P Y Y Y Y Y Y Y Y E Y E Y E E Y I E Y U U U I E U U U U U U U R U R U Q Q Q ! ! ! ! ! *.*.*.*.*.=.=.;.=.;.;.;.;.;.6.;.6.6.i.i.6.i.i.i.i.i.p.p.p.p.p.p.8.8.8.8.8.8.u.u.u.u.u.u.y.y.t.t.t.r.r.r.e.w.w.w.q.q.9.9.9.q.9.w.w.e.e.r.r.r.t.y.t.y.y.y.u.u.u.u.8.8.8.8.8.8.8.p.p.p.p.p.i.i.6.i.i.;.i.;.;.;.;.=.=.=.! ! ! ! ! ! Q Q Q Q U U R I R Y I E Y Y Y [ Y [ [ ] ] ] / / ^ k g g g i 2 1 = & # + X X     o o % % % : , : : : : % @ % X X X   o @ # & * 1 2 7 s g h k A / / ] ] ] [ [ o.Y Y Y Y Y Y E U I R I R U R R Q Q Q *.Q *.*.*.=.=.*.*.*.*.! ! ! ! Q Q Q Q Q R U R R R U R U U U U I U E I U Y U Y U Y E Y E Y Y Y Y Y Y Y Y Y Y Y Y Y Y Y o.Y Y o.Y Y o.Y Y Y Y Y o.Y Y Y o.Y Y Y Y Y Y Y Y Y Y Y E Y E Y E Y R Y I I I Y I I I Y I R I I R I R E I E E R E E E E ! ! ! *.E *.*.! =.*.*.*.=.Q =.Q ! Q ! Q Q *.! E *.#.! *.#.*.$.#.-.$.$.$.$.$.",
"$.1.$.-.;.$.$.;.#.;.#.=.=.*.*.*.*.=.Q =.Q =.Q Q Q ! ! ! ! Q E E R Y E E Y E Y Y Y o.P P ] ] ] G S S k k g i i 2 , = $ $ o X X X X @ @ % % , % , , % : % % o o X X   o o # & & - 2 7 s g h h A S / / ] ] [ [ [ Y o.Y Y Y Y Y Y Y Y Y Y Y Y Y Y E Y U Y U Y U U U Y U U U U U U R U R U R Q Q Q Q ! ! ! ! *.*.*.*.*.*.;.=.;.;.;.;.;.6.;.6.;.6.i.6.i.i.i.i.i.p.p.p.p.p.p.8.8.8.8.8.8.u.u.u.u.u.u.y.y.t.t.t.r.r.r.r.w.w.w.q.q.q.9.9.q.q.q.e.e.r.r.r.y.r.y.y.y.u.u.u.u.8.8.8.8.8.8.8.p.p.p.p.p.p.i.i.i.i.;.i.;.;.;.;.;.=.=.=.=.=.! ! ! Q Q Q Q Q U U I R I R E Y Y Y Y Y o.[ [ [ ] / ] ^ S k k g s i 2 2 , & # @ o   o     # o % % : : : > : : % % o o X     o o # & & 1 2 7 s s h k A S / / ] ] [ [ [ Y P o.Y E Y U Y U U U U R R Q Q Q *.Q *.*.*.*.*.*.*.=.! ! ! ! ! Q Q Q R R U R R R U U U I U U U Y U E I E Y E Y E Y E Y Y Y Y Y Y Y Y Y Y Y Y Y o.Y P o.Y P o.P Y o.Y Y P o.Y P o.Y P o.Y Y P o.Y Y P Y o.Y Y Y Y Y Y Y Y Y Y Y Y Y Y Y I Y Y I I I Y I R I E I I R I R R Y R E E E E E ! ! ! ! *.! *.*.=.Q =.Q ! Q =.Q Q *.Q E *.! ! #.=.#.-.#.;.$.$.-.$.1.$.",
"$.$.5.$.$.;.-.$.;.#.;.=.#.=.*.*.*.Q =.Q =.Q =.Q *.Q ! ! R E R E E E R Y E Y Y Y Y Y o.P P ] L / / A k k f g i 7 - = & + + o X X X o @ % % % % , : , % % % % X o X   X o @ & & 1 2 7 7 g g h ^ A / / ] ] [ [ [ o.P o.Y P o.Y Y Y Y Y Y Y Y Y Y Y E Y E Y E Y U Y U U Y U U U U U U U R U R R R Q Q Q ! ! ! ! *.*.*.*.*.;.=.;.;.=.;.;.6.6.6.6.i.i.6.i.i.i.i.i.i.p.p.p.p.p.8.8.8.8.8.8.u.u.u.u.u.u.u.y.t.t.t.r.r.r.r.w.w.w.q.q.9.q.q.q.w.w.e.e.r.r.r.y.y.y.y.u.u.u.u.u.u.8.8.8.8.8.8.8.p.p.p.p.p.i.i.i.i.;.i.;.;.;.=.=.;.=.=.! =.! ! ! Q Q Q Q U U U I R I Y U Y Y Y o.P P [ [ ] ] / / S b k g g s 7 1 - & & + + X       o # # % : : , : , : % % % X X X X   @ @ # * - 1 7 7 g g h ^ A S / ] ] ] [ [ o.Y Y Y Y E Y U Y R U U U R U Q Q Q ! ! *.*.*.*.*.! ! ! ! Q Q Q Q R U R U R U U U U U E U U Y U U Y E Y E Y Y Y Y Y Y Y Y Y Y Y Y Y Y P o.Y P o.Y o.Y [ o.Y [ o.P [ o.P o.P [ o.P [ o.P o.P o.P o.P Y o.Y P o.Y Y P Y Y Y Y Y Y Y Y Y Y Y I Y Y I I I Y I Y I E I R R I R R E R E E E E E ! ! ! ! ! =.! =.*.Q =.Q ! ! Q =.Q *.! ! #.*.*.#.=.#.;.o.;.$.$.-.$.1.",
"$.1.-.1.;.-.$.;.#.;.=.-.*.=.*.=.Q =.*.=.Q =.Q *.! ! Q ! ! R E E I R Y E Y Y E Y o.P P P P ] ] / G S S k g g a 7 2 , & $ # o X X X X @ @ % % , : , % : % % @ o X   X   o @ # * * 1 2 p s g h A A S / ] ] ] [ [ [ o.[ P o.P o.P o.Y [ Y o.Y Y Y Y Y Y Y Y Y Y E Y U Y U U E I U U U U U U U U R R Q Q Q ! ! ! ! ! *.*.*.*.*.=.=.;.;.;.;.;.;.6.;.6.i.i.6.i.i.i.i.p.p.p.p.p.p.8.8.8.8.8.8.u.u.u.u.u.u.y.y.t.t.t.r.r.r.w.r.w.q.q.q.9.9.q.q.w.w.e.r.r.t.r.t.y.y.y.u.u.u.u.8.8.8.8.8.8.8.p.p.p.p.p.p.i.i.i.;.i.;.;.;.;.;.;.=.=.! =.! ! ! ! Q Q Q Q U U R R R I E Y Y Y Y P Y o.[ ] [ ] / / / k k k g i i 2 , = & # O X     o   # # % : : : , : : : % o # o X     o O # * * 1 2 s s g h k A ^ / ] ] [ [ [ P o.Y Y Y Y I Y R I R U U U R Q Q Q ! ! ! *.*.*.! ! ! ! Q Q R U R U R R U Q I R U U U I U Y U Y Y E Y E Y Y Y Y Y Y o.Y Y Y P o.Y o.P o.[ P o.[ [ [ [ [ [ [ [ [ [ [ [ [ [ [ [ [ [ [ [ [ [ [ [ [ [ [ o.[ P o.Y o.P o.Y P o.Y Y Y Y Y Y Y P Y Y I P Y Y I Y I E I E I Y E I R R I R E R E R E ! E ! ! ! ! =.Q =.Q =.Q Q =.Q ! ! E *.! *.#.*.#.*.$.;.#.$.-.$.$.$.",
"$.-.-.$.$.;.-.-.;.#.;.*.*.=.*.*.*.Q =.! =.Q =.Q ! ! ! Q Q R R U E R R Y R Y Y Y Y Y o.P ] P ] ] / S ^ k g g d 7 1 - * $ + o o X   X @ # % % % , : , % % % % @ o X   X X @ @ & * 1 2 7 s g g A A S / ] / [ ] [ [ [ [ [ [ [ [ o.[ o.Y o.Y o.P Y Y o.Y Y Y Y Y Y E Y E Y Y U E U I U U U U U U U R U R R Q Q ! ! ! ! *.*.*.*.*.=.=.;.=.;.;.;.;.6.;.6.i.i.i.i.i.i.i.i.p.p.p.p.p.p.8.8.8.8.8.8.u.u.u.u.u.u.y.t.t.t.r.r.r.w.e.w.w.q.q.q.9.q.e.e.e.r.r.t.t.t.y.y.y.u.u.u.u.u.8.8.8.8.8.8.8.p.p.p.p.p.p.i.6.i.;.i.;.;.;.;.;.=.=.=.=.! ! ! ! ! Q Q Q Q U U I R R I E Y E Y Y P P P [ ] ] ] / ^ S k g g g i 7 1 = $ # # O X     o o # % % : , : : : : % % o o X X     @ # # > 1 2 7 s g g A A / / / ] ] [ [ P Y P Y Y Y E Y U U I R U R R U Q Q Q ! ! *.! ! ! ! Q Q R R U R U R U U R I R I R E I E Y E Y E Y Y Y Y Y Y Y Y o.P Y P o.P o.P [ [ o.[ [ [ [ [ [ [ ] [ [ ] ] ] [ ] ] ] ] ] ] [ ] [ ] [ ] [ [ [ [ [ [ [ [ [ [ [ o.P P o.P P P o.Y P P P Y P P Y Y Y Y Y Y Y I E I E I R E I E R R R E R E R R ! ! ! ! ! ! =.*.=.Q =.Q Q =.Q *.! ! *.! *.#.*.-.*.$.;.$.-.$.-.$.",
"$.$.$.$.;.$.-.*.$.;.*.=.=.*.*.=.*.=.Q =.Q =.Q =.! ! Q Q R R U R R R Y R Y E Y Y Y Y P o.P ] ] / / S S k k g i 7 7 1 = $ # o X X X X @ @ % % : : , % , : % % @ o X X X   o # # > - 1 7 a g h h A ^ / / ] ] ] ] ] ] ] ] [ [ [ [ [ [ [ [ [ [ Y o.[ Y Y o.Y Y Y Y Y Y Y Y E Y U Y U E I U U U U U U R R U R Q Q Q Q ! ! ! *.*.*.*.*.=.;.=.;.;.;.;.6.;.6.i.;.i.i.i.i.i.p.p.p.p.p.p.p.8.8.8.8.8.8.u.u.u.u.u.y.y.t.t.t.r.r.r.e.e.w.w.q.9.q.q.q.w.e.r.r.r.r.y.y.y.y.u.u.u.u.u.8.8.8.8.8.8.8.p.p.p.p.p.i.i.i.i.i.;.i.;.;.;.=.=.=.=.=.=.! ! ! Q Q Q Q U U U R R I E I Y Y Y Y o.P o.[ [ ] / / S S b k g s p 2 2 > = # + X X o   o o o % % : : : , : : % % o o X     o @ @ & & - 2 7 7 g h h A A / / ] ] ] [ o.P o.Y Y E Y U Y U R I U U U R Q Q ! ! *.! ! ! Q Q R R R U R R U R U R I R U U Y U Y Y E Y Y Y Y Y Y Y P Y o.Y P o.P o.[ [ [ [ [ [ ] [ ] [ ] ] [ ] ] ] ] ] ] ] ] ] ] ] ] ] ] ] ] ] ] ] ] ] ] ] ] ] ] ] [ ] [ [ [ ] o.[ o.[ o.P P ] o.P P P Y P P Y Y Y Y Y Y Y Y Y R Y I E I R E I R R U R R R Q Q ! ! ! ! =.Q =.Q =.*.Q *.! ! *.! #.*.*.$.*.$.=.$.-.$.-.$.$.",
"$.-.$.;.$.;.$.;.*.-.=.-.=.=.*.*.*.*.*.*.=.Q *.! ! ! ! Q R R R R I R E I E Y E Y Y o.Y P o.L ] ] / / S k k g g i 7 - = & $ + o X X X X @ % % % : , , % : % % o @ X     X o @ # & < 2 7 p s g h ^ A S / ] / ] ] ] ] ] ] ] ] ] ] [ ] [ [ [ [ [ [ o.[ o.Y o.P Y Y Y Y Y Y Y E Y E Y I E I E U U U I U U R U R U R Q ! ! ! ! ! *.*.*.*.=.=.;.;.=.;.;.6.;.6.6.i.i.6.i.i.i.i.p.p.p.p.p.p.8.8.8.8.8.8.u.u.u.u.u.u.y.t.t.t.r.r.r.w.w.w.w.q.q.q.w.w.e.e.r.r.t.r.y.y.y.y.u.u.u.u.u.8.8.8.8.8.8.8.p.p.p.p.p.i.i.i.;.i.;.i.;.;.;.;.=.=.! =.! =.! ! Q Q Q Q U U U I R I R Y Y Y Y Y Y [ o.] [ ] ] / G k k k g i i 2 1 & & # O X     o o # # % % : , : , % % % % X X X X   o # # & > 1 7 s s g h ^ A S / ] ] [ [ [ o.P Y Y Y Y Y U Y R U U U R U R Q Q ! ! ! Q Q Q R R U R R U U R I U I R Y R Y E Y E Y Y Y Y Y Y Y [ o.Y Y [ o.P [ [ [ [ [ [ ] [ ] ] ] ] ] ] ] / ] ] / ] / ] ] / ] / ] ] / ] / ] / ] ] ] / ] ] ] ] ] ] ] ] ] ] ] [ ] [ [ [ o.o.] o.L o.L o.] Y P P P Y Y Y Y Y Y E Y E Y R Y E I E R R R R U R R R Q ! ! ! ! *.! =.Q =.Q *.! *.! *.*.#.*.*.$.*.$.*.$.-.$.$.-.",
"$.$.-.#.;.$.=.-.-.=.-.*.=.*.*.=.*.*.*.=.! *.*.! ! ! Q R R R R U R R I E Y E Y Y Y Y P P ] o.] ] ] / A S A g g i i 1 , & $ @ o X   X X @ # % : : : : , % % % % @ o X X   o @ # * * 1 2 7 s g g A A / / / / L / / / ] ] / ] ] ] ] ] ] ] ] ] [ [ [ [ [ [ [ Y o.P o.Y Y Y Y Y Y Y Y E Y E I E I U E U U U R U R R R Q Q Q ! ! ! *.*.*.*.=.=.=.;.;.;.;.;.6.6.;.i.i.6.i.i.i.i.p.p.p.p.p.p.8.8.8.8.8.8.u.u.u.u.u.y.y.t.t.r.r.r.r.r.w.w.w.q.q.q.w.w.e.r.r.r.y.r.y.y.y.u.u.u.u.8.8.8.8.8.8.8.p.p.p.p.p.p.i.6.i.i.;.i.;.;.;.;.=.=.=.=.=.! ! ! ! Q Q Q Q U U R R I R Y E Y Y Y Y o.P [ [ ] ] / / ^ A A g g s i 2 - > & # @ X o     o o # % : : : , : : : % o % o X     o X # & = 1 2 7 s g h k A / / / ] ] [ [ P Y Y Y Y Y E Y U I R U U U R Q Q Q ! Q Q Q R U R R R U U U R I U E U Y U Y E Y Y Y Y Y Y Y Y o.P Y P o.[ [ [ [ [ [ ] ] ] ] ] / ] ] ] ] / ] / ] / / / / ] / S / S / S S S / / S / / S / / / / / / / / ] / ] ] ] ] ] ] ] ] ] ] o.] o.] o.] o.] o.L Y P Y P Y Y Y Y Y Y E Y E I E R E I R U R R R R Q Q Q ! ! ! =.! =.Q *.*.! ! *.E *.*.#.*.*.$.*.$.*.$.-.-.$.",
"$.*.$.-.-.*.$.*.*.-.*.*.=.*.*.*.*.=.*.! *.! ! ! ! Q Q Q R R U R I R E I E Y E Y Y Y o.o.P ] o./ / / / b k g g g 7 1 - * $ + o o X X X @ @ % % : , : : , % % # X o X   X X o # # > - 2 7 s g h h ^ A S S / ^ S S / S / / / / / ] / ] ] ] ] ] ] ] [ [ [ [ [ [ o.P o.P Y o.Y Y Y Y Y E Y E I E I U I U U U U U R U R R Q Q ! ! ! *.*.*.*.*.=.=.;.;.;.;.;.6.6.;.i.i.i.i.i.i.i.i.p.p.p.p.p.8.8.8.8.8.8.u.u.u.u.u.u.y.t.t.t.r.r.r.w.w.w.q.q.q.w.e.e.e.r.r.t.y.y.y.y.u.u.u.u.u.8.8.8.8.8.8.8.p.p.p.p.p.p.i.6.i.6.;.i.;.;.;.;.=.=.=.! =.! ! ! ! Q Q Q Q U U U R I R Y E P Y Y [ o.P ] [ ] ] / / ^ k k g g i 2 1 - & # + o X X   o o # % % : : : , : : % % o o X X     @ # & & - 2 7 s s h k ^ S S ] ] ] ] [ o.P Y o.Y E Y I E U I R U R R U Q Q Q Q Q R U R U U U U U U I R Y U Y E Y Y Y Y Y o.Y P Y o.Y [ o.[ [ [ [ ] ] ] ] ] ] ] ] / ] ] / / / / / S S S / S S S A S A / A / ^ A / A A / A S ^ S S / S S S / G / / / / / / ] ] ] ] ] ] ] ] ] ] ] o.] o.] o.L P P o.P Y P o.Y Y Y E Y E I E I R R R U R R U R R Q Q ! ! ! =.! =.Q *.*.! ! *.E *.*.#.*.*.$.*.$.*.$.$.$.",
"-.$.-.$.*.-.*.-.-.*.*.=.*.*.*.*.=.! ! =.! ! ! ! Q Q R U R U U U U U U E Y E Y Y Y o.P Y ] o.] ] ] / S S A b g i i 7 1 = & $ o X     X o @ % % : % , , : % % % % @ X X X   o @ & & < 2 7 7 g g h A A ^ A A A A / A ^ A S S S / S / / ] / / ] ] ] ] ] ] ] ] [ [ [ [ o.[ Y P o.Y Y Y Y Y Y Y E Y E U E U U U U U R U R R Q Q Q ! Q *.! *.*.*.=.=.=.;.;.;.;.;.6.6.i.;.i.i.i.i.i.p.p.p.p.p.p.8.8.8.8.8.8.u.u.u.u.u.y.y.t.t.t.r.r.r.e.w.w.q.q.q.e.w.r.r.r.t.r.y.y.y.u.u.u.u.u.8.8.8.8.8.8.8.p.p.p.p.p.i.i.i.i.;.i.;.;.;.;.=.;.=.=.=.=.! ! ! ! Q Q Q Q U U R I R R I Y E Y Y Y P [ o.[ ] ] / / S b k g s p i 2 1 & & # X X     o o o # % % : , , : : % # % o X     o o @ # * > 2 7 7 g g h A A / / / ] [ [ [ o.Y Y Y Y Y E U Y R I U U U R Q Q Q R R U R R U U U E U I U Y U Y E Y Y Y Y Y Y Y o.Y o.[ [ [ [ [ [ ] ] ] ] ] ] ] / ] / / / S / S S S A ^ / ^ A A ^ A ^ A ^ A ^ h A ^ h A ^ A A ^ A A ^ A A ^ / A A ^ S ^ G / S / / / / ] / ] / ] ] ] ] ] ] ] o.o.] o.P P o.Y Y Y Y Y Y E Y E Y R E I R R I U R U R Q Q Q ! ! ! ! ! *.! *.! ! ! *.*.! *.*.#.*.$.*.-.#.-.#.",
"#.$.*.-.$.*.-.*.#.*.*.*.*.*.*.*.! =.! ! ! ! ! Q Q R U R R U U U E I E I E Y Y E Y Y o.P o.L ] [ ] / / ^ A g g g i 7 1 = & $ @ o X   X X @ % % % : : , % , % % o @ X X   X X @ # & * 2 2 p s g h h h h b h A A h A A A ^ A ^ S ^ S S ^ L / / / ] / ] ] ] ] ] [ [ [ [ [ [ o.Y o.P Y o.Y Y Y Y E Y Y U Y U U U U U U U R U Q Q Q ! ! *.*.! *.*.*.=.=.;.;.;.;.;.6.6.i.i.i.6.i.i.i.p.p.p.p.p.p.8.8.8.8.8.8.u.u.u.u.u.y.y.t.t.r.r.r.r.w.w.w.q.q.w.e.r.r.r.r.y.t.y.y.y.u.u.u.u.u.8.8.8.8.8.8.8.p.p.p.p.p.i.i.6.i.i.;.i.;.;.;.=.=.=.=.! =.! ! ! Q Q Q Q Q U U R I I R Y Y Y Y Y P Y [ [ ] ] / / G k k k g s i 2 - = $ # + X     o   # # % : : : , % : : % o o o X X   o @ # & * 1 2 s s g h k ^ S / ] ] ] [ [ [ o.Y Y Y E Y Y U U U U U R R U R R U R R U U U U E I U E Y E Y Y Y Y Y Y Y o.P Y [ [ [ [ [ [ ] ] ] ] ] ] ] / / / / S S / A A / ^ A ^ A A h h A h h h h h h h h h h h h h h h h h h h h A h A h ^ k A A A ^ A G A / / G S / / / / / ] ] ] ] ] ] ] o.] o.o.] o.P Y o.Y Y Y Y Y E Y R E I R R R R R U R U Q Q Q ! ! ! ! ! ! ! ! ! ! *.#.*.#.*.#.*.$.#.-.$.-.",
"$.*.$.#.*.$.*.*.*.*.*.*.! *.*.! =.! ! ! ! Q Q Q U R R U U U R R I E I E E Y E Y Y Y Y P o.o.[ ] ] / S G ^ k g g a 7 1 1 & $ @ o X   X X @ @ % : : , % , : % % % @ o   X   o @ # & * 1 2 7 s g g g g g g h g g h h h b h h A h A ^ A / A A / S / / / / ] ] ] ] ] ] [ [ [ [ [ [ Y o.Y Y o.Y Y Y Y E Y E I E I E U U U R R U R Q Q Q ! Q *.! *.*.=.=.=.=.;.;.;.;.;.i.;.i.i.i.i.i.i.p.p.p.p.p.p.8.8.8.8.8.8.u.u.u.u.u.y.y.t.t.r.r.r.r.w.w.w.q.w.e.w.r.r.t.r.y.y.y.y.u.u.u.u.8.8.8.8.8.8.8.p.p.p.p.p.p.i.i.i.i.;.i.;.;.;.;.;.=.=.=.=.! ! ! ! Q Q Q Q U U U R I R Y E Y Y Y Y o.[ [ [ ] ] ] / ^ S ^ g g s i 2 1 > & # @ o o     o o # % % : : , , : : % # % o X     o @ @ & = 1 2 7 p g h k A / / / ] ] [ [ Y [ Y Y Y Y Y U E I R U U R U R R U R U U U U E U I U Y Y E Y Y Y Y Y P o.Y P o.[ [ [ [ [ ] ] ] ] ] / ] / S S S S / A ^ A A ^ h A h h h h h h h g h g g g g g g g g g g g g g g g g h g g g g h h k k k k k k k ^ A A ^ S S G / S / / / / / ] / o.] ] o.] o.L o.o.Y o.Y Y Y E Y E Y I E I R R I U R U R R Q Q Q ! ! ! ! ! ! ! ! ! E *.E *.#.*.#.#.*.$.#.#.",
"#.-.*.$.*.*.#.*.*.! *.! *.! ! ! ! ! ! ! Q Q R U R U U U U E I R R Y E Y Y Y Y Y Y o.P Y [ [ [ ] ] / / ^ A k k g a i 2 1 & & + o X X X X @ # % % : : , , % : % % @ o o     X o @ : > > 2 7 s s s g s s g s g g g g g g g h h h h h A h ^ A A ^ S / S S / / ] / ] ] ] ] [ [ [ [ [ [ o.Y Y Y Y Y Y Y E Y E I U I U U U U U R R R R Q Q ! ! *.*.*.*.*.=.=.;.;.;.;.;.6.6.;.i.i.i.i.i.i.p.p.p.p.p.p.8.8.8.8.8.8.u.u.u.u.u.y.y.t.t.r.r.r.r.w.w.w.q.e.e.r.r.r.y.r.y.y.y.y.u.u.u.u.u.8.8.8.8.8.8.8.p.p.p.p.p.i.i.i.;.i.;.;.;.;.;.=.=.=.! =.! ! ! ! Q Q Q Q U U I R R I Y E Y Y Y Y Y [ [ [ ] ] / / ^ A k g s s 7 1 - & & + X X X   o o # # % : : : , % : % % o o o X     o # # * 1 ; 2 s g g h ^ A S ] ] ] ] [ o.Y P Y Y Y U Y I U I R U U R U R R U U U U I U Y E Y E Y Y Y Y Y o.Y Y [ o.[ [ [ [ ] ] ] ] ] / / / / S / ^ A ^ A A A A h b h h g h g g g g g g g s g s s g s s g s s g s g s s s g s g g g g g g g g g h h h k h k k k b A ^ S S S S S S / / ] / ] ] ] [ o.o.] P P Y o.Y Y Y Y Y E Y E Y R I R R I R U R R U Q Q Q ! ! ! ! ! ! ! ! ! *.E *.#.*.#.#.*.$.#.",
"#.#.#.#.*.#.*.! *.#.! *.! ! ! ! ! ! Q Q R R U R U R U U R I R Y Y E Y Y Y Y Y o.P Y o.o.[ [ [ ] ] / / S S k g g s i 2 1 = $ $ o o     X o @ @ % : : , % , : % % @ @ X   X X o @ # & = 1 7 8 7 s 7 p s 7 p p s s s s s g g g g g h g h h h A h A A ^ S A / / / / / ] ] ] ] ] [ [ [ [ P o.P o.P Y Y Y Y Y E Y E I E U I U U U U R R Q Q ! ! Q *.! *.=.=.=.=.;.;.;.;.;.6.6.i.6.i.i.i.i.p.p.p.p.p.p.8.8.8.8.8.u.u.u.u.u.y.y.y.t.t.r.r.r.e.e.w.w.w.w.r.r.r.r.y.r.y.y.u.u.u.u.u.8.8.8.8.8.8.8.p.p.p.p.p.i.i.6.i.i.;.i.;.;.;.;.=.=.=.=.! =.! ! ! Q Q Q Q U U R R I R U Y Y Y Y o.[ Y [ ] [ ] / / S k k k g p i 2 > = # # o o       o o % % : : , : , : % # % o X X   o o @ # & = 1 7 p s g h A A / / / ] [ [ [ P o.Y Y Y Y Y E E R I U U R R U U U Y U I U Y E Y E Y Y Y Y o.Y P o.[ [ [ [ ] ] ] ] ] ] / / / / S / A A A A A h h h g h g g g g s g s g s s s 7 s 7 a p 7 p 7 7 7 p 7 7 7 7 p s 7 p 7 p s p s s s s g g g g g k g k k k k k b k b S S S S S / / ] ] ] ] [ ] L o.o.P P P o.Y Y Y Y E Y E Y R E I R U U R U R R Q Q ! ! Q ! ! Q ! ! ! E *.E *.#.*.#.#.*.#.",
"#.*.#.*.#.*.#.*.E *.! ! ! ! ! ! Q Q Q R R U R U R I U R Y R Y E Y Y Y Y Y o.P P o.[ [ [ [ ] ] ] ] ] / / ^ A k g g i 2 1 , & $ @ X X   X X @ % # : : : , % : % % # @ o X   X X @ # & > 1 2 2 2 2 7 2 7 7 2 7 7 7 7 s p 7 s s s g s g g g g h h h A h ^ A A S / S / / / ] ] ] ] ] [ [ [ [ o.Y o.Y Y Y Y Y Y E Y E I U E U U U U U R U Q Q ! ! ! ! *.! *.=.=.=.;.=.;.6.;.6.6.i.6.i.i.i.i.p.p.p.p.p.p.8.8.8.8.8.u.u.u.u.u.u.y.y.t.r.r.r.r.e.w.w.w.e.r.r.r.r.t.y.y.y.y.y.u.u.u.u.8.8.8.8.8.8.8.p.p.p.p.p.i.i.6.i.i.;.i.;.;.;.;.=.=.=.=.! =.! ! ! Q Q Q Q U U U R I E Y E Y Y Y P [ o.[ ] ] / / G ^ k g g s i 1 ; = & # + X X   o   # o % : : : , : : : % # o o X X     @ # & > 1 2 7 s g h k A / / ] ] ] [ [ P Y o.Y Y Y E I I E U R U U U U I U U U E Y E Y Y Y Y Y o.P Y [ o.[ [ [ ] ] ] ] ] / / / / S / A A A ^ A h h h h g g g s s g p s p 7 p 7 7 7 7 7 2 7 7 2 7 2 2 2 2 2 2 2 2 2 2 2 7 2 7 2 7 7 7 7 p 7 7 s s g p s g g g k g k k k k k k S S S S S / / ] ] ] ] o.] o.] o.P P P o.Y Y Y Y E Y Y R R I R R I R U R U Q Q Q ! ! Q ! ! E ! ! ! #.! *.#.*.#.#.#.",
"#.#.*.#.! #.*.E *.! ! ! ! ! ! Q Q R R U R R U R I R R Y E Y E Y Y Y Y o.P Y o.o.[ [ [ ] ] ] ] ] / / G S A ^ x k s a 7 2 = & $ @ o X X   o o @ % : % , % , : : % % @ X X   X o o # # : - 1 1 - 1 1 - 1 2 1 2 2 2 2 2 2 7 7 7 p 7 7 s p g s g g g g h h A h ^ A A / S / / / / ] ] ] ] ] [ [ [ P o.P Y Y Y Y Y E Y Y E U I U U U U U R Q Q Q Q Q *.! *.*.*.=.=.=.;.;.;.;.;.6.;.i.i.6.i.i.i.p.p.p.p.p.p.8.8.8.8.8.u.u.u.u.u.y.y.t.t.t.r.r.r.w.w.w.e.w.r.r.r.y.r.y.y.y.u.u.u.u.8.8.8.8.8.8.8.p.p.p.p.p.p.i.i.i.i.;.i.;.;.;.;.=.=.=.=.=.! ! ! ! Q Q Q Q Q U U R I R I E Y Y Y Y o.Y [ [ ] ] ] / ^ S k k g s i i 1 > & & @ X o     o o # % % : : , : : : % % o o X     o @ # & & - 2 7 s g g k A S / / ] ] ] [ o.[ Y Y Y E Y Y E I R I U U U U E U U Y Y E Y Y Y Y Y P Y o.[ [ [ [ ] ] ] ] ] ] / / / S A ^ k A ^ h h g h g g s g s s p p p 7 7 7 7 2 2 2 2 1 2 2 1 - 1 1 1 - 1 1 1 - 1 1 1 1 - 1 1 2 2 1 2 2 2 2 7 7 7 7 7 i p s s s s g g g g k k k b A b S G ^ / / / / ] ] ] ] o.] o.P o.Y o.Y Y Y Y Y E Y Y E R I R U U R R U R Q Q Q ! ! Q ! ! E E ! #.! #.#.*.#.#.",
"#.#.#.! #.*.E ! ! E ! ! ! Q ! Q R R U R U U R I E I E Y E Y Y Y Y Y o.Y o.[ [ [ [ [ ] ] ] ] / / G S ^ S A k k g g s i 1 1 = $ # o X   X   o @ % % : % , , % : % % @ @ X X X X o @ % & > * > > * * > > > - > - 1 1 - 2 1 2 2 2 7 7 7 7 7 p s s s g g g g h h A b A ^ S S / / / ] ] ] ] ] [ [ [ [ o.P o.Y Y Y Y Y E Y Y U Y U U U U U R R Q Q Q Q *.Q *.*.! =.=.=.;.=.;.;.6.6.;.i.i.6.i.i.i.p.p.p.p.p.p.8.8.8.8.8.u.u.u.u.u.y.y.y.t.r.r.r.r.w.w.w.r.e.r.r.r.y.y.y.y.u.u.u.u.u.u.8.8.8.8.8.8.8.p.p.p.p.p.i.i.i.i.;.i.;.;.;.;.;.=.=.! =.! ! ! ! ! Q Q Q U U I R I R I Y E Y Y [ o.P [ [ ] ] / / ^ A k g g s 7 2 - > # + + X X   o o # # % : : , , : : : % # X o X X   o @ # * > 2 7 7 g g h ^ A S ] / ] [ [ [ Y o.Y Y Y E Y U U R U U U I R I E Y E Y Y Y Y Y [ Y o.P [ [ [ ] ] ] ] ] / / / S S A ^ A k k h g g g g s s s p 7 p 7 7 2 2 2 2 2 1 1 - 1 1 - > 1 = > * > * > = > * > = > = : > = > > 1 - > 1 1 1 1 2 1 2 2 7 7 7 i p i p s s s g g k g k k k A S S S S / / / ] ] ] o.] o.] P P o.P Y Y Y Y E Y Y R R Y R R I U R U R R Q Q ! Q Q ! ! E ! E #.! #.E #.#.",
"#.E #.#.E ! E E ! ! Q ! Q Q R R R U R U U R I E R E Y E Y Y Y Y Y o.P [ o.[ [ [ ] ] / ] / / / G A ^ A b k k k g g s i 7 1 > & # @ X X   X o @ # % % , : , : : % % @ @ X     X o @ % % : : % & : : : & & > & > * * > * 1 * 1 - 2 1 2 2 7 7 7 7 p p s s g g g g h h h A ^ A S / / / / ] ] ] ] [ [ [ o.[ Y [ Y Y Y Y Y E Y U E I E U U U U U Q Q Q Q *.Q *.*.*.=.=.=.;.;.;.;.;.6.;.i.i.6.i.i.i.p.p.p.p.p.8.8.8.8.8.8.u.u.u.u.u.y.y.t.t.r.r.r.r.w.e.w.r.r.r.r.y.r.y.y.y.u.u.u.u.8.8.8.8.8.8.8.p.p.p.p.p.p.i.i.i.;.i.;.i.;.;.;.=.=.=.=.=.! ! ! ! Q Q Q Q U U R R R I Y E Y Y Y Y Y P [ [ ] ] ] / S A A g g s i 2 1 & & # O X X     o o # % : : : : , : % % o % X X     o @ # & = 1 2 a s g h k ^ S / ] ] ] [ [ o.[ Y Y Y Y U Y E I U U U E I E Y E Y Y Y Y Y o.Y o.[ [ [ ] ] ] ] ] / / S S A ^ A ^ h h h h g g g s s s p 7 7 7 2 2 1 2 1 1 1 > > = > > : : : : : : : # : : : # : : : # : : : : : & : : : = > = > = 1 - 1 1 1 2 2 2 7 i i i p p p s g k g k k k b S S S S / / / ] ] ] ] o.] o.P Y o.P Y Y Y Y E Y Y R E I R U U R U R Q Q Q Q Q Q E ! E ! E #.E #.#.E ",
"E #.E E #.E ! ! R ! R Q R R R R R R U U R I E I Y E Y Y Y Y Y o.P P o.[ [ ] ] ] ] ] ] / / / A ^ A k k h g h g s s s p 2 1 = : $ o o X     o @ # # % % , % , : : % % o o X     X o # % # % # % # % # % % % % # : : : & : > & > * 1 = 1 1 2 2 2 7 7 7 p s s g g g h h h h ^ A A S / / / ] ] / ] [ [ [ [ o.Y o.Y Y Y Y Y E Y U U I U I U U U U Q Q Q Q ! ! *.! *.*.=.=.;.;.;.;.6.6.;.i.i.i.i.i.i.i.p.p.p.p.8.8.8.8.8.8.u.u.u.u.u.y.y.t.t.r.r.r.e.w.w.r.r.r.t.y.y.y.y.y.u.u.u.u.u.8.8.8.8.8.8.8.p.p.p.p.p.p.i.6.i.i.;.;.;.;.;.;.=.=.=.! =.! ! ! Q Q Q Q Q U U I R R I Y Y Y Y Y o.P P [ [ ] / / / ^ k k s g a 7 1 = # # # X X     o o # % % : , : : : : % % o o X X   o o # & > 1 2 7 s g h k A ^ S ] / [ [ [ [ Y o.Y Y Y Y E I R Y R Y U Y E Y Y Y Y Y Y o.P [ [ [ [ [ ] ] / ] / / S ^ A A k k h h g g s s s p 7 7 7 2 2 2 1 1 - 1 > = > & > & : : % % % % % # % # % # % # % # % # % # % # % # % % % % % : : : : : > = > 1 - , - 1 2 2 i i i i i p s g g k k k b A S S S S / / / ] ] ] o.] o.] Y P o.Y Y Y Y E Y E I E I R R U R R U R Q Q Q Q Q E E E E E #.E #.#.",
"#.E #.E E E E E E Q R R R U R R U U U R I R R Y E Y Y Y Y Y o.P o.[ o.[ ] ] ] ] / / S S A A b k k k h g g s s p i 7 7 2 2 1 & $ # o X   X X o @ % % , % , : : : % % @ o o   X X X % o # o % o # o # @ # @ # % @ % # % % % : : : : > * > > - 1 1 2 2 2 7 7 p s s s g g h h h A ^ A S / / / ] ] ] ] ] [ [ [ P o.Y Y Y Y Y Y E Y E E U U U U U U Q Q Q ! ! Q *.*.*.*.=.=.=.;.;.;.;.6.;.i.6.i.i.i.p.p.p.p.p.p.8.8.8.8.8.8.u.u.u.u.y.y.y.r.t.r.r.r.w.e.w.r.r.r.r.r.y.y.y.u.u.u.u.u.8.8.8.8.8.8.8.p.p.p.p.p.i.i.i.i.;.i.;.i.;.;.=.=.=.=.=.! =.! ! ! Q Q Q U U U R R I R E Y E Y Y P o.[ o.] ] ] / S S ^ g k s p 2 1 = = & @ X o   o   o # # % : : : , : : % % o o X X     @ @ & & = 2 7 p g g k k S / / ] ] [ [ P o.Y Y Y Y E U Y U U I U Y E Y Y Y Y Y P o.[ [ [ [ ] ] / ] / / S S A ^ A k k h g g g s s p p 7 2 7 2 ; 1 1 1 > = > : & & % % % % % # % # # # # # o % o # o % o # o % o # o # o # # # # # # % # # % % : : : : : = , = , - 2 1 2 i i i i p s g g g g k A b A S S / / / ] ] ] ] ] o.] o.P Y o.Y Y Y Y Y Y E U E I U U U R U R R R R R R E E E E E E E E ",
"E E E E E E R E R R R R R R U U U U R Y R Y Y E Y Y Y Y o.P P ] o.] ] ] ] ] / / / / A ^ A k k h g g g s s p i i 7 2 1 ; 1 1 : : @ o X X   X X o % % : : , , % : % % % X X X X X X o o o o o o o o o o o # o o # o # @ # # @ % # % % : & : * > - > 1 2 2 2 2 7 p p s s g g h h h ^ A A S S / L / ] ] ] [ [ [ [ o.Y P o.Y Y Y Y I U U Y U U U U U U Q Q Q ! ! *.! *.*.=.=.;.;.;.;.;.6.6.i.i.6.i.i.i.p.p.p.p.p.8.8.8.8.8.u.u.u.u.u.y.y.y.t.r.r.r.r.w.r.w.r.r.y.y.r.y.y.y.u.u.u.u.u.8.8.8.8.8.8.8.p.p.p.p.p.i.i.i.i.;.i.;.;.;.;.;.=.=.=.=.! ! ! ! Q Q Q Q Q U U I R I Y U Y Y Y Y P [ [ [ ] ] ] S ^ A k g g s i 2 1 & & + + X     o o # # % % : , : , : % % % X X X X   o @ # * > 1 2 s s g h ^ A S / ] ] ] [ [ [ o.Y Y Y Y Y U Y U Y E Y Y Y Y o.Y P o.P [ [ ] ] ] ] ] / / / ^ A A k k h g g g s s p 7 7 7 2 2 1 1 1 = > & : : % % % % # # # # o # o @ @ @ @ o o o o o o o o o o o o o o o o o o # o o # o # # # # # # % % % % : : , > , - 1 1 2 i i i i i s g g g g k b S b S S S / / ] ] ] ] o.o.] P P o.Y Y Y Y E Y E I R U R I R R U R R R R R U E R E E E Y E ",
"Y E E E E R E R R R R U R U R U U E I R Y Y E Y Y o.Y P Y ] o.o.[ ] ] ] / / G / / A ^ k k k g g g s p i 7 7 2 2 1 - 1 > > : : % # @ X     X o @ # % % : , % , : : % @ @ @ X   X X X X X X X X X X X X X X X X o o o o o o % o # # # # % % : : : > * 1 1 - 2 2 2 7 p p s s g g h h h A ^ A S ^ ] / ] ] ] ] [ [ [ P o.Y Y Y Y Y E Y Y U E U U U U U U Q Q Q ! Q *.*.*.=.=.=.=.;.;.;.6.;.6.6.i.i.i.i.p.p.p.p.p.p.8.8.8.8.8.u.u.u.u.u.y.y.t.t.r.r.r.r.w.r.r.r.r.r.y.y.y.y.u.u.u.u.8.8.8.8.8.8.8.p.p.p.p.p.p.i.i.i.;.i.;.;.;.;.;.=.=.=.=.! ! ! ! ! Q Q Q Q U U R R R I R Y Y Y Y Y o.Y [ [ ] ] / / G A k k g s p 2 1 = & # @ X o     o o # % : : : , : : : % o % X X     o @ # # = 1 7 7 s g h A A ^ / ] ] ] [ [ Y [ Y Y Y Y E Y U Y E Y Y Y Y Y Y P o.[ [ [ ] ] ] ] / / S / A A k k h g g g s s 7 7 7 2 2 1 - 1 > > & : % % % % # # % o % o @ o o @ X o X X X X X X X X X X X X X X X X X X X X X X X X o o o @ o @ o # @ # # # % % % : : > > , - 1 1 2 7 i i p a g g g k g A A b S S / / / ] ] ] ] o.] o.P Y Y o.Y Y Y Y E Y R I U U U R R U R R U R U E E E E E E ",
"E U E U E R R R R U R R R U I R E I E Y E Y Y Y Y P o.o.] o.] [ ] ] ] / / G ^ A A A k k g g g s s i i 7 2 1 - 1 , > : : % % % # # @ X o   X X o # # % : : , % : : % % o X X     X   X   X   X   X X X X   X X X X X X X X o o @ @ o % o % # # % : & : * > 1 1 1 2 2 7 7 p s s g g h h h ^ A / A / ] / ] ] ] [ [ [ [ o.Y Y Y Y Y E Y I U I E U U U U U Q Q Q ! ! Q *.*.=.=.=.;.;.;.;.6.;.i.i.;.i.i.i.i.p.p.p.p.p.8.8.8.8.8.u.u.u.u.u.y.y.t.r.r.r.r.w.r.r.r.r.r.y.y.y.y.u.u.u.u.u.8.8.8.8.8.8.8.p.p.p.p.p.p.i.6.i.;.i.;.i.;.;.;.=.=.=.=.=.! ! ! ! Q Q Q Q U U U I R I E Y Y Y Y P [ o.[ [ ] ] / ^ S k k g s a 2 2 > & # + X X X   o o # % % : : , : : : % % o o X       o # & * - 1 7 s g g k A S S / ] ] [ [ o.Y P Y Y E Y U Y E Y Y Y Y Y o.P [ [ [ ] ] ] ] / / / A A A b k h h g s s p p 7 7 2 1 1 - > > & : : % % # # # o # o @ o o o X X X X o X X   X X X X X   X   X   X   X   X X X X X X X X X X X X X X @ X @ @ @ # o % # # % % > : , , = 1 - 2 i i i i s g g g g A A S b S S / / ] ] ] ] o.] o.] Y Y Y Y Y E Y E Y U E I U U R R U R R U R U E E Y E E ",
"E Y E E R E U R U R R U U R R E I E Y E Y Y o.Y P o.[ [ o.[ ] ] ] / / S G ^ A k k k g g g s p i 7 7 2 1 - , , > : : % # % % @ @ @ o o X   X X o @ % % : : , , : : % % @ @ X X X   X                       X   X   X X X X X X X X o X @ @ o # # @ % % : : & > - > - 2 2 2 7 p s s g g h h k A A S S / / ] ] ] [ [ [ [ Y P o.Y Y Y Y E Y E I U U U U U U Q Q Q Q *.! ! ! =.=.=.=.;.;.;.6.;.6.i.6.i.i.i.p.p.p.p.p.8.8.8.8.8.8.u.u.u.u.y.y.t.t.t.r.r.r.w.e.r.r.y.r.y.y.y.u.u.u.u.u.8.8.8.8.8.8.8.p.p.p.p.p.i.i.i.i.i.i.;.;.;.;.=.;.=.=.=.! =.! ! ! Q Q Q Q U U I R R E I Y E Y Y o.Y [ [ [ ] / / G ^ A k g g p i 1 - & & # X o     o o o % % : : : , , : % # % X X X   o o @ # * > 2 7 7 g g k k ^ / / ] ] [ [ [ P o.Y Y Y Y Y E Y Y Y Y P o.[ [ [ [ ] ] ] ] / / / A A ^ k k g g s s p 7 7 2 2 1 - 1 > : : : % % # % o % o @ o @ X X X X X   X X X   X   X               X   X   X                     X   X X X X X X X X o X @ @ @ # @ % # % % % > , , 1 1 1 7 7 i i i g g g g g A S b S / / / ] ] ] o.] o.P P o.Y Y Y Y Y E E I E U U R U R R U R U U E U E E T ",
"E E U E U U R U R U U R U I E I E Y E Y Y Y Y P o.P o.] [ ] ] ] / / / S ^ A k k g g g s s i i 7 2 1 1 - > : : % % # # % o @ @ o o X X X X   X o o % % % : : , : : % % # o o X X X X X X X X X X X X X   X                 X X   X X X X X o o @ % o % # % % & : = > > 1 2 2 2 7 p s s g g h h ^ A ^ S / / ] ] ] ] [ [ [ o.P Y o.Y Y Y Y E U Y U U U U U Q Q Q Q ! *.*.! *.*.=.=.=.;.;.;.6.;.i.i.6.i.i.i.p.p.p.p.p.8.8.8.8.8.u.u.u.u.u.y.y.t.t.r.r.r.e.r.r.r.r.y.t.y.y.y.u.u.u.u.u.8.8.8.8.8.8.8.p.p.p.p.p.i.i.i.i.;.i.;.;.;.;.=.=.=.=.! ! ! ! ! Q Q Q Q Q U U I R I E Y Y Y Y Y o.P [ [ [ ] ] / G b k g g s i 2 1 = # # +   X     o # o % : : , : : : % % o % X X X   o @ # & > - 2 s s g h ^ A / / / ] ] [ [ o.P Y Y Y Y E Y Y Y P Y o.P [ [ ] ] ] ] / / S A A A k h g g g s p p 7 2 2 1 - 1 > : : : % # # # o @ @ X o X X X X X X     X               X   X X X X X X X X X X X X X X X   X   X           X   X X   o   o   o o o # o # # % # % % > > , , 1 7 7 7 i i g g g g k A A A S S / / ] ] ] ] o.] o.P P o.Y Y Y Y Y E I U R I U U U R U R U E Y U E E ",
"U U Y U U U U U U U U I U E I E Y E Y Y Y Y P o.] o.[ ] ] ] / / S S S ^ k k k g g s p i 7 7 2 1 - 1 > : : % # % # @ @ o o X X X X X X   X   X   # @ % % % , : , : : % % @ o X X X X o X o X X X X X X X X X X X X X X X X       X   X   o X X X o o o @ # @ % % % : = > = 1 2 2 7 7 p s s g h h h A A A / / / ] ] ] [ [ [ P o.Y Y Y Y E Y Y U Y U U U U U U Q Q Q Q Q *.*.! =.=.=.;.;.;.;.6.6.6.i.6.i.i.i.p.p.p.p.p.8.8.8.8.8.u.u.u.u.u.y.y.t.t.r.r.r.e.r.r.y.r.y.y.y.y.u.u.u.u.8.8.8.8.8.8.8.p.p.p.p.p.p.i.i.i.;.i.;.i.;.;.;.;.=.=.=.=.=.! ! ! Q Q Q Q U U R R I R I E Y Y Y Y P Y [ [ ] ] / / ^ S b k g s p 2 1 = & # @ @ X     o o # % : : : : , : : % % @ o X     o @ # # = 1 2 7 s g g k A S / ] ] ] [ [ P o.Y Y Y E Y Y o.Y Y o.[ [ [ ] ] ] ] / / S ^ A ^ h h g g s s s 7 2 2 1 1 = > : : % # # % @ @ @ o o X X o X X   X             X X     X X X X X X X X X X X X X X X X X X X X X X X X X X X X                   X X X o o o # @ % # # % % : > = , 1 2 7 7 i i g g g g A b A b S S / / ] ] ] o.] o.P P o.Y Y Y E Y E E I E R U U U U U E U U U Y U ",
"Y U U E U U U U U U U E I R Y E Y Y Y Y o.P o.P o.] ] ] ] / / S S ^ k k k g g s p p i 7 2 1 1 1 > : : % # # % o @ o o X X X X X   X         X o o # % % : : , : : : % # o o o X o o o o X o o X o o o o X o X X X X X X X X X X       X   o   X X X o o o % o % # % % & > = > 1 2 2 7 p p s g g h h ^ A A S S / ] / ] ] [ [ [ o.Y P Y Y E Y E U Y U I U U U U Q Q Q ! ! ! *.*.=.=.=.;.=.;.;.;.6.6.i.i.i.i.i.p.p.p.p.p.8.8.8.8.8.u.u.u.u.u.y.t.t.r.t.r.r.e.r.r.y.r.y.y.y.y.u.u.u.u.u.8.8.8.8.8.8.8.p.p.p.p.p.i.i.i.;.i.;.;.;.;.;.=.=.=.=.! =.! ! ! Q Q Q Q U U U R I R Y U Y Y Y o.P o.[ [ ] ] / / A A k g g a 7 1 1 = # + X X X o   o # # % : : , : : : % % o o X X X   o @ & * > 2 2 p s h h A ^ S / ] ] ] [ o.Y [ Y Y Y Y o.Y o.P [ [ [ [ ] ] / / S S A A h h g g g p p 7 2 2 1 1 - > : : % # # # o @ X o o X   X X               o   X X X X o X o X X o o X o o o o o o X o X o o o o o X o X o X X X X X X X             X X X X X X o o o # # # # % % > > > , 1 7 2 7 i i g g g g A A A S S S / ] ] ] o.] o.P P o.Y Y Y E Y Y E U I E U U U U U U E U E Y ",
"E U E U U E U U I U E I R Y E Y Y Y Y P P o.] o.[ ] ] ] / S S S S k k g g g p i i i 2 1 1 - , : % % # % # @ o o o X X X X X         X X X o   X X @ % % : : : , : : % % % o X % o o o o # o X % o o o o @ X o X o o o X X X X X     X         X   X X X X o o o # # @ % % : > > - 1 2 2 7 i s s g g h h A ^ / S / ] ] ] ] [ [ [ P Y o.Y Y Y Y Y U E U I U U U U Q Q Q Q *.! *.*.=.=.=.;.;.;.6.;.6.i.6.i.i.i.p.p.p.p.p.8.8.8.8.8.8.u.u.u.u.y.y.y.t.r.r.r.r.r.r.r.y.r.y.y.u.u.u.u.u.8.8.8.8.8.8.8.p.p.p.p.p.i.i.6.i.i.;.;.i.;.;.;.=.=.=.! =.! ! ! ! Q Q Q Q U U R I R I R Y Y Y Y Y o.[ [ [ ] ] / G ^ A k g s p i 2 1 & # # @ X       X # # % : : : , , : % # % @ X X   o o @ # & = 1 7 a g g h A A / / ] ] [ [ [ [ Y o.Y Y Y P Y [ [ [ [ ] / ] / / S ^ A ^ h h g g s p 7 2 2 2 - 1 = : % % # % @ @ o o o o X X   o           o   X X X o X X X @ X @ X o @ o X # o o o o @ X % X % o o @ o o @ o o o X o o X X o X   o   X X X       X X X X X X o o # # @ # % % > > = , 2 2 7 i i a g g g A b A S S / / / ] ] ] o.] o.P Y o.Y Y Y E Y I E I E I U U U Y U U Y U ",
"U Y U U U I U E U E I E Y E Y Y Y o.P Y o.[ [ ] ] ] / / S S ^ k k k g g s p i i 2 2 1 = > : : % # # @ @ o o o X X X X       X X X X X X o X o o o @ % % % : , % , % : % # # # o % # o % o # # o % o # o o % X % X o o @ X o o X @ X X X           X   X X X X o o @ % # % # % : > = > 1 2 7 7 p s g g h h A A ^ S / / ] ] ] ] [ [ o.Y [ Y Y E Y Y U U E U U U U R U Q Q Q *.! *.*.=.=.=.;.;.;.6.;.6.i.6.i.i.i.i.p.p.p.p.8.8.8.8.8.u.u.u.u.u.y.y.t.r.t.r.r.r.r.r.y.t.y.y.y.y.u.u.u.u.8.8.8.8.8.8.8.p.p.p.p.p.i.i.6.i.i.;.;.;.;.;.;.=.=.=.=.! ! ! ! ! Q Q Q Q U U R I R Y E Y Y Y Y [ Y [ [ ] ] ] / G b k k g s i 1 ; = & # + X X   o o o # % % : , : : : : % # o o X X     @ # & > - 2 7 s g h ^ A A / / ] [ [ [ [ Y Y Y [ Y o.P [ [ ] ] ] ] / / S A A h h h g s p 7 7 7 2 - > > : : % # # # o @ o o X X X               X X X o X o X o @ @ o o @ @ @ @ o # # o # # # # o # o # o # # o % o o # o o % X o @ @ X X o X o   X X X X         X X X X X o o # # # # % % > > > , 2 2 7 7 a g g g g A b A S S / / ] ] ] o.] o.P Y P Y Y Y E Y U U I E U I U U E U E Y ",
"Y E U Y U U E I U I Y E Y Y Y o.Y P P o.] [ ] ] ] / / S S S k S g g g s i 7 i 2 - , = > : % % @ @ # o o X X X X       X X X X X X o o o o o @ o @ o o % % : % , : : : % % % # % % # % # % % # % % # % % # # % o % o @ X % o o @ X o o o X X o   X         X   o X X o o o # # % : : = 1 - 2 2 7 7 s s g g h A A A S / / ] ] ] [ [ [ [ Y o.Y Y Y E Y Y U I U U U U R R Q ! Q ! *.! =.=.=.=.;.;.;.;.6.;.i.i.i.i.p.p.p.p.p.p.8.8.8.8.8.u.u.u.u.y.y.y.t.r.r.r.r.r.r.t.t.y.y.y.u.u.u.u.8.8.8.8.8.8.8.p.p.p.p.p.p.i.i.i.i.;.i.;.i.;.;.=.=.=.=.! =.! ! ! Q Q Q Q Q U U I R R I Y E Y Y Y Y o.[ [ [ ] ] / ^ S k k g s i i 1 > & & @ X o   X X o % # : : : : , % : % % o X X     o @ # & & 1 2 7 s s h h k / / ] ] ] ] [ Y P o.Y Y o.[ [ [ ] ] ] / / S A A ^ h h g g s p 7 7 2 1 > > > : % % # % @ o o o   X X             X X X o X X o @ X @ @ o o o # o # # # # % # % % # % # % % % % % % % % # % % # # % o # # o o o # o o o o o o o X X X X X     X X X X X o o o # @ # % : > > > 2 2 7 7 i a g g A g A b S S / / ] ] ] [ [ o.P o.Y Y Y Y E Y Y E U Y U U E U Y U T ",
"T T U U I E I E Y E Y Y E Y o.Y o.P o.] o.] ] / ] S ^ S k b k g g g i i 7 7 1 1 1 > : % # # @ # o o X X X X X   X X X X X o o o X o o o @ @ @ @ @ % # % % : : , , % : : % % : % % : % : % : % : % % % % % % % % % % # # o # o o @ o o X @ X X o X X X       X   X o X o X @ @ % # % : : > 1 1 2 2 p s s g g h h ^ A S S / ] ] ] ] [ [ [ Y Y [ Y Y E Y T E U I U U U R U Q Q ! Q *.*.=.=.=.;.;.;.;.6.6.6.i.i.6.i.i.p.p.p.p.p.8.8.8.8.8.u.u.u.u.y.y.t.t.r.r.r.r.r.r.y.y.y.y.u.u.u.u.u.u.8.8.8.8.8.8.8.p.p.p.p.p.i.i.i.i.;.i.;.;.;.;.;.=.=.=.! =.! ! ! Q Q Q Q U U U I R R I Y Y Y Y Y P [ [ [ ] ] / / ^ A k g g s 7 2 - > # # X X     o o o % % : : , : , : % % % o X X X   o @ # * > 2 7 7 g g h ^ A S / ] ] [ [ [ o.P Y [ [ [ [ ] ] ] / / / ^ A A h h g s p 7 7 7 1 1 = = % % # # o o @ o o   X X       X X X X X X o o o @ X @ @ @ @ @ % # % % % % % % % % % % % : % : % : : % : % : % % % % % % % % # % # # @ @ @ @ o o o o o o o X X X X X       X X X X o o # # @ # % > > > , ; 7 7 7 i g g g A A A A S S / ] ] ] [ o.] Y o.P Y Y Y E Y Y E U Y U I U E Y E ",
"T E U Y E I E Y E Y E Y Y Y P Y P L o.[ ] ] ] / S S S S k k g a g i 7 7 7 1 = , : : # # % # o o X X X X X     X X X X X o o o X # o @ @ @ @ @ % % % % % % : % , % , % : : : % : : : : : % : : : : : : % : % : % % % % % % % % % # # o % o o @ o o o X X X       X     o o o o @ o # % : & : - 1 2 2 7 7 s s g h h A A ^ / / / ] ] ] [ [ P o.Y o.Y Y E Y U Y U U U U U R Q Q Q *.! *.! =.=.=.=.;.;.;.;.i.;.i.i.i.i.p.p.p.p.p.8.8.8.8.8.u.u.u.u.u.y.y.t.t.r.r.r.r.y.r.y.y.y.y.u.u.u.u.8.8.8.8.8.8.8.p.p.p.p.p.p.i.i.i.;.i.;.;.;.;.;.=.=.=.=.=.! ! ! ! Q Q Q Q U U R R R I Y E Y Y Y P o.Y [ [ ] ] / / G A k g g s i 2 1 & & # + X o     X # # % : : : , : : % % o @ X X     o @ # & * 2 2 a s g h A A / / / ] ] [ [ P Y o.[ [ [ ] ] ] / S S A A k h g g s p 7 7 2 1 > = > % % # % @ @ o o   X X         X X   o X X @ X @ o o % o # # # % % % % % : % : : % % : : % : : : % : : % : : : : % : : % : % % % % % % % % % # # # # o o o o o o o X X X X X   X X X X X o o @ % # # # > > , , 2 7 i i a g g g A b S S / / / ] ] ] o.] P o.Y Y Y Y Y E Y Y U Y U E I E T ",
"T T Y U E Y Y E Y Y Y Y Y P o.P o.o.] ] ] ] / / S A b k g g g g i 7 2 2 1 = > : % # # @ o o o X X X X     X X X X o X o o o o # o # # # % % % % % % : % % % , % , % , % , % 3 % , : , % 3 % , : , : : , % , % : : % : % % : % % % % # o # o o @ X o o X o X X           X   o o o @ o % % % & > 1 - 2 7 p p s g g h A A / S / ] ] ] ] [ [ [ Y Y Y Y Y E Y U Y U U U U U R Q Q Q ! *.*.=.! =.;.;.;.;.6.;.6.i.i.i.i.i.p.p.p.p.p.8.8.8.8.8.u.u.u.u.y.y.y.t.r.r.r.r.r.y.r.y.y.y.u.u.u.u.u.8.8.8.8.8.8.8.p.p.p.p.p.p.i.6.i.;.i.;.;.;.;.;.=.=.=.=.! =.! ! ! Q Q Q Q U U R I R I Y E Y Y Y P [ o.[ ] ] ] / ^ S b k g s a 7 1 = & # @ O     o X o % # % : , : , : : % % X o X   X   @ # & = > 2 p s s h b A S / ] / [ [ [ o.P [ [ [ ] ] ] / / / ^ A k h g s s p 7 2 2 1 - > & % % # o @ X o o   X         X X X X o o @ @ X % o % @ % % % % % % % % % % : % : : , : , % 3 % , % 3 % : , % : : : 3 % : , % % , % % : % % % % % % % # # o # o o o o o o X X X X     X X X X X o o # # % # : > > , 2 2 7 i a g g g A b S A G S ] ] ] ] o.o.L o.Y Y Y Y Y E Y Y E Y I E Y T ",
"T Y E Y Y Y E Y Y Y Y Y Y o.P o.] ] ] ] ] / S S A b k g g g a 7 7 2 ; , * > : # # # # o o X X X       X X X o o X o o o # o # # % # % % % : : : % , % % , , % , , , , , : 3 : 3 : 3 : 3 : 3 : 3 : , , : 3 : , , % , % , : % : % % % % % % % % o % o o @ o o X o   X         X   o o @ o # % % : = > - 2 2 7 p s g g h h A A / / / ] ] ] [ [ o.P o.Y Y Y E Y U Y U U U U U R Q Q ! Q *.! =.=.=.=.;.;.;.;.i.;.i.i.i.i.p.p.p.p.p.8.8.8.8.8.8.u.u.u.u.y.y.t.t.r.r.r.t.r.y.t.y.y.u.u.u.u.u.8.8.8.8.8.8.8.p.p.p.p.p.i.i.i.i.i.;.i.;.;.;.=.;.=.=.! =.! ! ! Q Q Q Q Q U U I R R I E Y Y Y Y o.Y [ [ [ ] ] / / S k k g s p 2 2 1 & & @ X o     o o o % % : : : , : : % # % @ X X   o o @ & & 1 2 2 p g h h A A / / ] ] [ [ [ [ [ [ ] ] / / S / A k k h g s s p 7 2 1 1 > & % % % o @ o o o   X         X X X o o o @ @ o X % o % % % % % % % % , % , % , % , , , : , : 3 : 3 : 3 : , , , , , , 3 : , , : , , : % , % % , % % % % % % % % # # # o o # o o X X X X X     X X X X X X # @ # # : : > > 2 2 7 7 i g g g k k S ^ / / / ] ] [ ] o.P o.Y Y Y Y Y Y E Y Y E Y T T ",
"Y T Y E Y Y Y Y Y o.Y P P P o.L o.] ] / / S ^ S k k g g g i i 7 2 2 , * > % # # @ X o o X X X   X X X X X o o o # o # # # # % % % : : : : : : : , : , , : 3 , , , , , 3 3 , 3 , 3 , 3 , 3 , 3 , 3 , 3 , : 3 , : , , , : : , % , % % : % % % % % o % X o @ X o X o     o       X X X o o @ o % # % > > > 2 2 7 p s g g h h ^ A S / / ] ] ] [ [ o.Y [ Y Y Y E Y U I E U U U R U Q Q ! ! ! =.! =.=.=.;.;.;.6.6.i.;.i.i.i.i.p.p.p.p.8.8.8.8.8.u.u.u.u.u.y.y.r.t.r.r.r.r.y.y.y.y.y.u.u.u.u.u.8.8.8.8.8.8.8.p.p.p.p.p.i.i.i.;.i.;.i.;.;.;.=.=.=.=.=.! ! ! ! ! Q Q Q Q U U I R R I E Y Y Y [ o.P [ [ ] ] / / ^ S g k g s i 1 - & & # + X       o # # % % : : , : : : % o o o X   X o @ # * > - 7 a s g h A ^ S / ] ] ] [ [ [ [ ] ] / ] / A A b h g g s s p 2 2 1 - > & : % # o @ o o   X         X X X o o o o @ @ @ % % % % % % % : % , % , % , , , , , , , , , 3 , 3 , 3 , 3 3 , 3 , 3 3 3 , 3 , , , , 3 , , , , , % , % , % : : : % % % % # # o o o # X o X X X X     X X X X o o # # # % : > > , 7 7 7 i g a g k b S S S / ] ] ] [ [ o.[ o.Y Y Y Y Y Y E Y Y E Y T ",
"T Y Y Y Y Y Y Y Y Y P o.P o.] o.] ] / / S S S k k g g d i 7 2 ; 1 * * > % # @ # o o X X       X X X X o o o o o o # # % % % : : : : : : , : , , , , , , 3 , 3 3 3 3 3 3 3 3 3 3 3 3 3 3 3 3 3 3 3 3 3 3 3 3 3 3 3 , , , 3 : 3 : , , % % , : % % % % % % o % X @ o o o     X       X   o o @ o # % % & = > 1 2 7 7 s s g h h A ^ S / / ] ] ] [ [ [ Y [ Y Y Y E Y E I U U U U R R Q Q Q *.Q =.=.=.=.;.;.;.;.;.6.i.6.i.i.i.p.p.p.p.p.8.8.8.8.8.u.u.u.u.y.y.y.t.r.r.r.t.r.y.y.y.y.u.u.u.u.8.8.8.8.8.8.8.p.p.p.p.p.p.i.6.i.i.;.i.;.;.;.=.;.=.=.=.! =.! ! ! Q Q Q Q U U R R R I E Y Y Y Y Y Y P [ [ ] ] ] / S A S g g s i 2 1 = & + @   o   X o o # % : : , : : : % % # @ o X X   o @ # # = 1 2 7 s g h A A / / / ] ] [ [ [ ] / ] / S A ^ A k g g s s 7 2 2 - > > # % % o @ o o X   X       X X X o o o @ @ o % @ % % % % % % , : : , : , , , , , , , 3 , 3 3 3 3 3 3 3 3 4 3 3 4 3 4 3 3 3 3 3 3 3 3 3 , 3 3 , , , , , , : , : : : : % : % % # # # # o o o o o X X X X     X X X o o o # # # : > * , 1 7 7 7 g g g g A b A / / / ] ] [ [ [ P o.P o.Y Y Y Y Y Y Y Y Y ",
"Y Y Y Y Y Y Y o.P Y o.P [ ] o.] ] / / / S b k k g g g i 7 7 2 , * > : # # @ @ X X X X   X X X X X o o o o o % # # % % % : : : : : : , , , , , , 3 3 3 3 3 3 3 3 3 4 4 4 4 4 4 4 4 4 4 4 4 4 4 4 4 4 4 4 3 4 3 3 3 3 3 3 , 3 : 3 : , , , % : % % , % % % % o % X @ @ o o o   X         X X o o @ # % % : = > 1 2 7 7 s g g g h A A / / / ] ] ] [ [ o.Y Y Y Y Y E Y U Y U U U U R R Q Q ! *.Q =.*.=.=.;.;.;.6.;.i.i.6.i.i.i.p.p.p.p.p.8.8.8.8.u.u.u.u.u.y.y.t.r.t.r.t.t.r.y.y.y.u.u.u.u.u.8.8.8.8.8.8.8.p.p.p.p.p.p.i.6.i.6.;.i.;.;.;.;.=.=.=.=.! =.! ! Q Q Q Q Q U U U I R I E Y E Y Y P o.[ [ [ ] / / / ^ k k g s i 7 1 , & # + + X     o o # % % : : , , : : % % o X X X X   o # & & 1 2 7 s s h h A A / ] ] ] [ [ ] ] ] / / A A k h g g s p 7 2 1 - > & : % # o @ o o   X       X X X o o o @ @ @ @ % @ % % % % % , : : , , , , , , 3 , 3 3 3 3 3 3 3 4 4 4 4 4 4 4 4 4 4 4 4 4 4 4 4 4 4 4 3 3 3 3 3 3 3 3 , 3 , , , , , : : , : : % : % % # # # o o o o o X X X X   X X X X o o # # # : > > , 1 7 7 7 s g g g S b S S / / ] ] [ [ [ [ o.Y [ Y o.Y Y Y Y Y Y ",
"Y Y Y o.Y Y o.P Y o.[ o.] o.] ] / / S S k k k g g i 7 7 7 , = * > : # @ # o o X X X   X X X X o X o o o # # # % % : : : : : : , , , , , 3 , 3 3 3 3 3 4 4 3 4 4 4 4 4 4 4 4 4 q 4 9 4 q 4 9 4 q 4 4 4 4 4 4 4 4 3 4 3 3 3 3 3 3 3 , , , , , , , % % : % % % % % @ @ o o o o X X X         X X @ o o % # : : - 1 1 7 7 s s g h h ^ A S / / ] ] ] [ [ [ P o.Y Y Y E Y U E I U U R R Q Q Q Q *.*.*.=.=.=.;.;.;.6.;.i.i.i.i.i.p.p.p.p.8.8.8.8.8.8.u.u.u.u.y.y.t.y.r.r.r.r.y.y.y.y.u.u.u.u.u.8.8.8.8.8.8.8.p.p.p.p.p.i.i.i.i.;.i.;.;.;.;.=.;.=.=.! =.! ! ! ! Q Q Q Q U U I R I E I Y Y Y Y o.[ Y [ ] ] ] / / S k k g g s 7 2 - & & # X X     o o o % % : : , : : : % # % @ X X     @ @ # = > 2 7 7 g g h ^ S / / ] ] [ ] / ] / S A ^ A h g s s p 7 2 1 - > : % # % o @ o   X       X X X o o o @ @ @ @ @ % % : : % , % , : , , , , , 3 3 3 3 3 3 4 4 4 4 4 4 4 4 4 4 9 4 4 4 9 4 4 4 9 4 9 4 4 4 4 4 4 4 4 4 4 4 3 3 3 3 3 3 , , , , , : : , : : % % % # # # o # o X X X X X     X X X o X # @ # % : > = 1 2 7 i a g g g k k ^ G / / ] ] ] [ [ o.[ Y [ Y o.Y Y Y Y Y ",
"Y Y o.Y [ Y P o.[ [ [ [ [ ] ] / / S S b S g g g i i 7 2 - , * > # # @ @ o X   X X   X X X X X o # o % # # % % % : : : : , , , , , 3 , 3 3 3 3 4 3 4 4 4 4 q 4 4 q 4 q 4 9 9 q 4 q 4 q 4 q 4 q 4 9 9 9 4 q 4 4 q 4 4 4 4 4 4 4 3 3 3 3 , , , , , , , % % : % % % % o % @ o o o o X X X       X X o o @ % # % : > - 1 2 7 p s g g h ^ A S S / ] ] ] [ [ o.Y [ Y Y Y E Y U U U U U U R R Q ! ! ! *.*.=.=.=.;.;.;.6.;.i.i.6.i.i.p.p.p.p.8.8.8.8.8.8.u.u.u.u.y.y.t.t.r.r.t.r.y.y.y.y.u.u.u.u.u.8.8.8.8.8.8.8.p.p.p.p.p.i.i.6.i.i.;.i.;.;.;.=.=.=.=.! ! =.! ! Q Q Q Q Q U U R R I E Y Y Y Y Y Y [ o.P ] ] ] / ^ S k g g s i 2 1 = $ # + X X     o # o % : : : , : : % % o o X X   X   @ # & > - 2 s s g h h ^ S / / ] ] ] ] / S / A h h g g p p 2 2 - > > & % @ # o o X   X     X X X X o o o @ @ @ % % % % : : : , : , , , , 3 , 3 3 3 3 4 4 4 3 4 4 4 q 4 9 9 9 4 9 9 9 q 9 9 q 9 q 9 9 9 9 9 9 9 4 q 4 4 4 4 4 4 4 4 4 3 3 3 3 , , , , , : : : : : : % % # # o o # X o X X X X     X X X o # X % # : > > , 7 7 i i g g k k k ^ G / / ] ] [ [ [ [ o.P Y P o.P o.Y Y ",
"o.P Y [ Y o.o.[ [ [ [ [ ] ] / / S S k S g g g i 7 7 7 1 > > > # # @ # o X X X X   X X X o o # o o # # % % : : : : : , , , , , 3 3 3 3 3 4 4 4 4 4 q 4 4 9 4 9 9 9 q q q w q w w w w w w w w w w q q q q q 4 q 4 q 4 q 4 9 4 4 4 4 4 3 3 3 3 , , , , , , % , % % % % % @ @ @ o o o X X X X       o X o o # # % & > - 2 2 7 p s g g h A ^ / / / ] ] ] [ [ [ Y Y Y Y Y E I E I U U R R R Q Q Q *.! =.=.=.=.;.;.;.;.6.6.6.i.i.i.p.p.p.p.p.8.8.8.8.8.u.u.u.u.y.y.y.r.t.r.r.y.y.y.y.y.u.u.u.u.8.8.8.8.8.8.8.p.p.p.p.p.p.i.i.i.i.;.i.;.;.;.;.;.=.=.=.=.=.! ! ! Q Q Q Q U U U R I R I E Y Y Y Y o.[ [ ] [ ] / / / ^ k k g s p 2 1 > & # @ X o   X X o # % % : , : , : % % % % o X X   o @ # # = 1 2 7 s g h A A A / ] ] / ] / S ^ A h h g s p i 2 2 1 > > # % # % o o X X X     X X X o o o @ @ @ @ % % % % : : : : , , , , 3 3 3 3 3 4 4 4 4 4 4 q 9 9 9 4 q 9 q q w w w w w w w w w w w w w q q q q q 9 q 9 9 4 q 4 4 4 4 4 3 4 3 3 3 3 3 , , , , , : : : % % % # % o # o o o X X X X   X X X   # @ # # % > = 1 1 7 i s s g k k A ^ / / / ] ] ] [ [ [ o.[ o.P Y P o.Y ",
"P o.o.Y [ [ [ [ [ [ ] ] ] / / S S b A g g g a i 7 2 , = * & % # @ o o   X X   X X X X o o o o # # % % % : : : , , , , , 3 3 3 3 3 4 3 4 4 4 q 4 q 4 q q q q w w w w w z w z w z w z w z w z w z w z w w w w w w q q 9 q 4 4 9 4 4 4 4 4 4 3 3 3 , , , , , : : % , % % % % @ @ @ o o o X X X     X X X o @ # # % : > 1 1 2 7 p s g g h A A S / ) ] ] [ [ [ o.Y o.Y Y Y E I E U U U R U R Q Q ! *.! =.*.=.=.;.;.;.;.6.i.i.i.i.i.i.p.p.p.p.8.8.8.8.8.u.u.u.u.y.y.y.r.t.r.r.y.r.y.y.u.u.u.u.u.u.8.8.8.8.8.8.8.p.p.p.p.p.i.i.i.;.i.;.;.;.;.=.;.=.=.! =.! ! ! ! Q Q Q Q U U I R I R Y U Y Y Y [ Y [ o.] ] ] / S S b k g g i 7 1 - = # + X X X   o o # # % : : , : , : % # o o X X X X o @ & : > 2 7 7 g g h ^ S S / ] ] / / A A A h g g s i 7 2 - > = % % # o o @   X     X X X X o o @ @ @ @ % % % : : , : , , , , , 3 3 3 3 4 4 4 4 4 q 4 9 q 4 q q q w w w w w w w w z w w z w w w w w w w z w w w w w w w q 9 q 4 9 4 q 4 4 4 4 3 3 3 3 3 , , , , : : , : : % % # o # o o o o X X X   X X X X o # # # % > , = 1 i 7 a s g k k k A G / ] ] ] ] [ [ [ [ [ o.o.Y [ o.",
"o.[ [ [ [ [ [ [ [ ] ] ] / / S S b S g g g i 7 7 7 , = * : % # @ o o X X     X X X o o o o o # % % % : : : : , , , , , 3 3 3 4 4 3 4 q 4 4 q 4 q q q w w w z w z w z z z z z z z v v v v v z z z z z z z z w z w z w w q q q q 4 q 4 9 4 4 4 4 3 3 , 3 , , , , , : : : % % % @ @ @ @ o o X X X       X o X X # # % & : - 1 2 7 s s g h h ^ A / / / ] ] [ [ [ [ Y Y Y Y E Y U Y U U U R R Q Q ! Q *.! =.=.=.=.;.;.6.;.i.;.i.i.i.p.p.p.p.p.8.8.8.8.8.u.u.u.u.y.y.t.y.r.r.r.y.y.y.y.u.u.u.u.u.8.8.8.8.8.8.8.p.p.p.p.p.i.i.6.i.i.;.i.;.;.;.;.=.=.=.=.! =.! ! ! Q Q Q Q U U R R R I E Y E Y Y Y o.P [ [ ] ] / G ^ A k g g a i 2 1 & & # @ X     X o # # % : : : , : : % % % @ X   X   o @ # & = 2 2 s s g h A ^ / / ] / / A ^ A h g s s p 2 2 > 1 : % # # @ o o   X     X X X o o o @ @ @ % % % % : : : : , , , 3 3 3 3 4 4 4 3 q 4 4 q 4 q q q w w w z w w z w v z z v z z v v v v v v z z v z z w z w w z w w w w q q q 4 q 4 4 4 4 4 3 3 3 3 , , , , , : : : % % % % % o # o o X X X X   X X X X @ o # # % & , - 1 7 i s g s k k A ^ / / / ] ] ] ] [ [ [ [ [ [ [ [ ",
"[ [ [ [ [ [ ] ] ] ] ] / / / S b S g g g a i 7 2 , * > % % @ @ o o   X   X X X X o X o # # % % % % : , : , , , , , 4 3 4 4 3 4 4 q 4 4 q q q q w w z w z z z z v v v v v v v v v v v v v v v v v v v v v v v v z z z z w z w w w q q 4 q 9 4 4 4 4 4 3 3 3 , , , , : : % : % % % @ @ o o o o X X       X o o @ # # % & > = 1 2 7 p s g g h ^ A / / ) ) ] [ [ [ o.Y Y Y Y E Y U I U U U R U Q Q ! ! *.*.=.=.=.;.;.;.;.6.i.i.6.i.i.i.p.p.p.p.8.8.8.8.8.u.u.u.u.y.y.t.t.r.y.r.y.y.y.y.y.u.u.u.u.8.8.8.8.8.8.8.p.p.p.p.p.i.i.6.i.i.;.i.;.;.;.=.;.=.=.! ! ! ! ! ! Q Q Q Q U U R I R I Y Y Y Y Y [ o.P [ ] ] ] / G b k k g g 7 1 1 > & + @ X X     o o # % % : , : : : : % o o @ X   X   @ # & > 1 2 7 s g h h A / / / / A A h h g s g 7 7 2 > - : % % # o o X X X     X X X o o o @ @ @ % % % : , : , , , , 3 3 3 3 4 4 4 4 4 q 4 q q q w w z w z w z z v v v v v v v v v v v v v v v v v v v v v v v v v z z z w w w w w q q q 4 q 4 q 4 3 4 3 3 3 , 3 , , , : , % : % % % o # o o o X X X     X X X o @ % # % : , = 1 2 p p g g k b A A / G / ] ] ] ] [ [ [ [ [ [ [ ",
"[ [ [ [ ] ] ] ] ] ] / / S S b S g g g a 7 2 5 , * > : # @ # o X X X   X X X o o X # o # # % % : : : : , , , , , 4 4 4 4 4 q 4 q 4 q q w w w w z z z v v v v v v v v v v v v v v v v v v v v v v v v v v v v v v v v v v z z w z w w w w 4 q 4 q 4 4 4 4 3 3 3 , , , , , : : : % % @ # @ o o o X X X X     o X o o % % & > = 1 2 7 p s g h h A A / / ] ] ] [ [ [ P o.Y Y Y Y U E U U U R R Q Q Q ! ! *.! =.=.=.;.;.6.;.6.6.i.i.i.p.p.p.p.p.8.8.8.8.8.u.u.u.u.y.y.y.r.y.r.r.y.r.y.y.u.u.u.u.8.8.8.8.8.8.8.p.p.p.p.p.p.i.i.i.i.;.i.;.;.;.;.;.=.=.=.=.=.! ! ! Q Q Q Q Q U R I R I E R Y Y Y Y Y P o.[ ] ] / ] ^ S k k g s i 7 2 = & # @ o o   X X o # % % : : : , : % % % % X X X   o o # & & - 2 7 s g g A A S / S S A A h g s g 7 2 1 - 1 : % # # @ o X X X     X X X o o o @ @ % % % % : : : , , , 3 3 3 3 4 4 4 4 4 q 9 q w w q z w z z v v v v v v v v v v v v v v v v v v v v v v v v v v v v v v v v v v v z z z w w w q q q 4 4 q 3 q 4 3 3 3 , 3 , , : , : : % % % % o # o o X X X X   X X X o o @ # % : , - 2 2 i s s g k k A S ^ / / ] ] ] ] ] [ ] [ [ [ ",
"] ] ] ] ] ] ] ] / / / ^ G k S g g g i i 7 2 , = * : # @ @ o X X X   X X X X o o % o % % % : : : , , , , , 3 3 4 4 4 4 4 q 4 q q q w z w z z v v v v v v v v v v v v v v v v v v v v v v v v v v v v v v v v v v v v v v v v v z z z w w w q q 4 q 4 4 4 4 4 3 3 , , , , : : % : % % @ @ # o o o X X X X   X o X o o # % : > = 1 2 7 s g s h h ^ A / / ) ] [ [ [ o.Y o.Y Y Y Y U Y U U U R U R Q ! *.! *.=.=.=.;.=.;.6.;.i.6.i.6.i.i.p.p.p.p.8.8.8.8.8.u.u.u.u.y.y.t.r.r.y.y.y.y.y.u.u.u.u.u.u.8.8.8.8.8.8.8.p.p.p.p.p.i.i.i.i.;.i.;.;.;.;.=.=.=.=.! =.! ! ! ! Q Q Q U U U I R I Y R Y Y Y o.Y [ [ [ ] ] / / ^ A k g g s 7 1 - , $ + X X     o o o % % : : , : , : % # o @ X X   X o @ # > > 2 7 7 g g h ^ A S S ^ A h g g s 7 7 2 - > & : # # o X o X       X X o o o # @ @ % % % : , : , , , , 3 3 3 4 4 4 q 4 q 4 q w w z w z z v v v v v v v v v v v v v v v v v v v v v v v v v v v v v v v v v v v v v v v v v v z z w w q q q 4 q 4 4 q , 3 3 3 , , , , : : : : % % # o # o o o X X X   X X X o @ % # % : , 1 2 2 p s s g k b A / / / / ] / ] ] ] ] ] ] ] ",
"] ] ] ] ] ] ] / / G ^ G A b g g g g i 2 7 , * > % # @ # o X X   X X X X o o o o o % % % : : : , , , , , 3 4 4 4 4 q 4 q 4 q q q z z z v v v v v v v v v v v v v v v v v v v v v v v v v v v v v v v v v v v v v v v v v v v v v v v z z w z w w w 4 q 4 4 4 3 4 3 3 , , , , , : : % % % @ # o o o X X X       X X o # # # & > - 1 7 7 7 g g h h A A / ) ) ] ] [ [ [ Y Y Y Y E Y U U I U U R Q Q Q Q ! *.! =.=.=.;.;.;.6.;.i.6.i.i.p.p.p.p.p.8.8.8.8.8.u.u.u.u.y.y.y.t.r.t.r.y.y.y.y.u.u.u.u.8.8.8.8.8.8.8.p.p.p.p.p.p.i.i.i.;.i.;.;.i.;.=.;.=.=.! =.! ! ! ! Q Q Q Q U U R R R I E Y E Y Y Y [ P o.[ ] ] / / G A k g g i i 2 1 & & + @ X o   X X # # % : : : , : : % % % @ X X X   o @ # & = 1 2 s s g h h A S ^ A h g g p p 2 2 - 1 : % # # @ o X X       X X o o o @ @ @ % : : : : : , , , 3 3 3 4 4 4 4 4 4 q w w w w z z v v v v v v v v v v v v v v v v v v v v v v v v v v v v v v v v v v v v v v v v v v v v v v v z z z z q q q 4 q 3 q 3 4 3 3 3 , , , , : : : % % % # o # o o o X X   X X o o o o % % : = 1 2 2 s a g g k k A A S / / ] / ] ] ] ] ] ] ",
"] ] / ] ] / / / / / A A A k g g a a 7 2 , = > % % @ @ o   X X   X X X o o % o % % % % : : : , , , , 4 3 4 4 4 q 4 4 q q z q z z z v v v v v v v v v v v v v v v v v v v v v v v v v v v v v v v v v v v v v v v v v v v v v v v v v v v v z z w w w q q 4 4 q 3 4 3 3 3 , , , : , % : % % @ @ # X o X X X     X o X o # # % & > 1 - 2 p p s g h A A A S ) ] ] [ [ [ o.Y Y Y Y E Y U U U U R U R Q Q *.! *.*.=.=.;.=.;.;.6.6.i.i.6.i.i.p.p.p.p.8.8.8.8.8.u.u.u.u.y.y.t.y.r.y.r.y.y.y.u.u.u.u.u.8.8.8.8.8.8.8.p.p.p.p.p.p.i.6.i.;.i.;.;.;.;.=.;.=.=.! =.! ! ! Q Q Q Q Q U U R I R I Y Y Y Y Y Y P [ ] [ ] / / ^ S k k g g i 7 1 > $ $ + X       o o % # % : : , : : : % # @ X X   X o o # # > - 2 a s g g ^ A A A h h g s p 7 2 - > & : # # o o X       X X X o o o # @ % % % : : , , , , , 3 3 4 3 4 q 4 q q q w w z z z v v v v v v v v v v v v v v v v v v v v v v v v v v v v v v v v v v v v v v v v v v v v v v v v v v v v v z q q z q q 3 q 3 4 3 3 3 3 , , , : : : : % % # o o o o o X X X   X X o @ o # % : > 1 2 2 s s g g k b A A S / / / / ] / ] ] ] ",
") / ] / / / / / G A A b k g g g 7 7 2 2 * > : # @ @ o X X   X X X X o o o o % % % : : : , , , , , 4 4 4 4 4 q 4 4 z q z q v v v v v v v v v v v v v v v v v v v v v v v v v v v v v v v v v v v v v v v v v v v v v v v v v v v v v v v v v v z w z w w q q 4 q 4 4 3 3 3 3 , , : , : % % % % o # o o o X X     X X X o # @ % & * 1 2 2 7 s g g h A ^ / / ) ] ] [ [ [ P Y Y Y Y Y E I U U U R R Q Q Q ! *.! =.=.=.;.;.;.6.;.i.6.i.i.p.p.p.p.p.8.8.8.8.8.u.u.u.u.y.y.y.r.t.r.y.y.y.y.u.u.u.u.u.8.8.8.8.8.8.8.p.p.p.p.p.i.i.i.i.i.;.i.;.;.;.;.=.=.=.=.! =.! ! ! Q Q Q Q U U I R I R Y E Y Y Y P o.[ o.[ ] ] / G A ^ k g s i 7 1 = = $ @ X o   X o o o % % : : , : : : % % @ @ X X X   o @ & * > 2 2 p g h h A A h h g s 7 7 2 1 1 : : # # o o X X     X X X o o o # @ % % : : : : , , , 3 3 3 4 3 q 4 4 q w q w z z v v v v v v v v v v v v v v v v v v v v v v v v v v v v v v v v v v v v v v v v v v v v v v v v v v v v v v v v v z z q z q q q q 3 q 3 3 3 3 3 , , , : : : % % # % o o o X X X   X X o X o # # % : - 1 2 7 s s g g k k A ^ S S / ] / / ] / ) ",
"/ / / / S / S A ^ A k k g g g i 7 7 , = > & # # @ o X X X   X X X o X % o % % % : : : , , , , 4 4 4 4 4 q 4 q q q q z z v v v v v v v v v v v v v v v v v v v v v v v v v v v v v v v v v v v v v v v v v v v v v v v v v v v v v v v v v v v v v z z w w q q 4 q 4 4 4 3 3 3 , , , : , : % % % @ o @ o o X X       o X o # @ % & > - 2 2 7 s g g h A A S / ) ] ] [ [ o.P Y Y Y E Y E I U U U R U Q Q ! ! *.=.*.=.=.;.;.;.6.;.i.i.6.i.i.p.p.p.p.8.8.8.8.8.u.u.u.u.y.y.t.r.t.r.y.y.y.y.u.u.u.u.u.8.8.8.8.8.8.8.p.p.p.p.p.i.i.i.;.i.;.;.;.;.;.=.=.=.=.=.! ! ! ! ! Q Q Q U U U R R I R Y Y Y Y Y [ Y [ ] ] ] ] / S k k k g a i 2 1 & & # + X X     o # # % % : : 3 : : % % o @ X X   X o @ # * > - 7 a s g h ^ h h g s p 7 2 1 - & & # % o o X   X   X X X o o @ @ @ % % : : : , , , , 3 3 4 4 4 q 4 q q w w z z z v v v v v v v v v v v v v v v v v v v v v v v v v v v v v v v v v v v v v v v v v v v v v v v v v v v v v v v v v v v v v q q z q q q 3 q 3 3 3 3 , , , , : : : % % # # o o o X X X X   X X o @ # # % : 1 - 2 7 s s g g b k A ^ A / A / / / / / ",
"/ / S / / S A ^ k b k g g g i 7 7 , = > : # # @ o o X     X X X X X % o % % % : : : , , , , 4 4 4 4 4 q 4 q q z q v v v v v v v v v v v v v v v v v v v v v v v v v v v v v v v v v v v v v v v v v v v v v v v v v v v v v v v v v v v v v v v v v v z w z w q q 4 q 4 4 3 3 3 3 , , : : : : % @ % @ o o o X X     X X X o # % # * * 1 2 7 p s g h h ^ A / / ] ] [ [ [ o.P Y Y Y E I E U U U R R Q Q Q *.! ! =.=.=.;.;.;.;.6.i.6.i.i.p.p.p.p.p.8.8.8.8.8.u.u.u.u.y.y.t.y.r.y.t.y.y.y.u.u.u.u.8.8.8.8.8.8.8.p.p.p.p.p.p.i.6.i.i.i.;.i.;.;.;.;.=.=.=.! =.! ! ! Q Q Q Q U U R R I R Y E Y Y Y o.Y [ [ [ [ ] / / ^ S k g g s i 2 - > & # @ X     X o o # % : : , : : : % % % @ o X X   o @ # # = 1 2 7 s g h h h g g p 7 7 1 > > & # % o o   X     X X o o o @ @ @ % % : : : , , , 3 3 4 4 4 4 q 4 q w w w z v v v v v v v v v v v v v v v v v v v v v v v v v v v v v v v v v v v v v v v v v v v v v v v v v v v v v v v v v v v v v v v v v v z q q q q q 3 q 3 3 3 3 , , , , : : % % % o # o o X X X   X X X o o # % : & 1 1 2 7 s g g g k k k A A / S S / / S ",
"S A / A A A A k k g k g s s i 7 2 = > & # # @ o X   X X X X X o o % o % % % : : : , , 4 , 4 4 4 4 4 q 4 z q q z v v v v v v v v v v v v v v v v v v v v v v v v v v v v v v v v v v v v v v v v v v v v v v v v v v v v v v v v v v v v v v v v v v v v v z z w q q 4 q 4 4 4 3 3 , , , , : : : % @ % @ o o o X X       o X o # % # > * 2 1 7 p s g h h ^ A S ) ] ] [ [ [ o.Y Y Y Y Y U E I U U R U Q Q ! *.! =.*.=.=.;.;.;.;.i.i.6.i.i.i.p.p.p.p.8.8.8.8.8.u.u.u.u.y.y.r.y.r.y.y.y.y.y.u.u.u.u.8.8.8.8.8.8.8.p.p.p.p.p.p.i.6.i.;.i.;.;.;.;.=.;.=.=.=.! ! ! ! ! Q Q Q Q U U I R R I Y E Y Y Y [ Y o.L ] ] ] / / ^ A k g s a 7 1 = & $ + @ X   X X o # # % : : 3 : : : % # o X X X   X o # & * 1 2 7 s g g h h g s 7 7 1 - = # % % o o X o     X X X o o # o % % % : : : , , , 3 3 3 4 4 4 q q q q w z v v v v v v v v v v v v v v v v v v v v v v v v v v v v v v v v v v v v v v v v v v v v v v v v v v v v v v v v v v v v v v v v v v v v v z z q z q q 4 q 3 4 3 3 , , : , : : : % # o # o o o X X     X X o @ # # : : 1 2 2 7 s s g h k k ^ k A ^ S A / / ",
"A A A A ^ k k k k k g s a 7 i 2 = > & % # @ o o X X   X X X o X % o % % % : , : , 4 , , 4 4 4 4 q q 4 z q z v v v v v v v v v v v v v v v v v v v v v v v v v v v v z v z z z z z z z z z z z z z z v v v v v v v v v v v v v v v v v v v v v v v v v v v v z z z q q q q 4 4 4 4 3 3 , , , : : : % % @ @ @ o o X X     X X o @ @ # & > * 2 2 7 p g g h A A / / ] ] ] [ [ Y o.Y Y Y E Y I U U U R R Q Q Q Q *.! =.=.=.;.;.;.6.;.i.i.i.i.p.p.p.p.p.8.8.8.8.8.u.u.u.u.y.y.y.r.y.r.y.y.y.u.u.u.u.u.8.8.8.8.8.8.8.p.p.p.p.p.i.i.i.i.i.;.i.;.;.;.;.=.=.=.! =.! ! ! Q Q Q Q U U U R R I I U Y Y Y Y Y o.L o.[ ] ] / / S b k g g p 7 2 1 & & # X X     X o # % % : : : , : : % % % o o   X   o # # * > 2 7 7 g g h g s 7 7 2 1 > : % # o o o X     X X o o o o @ % % % : : : , , 3 3 3 4 4 4 4 q q q q z v v v v v v v v v v v v v v v v v v v v v v v v v v v v v v z z z z z z z z z z z z z z v v v v v v v v v v v v v v v v v v v v v v v v v v v v v z q q q q 4 q 4 3 4 3 , 4 , , : : : % % # # o X X X X X   o X o o # % & = 1 1 7 7 s s g g h h A A A A A A A ",
"A ^ A A h ^ h h g g s s i 7 1 - , * $ # @ @ X     X X X X X o % o % % % : : : , , , 4 4 4 4 4 q 4 q z q z v v v v v v v v v v v v v v v v v v v v v v v v v z z z w w w w w w w w q w q w q w q q z q q w z z z v v v v v v v v v v v v v v v v v v v v v v v v v z q q q q 4 4 4 4 3 3 , , , : : : % % @ @ o o o X X     o X X @ # # & > = 1 7 7 s g g h A A S / ] ] ] [ [ P Y Y Y Y E Y U I U U R U Q Q ! *.! =.=.=.=.;.;.;.6.;.i.i.6.i.i.p.p.p.p.8.8.8.8.8.u.u.u.u.y.t.t.r.t.y.t.y.y.u.u.u.u.u.8.8.8.8.8.8.8.p.p.p.p.p.i.i.6.;.i.;.;.i.;.=.;.=.=.=.! =.! ! ! ! Q Q Q U U U I R R Y R Y Y Y Y P Y [ [ ] ] / / S k k k g s i 2 - = $ + @ X     X o o # % : : : : , : % % @ @ X X   X o o # & > - 2 p s g g s p 7 2 1 - & # % # o X X       X X o o @ # # % % : : , , , , 3 3 4 4 q 4 q q w z z v v v v v v v v v v v v v v v v v v v v v v v v v z z w w w w w w w w w w w w w w w w w w w w w z z z v v v v v v v v v v v v v v v v v v v v v v v v v q q q q q 4 q , 4 3 , , , , : : : % # # o # o X X X X     o o # # % : > - 2 7 7 s g g g h h h A A ^ A h ",
"A h h h h h g g g s i i 7 7 1 , * % # @ @ o X X   X X X o X % o % % : % : , , , , 4 4 4 4 4 q q q z q v v v v v v v v v v v v v v v v v v v v v v v z z w w w w w q z q w q q q q q q q q q q q z q w z w q w w w z z z v v v v v v v v v v v v v v v v v v v v v v z z w w 4 q 4 4 3 3 3 3 , , : : % % % @ @ @ o o X       X X o o % # & * 1 2 7 7 s g h A A ^ / / ] ] [ [ o.P o.Y Y Y E I E U U U R Q Q Q Q *.! =.=.=.;.;.;.;.6.i.i.i.i.p.p.p.p.p.8.8.8.8.8.u.u.u.u.y.y.t.r.y.t.y.y.y.u.u.u.u.8.8.8.8.8.8.8.p.p.p.p.p.p.i.i.i.i.i.;.i.;.;.;.;.=.=.=.=.! =.! ! Q Q Q Q U U R R R I R Y Y Y Y Y o.P o.[ ] ] ] / S S ^ g g s i 2 1 > & $ @ o o   X o o # % % : : 3 : : % % # # X X X X   @ # # = 1 2 7 s s g s 7 2 1 > & : # # o X   X     X X o o o # @ % % : : , , , 3 3 4 4 3 q 4 q q q z v v v v v v v v v v v v v v v v v v v v v z v z z w w w w w w w w w w q q q 9 q q q 9 w 9 w w w w w w w w w z z v v v v v v v v v v v v v v v v v v v v v v v z z q q q 3 q 4 4 3 3 , , , : : % % # % o o o X X X   X X o o # # & & 1 1 2 7 7 s s g g g h b h h h A ",
"h h h h g g g g s s i 7 2 1 = * $ % # @ o     X X X X o X % o % % % % , , : 4 , 4 4 4 4 4 q 4 z q z v v v v v v v v v v v v v v v v v v v v v z z w w w w w w q q q 4 q 4 q 4 q 4 q 9 q 4 q 4 q 4 q 4 4 w q q w w w w w w z z v v v v v v v v v v v v v v v v v v v v z z q q q 4 q 4 4 3 3 3 , , : , % % % @ @ o o o X       o X o @ % # > * 1 2 7 p s g h ^ A S / / ] ] [ [ o.Y Y Y Y Y E I U U U R U R Q ! ! ! =.=.=.=.;.;.;.;.i.;.i.i.i.i.p.p.p.p.8.8.8.8.8.u.u.u.u.y.y.t.r.y.y.y.y.y.u.u.u.u.8.8.8.8.8.8.8.8.p.p.p.p.p.i.i.i.;.i.;.;.;.;.;.=.=.=.=.! ! ! ! ! Q Q Q Q U U U I R I R Y Y Y Y Y [ [ [ [ ] / / / ^ k k g s s 7 1 - & & + X X   X X o % # % : : : 3 : : % % o @     X X o @ : & 1 2 2 p g s 7 2 2 = > & # % o o X X     X X o o o # # % % : : , , , 3 3 3 4 4 q 4 q w z z z v v v v v v v v v v v v v v v v v v z v z z w w w w w w q q q 9 9 9 9 4 9 9 9 9 9 9 9 9 9 9 9 9 9 9 w q w w w w w w z z v v v v v v v v v v v v v v v v v v v v z q q z q 4 4 4 3 3 3 , , , : , : % # # o o o o X X   X X X o # % & : > 1 7 7 7 s s g g g g h h h h ",
"g h g g g g g s s i i 2 - , * > % # @ o X X     X X o X % o % % : % , , : 4 , 4 4 4 4 4 q q z q z v v v v v v v v v v v v v v v v v v v z z w w w w w q q 4 9 q 4 q 4 q 4 4 q 4 9 4 4 4 4 4 q 4 q 4 4 q 4 q 4 q 4 q w w w w w w z v v v v v v v v v v v v v v v v v v v z z w w q 4 q 4 4 3 3 3 , , : : : % % @ @ o o X o     X X o o @ % & * < - 7 7 s g g h A A / / ] ] [ [ [ Y [ Y Y E Y U Y R U U R Q Q Q Q =.! =.=.=.;.;.;.6.;.i.6.i.i.p.p.p.p.p.8.8.8.8.8.u.u.u.u.y.y.r.t.t.t.y.y.u.u.u.u.u.8.8.8.8.8.8.8.p.p.p.p.p.i.i.6.i.i.;.;.i.;.;.;.=.=.=.=.! =.! ! ! Q Q Q Q U U R R I R Y U Y Y Y o.P P o.] ] ] ] / S A k k g i i 2 1 & $ # X X X   X o o # % : : , : : : % % % X o X   X o @ # & = 1 7 s s 7 7 ; 1 > : # # o X X X     X X o o o # @ % : : : , , , 3 3 4 4 4 4 q q q z z v v v v v v v v v v v v v v v v v v v z z w w w w w q q 9 9 9 9 9 4 9 9 9 9 4 4 9 4 9 3 9 4 9 4 9 4 9 9 9 9 9 9 q w w w w w z z v v v v v v v v v v v v v v v v v v v v z q q q q 4 q 4 3 3 , , , : : % % # % o o o X X     X X X # @ % & = 1 1 2 7 7 s s s g g g g g g ",
"g g g g s s s p 7 7 2 2 1 = : $ # o o X   X X X X o o o o % % % : , : , 4 , 4 4 4 q 4 q q z q v v v v v v v v v v v v v v v v v v v z z w w w q q q 4 9 9 q 4 4 4 9 4 4 9 4 3 4 3 4 4 4 4 4 3 4 4 4 q 4 4 4 q 4 q 4 4 q q q w w w q z z v v v v v v v v v v v v v v v v v v z w q q 4 4 4 4 3 3 3 , , : : : % % @ @ o o X       o   o o @ % & * < 2 2 7 s g h h ^ S S ] / ] [ [ o.Y Y Y Y E Y U I R U R U R Q ! ! *.! =.=.=.;.;.;.6.6.i.i.6.i.p.p.p.p.p.8.8.8.8.u.u.u.u.u.y.y.r.t.y.y.y.y.y.u.u.u.u.8.8.8.8.8.8.8.p.p.p.p.p.i.i.6.i.i.;.;.;.;.;.;.=.=.=.=.! ! ! ! ! Q Q Q Q U U R R I E Y Y Y Y Y o.P [ [ ] ] / / G b k g g g i 1 1 = & $ + X X   X X # # % % : : , % : : % o % X     X X # @ : > 1 2 7 p 7 2 1 - & # % # o X X     X X o o o # @ % % : : , , , 3 3 3 4 q 4 q q q z z v v v v v v v v v v v v v v v v v v z w w w q w q 4 q 4 9 9 4 4 9 4 9 3 9 3 9 3 3 3 3 3 4 3 9 3 9 3 9 3 9 4 9 4 9 9 9 9 q q w w w w z z v v v v v v v v v v v v v v v v v v z q z q 4 4 3 4 3 3 , , , : : : % # # o o o X X     o X o # @ % : = 1 1 2 7 7 s s s g g g g g ",
"s s s s s s p 7 7 2 1 1 1 & % # @ # o X X   X X o o X % % % % : : : , 3 , 4 4 4 4 4 4 z q q v v v v v v v v v v v v v v v v v z z w w q w 9 q q 9 9 9 9 4 4 4 4 9 3 3 3 3 3 3 3 3 3 3 , 3 3 4 3 4 4 , 4 3 4 4 4 4 4 q 4 4 q 4 q q z w q z v z v v v v v v v v v v v v v v v v z z q q q 4 4 4 3 3 , , , : : : % % @ o o o       X X X o @ # # * * 1 2 7 p s g h A A / / ] ] ] [ [ P o.Y Y Y E I E U U U R Q Q Q ! ! =.! =.=.;.;.;.;.6.i.6.i.i.p.p.p.p.8.8.8.8.8.8.u.u.u.y.y.t.t.t.t.t.y.y.u.u.u.u.8.8.8.8.8.8.8.p.p.p.p.p.p.i.i.i.i.;.i.;.i.;.;.=.;.=.=.! =.! ! ! Q Q Q Q U U U R I R I Y E Y Y Y P P o.[ [ ] ] / ^ S k k g s a 7 ; , & $ @ o o   X o o o % % : , % 3 : : % % o o     X o o @ & & - 2 7 7 2 1 1 : : # # o X o       X o o o @ @ % : : : : , , 3 3 4 4 4 4 q w q z v v v v v v v v v v v v v v v v v v z w w w w q q 9 q 9 4 9 4 9 4 9 3 3 3 3 3 3 3 3 3 3 3 3 3 3 3 3 3 3 3 4 4 3 4 9 4 4 9 4 9 9 9 q w w w q z z v v v v v v v v v v v v v v v v v z q q q q q 4 4 3 3 3 , : , : % % # # @ o o X     X X X o # # & * > - 2 2 7 7 7 s s s s g s ",
"s s s p a 7 7 7 2 2 - > & : $ # o X X   X X X X o o % o % % : : , , , 3 3 4 4 4 q q q q z v v v v v v v v v v v v v v v v v z z q w z q 4 q 4 4 4 4 4 4 4 3 3 3 3 3 3 3 , , 3 , 3 , , 3 , , , , , , 3 , 4 3 3 3 4 4 4 q 4 4 q 4 q 4 z q w w z z v v v v v v v v v v v v v v v v z z w q q 4 4 4 3 3 3 , , : % % % % @ @ o o         X X o @ $ # > * 2 2 7 s g g h ^ A S / ] ] [ [ o.Y [ Y Y Y E I U I R R U Q Q ! *.! =.=.=.=.;.;.;.;.i.i.i.i.i.p.p.p.p.8.8.8.8.8.u.u.u.u.y.y.t.r.y.y.y.y.y.u.u.u.u.8.8.8.8.8.8.8.8.p.p.p.p.p.i.i.i.i.;.;.;.;.;.;.=.=.=.=.! =.! ! ! Q Q Q Q U U I R I R Y I E Y Y o.Y [ [ ] ] ] / / S ^ k g g p 7 1 - & & + X X X   X o % # % % : 3 : % : : % # o o     X o # # : > 2 7 7 2 > = & # @ o o X       X X o o # # % % % : , , , 3 3 3 4 q 4 q q w z v v v v v v v v v v v v v v v v v z w w w q q 4 q 9 4 4 9 4 4 3 3 3 3 3 3 3 , , 3 , 3 , 3 , 3 , 3 , , 3 3 3 , 3 3 3 3 4 3 9 4 4 4 9 9 4 q q z q z z v v v v v v v v v v v v v v v v v z q z q q 4 4 3 3 3 , , : , : % % # o @ o o X     X X o o % @ : * > 1 1 2 7 7 7 s s 7 s s ",
"s a p 7 7 7 2 2 1 1 > = : # # @ @ X X     X o o o o o % % : % , , , 3 , 4 4 4 4 q q z z v v v v v v v v v v v v v v v v z z q q z q 4 q q 4 4 4 4 4 3 3 3 3 , 3 , , , , , , , , , , , , , , , , , , , , , , , 3 , 4 3 , 4 4 4 4 4 q 4 q w q z q z v v v v v v v v v v v v v v v v v w w w 4 q 4 4 3 3 3 , , , : % % % @ @ o o       X X o o # # & > = 2 7 p s g h h A / / ] ] ] [ [ [ Y o.Y E Y U E R U U R Q Q Q Q ! =.! =.=.;.;.;.i.;.i.i.i.i.p.p.p.p.8.8.8.8.8.u.u.u.u.y.y.t.t.t.t.y.y.u.u.u.u.u.8.8.8.8.8.8.8.p.p.p.p.p.i.i.i.i.;.i.i.;.;.;.=.;.=.=.=.=.! ! ! ! Q Q Q Q U U R R R I E Y Y Y Y Y P P o.[ [ ] / / / k k k g i i 2 , = $ $ o o X   X o o # % : : : : 3 : % % @ @ o     X o @ # & = 1 2 2 1 = & % # # o o       X X o o @ @ @ % : , : , , 3 3 4 4 4 4 q q z z v v v v v v v v v v v v v v v v z z w q w q q 4 q 9 4 4 9 3 3 3 3 3 3 , 3 , , , , , , , , , , , , , , , , , , , 3 3 , , 3 4 , 4 4 9 4 4 q 4 q 4 z q q z z v v v v v v v v v v v v v v v v v q q q q 3 q 3 3 3 , , , : : % % # @ o o o     X X X o o % # & * > = 2 2 2 7 7 7 s 7 p ",
"7 7 7 7 7 2 2 2 1 = > & % % # o X X X X X X o o o % % % % : , : 4 , 3 q 3 q 4 q q z z v v v v v v v v v v v v v v v v z z q z q 4 q 4 4 4 4 4 4 4 , 3 , 3 , , , , , , : , , : , : : 3 : : , : 3 : 3 , , , , , , , , 3 3 3 3 4 4 4 4 4 q 4 q q z q z z v v v v v v v v v v v v v v v v z q w 4 q 3 4 3 3 , , , : % % % @ @ @ o o       X X o o $ # & > 1 2 7 p s g h ^ A / / ] ] [ [ [ Y Y Y Y Y Y U I R U R U Q Q *.! ! =.=.=.=.;.;.;.6.6.;.i.i.i.p.p.p.p.8.8.8.8.8.u.u.u.u.y.y.t.t.t.y.y.y.y.u.u.u.u.8.8.8.8.8.8.8.p.p.p.p.p.p.i.6.i.;.;.i.;.;.;.=.=.=.=.=.! ! ! ! ! Q Q Q Q U U I R R I E Y Y Y Y o.P P [ ] ] ] / ^ S b g g g i 7 1 = & $ + X X X X X o % % % : , : : : : % % o o X X   X o # & > 1 2 1 - > # # # o X X o     X o o @ @ % % % : : , , 3 3 3 4 4 q q q w z v v v v v v v v v v v v v v v v z w w z q 4 4 q 4 4 4 4 3 3 3 3 , , , , , , , , , , : , : > : > : > : , , : , , , : 3 , , , , 3 3 3 , 4 4 4 4 4 q 4 q z q z q v v v v v v v v v v v v v v v v v q z q q 3 q , 3 3 , , : , % % % @ @ o o o     o   X o @ % # > * 1 1 1 2 2 2 7 7 7 7 ",
"2 7 2 2 2 1 2 > = > : % # # o o X X   X X o o X % % % % , : , 3 , 3 4 3 4 4 q z q z v v v v v v v v v v v v v v v z q z q q 4 q q 4 4 4 3 3 4 , , , , , , , , : , : : , : : : : : 3 : : : : : : : : : : , : , , , , , , , , 4 , 4 4 4 4 4 q 4 q q q q z v v v v v v v v v v v v v v v z z q w 4 q 4 4 3 3 , , : , % % % @ @ o o   o   X   X @ @ # & * < - 7 7 s g h h A S / / ] ] [ [ P o.Y Y Y E I E U U U R Q Q Q Q =.! =.=.=.;.;.6.;.6.i.i.i.p.p.p.p.p.8.8.8.8.8.u.u.u.u.y.y.t.t.t.t.y.y.u.u.u.u.u.8.8.8.8.8.8.8.p.p.p.p.p.i.i.i.i.i.i.;.;.;.;.;.;.=.=.! =.=.! ! Q Q Q Q U U U R R I R Y E Y Y Y [ Y o.] [ ] ] / S S k k g s i 7 1 , & + # X X   X X o o # % : : % , : : % % # o X     X o % # : - 1 - > & % # o X X       X o o @ @ @ % : : : , , 3 3 3 4 q 4 q w z z v v v v v v v v v v v v v v v z z q q w 3 q 4 q 4 9 3 3 3 3 , , , , , , , : , : : : : : : : : : % : : : : : : : : : , : , , , , , , , 4 , 3 3 4 4 4 4 q 4 q q z q z v v v v v v v v v v v v v v v v q z q q 3 q 3 3 3 , , : : : % % @ @ o o       X X o @ @ % # & > * 1 - 2 2 2 2 7 2 ",
"2 2 2 1 - 1 > = > & & # # o o X   X   X X o o % o % : : : , , , 3 3 4 q 4 q q q v v v v v v v v v v v v v v v v z z q q q q 4 4 4 4 3 3 3 3 , 3 , , , , : : , % : % % % % % : : , : : : : % % % % % % % % : : : , : , , 3 , , , , 3 4 4 4 4 q 4 q q z q z v v v v v v v v v v v v v v v v z w q 9 4 4 4 3 3 , , % : : % % @ @ o o       o   o o @ $ & > < 2 7 p s g h ^ A S / ] ] [ [ o.Y P Y E Y E I E U U R U Q Q *.! ! =.=.=.=.;.;.6.;.i.i.6.i.i.p.p.p.p.8.8.8.8.8.u.u.u.y.y.t.t.t.y.y.y.y.u.u.u.u.u.8.8.8.8.8.8.8.p.p.p.p.p.i.i.i.;.i.;.i.;.;.=.=.=.=.=.! ! =.! ! Q Q Q Q U U U I R I R Y Y Y Y Y P [ o.] ] ] ] / G b k k g s i 7 = > $ + @ X X   X X # % % % : 3 : : : : % @ @ o X     X o % & > 1 = : # # # o X X     X X o o @ @ % % : : , , , 3 4 4 4 4 q w w z v v v v v v v v v v v v v v v z q q z q 4 q 4 q 3 3 3 3 3 , , , , , : , : : : : : : % % % % % % % % % % % % % % % % : : : : : , : , , , , 4 , 3 3 3 4 4 4 q 4 q q z q z z v v v v v v v v v v v v v v v q q q q 3 q 3 3 3 , , : : : % % @ o o o       X X o @ # % # & > * 1 1 - 2 1 2 2 ",
"; 1 1 - 1 > = > & : @ # # @ o X     X o o o o o % % : : , , , 3 , q 4 4 q q q z v v v v v v v v v v v v v v z z q q z 4 q 4 4 4 3 3 3 , 4 , 4 : , , : : : : % % % % % # % % : : : , : : % % % o % % % % % % % % % % , : : , , , , 4 , 4 3 4 3 q 4 q 4 z q q z v v v v v v v v v v v v v v v w q q q 4 4 4 3 , , , , % % % o % o o o       X   o @ # & & * 2 2 7 s g h h A ^ / ] ] ] [ [ [ Y Y Y Y Y U I U R U R Q Q Q Q =.! =.=.;.;.;.;.6.6.6.i.i.p.p.p.p.8.8.8.8.8.8.u.u.u.u.y.y.t.t.t.y.y.y.u.u.u.u.u.8.8.8.8.8.8.p.p.p.p.p.p.i.6.i.i.;.i.;.;.;.;.;.=.=.=.! =.! ! ! Q Q Q Q U U R R I R Y E Y Y Y Y o.P [ [ [ ] / / ^ A A g g i i 1 1 = $ $ o o X   X o o # % : : : : , : % % # @ o X   X X # @ & > = > & % # o X o     X   o o @ @ % % : : , , , 3 3 4 4 9 q w w z v v v v v v v v v v v v v v v q z q z 4 4 q 4 4 3 3 3 , , , , , , , : : : : % % % % # % # # # # % % % % # % # # # # % % % % % : % : , : , , : 3 , 3 3 3 3 4 4 4 4 q 4 z q z z v v v v v v v v v v v v v v z z q q q 4 4 4 , 3 , , : : % % @ @ o o o     X X o o @ # # & & > * = 1 < ; 1 2 ",
"< < - > = > * & & # % # o X X   X X X X o o % % % % : , : 4 , 3 q 3 q q q q z v v v v v v v v v v v v v v z z q z 4 q 4 4 4 3 3 3 , 3 3 : 3 : , : : : % % % # % # # # % o % % : : : 3 % : % # % @ % @ % % % % % % % % : : : , , 3 : , , 4 3 4 4 4 4 q 4 z q q z v v v v v v v v v v v v v v v z w q 9 4 4 4 3 3 , , % , % % o o @ o o       X o o @ $ & > < 2 7 7 s g h ^ A S / ] ] [ [ [ o.Y Y Y E Y U U I R U R Q Q *.! =.! =.=.=.;.;.;.i.6.i.i.i.p.p.p.p.8.8.8.8.8.u.u.u.u.y.y.t.t.t.t.y.y.u.y.u.u.u.8.8.8.8.8.8.8.p.p.p.p.p.p.i.6.i.i.;.i.;.;.;.;.=.=.=.=.! ! ! ! ! Q Q Q Q U U U R I I Y E Y Y Y P o.P L ] ] ] / / ^ k k g g i 7 1 = * + + X o   X X o # % % : : , : % : % % o o X X   X o # % : > & # # o o X X       o o @ @ % % % : , : 3 3 3 4 4 q 4 w w z v v v v v v v v v v v v v v v q q q q 4 q 4 4 4 3 3 , 3 , , , : : : : : % % % % # # # # # # # # @ @ @ @ @ # @ # # # # # # # # % % % % % : : : , : 3 : 4 , 3 3 3 4 4 4 q 4 z q z z v v v v v v v v v v v v v v z z q q q 4 4 4 , 3 , , : % % % % o @ o       X X X o @ % # # & > * * 1 < = < ",
"< = * > * > & & # # # o X o X   X X o o o o % % % % , : 4 , , q 4 q 4 q q z v v v v v v v v v v v v v v v z q z 4 q 4 4 4 3 3 3 , 3 3 : , : : : % % % # # # # # # # # o # % % : % 3 : : : % % @ @ @ @ @ o % o # % # # % % % : : : , , , , , 3 , 4 4 4 9 4 q q z q v v v v v v v v v v v v v v z w w q 4 4 4 3 3 , , , % % % % % o o o   o   X   o @ @ & & = < 2 7 s g h h A S / / ] ] [ [ Y o.Y Y Y E Y U U U R R Q Q Q ! ! =.=.=.;.;.;.6.;.i.6.i.i.p.p.p.p.8.8.8.8.8.u.u.u.u.y.y.t.t.t.y.y.y.y.u.u.u.u.8.8.8.8.8.8.8.p.p.p.p.p.i.i.i.i.;.i.;.;.;.;.=.;.=.=.=.! =.! ! ! Q Q Q Q U U R I R R R Y Y Y Y o.P P o.[ ] ] / / S k k g g i i 1 = * $ # o X   X X o # # % : % , : , % % # # o X X   X X # # & = : # # o X o     X X o o @ @ % % : : , , 3 3 4 4 4 4 q w z v v v v v v v v v v v v v v z q q z 9 4 q 4 4 4 3 3 , , , , , : : : % % % # # # # # # @ # @ o @ o o o o o o o o o o o @ @ @ @ # @ % # % % % % : % , : , : 3 , 3 3 4 4 4 4 q 4 q q q z v v v v v v v v v v v v v v z q q q 4 4 4 4 , 3 , : , : % @ % o o o       X X o @ @ # # & & * * * * * < ",
"* * * & & & & # % # o o X   X   X X X o o % % % % , : , , 4 4 3 4 4 q q z v v v v v v v v v v v v v v z q q z 4 q 4 4 4 3 3 3 , , , % , : % % % % # % # # o # o o o o o o % % : : : , : : : % % X o o @ @ o % o # # # # % % % % : : 3 , , , , 3 4 4 4 4 9 9 q q z q v v v v v v v v v v v v v v z w w q 9 4 4 3 3 , , , % % % # o o o o       X o o @ # & * < 2 7 p s g h ^ A S / ] ] [ [ [ Y Y Y Y Y E I R U U R U Q Q *.! ! =.=.=.;.;.;.6.6.6.6.i.i.p.p.p.p.8.8.8.8.8.u.u.u.u.y.y.t.t.t.y.y.y.u.u.u.u.u.8.8.8.8.8.8.8.p.p.p.p.p.i.i.i.i.;.i.;.;.;.;.=.=.=.=.=.! ! ! ! Q Q Q Q Q U U R I I Y R Y Y Y Y P o.[ [ [ ] / / G b k k g i 7 2 1 * & + + X X   X o o % % % , % , % , % % @ o o X     o # # : : # # o o X     X   o o @ @ % % % , : , 3 3 3 4 4 q q q z z v v v v v v v v v v v v v z q z q 4 q 4 4 4 3 3 , , , , : : : : % % % # # # # # o @ o o o o o o o o o o o o o o o o o o o @ o @ @ o # # # # # % % % : , , : 3 , 3 3 3 3 4 4 q 4 q q z q v v v v v v v v v v v v v v z q q q 4 4 4 4 , , , : : % % @ o @ o o       X X o @ @ $ # & & & * * * * ",
"& & & & & & # # # o @ o X X   X X X o X % % % % , : , , 3 3 4 4 q q q z v v v v v v v v v v v v v v z q q z 4 4 4 4 3 3 3 , , , , % , % % % % # # # o # o o o o o o X X # o % % : , % , : : : o % o o X X o o o o o # # o # # % % : : : : , , , , , 4 4 4 4 9 9 q z q v v v v v v v v v v v v v v w w w 4 q 4 4 3 , , , : : % % % o o o           o @ # # * * 1 2 7 s s h h A ^ / ] ] ] [ [ o.Y Y Y Y U E I U U R R Q Q ! ! ! =.=.=.=.;.6.;.6.6.6.i.i.p.p.p.p.8.8.8.8.8.u.u.u.u.y.t.t.t.t.t.u.y.u.u.u.u.u.8.8.8.8.8.8.p.p.p.p.p.p.i.i.i.;.i.;.i.;.;.;.=.;.=.=.! =.! ! ! Q Q Q Q U U U R I R R Y E Y Y Y o.P [ [ ] ] ] / ^ S b g g g i 7 , = $ $ @ o X   X X o # # % % , : , % % % # # o X   X X o # % % # # o X o     X X o @ @ % % % , : , , 3 3 4 4 9 q w z z v v v v v v v v v v v v v q z q q 9 9 4 4 4 3 3 , , , , , : : % % # # # # # @ o o o o o o X o o X X X X X X X X   o   o o X X o o o @ o @ o # # # % % % % % , % , , , , 4 4 4 4 4 q q q q q v v v v v v v v v v v v v v z q z 4 q 4 4 3 , , , : % % % % o o o o     X X o o @ # # # & & & & * & ",
"& & & & # # # @ # o X X   X   X X o X % o % % , : , , 4 3 4 4 q 4 z q z v v v v v v v v v v v v v z q z q 4 q 4 4 3 3 , 3 , : , : , % % # # # # o @ o o o X X X X   X X o % # % : : 3 : : : % % o o X X X X X X o o o o # # # # % # % % : : 3 , , , 3 4 4 4 4 9 4 z q q v v v v v v v v v v v v v v z w q 4 4 4 4 3 3 , , : : % % % o o o o     X X o @ # & * < 2 7 7 g g h ^ A S / ] ] [ [ [ o.Y Y E Y I E U U U R R Q Q *.=.! =.=.;.=.;.;.6.6.6.6.i.i.p.p.p.p.8.8.8.8.8.u.u.u.y.y.t.t.t.t.t.u.y.u.u.u.u.u.8.8.8.8.8.8.8.p.p.p.p.p.i.i.i.;.i.;.;.;.;.;.=.=.=.=.! =.! ! ! Q Q Q Q U U I R I R Y I Y Y Y Y o.P ] [ ] / / / S k k g g i 7 2 , * $ + X X X   X o # % % % % , , % , % % o o o X   X X # % % # o X X X       o o @ @ % % : : , , 3 3 4 4 q 4 w w z v v v v v v v v v v v v v z z q q 4 9 4 4 3 3 , , , , : : : % % % # # # o @ o o o o o X X X X   X   X             X   X   X X X X X X X o o o o @ # o % # % % % , : , , , , 4 , 4 4 4 4 q q q z z v v v v v v v v v v v v v q q q 4 4 4 4 3 , , , % : % # o o o o o     X X o o @ @ # # & & & & & ",
"& # & # @ % o # o X o X X   X X o X % o % % : : , , 3 3 3 3 q 4 q q z v v v v v v v v v v v v v z z q q 4 4 4 4 3 3 , , , , , : % % # # # # # o o o o X X X X X X X   X o o # % : : : , : : % % @ @ X X X   X X X X o o o o o # o # # % : : : : , , , , , 4 4 4 q 4 q z q v v v v v v v v v v v v v z w w q q 4 3 4 , , , : : % % o # o o   o       o @ # # * * 1 2 7 s g h h A / / ] ] ] [ o.P Y Y Y Y E R I U U R Q Q Q ! ! ! =.=.=.;.;.6.;.6.6.i.i.p.p.p.p.8.8.8.8.8.u.u.u.u.u.y.t.t.t.t.u.t.u.u.u.u.u.8.8.8.8.8.8.8.p.p.p.p.p.i.i.i.i.i.;.i.;.;.;.;.=.=.=.! =.! ! ! ! Q Q Q Q U U R R R I E Y E Y Y o.[ [ o.[ ] ] ] / ^ S k g g i i 2 - * $ # o X X X X o @ # % % , % , : : % % # o X X   X X # # # o @ X o       o o @ @ % % % : , , 3 3 4 4 4 9 w w z v v v v v v v v v v v v v z q q q 9 9 4 4 3 3 , , , 3 : : % % # # # # # o o o o o o X X   X                                           X X X X X o o o # o # # # % % : : , , , , 4 , 4 4 q 4 q q q z v v v v v v v v v v v v v z z q 4 q 4 4 3 3 , , : : % % # # o o   o   X   o o @ @ @ # # # # & # ",
"# # # # # @ # o o X X   X X X X o o o % % % : , : 4 , 4 4 q 4 q q z v v v v v v v v v v v v v z q q q 4 q 4 3 3 3 , , , : : : : % # # # @ o o o o X X X X             X X # # % % : : , : : : % # o o X         X     o o o o o # # # # # % % : , , , , , 4 3 4 4 9 9 q z q z v v v v v v v v v v v v z w w 9 9 4 4 3 , , , : : % % o # o o       X o o @ # & * < 2 7 7 g g h ^ A S / ] ] [ [ o.Y o.Y Y Y U U U U R U Q Q ! ! =.! =.=.;.;.;.6.6.6.6.i.i.p.p.p.p.8.8.8.8.8.u.u.u.u.y.y.t.t.t.t.y.u.u.u.u.u.u.8.8.8.8.8.8.8.p.p.p.p.p.i.i.6.i.i.;.i.;.;.;.;.=.=.=.! =.! ! ! ! Q Q Q Q U U R I R I E Y Y Y Y Y P [ [ [ ] / / / ^ k g g g 7 2 , * * + + X X   X X @ # % % % , % , % % % # # X X X   o o # # o X X       o o o @ @ % % , % , , 3 3 4 4 9 q w w v v v v v v v v v v v v v z q z 9 9 4 4 4 4 , , , , : : : : % # # # o o o o o o   X   X         X   X X X X X X X X X X X   X X X   X       X X X X X o o o # # # # % % : : , , , , 4 4 , 4 q 4 q q q q v v v v v v v v v v v v v z z q 4 4 4 4 3 , , , % : % # o o o o       o   o o o @ @ @ # # + # ",
"# @ # @ o # o o X X X   X X X o o o # % % : : , 3 , 3 4 4 4 q q l z v v v v v v v v v v v v v q q q 4 q 4 3 3 3 , , , , : : : # # # # o o o X X X   X     X X X X X   X o o # % % : , : : : : % % @ o X X           o   o   o o o o o # # # % % : % , , , , 4 3 4 4 9 9 q q z v v v v v v v v v v v v v w w q 4 q 4 3 3 , 3 : : % % % o o o o         o @ # # * * 1 2 7 s g g A A / / ] ] [ [ [ Y Y Y Y E Y E I U U R Q Q Q ! ! =.=.=.=.;.;.;.6.6.i.i.p.p.p.p.p.8.8.8.8.8.u.u.u.u.y.t.t.t.t.y.y.y.u.u.u.u.u.8.8.8.8.8.8.p.p.p.p.p.p.i.i.i.i.;.i.;.i.;.;.=.=.=.=.=.! =.! ! Q Q Q Q Q U R I R I R Y Y Y Y Y P o.[ [ ] ] ] / S S b k g g 7 2 2 = & $ @ o X X X X o # # % , % , : , % % % o o X     X X % @ X X o     X o o @ @ % % : % , , 3 3 4 4 4 q w w z v v v v v v v v v v v v q z q q 9 4 4 4 4 , , , , , : % % # # # # o o o o o X   X         X X X X X X X X X X X + X X X X X X X X X X X   X       X X X X o o o @ # @ % % : : : , , , , 4 4 4 4 4 q q z q v v v v v v v v v v v v v q z 4 q 4 4 3 3 , 3 : : % % # # o o o       X   o o o @ @ # O # # ",
"@ @ @ @ @ o o o X     X   X X o o % # % % : , , , 3 3 4 q 4 q l z v v v v v v v v v v v v v q z q 4 q 3 4 3 3 , , , : : : % # # # @ o o o X X X   X X X X X X X X X X   X o o % % : : , , % : : % o o o X X   X           X X X o o o o # # # # % : : , , , , 4 , 4 4 9 9 z q q v v v v v v v v v v v v v w w q 4 4 4 3 , , , : : % # # o o o o       X o @ # & > = 2 7 p s h h ^ A / / ] ] [ [ o.Y Y Y Y U U U U U R U Q Q *.! ! =.=.=.;.;.;.6.6.i.i.i.i.p.p.8.p.8.8.8.8.8.u.u.u.u.t.t.t.t.t.y.y.y.u.u.u.u.u.8.8.8.8.8.8.8.p.p.p.p.p.i.i.6.6.;.;.;.;.;.;.;.=.=.! =.! ! ! ! ! Q Q Q U U U I R I E Y E Y Y o.P Y [ [ ] ] / / ^ k k g g g 7 2 = * $ + + X     X o @ % % % , : : : : % % # o o X X X o @ @ X       X   o o @ % % % % , , , 3 3 4 4 q q w z v v v v v v v v v v v v z z q q 4 9 4 4 , 4 , , , : : % % # # # o # o o o     X     X X   X X   X X + X X X + X @ X @ X + X o X X X X X X X X X X X     X X X X o o o # # % % % : : , , , , 4 4 4 4 q 4 q z z v v v v v v v v v v v v v q z 4 q 3 4 3 3 , , % : % # o o o o o       X   o o o @ @ @ @ O ",
"@ @ @ o o o X   X X X   X X o o o o % % : : , , , 3 q 4 4 q q z v v v v v v v v v v v v z z q q 4 q 4 3 3 3 , , , : : % % % # # o o o X   X X   X X X X X X X X @ X X   X X # # % : : : : , : % # % @ X X   X   o X X X       X   o o o o o # # % % % : , , , , 4 3 4 4 q 4 9 z z z v v v v v v v v v v v z w q q 4 4 3 4 , , : : % % # # o o   o     o . @ # & & = 1 7 7 s g h h A / / ] ] [ [ P [ Y Y E Y Y E I U R R Q Q ! Q =.! =.=.;.;.;.6.i.;.i.i.p.p.p.p.p.8.8.8.8.u.u.u.u.u.y.t.t.t.t.y.y.u.u.u.u.u.u.8.8.8.8.8.8.p.p.p.p.p.p.i.6.i.i.;.i.;.;.;.;.=.=.=.=.=.! ! ! ! Q Q Q Q U U R R R I E Y Y Y Y Y Y [ [ [ ] ] / / S S A g g i 7 2 , = $ $ X X X X X X @ # % : : % , , % % % # o X X     o @ o o o     X o o @ @ % % % , , , 3 3 3 q 4 q w w v v v v v v v v v v v v z z q q 9 9 4 4 4 3 , , , : % % % % # o # o o   o X       X X X X X X X + X @ X + @ + + X + # + # X + + + + @ X o X X X X X X X X X   X X X X o o # @ % % % : : , , , , 4 4 4 4 q q q q z v v v v v v v v v v v v z q q 4 q 4 4 , , , , : % % # # o o   o     X   o o o o o @ @ @ ",
"X @ o o o X X X   X   X X X o o # # % % : , , , 4 3 3 q q q l z v v v v v v v v v v v v z q z 4 q 3 4 3 3 , , : , : % % # @ # o o X X X X   X X X X X X X X o + X o X   X X o # % % : , : : : : % # o o X X X X o X X X X X     X   X o o o o # # # % % : : , , , 4 3 4 4 q q q z z v v v v v v v v v v v v z w q 9 4 4 3 3 , , : : % % # o o o       X o o @ # & > < 2 7 p g g ^ A A ] ] ] ] [ o.Y Y Y Y E E I U R U R R Q Q *.! =.=.=.=.;.;.;.6.i.i.i.i.p.p.p.8.p.8.8.8.8.u.u.u.u.u.t.t.r.y.t.y.u.y.u.u.u.u.8.8.8.8.8.8.8.p.p.p.p.p.p.i.i.i.i.;.i.;.;.=.;.=.=.=.! =.! ! ! Q Q Q Q Q U U R I R I E Y Y Y Y o.P P [ [ ] / / S ^ k k g g i 2 2 * & $ + X X   X X o # % % : , : : , % % # # o X X   X o o       X   o @ @ @ % : , % , , 3 4 4 4 q q w z v v v v v v v v v v v v z q q q 4 4 4 3 , , , , : : % % # o # o o o   o       X   X X X X + X X # + + $ @ $ $ $ $ $ + $ $ $ $ $ + $ + + + X # X X X X X X X X   X   X X o o @ # # % % : : , , , , 4 4 4 4 4 q q q v v v v v v v v v v v v v z q q 4 4 4 3 , , : , : % # o o o o         o   o o o o o o @ ",
"o o o o X X o   X     X X o o o # % % : , : 4 , 3 3 q 4 q q z v v v v v v v v v v v v z q q 4 q 4 4 3 3 , 3 : , : % % % @ @ o o X X X X   X X X X X X o o # + + # o X   X X o % # % : : : , : : % # % o X X   X o @ X X X X X X     X   o o o o # # # % % : , , , , 3 4 4 4 9 q q z z v v v v v v v v v v v z w w 4 q 4 4 , 4 , : : : % # o o o   o     o o @ # & * = 2 7 s s g h A S S / ] ] [ [ P o.Y Y Y I E R I U R Q Q Q ! *.! =.=.=.;.;.;.i.;.i.i.i.p.p.p.p.p.8.8.8.8.u.u.u.u.y.t.y.r.y.y.y.t.u.u.u.u.u.8.8.8.8.8.8.8.p.p.p.p.p.i.i.6.i.;.i.;.;.;.;.;.=.=.=.=.! =.! ! ! Q Q Q Q U U I R I E I Y E Y Y P P o.] ] ] ] / S S k b g g 7 7 2 , * + # @ X X X X @ @ # % : : : , : : % % o o X X   X o o X       o o @ o % % : % , , 3 3 3 q 4 q w z v v v v v v v v v v v v z q q 9 9 4 4 , 4 , , , : % % % # # # o o o   o       X X X X X X + X + $ + $ $ & $ & & & & & * & & & & & $ $ $ $ $ # + + + o o X X X X X X X   X X X @ @ @ % % % % , : , , 4 , 4 4 q 4 q q q v v v v v v v v v v v v z w q 4 q 4 4 3 , 3 : : % % % o o o   o       X   o   o o o X ",
"o o   X X X     X   X X X o o o % % : : , , , 4 3 q 3 q q z z v v v v v v v v v v v z q z q 4 4 4 3 3 , , : , % % % % @ @ @ X X X X   X X X X X X o + + # + $ $ + + X X   X o o % % : : : , % : : % o o X X X   o @ @ + X X X X X X   X X X o o o # # # % % : , , , , 4 3 4 4 4 z q z z v v v v v v v v v v v z w w 9 4 4 3 , , , : : % # # o o o         o o @ # & < < 2 7 p g g A ^ S / ] ] [ [ o.P Y Y E Y I U R U R U Q Q Q *.! =.=.=.;.;.;.;.i.;.i.i.i.p.p.p.8.p.8.8.8.8.u.u.u.u.y.t.y.r.y.y.y.y.u.u.u.u.u.8.8.8.8.8.8.8.p.p.p.p.p.i.i.6.i.;.i.;.i.;.;.=.=.=.=.=.! ! ! ! ! Q Q Q R U U R R I E Y Y Y Y Y o.P o.G ] ] ] / S S g g g g 7 2 = > $ + X X X X X X @ % % : : , : : : : # # X X X X   o   X   X   o o @ % % % : , , , 3 4 4 4 q w w z v v v v v v v v v v v z q z 4 9 4 9 3 3 , , , : : % % # # o o o   o       X X X X + X @ + # $ $ $ & & & & = = = = , - , - = = & = = & = & $ $ $ $ + + o + o X X X X X X   X X X o @ @ % % % % , : , , 4 4 4 4 q q q q z v v v v v v v v v v v v z w q 4 4 4 3 , , , : : % # % o o o           X   o   o o o ",
"  o X X X     X     X X o o X % % % : : : 4 , , q 3 q q q z v v v v v v v v v v v z q z q 4 q 4 3 3 , , , , % % % % @ @ @ X X X   X X X X X X X o + + $ + $ & & $ X X X X X X @ # % % % , : , : % % # # o X   X o @ @ + # o o X X X X       o o o o # # # % % : , : , 3 3 3 4 q 4 q q z v v v v v v v v v v v v w w 4 q 4 4 3 , , , : % % % o o o   X   o   @ @ # & * = 2 7 s g h h A ^ / / ] [ [ [ Y Y Y Y Y E E I U U R Q Q ! Q =.! =.=.;.;.;.i.;.i.i.i.p.p.p.8.p.8.8.8.8.u.u.u.u.y.y.y.r.y.t.y.y.u.u.u.u.u.u.8.8.8.8.8.8.p.p.p.p.p.p.i.i.6.i.i.;.;.;.;.=.;.=.=.=.! =.! ! ! Q Q Q Q U U R R I R I Y Y Y Y Y P o.L o.] ] / / S b k k g a i 2 , = $ # + X X X X X @ @ % : : : , : : % % # # o X   X   X       o o @ @ % % : : , , 3 3 4 4 9 w w z v v v v v v v v v v v z z q q 9 9 4 , 4 , , , : : % # % # o o o o o       X X X X @ X + + $ $ & $ = & = , - 1 1 1 1 1 1 1 1 1 1 1 1 , 1 1 & = = & $ $ $ $ + + o X X X X X X   X X X @ @ @ # % % % , : , , , 4 4 4 4 q q q z v v v v v v v v v v v z q q q 4 4 4 , 3 : , : % % o # o o   o         X   o   o o ",
"o     X X       X X X X o o % o % : : , , , 4 4 4 q 4 q z z v v v v v v v v v v v z q q 4 q 3 3 3 3 , , : : : % % @ @ o X X X X   X X X X X + # + # $ $ * * = $ + # X X   X X o # # % , % , : : : % # o o X X   X o $ $ + + + X X X X X         o o o # # # % % : , , , 4 3 4 4 q 9 z q z v v v v v v v v v v v z w w 9 4 4 3 3 , , : : % # # o o o       o . @ # & & = 1 7 7 s g h h S / / ] ] [ [ o.Y Y Y E I U U U U R U Q Q *.! =.=.=.=.;.;.;.i.;.i.i.i.p.p.p.8.p.8.8.8.8.u.u.u.u.y.y.y.r.y.y.y.y.u.u.u.u.u.u.8.8.8.8.8.8.p.p.p.p.p.p.i.i.6.6.i.;.;.;.;.;.=.=.=.=.! ! ! ! ! Q Q Q Q U U I R I R Y E Y Y Y P Y o.L ] ] ] / / S b g g g 7 7 2 = * # # X X X X X o # % % : , : , : : % # o o X X   X X     X o o @ @ % % : , : 4 , 4 4 q 4 w w v v v v v v v v v v v v q q z 4 9 4 4 4 , , , : : % % % o # o o o       X X X X o + X $ $ $ $ & & = , - 1 1 2 2 2 2 7 7 7 7 7 7 7 7 1 7 1 1 1 1 1 = = & $ $ # + # o o o X X X X   X X X o @ @ % % % : , , , , 4 , 4 q q q q z z v v v v v v v v v v v z w q 4 q 3 3 , 3 : : : % # o # o o             X   o     ",
"    X           X X X o o o o % % : : , , , 4 3 q 4 q z z v v v v v v v v v v v z z q q q 4 4 3 , 3 : , : : # % @ @ @ X X X     X X X X X + # + $ $ * * = = , * $ # o X X   X o @ % % : : : , : : % # % o X X X X o # + $ $ # + X + X X X     o   o o o # # % % : : , : , 3 3 4 4 q 9 q z v v v v v v v v v v v v w w 4 q 4 4 , 3 , : : % % # #   o X       o @ O # * * 1 2 7 s g h A ^ / / ] ] [ [ [ Y Y Y Y Y Y U U U U R Q Q ! ! ! =.=.;.;.;.;.;.i.i.i.i.p.p.p.8.p.8.8.8.u.u.u.u.u.y.y.r.y.r.y.y.y.u.u.u.u.u.8.8.8.8.8.8.8.p.p.p.p.p.i.i.6.6.i.;.i.;.;.;.=.;.=.=.=.! =.! ! Q Q Q Q U U U R I R E R Y Y Y Y o.P P o.] ] ] / / S k A g g i 7 2 , * $ + X X X     @ @ # % : : : : , : % # # o X X   X     X   o o @ % % % , : 3 , 4 4 4 9 w w z v v v v v v v v v v v z z z 4 q 4 4 3 , , , : : % % % o # o o         X X X X X + + $ $ & & = = - 1 2 2 2 i 2 7 i a i s i a a s a a 7 i 7 7 7 2 1 - , = = * * $ # + # o o X X X   X X X X o @ @ % % % : : , , , 4 4 4 4 q q q z v v v v v v v v v v v z q q q 4 4 4 4 , , : : % % # o o o   o           X     o ",
"      X       X X X o o o # # % % : , , , 4 4 3 4 q q q v v v v v v v v v v v v z q q 4 4 4 3 3 , , , : % % % # o @ X X X   X X X X o o + # + $ * * * , , 1 - * $ + + X X X X X @ # % : : , : : : % % # X o X   X X @ $ & & & $ + X X X X X     X   o o o o % # % % , , , 3 3 4 4 4 9 z q z z v v v z v v v v v v z w w 9 4 4 3 , , , : : % # o # o           @ @ # # * < 2 7 p g g h A S / / ] [ [ P o.Y Y Y E U Y R U R R R Q Q *.*.! =.=.;.;.;.i.;.i.i.i.i.p.p.p.8.8.8.8.8.u.u.u.u.u.y.y.r.y.t.y.y.y.u.u.u.u.u.8.8.8.8.8.8.8.p.p.p.p.p.p.i.6.6.i.;.i.;.;.;.=.=.=.=.=.! ! ! ! Q Q Q Q Q U U R I I Y R Y Y Y Y o.P P o.] ] / / S S g k g g 7 2 = * & # o X X X X X @ # % : : , : : : : % # o X X   X     X o o @ @ % % : : , , , 4 4 q 4 w w v v v v v v v v v v v z z 9 q 9 4 4 , 4 , , : , % % # o #   o   o     X X X + o + @ $ & & : - 1 1 2 2 2 i i i p s s s s s g s g s s s g a s i i i 7 7 1 1 - , = & & # + # o o o X X X   X X o o @ @ # % % : , , , , 4 4 4 q 4 q q v v v v v v v v v v v v z w q 4 4 4 , 3 , , : : % % o o o o   o             X   ",
"              X X X o o # o # % : : , , , , 4 q 4 q z z v v v v v v v v v v v z q q 4 q 4 3 3 3 , , : : % % # @ @ X X X   X X X o o o + $ + $ * > = , 2 2 7 , = $ $ @ o X   X X @ # # % : , : , : : % # # X X   X o o $ & & & & $ # + + X   X       o o o # o # % % : , : , , 3 4 4 q 9 q z z v v v m v v v v v v z w w 4 q 4 3 4 , , : : % # # o o o X     o . @ # & * = 1 7 p s g h A ^ / ] ] ] [ o.[ Y Y E Y Y R I U U U Q Q *.Q ! =.=.=.;.;.;.;.;.i.i.i.p.p.p.8.8.p.8.8.u.u.u.u.u.y.y.t.y.r.y.y.y.y.u.u.u.u.u.8.8.8.8.8.8.p.p.p.p.p.p.i.i.6.i.;.i.;.;.;.;.;.=.=.=.! =.! ! ! ! Q Q Q U U R R I R R Y Y Y Y Y P P o.] ] ] / / G b b k g a i 7 , = & $ + X X   X X @ # # : : : , : : : % # # o X X     X   o o @ % % % : , , , 4 4 4 4 q w z v v v v v v v v v v v z q z 9 4 4 4 4 , , , : % % % # # o o o o     X X X X o + $ $ & & = - 1 2 2 2 i s s s s g g g g g g g g g g g g g g s g s s i i 7 7 1 1 = = * * $ # + + o X X X X X X X X @ @ # % % : : : , , 4 , 4 4 q q q z v v v v v v v v v v v z q q q 4 4 3 3 , : , : % o % # o o o   o               ",
"    X       X X X o o o o # % % : : , , 4 4 4 4 q q q v v v v v v v v v v v z z q q q 4 4 3 3 , , : : % % o # o o X X X   X X o o o + $ $ $ = = = 1 7 7 7 7 2 , * + + X X X X X o # % % % % , : : % % % @ X X X   X o @ $ = & & $ $ + # X +   X         o o # # # % % : , , 3 4 4 4 4 9 z q z v v v v v v v v v v v z w q 4 4 4 3 , , , : : % # o o o       X o o @ # & < < 2 7 s g h A A S / ] ] [ [ Y [ Y Y E Y U U R U R R Q Q *.Q =.=.=.=.;.;.;.i.;.i.i.i.p.p.p.8.8.8.8.8.8.u.u.u.u.y.y.r.y.r.y.y.y.y.u.u.u.u.u.8.8.8.8.8.8.8.p.p.p.p.p.i.i.6.6.;.i.;.;.;.;.=.=.=.=.! =.! ! Q Q Q Q Q U U I R I R Y E Y Y Y o.P P o.] ] ] / / S A g k g i 7 2 , * + # X X X   X X @ % % : : : , : : : % o o X X X   X X o o @ % % : , : 4 , 3 4 4 q q w z v v v v v v v v v v z z q 9 q 4 4 3 , , , : : % % o # o o o       X X X o @ + # $ & > = 1 2 2 2 p s s s g g g g k g k k k k k k k k k g k g g g g s s i i i 7 1 1 = > * & # + o + X X X X X   X o o @ % # % : , , , , 4 4 4 4 q q q z v v v v v v v v v v v z w q 4 4 4 3 3 , : : : % @ o o o o     o             ",
"  X       X X X X o o X # # % : : , , , 4 4 4 4 q q z v v v v v v v v v v v z q z 4 4 4 4 , 3 : , : % % # # # o X   X   X X o o o # + $ & = , , 2 7 i i a 7 2 = * $ # + X X X X X @ # % % , % , % , % % @ @ X X X X o + $ $ = , = $ $ + # X X X X     o   o o o % % % % , : , , , 4 4 q 4 z w z v v v v v v v v v v z w w q 4 4 , 4 , , : : % % o o o o         @ O # & & - 2 7 s g g h A ^ / ] ] ] [ o.Y Y Y Y U Y U I U R R Q Q Q =.! =.=.=.;.;.i.;.i.i.i.i.p.p.p.8.8.8.8.8.u.u.u.u.y.y.t.y.r.y.r.y.y.u.u.u.u.u.u.8.8.8.8.8.8.p.p.p.p.p.i.i.6.6.6.i.;.i.;.;.=.;.=.=.! =.! ! ! ! Q Q Q U U U R R R I R Y Y Y Y Y P o.P ] L ] / / S b A g g i i 2 = * $ # + X X   X o @ % % : : , : , : % # # o X X       X o @ @ % : : : , , 3 4 3 q q w z v v v v v v v v v v v z q q 9 4 4 4 3 , , , : % % % # o o o   X   X X X X + + $ & & = - 1 2 2 i s s s g g g g k k k A A A A b A A k A A A k k k k g g g g s i i 7 7 , = = * & & # o + X X X   X X X X @ o % % % : : , , , 4 4 4 q q q q v v v v v v v v v v v z q q q 4 4 4 , , , : : % # % o o o   o   X     X     ",
"    X     X X X o o o # o % % : : , , 4 , 4 q 4 q z z v v v v v v v v v v z z q q q 4 3 3 3 , , : : % # # # X X X X   X X o o o + # & & = , - 2 7 i i g i i 2 2 * & # X X X X X X @ @ % : % , % , % % % # @ o X   X X o $ & = - , = $ $ + + + X X X     o   o o o % # % : , , , 4 , 4 4 9 q z z z v v v v v v v v v v w w q q 4 4 , , , : : : # # o o   o     o . @ # & * < 1 7 p s h b A S / / ] [ [ [ o.Y Y Y Y U E U U R U R Q ! Q =.*.=.=.;.;.;.i.;.i.i.i.p.p.p.p.8.8.8.8.8.u.u.u.u.y.y.t.r.y.t.y.y.y.y.u.u.u.u.8.8.8.8.8.8.8.p.p.p.p.p.i.i.i.6.6.;.;.;.;.;.=.;.=.=.! ! =.! ! ! Q Q Q Q U U I R I E Y E Y Y o.P Y o.] o./ ] / S S k g g g 7 2 , * * + o o X X   X @ @ : % : , : : : : % # # X X X   X o o @ % % % , : 4 , 3 4 q 4 w w z v v v v v v v v v v z z z 4 q 4 4 , 3 , : : : % % o # o o o       X X X + @ # & & = 1 1 2 i i a s g g g k k k k A ^ A ^ S ^ G ^ ^ G ^ A A ^ S k A k k g k g s s i i 7 2 , * * & & + o o o X X X   X X o @ # # % % , , , , 4 , q 4 q q q z v v v v v v v v v v v w w 4 q 4 , 3 , , : : : # @ # o o o   o   o         ",
"  X       X X X o o o o # % : : : , , , 4 4 4 q q q v v v v v v v v v v z z q z 4 4 4 3 , 3 : , : % % # # o X X X   X X o o o + # & * , = , 7 i i a g g g i 7 , = & # # X X X   X @ # % # , % , , % : % # @ X X   X X @ + $ * 1 1 = = & $ $ @ X o         o   o # o % % % : : , , 3 3 4 9 9 w w z v v v v v v v v v v z w w 4 9 3 3 3 , , : % % # # o o         o @ O # & * 2 2 7 s g h A A / / ] ] [ [ Y P Y Y E Y I R U U R Q Q Q *.Q =.=.=.;.;.;.;.i.;.i.i.p.p.p.8.8.8.8.8.8.u.u.u.y.y.y.t.t.r.t.y.y.y.u.u.u.u.u.8.8.8.8.8.8.p.p.p.p.p.p.i.i.6.6.6.6.;.i.;.;.;.=.=.=.=.=.! ! ! Q Q Q Q U U R R I R I E Y Y Y Y Y P ] o.] ] / / / b A A g a i 7 2 , & # + o X X X X o % @ : : : : , : % % # o o X   X X o @ @ % % : : , , , 4 4 4 4 w w v v v v v v v v v v v z q q 9 4 4 3 3 , , , : % % o # o o         X X X + # # & : = 1 1 2 i s s g g g k k A A ^ S ^ / / / / / / / / / / / / / ^ G ^ A A A g k g g g i i 7 2 2 > * * # # + o X X X X X X X @ o # % % : % , , , 4 4 4 q q z q v v v v v v v v v v z z q q 4 4 4 4 , , : : % % # # o o o o   X   X       ",
"    X X   o X o o o o % # % % : , , , 4 4 4 4 q z z v v v v v v v v v v v z q q q 3 4 3 3 , , : % % # # o o X X   X X X o o # # & & > = 2 7 7 i g g g g g a 7 2 * * & # X X X X X o @ # : : % , : , # % % # o X X   X o @ $ * = 1 1 - * & $ + + X +   X     o   o # % # % , : , , 4 4 4 4 9 q z z z v v v v v v v v v v w w q 4 9 3 , , , : : % # o #   o     X   o # # * * < 7 7 s s h k ^ S / ] ] [ [ o.Y Y Y Y E U I R U R R Q ! ! *.*.=.=.=.;.;.i.;.i.i.i.i.p.p.p.8.8.8.8.8.u.u.u.u.y.y.y.t.t.t.y.y.y.u.u.u.u.u.u.8.8.8.8.8.8.8.p.p.p.p.p.i.i.6.6.;.6.;.;.;.;.=.=.=.=.! =.! ! ! ! Q Q Q U U R R I E Y I E Y P o.Y o.] P ] ] S / S b g h g i 7 2 = * & # o X X   X o @ % % : : , : , : % % # o o X X X o @ @ % % : , : 4 3 4 4 q q w z v v v v v v v v v v z w z 4 q 4 4 3 , , : : : % o % o o   o     X X X @ + # & & = 1 2 7 i p s g g k k A A A / / / / / / ] / ] / ] ] / ] / / / / / / ^ A ^ A k k g g g a i 7 2 2 * * & & # o o X X X X X X X @ # o % % , , , , , 4 4 4 q q z z v v v v v v v v v v z z q q 4 4 3 4 , , : : % % o o #   o o   X   X X   ",
"X X X   o X X o X # o # % % : : , , 4 4 4 q 4 q q v v v v v v v v v v v z q z 4 4 4 3 3 , , : : % % # @ o X X     X o o o + # & & = = 2 7 i i g g g k g g a 7 2 2 * $ + + X X   X X @ # % % , % , % , % % @ @ X   X X X # + & * 1 2 1 = = & & @ + X X X       o o o o % % % % , , , , 4 4 9 q q w v v v v v v v v v v v w w 9 q 3 3 4 , > , : % # % o o o       o o O # # * 1 1 7 s g h k A S / ] ] [ [ [ Y Y Y Y U Y U I U R R Q Q ! ! *.=.=.;.;.;.;.;.i.i.i.p.p.p.p.8.8.8.8.8.u.u.u.u.y.y.t.t.r.t.t.y.y.y.u.u.u.u.u.u.8.8.8.8.8.p.p.p.p.p.i.i.6.6.6.6.6.;.;.;.=.;.=.=.! =.! ! ! ! Q Q Q U U U R I R I R Y Y Y Y Y P P o.] ] ] ] / S b A h g g 7 2 2 * & + o o X   X o @ # % : : : , : : % % # o X X X o o @ % % % , : 3 , , 4 q 4 w w v v v v v v v v v v v w z q 9 4 4 4 , 3 : , : % # % # o   o     X X X + + # & & , 1 2 2 i s s g g k A A A ^ / / / / / ] ] ] ] ] ] ] ] ] ] ] ] ] ] / / / / S S k b k g g g s i 7 2 2 = * & # + # X X X X   X o o o % % % % : : , 4 , 4 q 4 q q z v v v v v v v v v v v q z 4 q 4 4 , , , : : % # # # o o o o X   X X     ",
"    X X X o o o o o % o % % : : , , , 4 4 4 q z l v v v v v v v v v v v z q q q 4 4 3 3 , , : % % % o # X X X   X X X o # # # * * , 2 2 i i g g g k A g g g 7 2 , = $ $ o o X X X X o # # : : , : , % % % # @ X X   X X @ $ $ = - 7 1 1 , & & $ + O O X X   o   o o o % @ % , % 3 , 3 4 4 4 4 z q z v v v v v v v v v v z z w 9 4 4 3 3 , : , % % @ o o   o       o o # & * = 2 2 s s g h ^ S S ] ] ] [ P o.Y Y E Y U E U U R U Q Q ! *.*.*.=.=.;.;.i.;.i.;.i.p.p.p.p.p.8.8.8.u.u.u.u.u.u.y.t.t.t.r.y.t.y.y.u.u.u.u.u.8.8.8.8.8.8.8.p.p.p.p.p.i.i.i.6.6.6.;.6.;.;.=.;.=.=.=.! ! ! ! Q Q Q Q Q U R R I R Y R P E Y Y o.P P ] o.] / / S S b g g a a 7 , = & $ o o X X   X @ @ % % : , : : , : % # # o X X o o @ % % : : , , 4 3 4 4 q w w v v v v v v v v v v v z q q 9 4 4 , 3 , , : % % % o o o o     X X X O @ # # & > - 2 2 p s s g k k A A / / / / ] ] ] ] ] ] ] [ [ [ [ ] [ [ [ ] ] ] ] ] ] / / / S S b k k g g a i 7 2 , = * & # o o o X X X X X o o # o % % , , , , 4 , 4 q 4 q z z v v v v v v v v v v z q q 4 4 4 3 , , : : : % # # o #   o o X   X X   ",
"  X X X X o o X # o o % % % : , , , 4 4 4 q q q z v v v v v v v v v v z q z 4 4 4 3 3 , , : : % % # @ X X X   X X o o o # # & > ; , 7 i a g g g k b A h g g i 7 2 = * $ + X X X   X @ # # % : % , % , % % % @ @ X   X o X + $ * , 1 7 7 - 1 & & # # O X X X       o o @ % % % : : , , 3 4 3 q q w w v v v v v v v v v v v w w 4 q 3 4 , , , : : % # # o o X     o   @ + # & * 1 7 7 g g h A ^ / / ] [ [ o.P Y Y Y Y E I U U R R Q Q ! ! ! =.=.=.;.;.;.i.;.i.i.i.p.p.p.8.8.8.u.8.u.u.u.u.y.y.y.t.r.t.t.y.y.y.u.u.u.u.8.u.u.8.8.8.8.p.8.p.p.p.p.i.i.i.i.6.;.i.;.;.;.;.=.=.=.! =.=.! ! ! Q Q Q U U R I R I R Y R Y Y Y Y P ] o.] ] ] / S S A h g g i 7 2 = * # # o X   X X o # # % : : : , : : % % o o X X o @ @ % % : : , 3 , 4 3 q q w z v v v v v v v v v v z q z 9 4 4 3 3 , , : % % % o # o o     X X X O O # # $ = - 2 2 p s s g k k A A ^ / / / ] ] ] ] [ [ [ P [ [ P [ P [ [ [ [ [ [ [ ] ] ] ] / / / S b k k g g g 7 7 2 , = & & # + o X X X     o o o % % % : % , , , 4 4 4 q q q z v v v v v v v v v v z z q q 4 4 4 , , , : : % # # o o o o o X X o     ",
"o   X X o o o o o # % # % : : , , , 4 4 4 4 q z z v v v v v v v v v v z z q q 4 4 3 3 , : , % % # o # o X     X X o + o & & , = , 7 7 i g g g b b S b k g g a i 2 = * $ $ o X X X X X @ # : : : : , % , # # # o X X   X o X $ & = 1 7 7 1 - , & # # + O X X     o o o @ @ % % , : 3 , 3 4 4 9 4 z w z v v v v v v v v v v w w q 3 q , 4 , , : : % % o # o   X     o o @ & & > 1 2 7 s g h k A / / ] ] [ [ o.Y Y Y E I U Y U U R R Q ! ! *.*.=.=.;.;.;.;.i.i.i.i.p.p.p.p.8.8.8.8.u.8.u.u.u.y.y.t.t.r.y.t.y.y.y.u.u.u.u.u.8.u.p.8.p.p.p.8.p.p.p.p.i.i.;.i.6.;.;.;.;.;.=.;.=.=.! ! ! ! ! Q Q Q Q U U R I R I E Y Y Y Y P Y o.P ] ] ] ] S S b A g g i 7 2 , * & + o o X   X X @ % % : : : , : : : % # X o X o @ @ % % : , , , 4 3 q 4 w w z v v v v v v v v v v z q q q 4 4 4 , , : , % % % o o o   o   . X X O + # & = > 2 2 i p s g k k A A / / / ] ] ] ] [ [ [ [ P o.P P o.P o.P P [ P [ [ [ [ ] ] ] ] / / / S b b k g g g i 7 2 , = & & # o o X X X   X o o o % % % , , , , 4 4 4 4 q q q v v v v v v v v v v v w w 4 4 4 4 3 , , : : % % @ # o # o o o X X X o ",
"  X X o o o X # o # o % : : : , , 4 4 4 4 q z q v v v v v v v v v v z z q q 4 4 3 3 , , , : % % # # o X X   X X o o o # & & = , 2 7 7 g g g k b S S S A h g i i 2 , = & + o X X   X X @ # # : : , % , : % % # @ X X   X X # + * * 1 2 i 7 1 1 & = # + O X X X       o o @ % % % : : , , 4 4 3 q q w z v v v v v v v v v v z w q q 3 9 , 3 , : : % # # o o X X     o X @ O & & - 2 7 s s h k ^ / / ] ] [ [ Y Y Y Y Y Y E U R U R Q Q ! ! ! =.=.=.=.;.;.i.;.i.i.i.p.p.p.p.p.8.8.8.8.u.u.u.y.y.t.t.t.t.r.t.y.y.y.u.u.u.u.8.8.u.u.8.8.8.8.p.p.p.p.i.i.i.6.6.6.6.;.i.;.;.;.=.=.=.! =.! ! ! Q Q Q R U R R R I R Y E Y Y Y Y o.P ] o.] ] / / S b A h g g i 2 , = & # + o X   X o o # % % : , : : : % % # # o o o @ % % : : , 3 , 3 4 4 q w w v v v v v v v v v v v q z 4 4 4 4 3 , , , % % % o % o   o   . X X O O # & & = 1 1 i s s g k k A ^ / / / ] ] ] [ [ [ [ P P o.[ Y o.[ Y [ Y o.Y o.[ Y [ [ [ [ ] ] ] / / S S S k k g g i i 2 2 = * & # + o X X X   X X X % o % % : : , , , , 4 q 4 q z z v v v v v v v v v v w w q q 4 4 , 3 > , : % % # # o o o o o o X o   ",
"o o X X o o o o # # % % % : : , , 3 4 4 q 4 q z v v v v v v v v v v z q z 4 q 3 3 3 , , : : % # # o o X     X X o o # # & , , 2 7 i g g g k b S S S b b h g g i 7 , = * $ + o X X   X o # % % : : , : : > # # @ @ X     X o # $ * = 2 7 i 2 - = & & # O O X X     o X o @ @ % % : , , , 4 4 4 4 q w w v v v v v v v v v v z w w 4 q 3 4 , , , : % % # o o o         o @ # & * > 2 2 p g g k A S / / ] [ [ P o.Y Y Y E I U I R R U Q Q ! =.! =.=.;.;.;.;.i.;.i.i.i.p.p.p.8.8.p.u.8.u.u.u.u.y.y.t.t.t.t.t.t.y.y.y.u.u.u.u.8.8.8.8.8.8.8.8.p.p.p.p.i.i.i.;.i.6.;.;.;.;.=.=.=.=.=.! =.! ! Q ! Q Q R R R I R I R Y E Y Y Y P Y o.] P ] ] S S S b h h a a 7 2 * * # o o X X X X @ # % % : : , , % : % # o o o o @ % % % , : , 3 4 4 q 9 w w v v v v v v v v v v z z q q 4 4 3 , , , : : % % o o o o       X O O + & & > - 2 i i s g g k A A / / ] ] ] [ [ [ [ Y P o.Y Y Y Y Y Y Y Y P Y Y Y Y o.P [ o.P L o.] G ] / / S b A g g g i i 2 , = * & # o X X X X   o o o % o % % % , , 4 4 4 4 q q q z v v v v v v v v v v z w q 4 4 4 3 , , : : : % % # # o o o o o X X o ",
"o X X o o X # o o % # % : : , , , 4 4 4 4 q z z v v v v v v v v v v z z q 4 4 4 3 3 , , : % # % o o X X   X X X o # # & * = 2 7 i a g g k b S S / S S A b g g 7 7 2 , * + # X X X X X o # # % : : , : > % % # # X X X X X X + $ * = 1 7 7 i 2 1 > & # # O X X o     X X @ @ % % : : , , , 4 3 q 4 w w v v v v v v v v v v v w w q 4 4 3 3 , , : : % # # o o X     o o O # # & - 1 7 s s g h A ^ / ] ] ] [ o.[ Y Y E Y U U U U U R Q ! ! ! ! =.=.=.=.;.i.;.i.6.i.p.p.p.8.8.8.u.8.u.u.u.u.u.y.y.t.t.e.t.t.y.y.y.u.u.u.u.u.8.8.8.8.8.8.8.p.p.p.p.i.i.i.i.i.6.;.i.;.;.;.;.;.=.=.! =.! ! ! ! Q Q Q R R I R I R E Y I Y Y Y o.P P o.] ] ] ] S S A h g g a 7 2 = * & # o X X   X o @ # % : : : : , : % # # o o @ @ % % : : , 3 3 3 3 9 w w v v v v v v v v v v z z q z 4 4 4 4 , , : : % % @ % o o       X X O O # & : - 1 2 i s g g k A ^ / / / ] ] ] [ [ [ Y P o.Y Y Y Y Y Y Y Y Y E Y Y Y Y Y Y Y P P o.] L o./ ] / / S b A g g g i 7 2 = * & # + # X X X   X o o o % % % , : , , , 4 q 4 q q z v v v v v v v v v v z w q q 4 4 4 3 , , > : % # # o # o o o o o o o ",
"o o X @ o o o # % o % % : : , , 3 , 4 4 q q q v v v v v v v v v v v z q q q 4 3 3 , , : : % % o # o o     X X X o # # * * , 2 7 a g g g b S S / ( S S S h h g g 7 2 = , $ + + X X   X X o : % : : : , % > % % # @ X X   X X + # * * 2 7 i i 2 2 = & & # @ O X X       o o @ % % % : , , 3 , 4 9 q q w z v v v v v v v v v v z w q q 3 4 , , , : : % % o o o o       o o @ & & * 2 2 7 g g h A S / / ] [ [ [ Y Y Y Y E Y U U U R U Q ! ! ! =.*.=.;.;.;.;.;.i.i.6.p.p.p.p.p.8.8.u.u.u.u.u.u.u.t.t.t.t.r.t.t.y.y.y.u.u.u.u.u.8.u.8.8.8.p.p.p.p.p.p.p.i.i.i.6.6.6.;.;.;.;.=.=.=.=.! ! =.! ! Q Q Q Q R R R R I I E Y E Y Y Y o.] P ] ] ] / S S b A h g a i 2 , * & + o o X   X X @ # % : : , : : : : % # o o @ % % % : , , , 4 4 q 4 w w z v v v v v v v v v v w w 4 q 4 3 3 , , : : % % o o o X X     o X O # # & = 1 2 i i s g k k ^ S / ] ] ] [ o.] Y [ o.Y Y Y Y Y Y Y Y E Y U Y Y Y Y Y Y Y Y o.P P o.P L o./ ] / / S b k g g i i 7 2 > * $ + o o X X   X X o o o % % % , , , 4 , 4 4 q q q v v v v v v v v v v v z q 4 q 4 , , 3 : : : : % # # o o o o o o o o ",
"o X o o o # o # o # % % : : , , , 4 4 q 4 z q v v v v v v v v v v z q z 4 4 4 3 3 3 : , : % # # o o     X X X # o # & * , 2 7 a a g g k b S / / S ] S b A h g a i 7 , * & $ o o X X X X # o # : : , : , % : % # @ o X X X o o # & * - 1 i i i 2 1 > & & + @ X X     X o X @ @ % % : : , , 4 4 3 9 w w w v v v v v v v v v v z w q 4 4 4 3 , , , : % # # o o   X     o X # + * * 1 2 a s g h A ^ / / ] ] [ P o.Y Y Y Y U Y R U U R Q Q ! *.! *.=.=.;.;.;.i.6.6.p.6.p.p.p.8.8.8.8.u.u.u.u.u.t.u.t.t.r.t.t.t.y.y.y.u.u.u.8.u.u.8.8.8.p.8.p.p.p.p.p.i.i.i.;.i.6.;.i.;.;.=.;.=.=.=.=.=.! ! ! ! Q Q R R R R I R R E Y Y Y T P P o.P o.] ] ] / S S h h g g i 2 2 * & # # X X   X o o # % % : : , : : : % # # o @ o % : , : 3 , 3 4 4 q w w v v v v v v v v v v z z q q 4 4 3 3 , , , % % % % o o o       X O @ # & & 1 2 2 s s g k k A / / / ] ] ] [ [ Y [ Y Y Y Y E Y Y U Y U Y R Y Y E Y U Y Y Y Y Y Y o.P P o.] ] ] / / S S A h g g i 7 2 = = & # # o o X X   X o X % o % % : : , , 4 , q 4 q q z v v v v v v v v v v w q q 9 4 4 3 , , , : % % # # # # o o o o o o ",
"o o o o @ o o # # % % % : , , , 3 4 4 4 q q z v v v v v v v v v v z q q q 4 4 3 , 3 , % : % @ # o X o   X X o o # # & , = 2 7 a g g A A S S S ] ] S S S b h g g i 7 2 = * # + o X X X X o % # % : : , : > % % # # o X X X X o + $ * , 2 7 a i 7 1 - : # # + O X X     X o o @ % % % : , , , 4 4 q 3 w w v v v v v v v v v v z w q q 4 4 4 , , : : : % # o o o         o @ # & * 1 2 7 s g h k A S ] ] ] [ [ Y [ Y Y E Y U I U R U Q Q ! ! *.*.=.;.=.;.6.;.6.i.6.p.p.p.p.p.8.8.8.8.u.u.u.u.u.t.t.t.t.r.t.t.t.y.y.u.u.u.u.u.u.u.8.8.8.8.8.8.p.p.p.p.i.i.i.;.i.6.;.6.;.;.;.=.=.=.! ! ! ! ! ! Q Q Q Q R I R I E I E Y Y P T o.P P ] P ] ] / / b S h g a a 7 2 , * # + o X X   X o % # % : : : , : : : % o # @ % % % : , , 3 4 4 q 4 w w v v v v v v v v v v z w q 4 4 4 3 , , : : : % o o o X X     o X O + # & = 1 2 7 s g g k A A / / ] ] [ o.[ [ o.Y Y Y Y Y Y U Y Y R Y U Y R I Y R Y U Y E Y Y Y Y o.P P P o.G ] / / S b A h g a i 2 , = * & # o o X X   o X o o % % % , , , , 4 4 4 q q q z v v v v v v v v v v z z q 4 4 4 3 , , : : : % # # o o # o o o o o ",
"o o o o o o # o # # % : : : , , 3 4 4 q q q z v v v v v v v v v z z z q 4 4 4 3 3 : , % % # % o o o   X X o o o # & * = , 7 a g g g k b S / ] ] ] ] S S b A b g a i 2 , * & # o X X X o o o % : : : > , % > % : # o o X X o o # # * = 1 7 a i i 2 1 = * # O O o       X X @ @ @ % % , : , 4 , 4 3 q w z z v v v v v v v v v z w z 4 4 9 , 3 , , : % # # o o X X     o @ O # # * 1 2 7 s g h k ^ / / ] ] [ o.P Y o.E Y I E U U U R U Q ! ! ! *.*.=.;.;.;.;.6.6.p.6.p.p.8.8.8.8.8.8.8.u.u.u.t.u.t.t.r.r.t.t.t.y.t.t.u.u.u.8.8.8.8.8.8.8.8.8.p.p.p.p.i.i.i.i.6.;.i.;.;.;.=.;.=.=.=.=.=.! ! ! ! Q Q R R R R R I E E Y Y #.o.Y Y ] o.] ] ] ] / S b h b g g a 2 , * & # + o X X X @ o % % : : , : , : % # # @ o % % : : , , 3 3 4 4 q w w v v v v v v v v v v z q q q 4 4 4 , , , : % o % % o o     . X O O # & & > 2 2 s s g g A A ^ / ] ] ] [ [ [ Y Y Y Y E Y Y E Y E U E I R R R I R R Y E Y Y Y E Y Y Y o.P o.] o./ ] / S S b h g g i 7 7 , * & # # o X o   X X o o % % % : : , , , 4 4 4 q q z v v v v v v v v v v z q q q 4 4 3 , , > : : % % # # # X # o o o o ",
"o o o @ o # o % # % % : : , , , 3 4 4 4 q z z v v v v v v v v v v w w q q 4 4 3 , 3 % , % % @ @ o X X X X X o # # & > , 2 7 a g g b A S S / ] ] ] ] ] S b A g g g a 7 , , & # + o o X X o # # : : : > > > : : % # o o X X X o + $ & , 2 7 7 s i 7 1 = & & # O X X o     X o @ % % % : , , 3 4 4 q 4 q w z v v v v v v v v v v w w q 4 4 4 , , , : : % # # o o         o @ @ & & = 2 7 s s h b A / / ] ] [ [ o.Y Y Y E Y I U U U U U Q ! E *.*.*.-.;.;.;.6.6.6.6.p.6.8.8.8.8.8.8.8.u.u.u.t.u.t.t.t.t.r.t.t.t.y.u.u.t.u.u.u.u.8.8.8.8.8.8.8.p.p.p.p.i.i.i.;.i.6.;.i.;.;.;.=.;.=.=.=.! =.! ! ! ! Q Q R R R R R I Y E Y T T o.Y o.P ] o.] ] / S S h h g a a 2 2 , & # o o o X X X # # % : : : , : : : % # o % @ % : , , , 4 3 4 q q w z v v v v v v v v v v w w q 4 4 4 3 , , : : % % o o o X X     o X # # & = - 2 7 s s k k A ^ G / ] ] [ [ [ Y o.Y Y Y Y E U Y R I R I R I R I R I R R I E R Y Y Y Y Y Y o.P P ] o.] / / S S b h a g 7 2 , > * & # o o X X   o o o o % % % : , , 4 4 4 4 q q q z v v v v v v v v v z z w 4 q 4 4 , , , : : % % @ % o % X o o o o ",
"o o @ o o o # @ # % % : : , , , 4 4 4 q q q v v v v v v v v v v v w q q 4 4 4 , 3 : , : % @ # o o o X X X o o # # & = , 7 a g a A g S / / ] ] ] ] ] S S S b k g g a 7 2 = * & # o o o o o o # # : : > > > > : % $ # o o X o o o # & * - 1 i s p 2 2 1 & & # + X o     X X o @ o % % : : , , 3 3 4 4 q w z v v v v v v v v v v w w 9 9 4 3 3 , , : : % % o o X X     o X O # & * 1 1 7 s g g k A S / / ] [ [ P P o.Y I Y E U U U U U E E ! E *.*.*.=.;.5.;.6.6.6.5.8.8.6.8.8.8.8.u.u.u.u.u.t.u.t.2.r.r.r.t.t.t.u.t.u.u.u.u.u.8.u.8.8.p.8.8.p.p.p.p.i.i.i.i.6.;.i.;.;.;.;.;.=.=.=.=.=.! ! ! ! Q Q Q R R R R Y R E E Y T o.Y o.Y P o.] ] ] S ] b A b h g a a 2 = * & # o o X X o o # % % : : , : : : % % @ @ % % : : , , 3 4 4 9 w w v v v v v v v v v v z z q q 4 4 4 , , , : % % % o o o X     X X @ + # & = 1 2 i s g g k A / / ] ] ] [ P Y o.Y Y Y Y E I Y R U U I R R R R R R R R I R R Y E Y E Y Y Y P Y ] o.] ] ] / S b h b h a a 7 2 = * $ $ o o X X X X o X % o % % , : , , , 4 q 4 q z v v v v v v v v v v v q q q 4 4 , 3 3 : , : % % % @ % o # o o o o ",
"o o @ o # # o % # % % : , : 3 3 3 4 q 4 z q v v v v v v v v v v z w z 4 q 4 , 4 , , : % % % o o o X   X X X # # & * , 2 2 a a b g S b / / ] ] ] ] ] ] S S S g k g a i 2 2 * & + + o o o o # # & : > > > > : , : $ # # o o o o + # & * , 7 7 a s i 2 1 = & # @ O X X     X X o % % % % , , , 4 3 4 q q w w v v v v v v v v v v z w q 9 4 4 , 3 , : : % # # o o X       o @ # & & < 2 2 p s h h A ^ ] ] ] ] [ o.Y Y Y Y E I I U I U U U E E *.#.*.-.-.;.;.5.6.5.6.6.p.6.8.8.8.8.u.u.8.2.u.u.t.t.t.t.t.r.<.t.t.r.u.u.t.u.8.u.8.u.8.u.p.u.p.p.p.p.p.p.i.i.i.i.i.6.6.;.i.;.;.=.;.=.=.=.! =.! ! ! ! Q Q R R R I R Y R Y E Y T o.Y ] o.] P ] ] ] S S S h g g g 7 2 , * & + # X X X o @ # # % : : : , : : : % # @ % % : , , 3 3 3 q 4 w w z v v v v v v v v v z w w q 4 4 , 4 , , : % % o % X X X     o X O # & & 1 2 2 p s k k A A / ] ] ] [ [ o.P Y Y Y E Y R U R I U R R R R R R R R R R R I R R I E Y E Y Y Y Y o.] P ] / / / S b h g g a 7 2 2 * * # # o X X X X o o o % % % : , , 4 4 4 4 q q q z v v v v v v v v v v z q 4 q 4 4 , , , : : : % # @ % o o # o o o ",
"o @ o # o o % @ % % : : : , , , 4 4 4 q q q v v v v v v v v v v z z q 4 4 4 4 , , , % % % @ @ o X X X X X # o # & * , 2 a a g h k b S / / ] ] P ] ] ] S S b S g g d i 7 , = & $ + o o o o o # # > % > > , > > : : $ # o X o o o + $ * = 1 7 a s i 7 1 = & & + @ o     X X o o @ @ % : : , , 3 3 4 4 q w w v v v v v v v v v v z w q 9 4 4 3 , , : : % % o o X X X     o O O # & = 1 7 s s g h A / / / ] [ [ Y [ Y Y Y I Y U I U U U I E E E *.#.*.*.;.;.5.;.6.6.5.p.p.8.2.8.8.p.2.u.u.2.u.t.t.t.t.r.r.e.t.r.u.7.t.u.u.t.8.u.8.u.8.8.8.p.p.p.p.p.i.p.i.i.;.i.6.;.i.;.;.;.;.=.;.=.=.=.! =.Q =.Q Q Q R R R R R R Y E Y Y T T o.Y Y o.] ] ] / ] S b A A g a a 2 2 * & & o o o X X @ o # % : : , : : : % % o % % : : , , , 3 9 4 q w w v v v v v v v v v v z w q 4 q 3 4 , , : : % % % o o X       . O # + & > - 2 i s g g k A ^ / / ] [ [ o.P o.Y Y E Y R Y R I U R R R R Q Q R R R R R R R R I E R I Y E Y Y P P o.] ] ] ] S S A h h g a 7 7 , > & $ # o o X   X X X % o % % : : , , , 4 q 4 q q z v v v v v v v v v v w w q 4 4 4 , 3 > , : : % $ % o % o o # o o ",
"@ o @ o @ # @ % # % : : , , , 3 3 4 q 4 z z v v v v v v v v v v z w q q 4 3 3 , , : , % @ % o o o X X X X o # # & > 2 2 a g g h A b S / ] ] o.] P ] ] ] S S b k g g i 7 2 = * * + + o o o o & # & > > > , > : > & & # o # X o + # $ * * 1 7 i s i 7 1 - > # # O O X     X X o @ % % % : , , , 4 3 q 4 w w v v v v v v v v v v z z q 9 4 4 , 3 > , : % # # o o X X     o @ @ # & * 2 2 7 g g h ^ A / ] ] ] [ [ Y P Y Y Y U I I U I U U E E E E *.-.-.-.;.-.6.5.6.8.5.5.p.8.2.8.2.8.u.2.u.t.u.t.2.t.r.r.r.t.t.t.r.u.t.u.u.u.u.u.8.u.8.8.8.8.p.p.p.p.6.p.i.i.;.i.6.6.;.;.;.;.=.=.=.=.=.! ! =.! ! Q Q *.R R R Y R R Y E Y Y Y T o.] Y ] o.] ] S / S b h h g a 7 2 , * & + o o X X X # # # % : : , : : : % % o % % , : , 3 3 3 q 4 w w v v v v v v v v v v z w q 4 4 4 4 , , , % % % o @ o X X     o X @ & & * 1 2 7 s g k k ^ G / ] ] [ [ [ Y Y Y Y Y U I R I R R R R R Q Q Q Q *.R R R R R R R I E E I Y Y Y Y P P o.L / G S S b A g g g a 2 2 = * $ # # X X X o X o o % % % % , , , , 4 4 q 4 z q v v v v v v v v v v z q q q 4 3 3 , , : : : % % @ # o % X o # o ",
"o @ @ o # o % @ % % : : : , , 3 4 4 4 q q z v v v v v v v v v v z w q 4 4 4 3 4 : , : % % @ o o X   X X o o # & & = , 7 a a g h b S / / ] ] ] o.] ] ] / / S k k k g i 7 7 , = $ & + o + o + o & $ > : > , > = , : & # # o o o o + $ $ = 1 2 i s s 7 2 1 & & # O X o   X X X o @ @ % : : : , 3 3 4 4 q w w z v v v v v v v v v z w q 4 9 4 3 3 , : : % # % o o X X   o . X @ & & = 1 2 p s g b h / / / ] [ [ P o.Y Y Y I Y I U I U I U T E E #.*.#.*.;.-.;.5.6.5.6.5.8.5.8.8.2.8.u.2.u.t.u.2.t.t.t.r.r.t.,.r.r.u.t.u.t.8.u.t.8.u.8.8.8.8.p.p.p.p.p.p.i.i.i.6.6.6.;.i.;.;.;.;.;.=.=.=.! =.! ! Q *.Q Q R R R R R Y R Y E Y Y Y Y o.Y o.] ] ] ] S S A A h g a 7 2 ; * & # # o X X @ o # % % : : : , : : % # % % % : , , 3 , 9 4 9 w w v v v v v v v v v v w w q q 4 4 , 3 , : : % o % o X X     o X O # # & = 2 2 s s g k A A / / ] [ [ [ Y o.Y Y Y U Y E U U R R Q Q *.Q Q Q *.R R R R R R R I R R I E I Y Y P Y P P ] ] ] S S A A h h a a 7 2 , > $ $ o @ X X X X o o o o % : : , , 4 4 4 4 q q z v v v v v v v v v v z z q 4 4 4 3 , > , : : % $ % @ % o % o @ @ ",
"o o @ @ # # @ % # % : : : , 3 3 3 4 q 4 z q v v v v v v v v v v z w q q 4 4 , , , % % % % @ o o X X   X o o # $ * , 2 7 a g h h A S / ] ] ] o.P ] o.] ] / S S k g g d a 7 2 = * + + + o o + # # * * * , , , , > : : & # o + o o + # * * - 1 i a s i 2 1 = & # # X X     X X o o % @ % : , , , 3 4 q 4 w w z v v v v v v v v v z z w 9 4 4 4 , , , : % % o # X X X     o X @ # & * 1 7 7 g g h A A S ] ] ] [ [ [ Y P Y Y I I I U I U I U T E E #.*.-.*.;.5.;.5.6.5.5.p.8.5.2.8.2.u.u.2.u.2.t.2.t.t.<.r.r.t.r.u.r.t.7.u.t.8.8.u.8.8.8.8.8.6.8.p.p.6.p.6.i.i.i.;.6.;.;.i.;.;.=.;.=.=.=.=.! =.! Q ! Q Q Q Q E R E R E Y Y E Y Y o.Y ] Y ] o.] ] / S b A g h a a 7 , , & $ o o o X X o # # % % : , : : : : % o % , : : 4 , 9 3 q q w w v v v v v v v v v v w w q 4 4 4 , , , : : % % o o o X       o @ @ & & 1 1 7 7 g g k A ^ ] ] ] ] [ Y [ Y E Y U Y R I R U R R Q Q Q *.Q *.Q *.*.R *.R R R R R I I E Y I Y Y P P P P L ] S S A b h g g a a 2 1 = $ $ o o o X   X X o % % % % , : , , 4 4 4 q q q v v v v v v v v v v z q q q 4 4 , 3 , : , : % % @ % o # o o o @ ",
"@ @ @ o # o # # % % : : , , , 3 4 4 4 q q z v v v v v v v v v v q w q 4 4 3 4 , , , : % % @ o X X   X X X # # & * , 2 a a g g b S S / / ] ] P ] o.] ] ] / G A S k g g d i - 1 * & $ + o + o + $ $ & , > > 1 > > > & $ $ # o o + o $ + * , 2 2 i s i 2 1 = * # O @ o   X   X o @ @ % % : : , , 3 4 4 9 q w z v v v v v v v v v z w w 9 4 9 , 3 , : : % # % X o X         @ + # & = 1 2 7 s g h A ^ / / ] ] [ [ Y P Y P Y I I I I I I U I E Y #.#.$.*.$.;.;.5.5.5.5.8.5.5.2.5.8.u.2.2.u.2.t.t.t.<.t.r.t.,.r.r.r.t.7.t.t.8.u.t.8.8.8.8.8.8.8.p.6.p.p.6.i.i.i.;.6.6.6.i.;.;.;.;.;.=.=.=.=.=.! ! =.Q *.Q ! Q R R R R I E E Y o.T Y Y o.P o.] ] ] / S S A b g g a 7 2 = * $ + # X X X @ o # % : : : : : : % % % % : : , , 3 3 4 9 q w z v v v v v v v v v v w w q 4 4 , 4 , , : % % % @ o X X     o X @ + & * > 2 7 s g g A A / / / [ ] o.[ Y Y Y Y Y E I U U R R Q Q Q *.Q Q *.E =.E *.R *.R R Q I R R I E Y I Y P P P ] ] S ] b S h b g x a 7 2 1 : > # # o X   X X o o o o % % : , , 4 , 4 q 4 q z v v v v v v v v v v z z q 4 4 4 3 , , , : : % $ % @ % o % o @ @ ",
"o @ o @ @ % @ # % % : : , , , 3 4 4 q q z z v v v v v v v v v v z q 4 q 4 3 , , , % % % @ @ o o X X   X o o # & > = 2 7 a g b h b / / ] ] o.] o.P ] ] ] / / / k k k g i i 7 - = * + $ + o + # # & * > , = 1 1 > = : : $ + o + o # # $ * > 1 7 i s i 7 1 = # & @ X o     X X X @ @ % % : , , , 4 3 4 q q w z v v v v v v v v v v w w q 4 4 4 , , > : : % o % X X X     o X # # * * 2 2 7 s g h k A / ] ] ] [ [ [ P Y Y Y I Y I I I I I U Y E E #.*.$.-.-.-.-.5.5.5.5.8.2.8.8.2.2.u.u.2.u.2.t.t.t.<.r.r.t.,.r.r.t.t.7.t.t.8.8.t.8.u.8.8.8.8.8.8.p.p.p.6.i.6.i.i.6.;.;.i.;.;.;.=.;.=.=.=.! =.! ! ! ! Q Q Q Q E R Y R Y E Y E Y Y o.Y ] ] o.] ] / / S S h h g i 7 2 , = & # o # X o o # o % % : : , : : : % % % : : , , 3 3 3 w q w z v v v v v v v v v v w w 9 q 4 4 , , , : % % o @ o o         o @ # & * 1 2 7 s g g k A / / ] ] [ [ P o.Y Y E Y R U U U R R Q ! ! Q *.*.*.*.E *.E *.E *.R I R I R I I Y Y Y P P L ] L G S S A A h g g a a 2 1 = & $ # o o X   X o o # % % % : : , , 4 4 4 q q q z v v v v v v v v v z w q q 4 4 4 , , , : : : % @ % o % o @ o o ",
"o @ @ @ # o # % % % : , : , , 3 4 4 4 q q z v v v v v v v v v v w w q 4 4 3 3 3 % , : % # @ o X X X X X o # $ $ * , 2 i a g g A S S ] / [ L o.P ] o.] ] ] / S S k k g d i 7 2 - & * + + # o + # $ * & , > 1 1 > > > & $ # # o # o + $ & = 1 2 2 s i 2 2 > = # + @ o   X   X X @ @ % % : : , 3 , 4 4 4 q w z v v v v v v v v v v w z 4 9 4 3 , , , : % # % o o o     o . @ O # & * 1 2 7 s g h A ^ / / ] ] [ [ P Y P P I Y K I I I I I I Y E E #.#.#.-.-.-.5.-.5.5.5.2.5.2.2.2.u.2.2.u.2.t.2.t.<.t.r.r.,.r.r.t.2.t.t.8.t.8.t.8.8.7.8.8.8.8.6.p.6.p.6.i.i.i.i.;.6.6.i.;.;.;.;.;.=.=.=.=.=.=.! ! =.Q *.Q Q R R E R E E Y E Y T o.Y Y o.Y ] o.] ] / / b A h g g 7 7 , > & # # o o X X o # # % % : : : : : % % % % : , 3 , 3 q 3 q w z v v v v v v v v v v w w q 4 4 , 3 , , : % % % @ o X X     o @ O # & * 1 2 7 s g k A ^ / / ] ] [ P o.Y Y Y Y E I R U R R Q Q ! R *.*.*.#.=.=.=.*.E *.E E R R R I R Y I P I P P P L ] ] S S A A h h g a 7 7 , , & # # o X X X X X o o o % % : , , 4 , 4 q 4 q z v v v v v v v v v v z q z 4 9 4 , 3 , : , : % % % @ % o % o @ @ ",
"@ o @ @ # % @ % % % : : , , 3 3 4 4 q q z q v v v v v v v v v v w w 4 q 4 3 , , , % % % @ @ o X X   X X o @ # $ = , 7 i g g g A b / / ] ] o.] Y o.] P ] ] / / S A k f g p i 2 1 = $ $ + + + + $ & * = > , 1 1 1 > = & : $ # + o + # $ & = = 2 i a a 7 2 > & & # O X     X X X o @ % % % : , , 3 3 4 q q w z v v v v v v v v v v w w q 4 4 4 , , , : : % o # X X X     o X # # & * 2 2 7 s g h h / / / ] ] [ [ [ P Y P P I I K I I I I I U Y O.#.#.#.$.-.;.5.5.5.5.5.5.2.5.2.2.2.u.2.2.2.t.t.2.t.<.t.<.,.,.r.r.t.4.t.t.8.4.8.u.7.8.8.8.8.8.8.8.8.6.p.6.i.i.i.i.;.6.6.;.i.;.;.;.;.=.=.=.=.! =.! ! Q Q *.R Q R R E R E E Y E Y T o.Y P o.] ] ] ] ] S S b A g g i 7 2 = * & o o o o X @ # # % % : : , : : % % % : , , , 4 4 3 q q q z v v v v v v v v v v w w 4 q 4 4 , , : : : % o @ o o   X     @ @ # & > - 2 7 s g h k A / / ] ] [ P P Y Y Y Y U E I U R U Q Q ! ! *.*.=.=.=.#.=.=.*.E ! E E I R R I I Y I P P P ] ] ] S S S A A h g g a i 7 2 > & $ # o o X   X X o o % % % : : , , 4 4 4 4 q q v v v v v v v v v v z z q q 4 4 4 , , , : : : % @ % o % # X o @ ",
"o @ @ @ # o # # % : : : , , , , 4 q 4 q q v v v v v v v v v v v w q q 4 4 3 3 , , , % % # @ o o     X o o @ # & * 1 7 4 a g A b S / / ] ] L o.P o.P ] ] ] / / S A k k g p i 7 - , = & $ + + & + + * : = > 1 1 1 1 > > & $ # o + o # + & & , 2 2 a p 7 1 > = # # o o   X     o @ @ o % : : , , 3 4 4 9 q w v v v v v v v v v v v w z 4 4 9 , 3 , , : % # % @ o o       . @ O + & * 1 2 7 s g h A A / / ] ] ] P P P P Y P I K I K I K I I Y Y E E #.$.*.$.5.-.-.5.5.5.2.5.2.2.2.2.2.2.2.t.t.2.t.<.t.<.r.r.e.r.<.t.4.t.7.t.8.t.7.8.8.8.7.8.8.6.8.6.p.6.i.i.i.p.;.6.6.;.i.;.;.;.;.;.=.;.=.=.=.! =.Q *.Q Q ! Q E R R Y R Y E Y Y T o.Y o.o.P P ] ] / / S b h h g a 7 7 , * & # # X o X o o o % % : : : : : : % % : : , , 3 3 3 q q z z v v v v v v v v v v w w q 4 4 3 , , , : % % % o o X X     o X # # & - 1 2 a s g k A ^ / ] ] [ [ P o.Y Y E Y E I R U R R R ! Q *.*.=.#.;.=.;.=.=.#.*.E E R R R I Y I I Y P I ] ] ] S ] S S A h b g g g 4 7 1 = & $ # o X X   X X X % o % % % , , 4 , 4 q 4 q z v v v v v v v v v v z q z 4 4 9 , 3 , , : : % % % # % o o % @ o ",
"o @ @ @ @ % # % # % : : , , 3 3 4 4 q q z z v v v v v v v v v v z w 4 q 4 3 , , , % % % @ @ o X X   X X o # # $ , 1 2 a g g g b S S / ] ] o.L o.P o.] o.] / G S S k k f s p i 2 - & & & + + + & & & & , - > 2 1 - > > & & $ # o + + $ $ = = 1 2 i a 2 2 - : & # @ o     X X X o @ % % % , : 4 , 3 q 4 q w z v v v v v v v v v v w w q 4 4 4 , , , : : % % X o X X     o X @ # & * - 2 a s g h k A / / ] ] [ [ [ P P P I P I K I K I I I I T O.#.#.#.$.-.$.5.5.5.1.5.1.2.5.2.1.2.2.2.t.2.2.t.2.t.<.<.,.r.e.e.r.<.t.4.y.7.y.8.8.4.8.8.6.8.8.8.6.8.6.p.p.6.i.;.i.i.6.6.;.;.i.;.;.;.=.=.=.=.=.=.! =.Q *.Q Q Q Q E R R E R Y E Y o.T o.Y ] o.] P ] ] / S S A h g a a 2 , = & # o + X o o # # # % % % : : : : % % : , : 4 , 4 9 4 q w z v v v v v v v v v v w w q 4 4 4 , , : : % % o @ o o         o @ # * * 1 7 7 s g g ^ A G / ] ] [ o.P Y Y Y E I E I R U R Q Q ! ! *.=.=.=.;.=.=.#.=.E ! E E I R R I I Y K P P I G G G S S S A A h h g a a 7 1 , & $ @ # X X   X X o o % % % : : , , 4 4 4 q q q z v v v v v v v v v v z q q 4 4 4 , , : , : % % % @ # % o o o @ ",
"@ @ o # # o # # % : : : , , , 3 4 4 4 q q v v v v v v v v v v z w w q 4 4 3 , , , , % % # @ o o     X o o o # $ = , 7 a a g A A S / / ] [ L o.Y P ] o.] G ] / G A A k g g p i ; 1 = = & + + + + + & = = > 1 1 1 1 1 > = & $ + # + # + & & = 1 2 7 7 7 2 > & & # o o       X X @ @ # % : : , , , 4 4 4 q w z v v v v v v v v v v w z 4 9 4 3 , 3 : , % % o % o o     o . O @ + # = 1 2 7 s g h A ^ / / ] ] ] [ P P P P P K K I K K I K I Y Y T Y #.#.$.$.-.-.$.5.5.1.2.1.1.2.2.2.2.2.2.2.t.2.t.<.<.t.r.,.,.r.<.t.4.t.4.7.y.8.4.8.8.7.8.8.8.6.8.6.8.6.6.i.i.i.i.;.6.6.;.i.;.;.;.;.=.;.=.=.=.! =.Q =.Q *.Q Q R E R E R Y E E Y T T Y Y Y ] o.] ] ] / / b A h g g a 7 2 * * & # o o o X o @ @ % % : : , : : : % : : , , 3 4 3 9 q w z v v v v v v v v v v w w 4 q 4 , 3 , : : % % % o o X X X   o o # # & * 1 2 7 s g k A A / / ] [ [ P o.Y Y Y U Y R U U R R R ! Q *.*.E =.=.=.=.=.=.E *.E E E R I I I Y I Y K P ] L G G S A S A h h g g a 7 7 1 > : $ # o X     X X o o o % % % , , , 4 4 4 4 q w v v v v v v v v v v z q q 9 4 4 3 , , , : : % % % # % o o % @ @ ",
"o o @ @ @ % @ % % % : : , , 3 3 3 4 q q z q v v v v v v v v v v w w 4 q 4 3 3 , , % : % @ @ o o     X X o # # $ : - 2 a a g g b S S / ] ] ] o.P o.P P ] o.G / / S A A k f s i 7 2 = & & & + + + & & & - , - 1 1 1 1 > > & & $ # o # # $ & , 1 1 7 i 2 2 1 = # # @ o   X   X X o @ % % % : , , 3 4 4 q q w z v v v v v v v v v v w w q 4 4 4 , , , : : % @ o o X X     o X @ # & * 1 7 7 s g h b A S ] ] ] ] [ P L P K P K K K K K K I K I Y Y #.#.#.$.$.$.1.5.$.1.1.1.2.2.1.2.2.2.<.2.2.2.t.<.t.<.<.,.r.e.,.r.<.t.4.4.y.7.7.p.y.8.8.8.5.8.8.6.8.6.8.6.6.i.i.i.i.;.6.6.;.;.i.;.;.;.=.=.=.=.=.=.=.Q *.Q *.Q Q R E R E R Y Y R Y Y T o.Y o.] P ] ] / / S b A g g a a 2 , * & + o o X o o @ # % % % : : : : : : % , , 3 , 4 4 9 q q z v v v v v v v v v v w w 9 9 4 3 , , , : % % o @ o o         o @ # * > - 2 7 s g h A A / / ] ] [ P Y Y Y Y Y R I R I R U R ! E ! *.*.=.=.#.=.=.E *.E E E R I R I I I I P K P L L G G S S A A A h g g a a 7 1 = & $ @ o o X   X X o o % % % % , , 4 , 4 q 4 q l z v v v v v v v v v z z q 9 4 4 4 , , , : : : % # @ # % o o o o ",
"o @ @ @ # o # # % : : : : , , 3 4 q 4 q q z v v v v v v v v v v w w q 4 4 4 , , : , % % @ @ o o     X X o o # $ = , 7 7 g g b A b S / ] ] o.P P P o.] o.] ] G G G S A j g s p i 1 - = & & + + + & + = & = 1 1 1 2 1 1 = : & $ + # + + $ & & = 2 2 7 7 2 > & & @ @   X     X X @ @ % % : : , , 3 4 4 9 q w z v v v v v v v v v v w z 9 4 4 3 , , , : % @ % o o o       X @ + # & = 1 2 7 s g h A A / / ] ] [ L P P P P K P K K K K K K Y I Y T Y #.$.#.$.$.$.$.1.1.1.1.5.| 2.2.2.2.2.2.2.t.2.<.t.2.r.2.e.,.r.<.r.4.4.t.7.y.7.y.7.8.8.7.8.8.5.8.6.8.6.6.i.i.i.i.;.6.6.6.;.i.;.;.;.=.;.;.=.=.=.=.Q =.Q *.Q Q R R R E I E R E Y Y T o.Y Y P o.] ] ] ] / S S A h g a 7 2 2 * & # # o o X X o # # % : : : : % : : : : , , 3 4 3 q q z z v v v v v v v v v v w w q 4 4 4 , , , : % % % o o X X     o o @ # # = 1 2 7 s g k k ^ / / ] [ ] o.P Y Y Y Y R Y R U U R R E ! ! E =.E *.=.=.#.*.*.E E Y R E I I I I P K P L L G G S S S A h A g x a g i 1 - , : # # o X     X X X % o % % : , , , 4 4 4 q q w z v v v v v v v v v z q z 4 q 4 3 , , , : : % % % # % o o % @ @ ",
"@ o @ @ @ % @ % % % : : , , , 3 4 4 q q q z v v v v v v v v v v w w q 4 4 3 3 , , % : % % o @ X o     X o # # $ : 1 1 i a g g A S S / / ] ] o.P Y P o.] P ] ] G / A A A j f s i 5 , - = + & & + & & & = = - 1 2 1 1 1 1 = % & $ + # # + & = > 1 2 7 2 2 = & # # o o   X   X o o @ % % % , , , , 4 4 9 q w z v v v v v v v v v v w w 4 9 4 4 , , , : : % @ % X o     o . X @ # & > 1 2 7 s g h k ^ S ] / ] ] [ [ P L K P K K K K K K K K Y Y Y O.o.#.$.$.$.$.1.$.1.1.1.2.1.:.2.2.2.2.2.2.2.<.<.<.t.,.,.r.e.,.r.<.t.4.4.4.7.y.p.7.8.8.8.6.8.8.6.8.6.8.6.6.6.i.;.i.i.6.6.6.;.;.i.;.;.=.=.;.=.=.! =.Q =.Q *.Q *.R R R E R Y E E Y Y T o.Y P Y o.] ] / / / b A h g g a 7 , , * + + o o o o @ @ # % % : : : , % % % , , , , 4 4 4 q w z v v v v v v v v v v w w 9 4 4 3 3 , , : : % o % X X X   X   o o # & * 1 2 7 s g g A A G / ] ] [ o.P o.Y Y E Y R I R E U R R E ! ! ! *.*.E *.*.E E E E E I I R I Y K I L P J L L G S S A A A h b a g a 4 7 , & & $ @ o X X   X X o o % % % : , , , 4 4 4 4 z l z v v v v v v v v v z q q 9 4 4 4 , , : , : % % # % o % o o o @ ",
"o @ @ o # @ # # % % % , : , 3 3 4 4 4 q q z v v v v v v v v v v w w 4 q 4 4 , , , , % % @ @ o o     X X o o @ $ = , 2 7 a g g b k S / ] ] o.] o.P o.P P ] ] ] / G S A k k g p i 7 7 - & = & + & & + & = = 1 1 1 2 1 1 1 : = & $ + # + $ & & = 1 1 7 7 1 > & # @ o X X   X X o o @ # % : : , , 4 4 4 9 w w z v v v v v v v v v z q z 9 9 4 3 , , , : % # % o o       . X O # # & = 1 2 a s g k k / / / ] ] [ L P G P P L K K D K K F K I K Y Y o.#.o.#.$.$.1.$.1.} 1.5.| 2.1.2.2.2.<.2.<.2.t.2.t.,.r.r.,.<.w.<.r.,.t.4.7.y.7.7.7.8.4.6.8.7.6.8.8.6.6.8.6.i.i.i.i.;.i.6.;.i.;.;.;.;.;.;.=.=.=.=.*.*.Q =.Q Q Q R R E R Y R R Y E Y T T Y Y o.] P ] ] ] S S b h h g a 7 2 = * & # + o X X o @ @ % % % : , % : % , : : , 4 3 3 q q q z v v v v v v v v v v w w 4 q 4 4 , , , : % % % @ o X X X     o @ # & & - 1 7 s s k k A ^ / ] ] [ L o.Y Y Y Y E I E U U R R R E R ! E *.E *.#.! E E E E R Y R I Y K I P P J L L Z S S S A A A g g g g a 7 2 = , & # # o X   X X o o X % % : : , , , 4 4 4 q q w v v v v v v v v v v z z q 9 4 4 3 , , , : : % % % o % o % o @ @ ",
"@ o @ @ @ # @ % # % : : , , , 3 3 4 q 4 z q v v v v v v v v v v z w q 4 4 4 3 , , % , % % @ o o       X o # # $ : , 1 7 i s g k A S / / ] ] o.P P Y o.] o.] ] ] G G A A k g f i i - - = & & + + + = & = = = 1 2 1 4 1 1 1 : & $ $ + + $ $ & , = 2 2 2 1 = & # @ o   X X   X o @ % % % : , , , 3 4 q 4 q w z v v v v v v v v v z z q 9 4 4 4 , , : : : % o @ o o       X O O & & > - 2 7 g g g ^ A S ] / ] ] [ L P L K P D K K D K K K K Y I Y o.O.#.$.+.$.$.$.1.1.1.| 5.| 2.2.| 2.2.2.2.<.<.t.<.2.,.r.e.,.,.r.<.t.4.4.4.7.y.7.7.8.8.7.8.6.8.6.5.8.6.6.6.6.i.i.i.i.;.i.6.;.i.;.;.;.;.;.=.=.;.=.*.*.=.Q =.Q Q *.R R R E E Y R Y Y Y Y o.P P o.] ] ] ] / S S b g g a i 2 , * & # o o o X o @ @ % # % : : : % % % , , , , 9 4 4 q z q v v v v v v v v v v z w 9 4 4 4 3 , , : : % @ o @ o X     X   @ # # > > 2 7 7 g g k A G ^ ] ] ] o.P P o.Y E Y R I R U U R R U E E R E ! E ! E E E Y R I R I Y I I P K P L G G S S S j A A h b g g a a 7 1 1 * $ # @ o X     X o o % o % : : , , 4 , 4 q 4 z q z v v v v v v v v v z q q 9 4 4 4 , , : , % % % @ % o % X @ o o ",
"o @ @ @ @ @ # # % % : : : , , 3 3 4 4 q q z v v v v v v v v v v z w q q 4 4 3 , , , % % @ # o o o   X X o o o $ & = 1 7 i g g k A b / / ] [ ] o.Y P o.P P ] ] / L A G A k f g p 6 i - = = & & + & & & & = 1 2 1 2 1 2 1 > = & & $ # # + & & & = 1 2 2 1 & & # @ o X X     X o @ o % % : : , , 3 4 4 9 w w v v v v v v v v v v z w q 9 9 4 3 , , , : % @ % o o   o   X X X # # & = 1 2 a s g k A S / / ] ] ] ] L P L P L K D D K K F K P K Y Y o.#.+.#.$.$.} 1.} 1.| 1.| 2.| 2.2.2.2.2.<.2.t.<.2.r.2.e.,.,.r.,.t.,.4.4.4.7.7.7.8.5.8.8.6.8.8.6.8.6.8.6.6.i.i.i.i.;.i.6.;.i.;.;.i.;.;.;.;.=.=.=.*.=.Q =.Q Q *.Q R R R E I R E Y E Y Y T P o.P ] o.] / / ] b A h h a a 7 , = & # # o o X X @ @ # % % : : , % % , : : , 4 , 4 q 4 w w v v v v v v v v v v w w q q 4 4 , 3 : , % % % % o X X   X   o @ @ & & = 2 2 s s g k A ^ / / ] [ ] o.P Y Y Y Y Y R Y R R I R R R R E E E E E Y R E R Y R I I K I K P J L G G G S Z S A A A h g g g s 7 7 1 1 & $ % o X   X X X o o o % % : : , , , 4 4 4 q q z v v v v v v v v v z z z 9 9 4 4 3 , , , : : % # % # % o % o o @ ",
"@ o o @ @ @ # @ % % % : , , , 3 3 4 q 4 z z v v v v v v v v v v z w q 4 q 3 3 3 , % , % % @ @ o   X   X X o # % & > 1 2 i s g g ^ S S / / ] [ ] o.P Y o.] o.] G ] / A S C k f p p 7 - - = & + = + + = & - = 1 2 2 2 1 1 1 > = $ $ + $ $ + & = > 1 1 2 = > # # @ o X X     o o @ % % % , , , , 4 4 4 q w w v v v v v v v v v v z w q 9 4 4 3 , , : : % % # o o       o X O @ # & > 1 7 7 g g k b A / / ] / ] P L L P L F D K D D D K K K Y P Y Y o.#.+.#.+.$.$.1.} 1.| 1.| 2.| 2.2.2.2.2.<.<.<.2.,.r.2.e.,.X.e.,.t.,.4.4.4.7.7.7.8.4.6.8.3.8.6.6.8.6.8.6.6.6.i.;.i.;.i.6.;.i.;.;.;.;.;.=.;.=.=.=.*.*.Q =.Q Q Q Q *.R R E Y R Y Y E Y Y Y o.o.P ] ] ] / / S b A g g a 2 2 * * # # o X o X o @ @ % % % : : , % % , , : 4 3 4 4 q q z v v v v v v v v v v z w 9 9 4 4 3 , , : : % # o o o X X   X o o @ # & > 1 2 7 s g h b A G / ] ] [ [ o.P Y Y Y E Y R I E U U E R R R R E R E R E I E I I Y I Y I P K P J G G S S S j A A g A g x g 4 a 2 1 * & $ @ o o X   X X o o o % % : : , , 4 4 4 q 4 z l v v v v v v v v v v z q q 4 4 4 , 3 , : : : % % @ # o @ @ o # o ",
"o # X @ @ @ # # % % : : : , , 3 4 4 4 q q q v v v v v v v v v v z w q q 4 4 3 , , , : % % @ @ o o X   X X o # @ $ > - 1 i s g k g S ^ / ] ] ] o.P o.P P o.] L o./ G G A A k g f i 7 5 - = & = + + = + = & - 1 1 2 2 1 2 1 1 > & $ $ # + $ & & & 1 2 1 > : # # o X X     o X @ o % % : : , , 3 4 4 9 9 w w v v v v v v v v v v z w q 9 4 4 3 3 , , : % % o o o o     X O O @ # & = 2 2 s s g h A S / / ] ] ] L [ L L F L D D D D K D K K F Y Y o.o.$.o.+.$.$.1.} 1.| 1.| 2.2.2.| 2.2.<.<.2.2.2.r.2.r.,.<.,.e.,.4.,.4.4.4.7.7.4.6.4.6.8.4.8.6.6.8.6.8.6.8.6.i.i.i.i.i.6.6.6.;.i.;.6.;.;.;.;.=.=.=.*.*.=.Q *.Q *.Q E R E R R Y E E Y T Y o.T P ] o.] / ] / S b h g g a 7 2 , * & + # X X X X @ @ # % : % , % , % , : 3 , 3 3 q 4 z w z v v v v v v v v v z w w 9 4 4 4 , , , : % % % o o X   X     o @ # & & - 2 7 s s k k k / / ] ] ] o.P P o.Y E Y Y R I E U R R I R R Y R E I E I E I R I I Y I P K L L G G G Z S S A k A k g g g s a 7 2 , = $ % # o X     X X o X % % % : : , , 3 3 4 4 q w w v v v v v v v v v v q z 9 q 4 4 3 , , , : % % % # % o % o @ o @ ",
"o o # o @ @ # # # % % : : , , , 3 4 4 q z q v v v v v v v v v v v w w q 4 4 3 3 , , % % % % o o o       X X # # % : , 2 2 i s g k k S S / ] ] [ ] P o.P o.P ] ] L / G G A k f g d i 5 1 - = & & & + = & = = 1 2 2 2 4 1 1 1 > & & $ + $ + $ & = : 1 - = & # @ o X X       o o % o % : , : , , 4 4 q 9 w w v v v v v v v v v v w w q 9 3 4 , , , : : % @ % o X       X X @ + & & 1 1 7 i s k k k ^ S ] / ] ] L L L H G D D D D D D K D P P P Y Y o.o.$.+.+.$.} $.} 1.| 1.| | 2.2.| 2.<.2.<.t.2.,.,.2.e.,.e.X.,.e.,.4.4.4.3.7.7.7.8.7.5.8.5.8.7.6.6.6.6.6.6.6.i.i.;.i.i.6.6.6.;.;.;.;.;.;.;.;.=.=.=.*.Q =.Q *.Q Q Q E R Y R R Y E Y Y Y Y P o.P ] o.] / / / S A h g g a 2 2 > & # o # X o X @ @ % % % : : : : : % , , 3 3 4 4 q q z z v v v v v v v v v z w w 9 9 4 3 , , , : % % o % X o X   X X   @ @ & > > 2 7 7 g g k ^ A S / ] ] ] o.P Y P Y Y E Y R I E I R E R R R I R E I E I I Y I Y K K P P J G G G S S A j A k g A g g s a a 7 1 - , $ @ # o X   X X X o # o % % : , , 4 4 3 q 4 q l z v v v v v v v v v v z q q 4 4 3 , , , : : : % % # o % o o @ o o ",
"o o o @ @ @ @ # # % % : , : , 3 3 4 q 4 q q z v v v v v v v v v v w w 4 q 4 3 3 , , , : % @ # o o X X X X o o # $ & = 1 2 i s g k k b G / / ] ] o.o.P P P ] o.] ] L L A A j k j p i 6 - - - & = + & & & = 1 1 2 1 4 2 1 2 1 > = & $ # + $ $ & & = 1 > > & # @ o X       o o @ o % % : : , , 3 4 4 4 q w v v v v v v v v v v v w q q 9 4 4 3 , , : % % % o o o o     X X O # # = > 2 7 i g g k A / / / / ] ] L L H G G D D D D D D D K F K Y P o.o.#.o.+.$.} $.} 1.| 1.| | 2.| 2.2.| 2.<.2.,.2.r.2.r.,.,.<.X.e.,.4.,.4.4.4.7.7.7.8.3.8.6.8.6.6.8.6.8.6.6.8.6.i.i.i.;.6.6.6.;.i.;.6.;.;.;.;.=.=.=.=.*.=.Q *.Q *.Q R R R R R Y E Y E Y Y Y Y P o.P ] ] ] / / b b h h a a 7 , = * $ + o o X X o @ @ # % : % , % % , : , , 3 4 9 4 q w z v v v v v v v v v v w w 9 4 4 3 3 , : , % % % @ o X   X     o @ # # & = 1 2 p s s k k A / / ] ] o.] P P o.Y Y Y E Y Y R R Y R I E I R E I E I R Y I P I Y P J L G G G Z A S Z k k k A g x g s a i 2 1 , & % # o X   X X X o o o # % : : , , , , q 4 4 q w v v v v v v v v v v z q z 9 4 4 4 3 3 : , : % % % o % o o # o o o ",
"o o o o o @ @ # # % % : : , , , 3 4 4 q q z z v v v v v v v v v v w w q 4 4 4 3 , , : : % % @ @ o       X X o o % % > 1 2 i i g g k A ^ G / ] ] [ ] o.P o.] P ] ] / / G A A j g f i i 5 1 = & & & & & & = = 1 2 2 2 4 2 1 1 > > & & $ # + $ & & = = = : # # @ o X X     o o @ % % % : , , , 4 4 4 q w w z v v v v v v v v v v z w q 3 9 , 4 , : , % % @ % X X     o X X @ # & * = 1 7 s s h k A S / / ] ] S L G G G D G Z D D D D D K P P H Y o.o.+.o.+.o.+.+.:.+.| | 1.| 2.| 2.2.2.2.<.2.2.,.,.2.,.r.,.<.X.,.,.,.4.,.4.4.4.7.7.3.8.3.8.3.8.6.6.8.6.8.6.6.6.i.i.i.i.;.i.6.6.;.i.;.;.;.;.;.;.=.=.=.=.*.*.*.Q Q Q *.R R E R R Y R Y E Y Y Y o.P o.] ] ] / / S S h g g a 7 2 > * & # X X X o X @ @ % % % : % , % % , , , 4 4 4 9 q z z z v v v v v v v v v z w q 9 4 4 , , , % : % % o @ o X   X X X o @ # * * 1 1 7 s g g b A S / / ] ] o.o.L Y o.Y Y Y E E Y Y R Y R I E Y I E I Y I I Y I P K P P J G G S S S j k k j g g g g s s a 7 1 1 , $ $ # X X X   X X o o o % % % : , , 4 4 3 q q q l z v v v v v v v v v z z q 4 9 4 3 , , , : : : % # % o % o o o o o ",
"o o o X % X @ @ # % % : % , , 3 3 4 4 4 q q z v v v v v v v v v v z w q 9 4 4 3 , , , : % % @ @ o o     X X X # # % & = 1 2 i s g g b A S / / ] ] o.L o.P o.] ] ] ] G S G A k g f p i 5 - - = & = & + = & = 1 1 2 2 2 4 2 1 1 1 : & $ + $ + $ & & > > & % @ o X X     X X @ @ o % : % , , 4 3 4 9 9 w w v v v v v v v v v v z w q 9 9 4 4 , , , : % % % o o o     X X O O # & & 1 2 7 s g h k ^ / / / ] S ] G G G D G D D D Z D D D H K H Y P o.o.o.o.+.+.+.+.+.} | 1.{ 2.| 2.| 2.<.<.| 2.t.2.2.,.<.<.<.w.,.X.,.4.,.>.4.4.7.3.7.8.4.6.4.6.7.6.8.6.6.6.8.6.i.i.;.i.i.i.6.6.6.6.;.6.;.;.;.;.;.=.=.=.*.*.*.Q *.Q *.Q R E R R Y R E I Y E Y Y P P P o.] ] / ] S b A h g g 7 2 2 * $ + # o o X X @ @ % # % % , % % , , : 3 , 4 4 9 q q z v v v v v v v v v v z w 9 9 4 4 4 , , , : % # % o o o X       o @ # # > = 2 2 s s g g k A / / / ] ] L o.P Y o.Y Y Y Y Y E Y E Y E Y I E I Y I I P I P K P L L G G G G k Z k S g k k g x s s i 4 7 1 = : % % o @ X   X X X o X % % % : : , , , 3 4 4 9 w w v v v v v v v v v v z q q q 4 4 3 , , , : : % # % o % o o o o o o ",
"o o o o o % X % @ % % % , : , , 3 3 4 q 4 z q v v v v v v v v v v z z w q 4 4 4 3 , : : % % % X @ X o     X X o # % : , , 2 i i s k g ^ S S / / ] ] o.L o.P o.] ] ] ] / A G k j g d i i ; - = = + & = & = = > 1 2 4 2 2 4 1 1 > & & $ # + # $ $ = & : & @ # o X X   X X o @ % % % % , , , , 4 4 9 4 w w v v v v v v v v v v z w w q 3 4 3 , , , : % % o # X o       X O O # & = 1 2 7 s g k k A / / / / ] L L G G S D Z D Z D Z D D F P P H Y o.[ o.+.o.+.} +.} } :.} 1.{ 2.| 2.| 2.2.2.2.,.,.r.2.e.,.,.<.X.e.,.,.4.4.4.3.4.7.3.7.6.4.6.8.6.3.6.8.6.6.6.6.8.6.i.i.;.i.i.6.6.6.6.;.6.;.6.;.;.=.=.=.=.*.*.*.Q =.Q Q Q ! R E R E Y R Y Y Y Y Y o.P ] o./ ] / / b b h g a a 2 , = & $ o X X o o o # @ % % % % , % : % , , 3 4 4 4 q w w v v v v v v v v v v z w w 9 4 4 3 , , , : : % @ @ o o X     X X o @ # & > 1 2 7 s s k k b A G / ] ] [ ] o.] Y o.Y Y Y E Y E Y E Y E Y Y Y Y Y Y Y P P P P L L G G S C S k j g k g g g s s s a 7 1 , , & % # o X X   X X o o # o % % : , , 4 4 3 q 4 q l l v v v v v v v v v v z q q 4 4 4 4 , , : : : % % # # o o # o o o o ",
"o o o o o o @ @ @ # % % : : , , 3 3 4 4 q q z z v v v v v v v v v v w w 4 q 4 3 3 , , , : % # % o o   X X X X o o # % : = 2 2 i s s k k k S / / ] ] ] o.L o.] ] o.] / / G A k k f g d i 2 ; - & = & & & & = 1 2 1 2 2 4 1 2 1 > > & $ # # # $ $ # = : # # o X X       o o @ o % : : : , , 3 4 4 9 w w z v v v v v v v v v v z w q 4 4 4 3 3 , : : % # # o o   o   X X O # # & = 1 2 i g g g A ^ S / / L / L G S G D Z D Z Z D D D D F F H P o.[ o.o.+.} +.+.} } +.} | | 1.| | 2.t.| 2.2.,.2.2.2.,.<.,.<.X.w.X.,.,.4.,.3.4.4.3.4.6.4.6.7.6.7.6.7.6.8.6.6.8.6.i.i.i.i.i.;.6.6.6.;.6.;.6.;.;.;.;.=.=.=.*.*.Q =.Q Q *.R Q R R E I E Y R Y Y Y o.Y ] o.] ] ] / S S k A g g a 7 2 = * $ + # o X X o o @ % % % , % , % , , , 3 , 4 q 4 w w v v v v v v v v v v v w w 9 9 4 3 4 , , : % % % @ o o X X     o o @ # & : = 2 2 s s g g k A ^ / / ] / o.] o.Y P Y o.Y Y Y Y Y Y Y Y Y Y Y Y Y P P P P P L L G G S S S k k k k g g g x s a i 4 7 1 - : : # o @     X X X o o o # % : : , , , 3 4 4 q q w v v v v v v v v v v v q z q q 4 4 3 , , , : % % # % o o # o o o o o ",
"o o o o o o # @ # % # % % , : 3 3 3 4 4 q q q v v v v v v v v v v v w w q 4 4 4 3 3 , % : : % o % X o       X o @ # # : , , 2 i i s g k k ^ S G / ] ] [ o.[ o.L ] ] ] ] S G k k j f a i 6 1 - = & = + = & > - 1 2 2 4 2 4 1 1 1 > & $ $ + # @ $ & : # % @ o X X X   X o @ @ % % % : , , 3 3 4 9 9 w w z v v v v v v v v v v w w q q 3 3 3 , , , % % % # o o       X X O O & & > 1 7 a s h k k / ^ S ] / L S G G S G Z Z D Z B D D D G P P H o.o.[ +.[ +.} } } } } | | | | 2.} <.| 2.2.2.2.,.2.,.2.,.<.X.<.X.X.,.,.4.4.,.3.4.4.3.4.6.4.6.3.6.8.6.6.6.6.8.6.6.6.i.i.i.i.i.i.6.6.6.6.6.;.6.;.;.;.=.;.=.=.*.*.Q *.Q Q *.R R R I R E Y Y E Y Y Y Y o.P o.G ] / / / S g A g a 7 2 , * $ + X o X X o o # # % % % , % : : , , 3 3 4 4 q q w z v v v v v v v v v v w w 9 9 4 4 , , , , % : # # X o o X     X X @ @ % & > 1 2 7 s s h k k A G ^ ] ] ] ] o.] o.P Y o.Y Y Y o.Y Y Y Y Y P Y Y P P P L L L G G S S C S k f g g g g s s s a 4 7 1 1 , : % # o X o   X X X o o # % % : , , , 4 3 3 q 4 l l z v v v v v v v v v z z q 4 4 4 4 , , , : : % % % o % o o o o o   o ",
"o   o o o o o @ @ @ % % % : , , , 3 3 q 4 q q z v v v v v v v v v v z w q q 4 4 3 3 : 3 : % % % @ @ o X   X X X o o # % : = 1 2 i s s g k A ^ S / / ] ] ] [ ] o.] ] ] / ] A S k k g d p i ; 1 = = & = # = & 1 1 1 2 2 4 2 2 1 1 > : $ # $ @ $ # # # % # o X X X     o o @ o # % : , , , , 4 4 9 9 w w v v v v v v v v v v z w z 3 q 3 4 3 , , : % % % o o o     X X O O # # = > 2 2 p s g k A A / ] S / L G G S D Z Z D B D Z D Z D H H H [ [ [ o.[ +.o.} [ } } } } | | 2.| 2.| 2.2.| t.,.2.,.2.<.<.,.<.X.,.X.,.,.,.,.3.4.4.3.4.6.4.6.3.6.8.5.8.6.8.6.6.6.i.i.i.i.i.i.i.;.i.6.6.6.;.i.;.;.;.;.;.=.=.*.*.*.*.Q *.Q Q R E R R E I E R Y Y Y Y P o.P ] o.] / / S b A g g a 7 7 , = $ $ @ o o X o o @ # % % % : : % , : , , 4 , q 4 q w z v v v v v v v v v v z w q 9 4 4 4 3 , : , % % # % X X X X X   o o @ # & : - 1 2 p s s g k ^ A / / / ] ] ] o.L o.P P Y o.Y Y Y o.Y Y Y Y P P P P P ] ] G G S G A A k g k d g g s s a a a 7 7 - , : : o % o X X X X X o o o # % : : : , , 3 3 q 4 q w l v v v v v v v v v v z q q q 9 4 3 3 , , : : % % o % o o o o o o o o ",
"o o o   o o o # @ @ % % % , : , 3 3 3 4 q 4 z z v v v v v v v v v v v w w 9 9 4 3 3 3 : , : % # o @ o o     X   o @ # # : , = 2 7 i s g g k k ^ G / / ] ] ] [ [ ] ] ] / / / A A k g d i i 7 - - = & & = $ = > 1 2 2 1 2 4 1 1 1 > & & # @ @ @ @ % % # @ o X X       o o @ % % % : : , , 4 4 4 9 9 w z v v v v v v v v v v z w w q 3 9 , 3 , : : : % o # X o       X X @ # & & - 1 7 s g g k A / ^ S / S S L S G S Z Z Z D B D Z D D D H [ H o.[ o.} [ } } } } } { | | | | | 2.| <.2.2.| 2.2.,.2.,.<.,.,.,.X.X.X.>.,.4.,.3.3.4.3.7.3.8.6.4.6.6.6.7.6.8.6.6.6.i.6.i.i.;.i.i.;.i.6.6.6.;.;.;.;.;.;.;.=.=.=.*.*.*.Q *.Q R R R E R R Y Y R Y Y Y o.Y o.] L ] ] / / S b A g g i 7 , , & $ + X X X X o @ # # % % : , % : , , , 3 4 4 9 q q w v v v v v v v v v v v w w 9 9 4 , , , , : : % # o % X o X   X   o o @ & & > = 2 2 p s g k g ^ A G / / ] ] ] o.o.] o.P P Y P o.Y P P P o.P [ [ [ ] L ] G S S C A k j g g g g s s a a a 2 2 1 1 , % # # o o X   X X X o o # # % : : , , 4 3 4 4 q q l l v v v v v v v v v v z z q 4 4 4 3 , , : : : % # % o # o o o   o o o ",
"  o   o o o o o o % o % % : : , , 3 4 4 4 q z q z v v v v v v v v v v w w q 9 4 4 3 , 3 : : % % % @ @ o X     o X o o % % & , 1 1 i i s g g k A ^ / / / ] ] ] ] o.] ] ] / / S A k f g s p 2 2 - = & = # = : - 1 1 1 2 4 4 3 1 1 > > $ $ # o o # # # # o o X       o o @ o # % : : , , 3 , 4 4 9 w w z v v v v v v v v v v w w w 4 9 3 4 , , , : % # % o o o     . X O + # # = 1 2 i s s k A A S / S ] S L S D S Z Z Z Z B D B D D D G H H [ [ [ } [ } [ } ] } { | { | | | <.| 2.| 2.<.1.,.,.2.,.<.<.,.<.X.X.X.>.q.4.,.>.4.4.3.7.3.6.3.4.6.5.8.3.6.6.6.8.6.8.i.i.i.i.i.i.i.i.i.i.i.;.i.;.i.;.;.;.=.=.=.*.*.*.Q *.Q R *.Q E R R Y R R Y E Y Y Y P P o.o.] ] ] / S A b g g a 7 2 = * $ + @ o X X o o o % % % : % : : , : , 4 , 3 q 4 w z z v v v v v v v v v v w w 9 9 4 4 4 3 , : : % % % o o X X X   X o o @ # # : = 1 2 7 s s g k k A ^ / / / ] ] ] ] o.L o.P ] o.P P o.o.o.[ [ [ [ ] L ] S G S S A k k h g g s s a a a a 7 2 2 1 , : % % # o X   X X X o o o # % % : : , , 3 4 4 4 9 w w v v v v v v v v v v v w q q 4 4 3 4 , , , : % # % o # o o o o o o   X ",
"o   o o   o o o # @ % % % % : , , , 3 4 q 4 q z z v v v v v v v v v v z w w 9 9 4 3 3 , 3 % : % # o @ X o         o @ o % % : 1 1 2 i i s g k k k A S / / ] / ] ] ] ] ] / / ^ A k k f d a i ; 1 - = & = # = : 1 1 2 1 2 3 2 3 1 > : : $ @ # o # o # o o X X   o   o o @ % % % : : , 3 4 4 4 9 9 w w v v v v v v v v v v v z w 4 q 3 4 3 , , : : % % o # o     o X X O O & & = 1 2 7 s g g A ^ S S / S L S S S S Z Z C Z Z B D B D D D H H [ [ [ [ [ } } ] } _ } { | | | | | | <.2.2.| t.2.1.,.2.,.,.,.<.X.X.X...,.,.3.,.3.4.3.3.7.4.6.6.3.8.6.8.6.8.6.6.8.6.6.p.i.i.i.i.;.i.i.;.i.i.;.i.;.;.;.;.;.=.=.=.*.*.*.Q *.R Q Q Q R E R Y R Y Y E Y Y o.P P [ ] ] / / / S g g g g 4 2 1 * & $ X + X X X o # @ % % % , : : : , , , 4 4 4 q q w z v v v v v v v v v v z w q 9 4 4 3 , , , : : % % # X o X X     X o o @ % # > > 1 2 7 s s g k k A A G / / / ] ] ] o.] o.o.[ o.[ [ [ [ [ [ ] ] ] ] / G S A A k k d g g s s a s a a 2 7 1 1 , : : # % o o X X X X X o o # # % : : , , 3 3 4 4 q 9 l l v v v v v v v v v v z z z 4 q 4 3 3 , , : : % % # # o o o o   o   o   ",
"  o     o o o o o @ o % % % , : , 3 3 4 4 4 q q z v v v v v v v v v v v w w 9 9 4 4 3 3 : , : % % % o @ X o     o o X o # % : : = 2 2 i s s g g k A ^ A / / / ] ] ] ] / / S S S k k g g p 7 7 1 - & = # = & = 1 1 1 2 3 2 4 1 , > > % # # o # o o % o X X       o o @ o # % : : , , , , 4 4 9 q w z v v v v v v v v v v z w q q 4 4 4 , , , , % % # # o   o   . X X O # # # > 1 7 i s g k A S ^ / S S S L Z S Z S C Z Z B D B Z D D G H G [ [ [ [ } [ ) } { { { | { | | | | 2.| <.| 2.| 2.,.2.,.2.,.<.X.,.X...q.>.>.w.3.,.3.3.4.3.6.3.3.8.6.3.6.6.5.8.6.6.6.i.i.i.i.i.i.i.p.;.i.i.;.i.;.i.;.;.=.;.;.=.=.*.*.Q =.Q *.R Q E E R I R Y R Y Y Y Y P o.] o.] ] ] / S b A A g a 7 7 1 , & $ @ o o o o o o # # % % : : % , : , , 4 4 4 4 q w z v v v v v v v v v v v q w 9 9 4 3 4 , , , : % % o % X X X X   X   o @ # # & = 1 2 2 7 s s g g k A ^ A / / / / ] ] ] ] [ [ [ [ [ [ ] [ ] ] ] ] / S S S A k k g g s s s a a a 2 7 2 1 - , , : # % @ o X   X X X o o o # % % : : , , 3 3 4 4 9 w w z v v v v v v v v v v z q q 9 4 4 3 3 , , : % % # % o o o o o o   o   o ",
"    o     o o o o # o % % % % , , , 3 3 4 q q q z z v v v v v v v v v v z w 9 9 4 4 3 3 , : : : % % % X @ X       o o o @ % % : > > 1 2 p s s g g b k ^ A / G ^ ] / ] ] / / S ^ A k g g p i 2 2 1 = & = # > & > 1 1 1 2 4 1 1 1 > : : % o # o o # o o X X   o   o o @ % % % : , , , 4 4 4 9 9 w q v v v v v v v v v v v z w w 4 q 3 3 3 , : : % % # o o o     . X X # + & = = 1 2 s g g k A A / / S L S S S S Z C Z C B Z B D Z Z D G G H [ [ [ ` ] } } ] _ { { { | { | | 2.| 2.| t.2.2.2.,.2.,.,.<.,.<...X.X.>.w.>.>.4.>.4.3.3.7.3.8.3.6.4.6.6.8.6.6.8.6.8.6.i.i.i.i.i.i.;.i.i.;.i.;.i.;.;.i.;.=.=.;.=.=.*.*.Q *.Q *.R R R E R E R Y R Y Y Y Y Y o.P ] ] ] / / S b k g g a 7 1 = & & # X X X o X o # % # % : : : : , , , , 4 4 q 4 w w v v v v v v v v v v v z q q 9 9 3 3 , , : : : % % o % X X X X   X X o @ % # : : 1 2 7 7 s g g g b k ^ S S G S / ] ] ] ] ] ] ] ] ] ] ] ] / / / / S S k k k g g g s s 7 7 7 2 7 2 2 1 1 , : % # # @ o X X   X X o # o # % : : , , 3 3 4 4 q 9 w w v v v v v v v v v v v w z 4 q 4 4 4 , , : : : % # o % o o o   o     o   ",
"o       o   o o o o % o % % % , , , 3 3 4 4 4 z q z v v v v v v v v v v z w w 9 9 4 4 3 3 , , : % % o % o o X o     o X @ o # % $ > - 2 2 7 s s g h h k A A ^ G / / / / / S G A b k k g p i 7 2 - = > & = # = > 1 1 1 1 1 3 1 1 > > % # # o o o o o X X       o X @ o # % : : : , , 3 4 3 9 q q z v v v v v v v v v v v w w 4 q 4 4 4 , , , : % # # @ o   o   X X O O # & & 1 2 i s s k k A ^ / S S S S S S Z A Z B Z Z B B Z Z D G D G [ ) [ [ ) ` ] ) _ _ { { { { | | | | 2.| 2.| 2.,.2.,.:.2.,.>.,.X.,.X...q...,.,...4.3.4.3.3.3.3.6.3.6.8.6.3.8.6.6.8.6.i.i.i.i.i.i.i.i.i.i.i.i.i.;.i.;.;.;.;.;.=.=.=.*.*.*.*.! ! Q Q E R R R Y R Y E Y Y Y P o.L o.] ] / / S A b g g a i 1 1 & $ + @ o o X o o o # % % : % , : : , , 3 3 3 q 4 q w z v v v v v z v v v v z w q 9 4 9 4 3 , , , : % # % o o o X X     X o o @ % # = > - 1 7 7 s s g g k k k S ^ G / / / / ] / ] ] ] ] ] ] / / / S S S k k k g g s s a 7 7 2 2 2 2 1 1 , , : % % % @ o X   X X X o o o # % % : : , , 3 4 4 4 9 w w z v v v v v v v v v v z z q q 9 4 4 , 4 : , : % # % # o o o   o o   o   X ",
"    o     o o   o o o % o % % % , , 3 3 4 4 q 4 z z v v v v v v v v v v v z w q 9 4 4 , 3 , : , : % % o @ @ X X X   o o X @ @ % % : > > 2 2 7 a s s g b h b A ^ A G G / / / ^ G k k g g g i 7 2 1 - = # & = : & > 1 1 1 1 1 3 > > : : # # o X o X X X       o o @ @ % % % : , , , 4 3 4 9 9 q w z v v v v v v v v v v z w w q 3 4 3 , , , : : % % o o o o     X X O @ # & = 1 2 7 s g g ^ A S / S S S S S Z S C Z C B B Z B Z Z Z D G H H [ ) [ [ _ ` ) _ ) _ { { { | | | | | <.2.2.| 2.,.2.,.,.2.,.,.:.X.X...X.,...3.4...3.3.4.3.3.6.4.6.3.i.6.6.6.8.6.6.8.6.p.i.i.i.i.i.i.i.;.i.i.;.i.;.i.;.;.;.;.=.=.=.=.*.! ! *.! ! Q R E R I E E Y Y E Y Y o.P o.L o./ ] / / S k g g g 7 7 1 = $ $ X X X X o o # o % % % : : % , % , , 4 4 4 q q w w v v v v v m v v v v v q z 9 9 3 3 3 , , , : : % % # o o X X X   X   o o @ % # : > 1 2 2 7 s s g g b g b A A S S / S / / / ] / ] ] / / / / ^ A A k k g g s s 7 7 2 7 2 2 2 1 1 = > : : # # @ @ o X X X X o o o # # % : : , , , 3 4 4 9 9 w w v v v v v v v v v v v z w q 4 4 4 4 , , , : : % % o # o o o o             ",
"              o o o # o % @ % , : , 3 3 3 4 4 q z q v v v v v v v v v v v z q w 9 9 4 4 4 , 3 : : % % % @ @ o X X     X o o o # # % : = 1 1 2 7 p s s g g h h k A A ^ A / A G ^ A k k g s s 7 7 1 1 & = & & & > > > > 1 1 1 1 > > : % # # o o X X X     o X X @ o o % : : : : , 3 , 9 4 9 9 z w v v v v v v v v v v v w w q 3 q 4 3 3 , , : % % # # o o     . X X O + & & > 2 2 i g s k A A S S S S S S S S C C C B B Z B Z B Z D G G G G G [ [ _ [ ) _ _ ( _ { { { | | | | 2.| 2.| 2.,.2.1.,.2.:.,.<.X.X...q.X.' >.,...>.3.4.3.3.7.3.6.3.p.3.i.7.6.6.8.6.6.i.i.p.i.i.i.i.i.i.i.p.;.i.;.i.;.i.;.;.;.=.;.=.=.*.*.=.! ! Q E E R R E E I E E Y Y Y Y o.P o.] ] ] / / b A k g g i 2 1 , $ $ + @ X o o o o # # % % : % , % , , , 3 3 4 3 q w w z v v v v v v v v v v v w q 9 9 9 3 3 3 , : : : % o % o o X X     X X o o @ % & : = 1 1 2 7 a s s g g k k ^ k ^ A G ^ / G / / / S S / / A A k k k g s s s 7 7 7 2 1 2 1 > 1 > > : : # % # # o X X X X o o o @ # % % , : , , 3 3 4 4 9 w w z v v v v v v v v v v z z q q q 4 4 4 , , , : % % o % o o o o       o       ",
"        o     o   o o o % % % % , : , 3 3 4 q 4 q z q v v v v v v v v v v v z q q 9 4 4 3 , , , : : % % # o o @ X X       o o @ # # % : * 1 1 2 2 p s s g g g b h b k ^ A A ^ A A k h g g s 2 2 2 1 = # = # & & > , > , > 1 > > > : % % o o X X X     X   o o o % # % % : , , , 3 4 3 9 9 q q v v v v v v v v v v v v w w q q 3 3 3 , , : : % % # o o o     . X O @ # & & - 1 2 s s k k A / ^ S S S S S Z C S C C C B B B Z Z Z Z D G G ` G ) [ ) _ ) ) _ _ ( _ { { | | | | | <.<.2.| 2.,.,.2.,.<.,.:.,.X.X.......w.>.>.3.>.3.3.3.3.6.3.6.3.6.7.6.p.8.6.8.6.8.i.i.i.i.i.i.i.i.i.;.i.i.i.;.i.;.;.;.;.;.=.=.=.=.! ! =.! ! R ! R E U I E I Y E Y Y Y Y o.L o.] ] / / S b k g g a i 2 = = $ # X X X X o o o % % % % : : : : , , 3 3 9 q 4 w w z z v v v v v v v v v v q z 9 9 3 9 3 , , , : : % % @ % X o X X     X X o o @ % % : > - 1 2 7 a s s g g g h k k b A A A ^ A A S ^ S A A ^ k k g g g s a 7 7 2 2 1 - > 1 = > > : : % % # @ o o o X X X o o # @ % % % : , , 3 3 4 4 9 9 w w z v v v v v v v v v v z w w q 3 4 4 , , , : : % # # o # X o   o             ",
".   X       o   o o X % o % % % : , , 3 3 4 4 4 q q z v v v v v v v v v v v z w w 9 9 4 3 4 , , , : : % # % @ o o X o   o X o o o @ % # : : - 1 2 2 7 7 s s g g g g h h k b k k A b h g s a a 7 1 = > = & $ & & & : = > > > > , : : % o % o o   X X     o X @ @ # % : : : , , 3 3 3 9 9 q q z v v v v v v v v v v v z w q q 4 4 3 4 , , , % % % o o o   o   X X O @ # # = 1 2 i s g g A A A / S S S A S S A C C C B B B Z B Z Z Z G G H G G [ ) _ ) _ ( ) ( _ { ( | | | | } 2.| | | 2.2.:.2.:.,.>.,.<...X.....q...>...3.w.3.3.3.3.3.3.8.3.6.4.6.6.3.6.8.6.6.i.i.i.p.i.p.i.i.i.i.i.i.i.;.i.6.;.6.;.;.;.=.=.=.*.*.*.! ! ! ! Q E U R R R Y R Y Y Y o.Y [ o.[ ] ] / / S S b g g s i 1 1 & & @ + @ X o   o # o % % % % , % , : , , 3 3 4 4 q w w v v v v v v v v v v v v q q 9 9 9 3 3 , , , : : % % o # o o X X     X o o @ @ % # & > = 1 2 2 7 p s s s g g b h h k b k k ^ A A A k b h k g g g a s i 2 2 1 > = > = > > > : % % % @ @ @ o o X X X o o @ X % % : % , , , 3 3 4 9 9 q w z v v v v v v v v v v v z w q 4 q 4 4 3 , , : % % % # o o o o     o     . . . ",
". . . .         o   o o % o % % % , , , 3 3 4 4 q q z z z v v v v v v v v v v w w q 9 9 4 3 3 , , : : : % % # X o o X o   o   o o o @ % % & : > 1 1 2 7 7 7 s s g g g g g h b h h h h g g s 7 2 2 1 & & & & $ & & : > > > > : > : : % # o o X X     X o o @ @ @ % % : : , , 3 3 3 4 9 9 q q v v v v v v v v v v v v w w q 3 q 3 3 , , : : : % o % o o     X . X O + # & > 1 7 7 s g h k ^ S S A S S S Z A A C C f B B B B Z B D Z Z G G G ` G ) ) _ / ( ( ( ( { { ( | | | <.| 2.2.2.| 2.,.,.2.,.,.:.X.,...X...' q. .3...3.>.3.>.3.3.3.3.3.6.6.7.i.8.6.6.8.6.8.i.p.i.i.i.i.i.i.i.i.i.i.i.;.6.i.;.;.;.;.;.=.=.=.*.*.! ! ! ! Q Q E U E Y R Y R Y Y Y o.Y [ o.L ] ] / / ^ k k g s a 7 1 , & $ + X X X o o o # # % % % : : : , , , 3 3 4 q 3 w w z v v v v v v v v v v v z q q 9 3 4 3 3 , , : : : % % o @ o o X X     X o o o @ % # : > > - 1 2 2 7 s s s s g g h g h b h h b h h b h h g g s s a 2 2 2 1 1 = > & > & : : : % # # % X @ o o X   o o @ @ % % % % , , , 3 3 4 4 9 9 w w v v v v v v v v v v v z z w q 4 3 4 , 3 , : : % % o % o o o   o     X . . . . ",
". . . . X     o   o o o @ o % % : : , , 3 3 4 4 q q q z v v v v v v v v v v v v w w 9 9 4 4 , 4 , , , : : % o % o o o o       o X X @ @ @ % : & > - 1 1 2 7 7 7 p s s g g g g g g h g g s s a 7 1 > = = # & $ $ $ & : : > : , : : % % % o @ o X   X o o @ o o % % : : : , , 3 3 3 9 9 q q z v v v v v v v v v v v z w q q 9 4 4 3 , , , : % # % o o o     . X O O # & & - 2 2 p s g k A S A S S S S S A C C f C B B B B Z B Z Z Z G G G ) ) ) _ ) / ( / ( ( { ( ( | { | | | | <.| | 2.,.:.2.:.<.>.,.:.X.....q.' ..e...3...3.3.3.3.3.6.3.6.3.8.6.3.6.6.8.6.8.6.p.i.p.i.p.i.i.i.i.i.i.i.;.i.i.;.;.i.;.;.=.;.=.=.=.! =.! ! ! Q E R E R R E R Y Y E Y Y P o.] o.] ] / / / k k g g a 7 2 - & & @ @ o X o X o # # % % : : : % , : 3 , 3 4 3 q q w z v v v v v v v v v v v z z q 9 9 9 3 3 3 , , : : % # % o o o X X X     X X o o @ $ % & * > = 1 2 2 7 7 7 s s s s g g g g g h g g h g g s s a 7 7 2 - 1 > = > & : : : % % # % % @ @ @ o o o X o o o @ % % % % , : , 3 3 4 4 9 9 w q z v v v v v v v v v v v z w q 3 q 4 3 4 , , , % % % % o o o o     . . . . . . . ",
". . . . . . .       o o o % o % % % , , , 3 3 4 4 q z q z v v v v v v v v v v v z q q 9 9 9 3 , 3 , : : : : % # # X o X o   o   X X X o @ @ % : & : = 1 1 1 2 2 7 7 p 7 s s s s s s g s s s 7 2 2 - > & & # # # # % % : : : : : % % # o % X X X X X o o o % # % : : > , , 3 3 4 4 9 9 q w z v v v v v v v v v v v w w q 4 q 3 3 , 3 : : : % # # o o     o   X X # # & = > 2 7 s g g k A ^ G ^ S S S C S A C C f B B B B B B Z Z S D S G G ) ) ) ^ _ / ( ( ( ( { ( | | | | | 2.| 2.2.| 2.,.1.,.:.,.:.,...X.' X.' ' ......3...3.3.3.3.3.5.3.6.3.p.6.7.6.6.8.6.8.6.p.i.p.i.i.p.i.i.i.i.i.i.6.6.i.;.;.;.;.;.=.=.=.*.*.! ! *.! ! R R R R I E Y R Y Y Y Y o.Y [ [ [ ] / / ^ S k k s s 7 1 1 = $ # + X X X o o o # % # % : : : : , : 3 3 3 9 4 q q w z v v v v v v v v v v v w w q 9 4 4 3 3 , , , : : : % # # X o o X X     X X o o @ @ % # : > > > - 1 2 7 7 7 a s a s s s s s g s s s s s p 7 2 2 - 1 = & & & % % % % % # # # o % X @ o o o o o @ @ @ % % % , : 3 3 , 4 4 9 9 9 w z v v v v v v v v v v v z w w q q 4 4 3 , , : : % % # o # X o   o     . . . . . . ",
"X . X X . . X     o   o o @ @ % % , % , , 3 4 3 q 4 q w z v v v v v v v v v v v z z q q 9 3 9 3 3 , , , : : % % o % o o o o     X X X X o @ @ @ % & : & > = 1 1 2 2 2 7 7 7 7 p 7 s 7 7 s 7 7 2 2 1 & & & # # # # # % % % % % % % % % % @ o o X X o o o # % % : : : > , 3 3 3 4 9 9 q w z v v v v v v v v v v v z w q q q 3 3 3 3 : , : % % % o o   o X . X X @ + # & > 1 2 i s g h A A / A S S S A S A C A f B B B u B B Z B Z Z S G G ) ) ) ) ( / / ( ^ ( ( ( | ( | | | | | | 2.| 1.,.:.,.,.:.<.:.,.X...X.' ' ' ....3...3.>.3.3.3.5.3.6.4.6.3.8.6.6.8.6.8.i.p.i.i.p.i.p.i.p.i.i.i.i.i.6.i.;.i.;.6.;.=.;.;.*.*.*.*.*.! ! E ! R E U E R R Y Y Y E Y Y [ P o.] ] ] / / A A g g s i i 1 > & # @ o X o o o # o # % % : : : : : , , 3 3 3 9 9 q w z v v v v v v v v v v v v w q q 9 4 9 3 3 , , , : % % % o % o o o X X     X X o o @ @ # % # & = > = 1 1 2 2 2 7 7 7 7 a p a 7 s 7 a a 7 2 2 2 > 1 > & : # % # # # # # # # o % @ @ o o o o o @ @ @ % % % , : , , , 4 4 4 9 9 w q z v v v v v v v v v v v z w q q 4 4 3 3 , , , : % # % o o o o     . . . . X . X X ",
". X . . X . . .     o o o o o % % % , , , , 3 4 4 q q q w z v v v v v v v v v v v z z q 9 9 3 9 3 , 3 , : : : % % @ o # X o o       X X X X o @ # % # : & > = > 1 > 1 1 2 2 2 2 7 2 7 2 2 7 2 2 1 > = & # # @ @ @ # % # % % % % % # # # @ @ X o o o o % @ % % : : , , , 3 3 4 9 4 q w q v v v v v v v v v v v v z w q 4 4 9 3 3 , , : : % % o # X o     X X @ O # & & - 2 2 s s g k A ^ A / S A S S C A C f C f B f B B B Z Z Z Z G S G ) ) ) ^ / ( ^ ( ( ( ( { ( | { | | 2.| 2.| 2.:.2.,.:.2.,.:.,.....X.' ..0.........3...3.3.3.3.3.6.3.6.3.6.3.p.8.6.8.6.8.i.p.p.p.p.i.p.i.p.i.i.i.i.i.6.6.;.6.;.;.;.=.=.;.*.=.! *.! ! ! E R R E U Y R R Y E Y Y Y Y o.[ [ ] ] ] / ^ A k g g a 2 2 = > # @ @ X X X o o # # # % % : : : : , , , 3 9 3 q 4 w w z v v v v v v v v v v v z w q q 4 4 3 3 3 , , : , % % % @ @ o o o X X     X   X o o @ # % # & : > & 1 > 1 1 1 2 2 2 2 2 7 2 2 7 2 7 2 2 1 1 = : & : # % @ # # # # o % o % X @ @ @ o o o @ @ @ % % % : : , 3 3 3 4 4 9 9 q w z v v v v v v v v v v v v w w q 4 q 3 3 3 , : : : % % o # o o   o   . . . X . X . X ",
"O . . O . X .   o       o X % o % % % , , , 3 3 4 4 4 w w z v v v v v v v v v v v v w z q 9 9 4 3 4 , , , , : : % % % o # o o o X X     X X o o o @ @ # & & & & & = 1 > 1 1 > 1 1 1 1 1 2 1 1 1 > - & & # @ @ @ o # o % # % # % % % # % o @ @ o o X % @ % % : : > , , 3 3 4 9 4 q w w v v v v v v v v v v v v z w w 9 9 q 3 3 , , , : % % o # o o     . X X O + # & = 1 2 7 s g g k A A / S A S S C A A f C f B u B B B B B Z S Z S G G ) ) / / / / ( ^ ^ ( ( ( ( | | | | | 2.| | ,.2.:.:.2.:.<.:.,...X...X.' ' ' ....3...3.>.&.3.3.5.3.3.6.3.6.8.5.6.6.8.6.i.p.p.p.p.p.p.p.p.i.i.i.i.i.i.6.6.6.6.;.;.;.;.;.=.=.*.*.*.! ! ! ! R E U R R R Y R Y Y Y o.Y [ [ [ [ ] / / A A ^ g s s i 2 1 & & # + O o o o o o # % # % : : : : : , , 3 3 3 9 9 q w w v v v v v v v v v v v v q w q 9 9 9 3 3 3 , , : : : % % @ # o o X X X X   X X X o o o @ % # & # = & & = > = 1 1 1 > 2 1 1 2 1 1 1 > - > > = & # @ # o # # o # o % o % X % @ @ o @ @ @ o o % % % , : , 3 , , 4 3 4 9 q w w v v v v v v v v v v v v z w w 4 q 4 4 3 , , , : % % # o o o       . . . X . O . X X ",
"X X O X . X . . .   o   o o o % o % % : , , , 4 3 4 q 4 w w z v v v v v v v v v v v v q q q 9 9 4 3 3 , , , : : : % % @ o o o o o X X     X X X o o @ @ @ # # & # & & = & > = = > = > = > = = & > * & & + @ @ o o o # o % # % # % # % # % o o @ @ % @ % % : > > > , 3 3 4 4 4 q q w w v v v v v v v v v v v v w w q 4 9 3 3 3 , , : : % # # o o   o     X X O # & & > 1 2 p s g h b A / A S S A S A C h C f f B f u B B B Z B Z S G S S G ^ / ^ / ^ ^ ( ^ ( ( ( | ( | | | | | 2.1.| ,.,.1.,.:.:.<...:.X.' ..' ' ' ' ....3...3.>.3.3.3.6.3.5.8.3.6.8.6.8.6.8.8.6.p.p.p.p.p.p.p.p.i.i.i.i.i.6.6.6.6.;.i.;.;.;.=.=.*.=.! *.! ! ! ! R E U R Y R Y E Y Y Y o.Y [ [ [ ] ] / / ^ k k g s i 2 1 = & # # X X o o o o # # % % % : : : : , , , 3 3 3 q 9 w w z v v v v v v v v v v v v q w q 4 4 4 3 3 , , , : : : % % @ o # X o X X X     X   X o o o @ @ # # & & & & = & > = = > > = > - = : = > & & & # # @ # o o # o o # o # o % o o @ o @ @ o % % % % : : , , , 4 4 3 9 9 9 w w z v v v v v v v v v v v z w w q 4 q 3 3 3 , : : : % # % o o   o     . . X X . X O X O ",
"O O O . @ . X .   o       o o o % % % % , , , 3 3 4 4 q q w w v v v v v v v v v v v v z l q q 9 3 9 3 3 3 , , : : : % % # # o o o X X X X X   X X   o o o @ @ @ # # & # & & & & & * & * & & & & & # & # # @ o o o o o # o % # % # % # % o % o o @ # % : : : : > , 3 3 4 4 4 q q w q v v v v v v v v v v v v z w w 9 q 3 3 3 , , , : % % # # o o o     X X O @ # & & - 2 7 s s g k A A S S S A S A C A C f f f u B B f B C B Z S Z S G S ) / / / ^ ^ ^ ^ ( ( ( { ( { | | | | 1.,.| 2.:.1.,.:.,.>...,.........0.' ' ....' 3. .3.3.3.3.3.5.3.6.3.6.8.3.8.6.8.6.p.p.p.p.p.p.p.p.p.p.p.p.i.p.6.i.6.i.;.6.;.;.;.=.;.=.=.*.=.! *.! ! Q E R E R R Y R Y E Y Y Y o.[ [ [ ] ] / / A A k g s a 7 1 1 & & @ @ o o o o o o % # % % : % : : : , , , 3 9 4 4 q w w v v v v v v v v v v v v z w q q 9 9 4 3 3 3 , , : : : % % % o # o X X X X X   X X X   o o o @ @ @ # # & # & & & & & & = & & & & & & # & # @ @ o o o o o o % o # o % o o % o % o o % % % % , : , , , 3 3 3 9 9 q q q z v v v v v v v v v v v v z w q 9 q 3 3 3 , , > : % % % o o o o     . . X X . O O O O O ",
"O O O O X O . O . . . o   o o o o % % % : , , , 3 4 4 4 q w w w v v v v v v v v v v v v z l q q 9 3 4 3 3 , , , : : : % % # # o o o o X X X X     X X o o o o o @ @ @ @ # # # # & # & # & # # # # # @ # @ o o o o   o o % o % # % # # # # # % o % % % : : , > , 3 3 3 4 4 4 q w w v v v v v v v v v v v v v w w 9 9 4 9 3 3 , , : : % % # o o o     o   X O + # & > 1 2 7 s g h k A S ^ S S S A A A C h f f f f u u B f B C S B S G S G ^ G ^ / ^ ^ ^ ^ ^ ( ( ( { | { | | | | 2.,.| 2.:.:.2.:.,.>...X...' ' ' ' ' ' ..3...3. .3.3.3.3.3.6.3.6.4.6.6.8.6.8.8.6.p.p.p.p.p.p.p.p.p.p.p.i.i.i.6.6.6.6.6.;.;.;.;.=.=.=.*.*.*.! ! ! ! E R U E I E Y U Y Y Y Y [ Y [ [ ] ] ] / ^ A k g g s a 2 1 & & # @ X X o o o # o % # % % : : : : , , 3 3 3 9 9 9 w w z v v v v v v v v v v v v z w q 9 4 4 4 3 3 , , > : : : % % @ @ o # o o X X X   X   X X o o o o @ @ @ @ # # # # # & # # & # & # # # # @ @ @ @ o X o o o o o o o % o % o o % o % o % % % : : , , , 3 3 9 3 9 9 q z q v v v v v v v v v v v v v w w 9 9 9 4 3 , , , : : % # o # o o   o     X . X O X O O O O ",
"O # O O O O O . X X .   o   o X % o % % % , , , 4 3 4 q 4 9 w z z v v v v v v v v v v v v q w q 9 9 9 3 3 3 , 3 : , : : % % @ % o # o o X X X   X       o   o o o @ o @ @ @ @ @ @ # @ # @ # @ @ @ @ @ o o o o o   o o o o % o % # % % % # % @ % % % : : > > > 3 3 3 4 4 q q w w z v v v v v v v v v v v v z w w 9 9 9 3 3 , , , : : # # # o o o     . X O O # & * - 1 7 a s g h k S ^ S A S A A A C h f f f f u u f B C B Z B Z Z S S S S ^ / A ^ ^ ^ ^ ^ ( ( ( { { | | | | 2.| | 1.,.:.2.:.<.:.X.:.....' ' ' ' '  ..... .3.>.3. .3.3.5.3.8.3.6.6.8.7.6.8.6.8.p.p.p.p.p.p.p.p.p.p.p.p.i.p.i.6.6.i.;.i.;.;.;.;.=.=.*.*.*.! ! ! ! Q R E U R E U Y Y E Y Y Y o.[ [ [ ] / / / A k k g s 7 2 1 - & # + @ o o o o o # # % % % : % : : : , , , 3 3 9 9 q w q v v v v v v v v v v v v v q w q q 4 4 4 3 3 , > > > : : % % @ % o o o X X X X   X       o   o o o o @ @ @ @ @ @ @ # @ # # @ @ @ @ @ o @ o   o X X X o X % X % o # # o % o % @ % % : : : , , , 3 3 4 3 9 9 q q q v v v v v v v v v v v v v w w w 9 9 3 3 3 3 , : : % % # # o o       . X . O X O O @ O O @ ",
"@ O # O + O . O . X . .     o o o # % % % % , , , 3 4 4 q 9 w w z v v v v v v v v v v v v v w q q 9 9 9 3 3 3 , , > : : : % % @ # o o o o X X X X X       o   o o   o o o o @ o @ o @ X @ o @ o @ X o o X o o       X o o o % # # % % % % % # % % : : , > , 3 3 3 4 4 q 4 w w w v v v v v v v v v v v v z q w q 9 9 3 3 3 , , : : % % # o o o     o . X O @ # & * 1 2 7 p s g k A ^ S S S A S A C A f f f d u f u B u B C C Z S S S S S ^ S A ^ ^ b ^ ^ ^ ( ( 9.{ ( | | | | | 2.| 2.:.:.:.,.:.>.:.......' ' ' ' ` ' .. ... .3.3.3.3.3.3.5.5.8.3.6.6.6.8.6.8.6.8.p.p.p.p.p.p.p.p.p.p.p.p.6.p.6.6.6.i.;.;.;.;.;.;.=.=.*.! =.! ! ! E Q R E U R Y U E Y Y Y Y [ Y [ [ ] ] ] / ^ A h g s s 2 2 > & & # O X X o o # o # # # % : : % : : > , 3 3 3 3 9 9 w q z v v v v v v v v v v v v v q w q q 4 4 4 3 3 3 > > : : : % % @ % o o o o o X X X X       o   o o   o o o o @ o @ o @ X @ @ X @ o o o o   o   X X o o X o % o # # # # # # @ % % % : , : , , 3 3 9 3 9 4 q q z w v v v v v v v v v v v v z w w 9 9 9 4 3 3 , > > : % # # o o   o     X . X X O O O + @ @ O ",
"+ # + # O @ O O X X X .   o   o X % o % % , : , , 3 4 4 9 9 q w w v v v v v v v v v v v v v w z q q 9 3 9 3 3 , 3 > , : : : % % # # # o o o o X X X X         o   o   o   o X o o o o o o o X o   o o   o           X o X % o # % % % % % % % % : : > > , , 3 3 4 4 9 4 q w w v v v v v v v v v v v v v z w w 9 9 3 9 3 , , > : : % # # o o o   X . . X @ + # & > 1 2 7 s g h h A S S S A S C A A f h f f u f u f u f B C B S B S S S S S A ^ A ^ ^ b ^ ( ( ( ( ( | { | | | 2.| 1.:.:.:.2.:.<.:...:.....' ' ' ' ' ' ` 3.` 3.3. .3.3.3.6.>.6.3.6.8.3.8.6.8.6.8.p.p.p.8.p.p.p.p.p.p.p.p.i.p.6.i.6.i.;.i.;.6.;.;.=.=.*.=.=.*.! ! ! ! E E U E U E U Y Y E Y Y Y o.[ [ ] ] / / A A b g g s 7 2 1 * & # O @ o o o o o # # % % % % : % : > > , 3 3 9 4 9 9 z q z v v v v v v v v v v v v z w w 4 q 4 4 3 3 , 3 > , : : : % % @ # o % o o o X X X         o     o   o   o X o o o o o o X o o   o o   o   X X X X o % o # # # # # # % @ % % : : , : , , 3 3 3 4 4 9 q q q w v v v v v v v v v v v v v z w w 9 9 3 3 3 , , , : % % # # o o o     . . X O O O O # O # + # ",
"# + # + O + @ O O . X . .     o o o % % % % , , , , 3 4 4 9 9 w w z v v v v v v v v v v v v v w w q 9 9 4 9 3 3 , , > , : : : : $ @ # o # X o o X X                 o   o   o   o   o o   o o   o     o   o       o   o o # # # # % : % % % % : : , > > , 3 3 3 4 4 q q q w w v v v v v v v v v v v v v w w q 9 9 3 3 3 3 > > : % % @ @ o o       . X @ O # & * - 1 7 a s g h ^ A ^ S A S A A C A h f f d f u f u f f B C C C S Z V G ~ S ^ A ^ h ^ b ^ ^ ( ( | ( | | | | ,.| 1.,.:.1.,.:.:.:.>.........' ' ' ' ` ' .. .3. .3.>.&.3.3.3.6.4.6.3.6.8.6.8.8.6.8.p.p.p.p.8.p.p.p.p.p.8.p.p.p.p.6.6.6.6.;.i.=.;.;.;.*.;.*.*.=.! ! ! ! ! U E R E I E U Y Y Y Y o.P P [ [ ] ] / / A A h g s a 2 1 - & # # O X o o o # o # # # % % % : : : , , , 3 3 9 9 9 q z z v v v v v v v v v v v v v w w q 4 q 4 4 3 3 , , > > : : : % $ @ # o o o o o o X X         o     o   o   o   o   o o   o o   o     o       X X o o o # o # # # # % @ % % : : , : , , , 3 3 4 4 q 4 q q z z v v v v v v v v v v v v z q w 9 9 3 9 3 , 3 > : : % % # o o o   o   . X X X O @ + O # + # + ",
"# # + # # # O @ O X X X .     o X # o % % : : : , , 3 3 4 4 9 w q q v v v v v v v v v v v v v z w q q 9 9 3 4 3 3 3 > , , : : % % % @ # o # o o o o   o                   o   o   o     o     o     o                 o o o # # % % % % : % : > : > > , 3 3 4 4 4 q 4 q w w v v v v v v v v v v v v v z w q 9 9 3 9 3 , , > : % % % # @ o   o     X X O + # & * > 2 7 a s h h A A S S S A A A A h f f d f u u u u f f f C A C S S S V S A A ^ h b c ^ ^ ^ ( ( ( { { | | | | 2.| :.1.:.:.>.:.>.:.:...:.' ' ' ' ` ` `  ... ...>.&.3.3.3.5.5.3.6.5.8.6.4.6.6.8.8.p.p.8.8.p.p.p.p.p.p.p.p.p.p.6.i.8.6.6.i.;.i.;.;.;.;.=.=.=.! =.! ! ! U ! U U U E U Y U Y E Y Y P o.[ [ ] ] / / A A h g s a 2 2 > > # # O @ o o o o # # # % % % : % : : : > 3 3 3 3 9 9 q w w v v v v v v v v v v v v v w w q q q 4 4 4 3 3 3 > , > : : : % % @ # # o o o o o   o                   o   o   o     o     o     o       X X o o o # # # % # % % @ $ % : : : : > , 3 3 3 4 4 4 4 q q z q v v v v v v v v v v v v v z w q 9 9 9 3 3 3 , > : : % # # @ o o     . . X O O @ O O # # # + # ",
"# + & + # O # O O O . X . . o   o o # o % % : , , , 3 3 4 9 9 9 w z z v v v v v v v v v v v v v w w w 9 9 9 3 4 3 3 , > , > : : : % % $ @ @ o # o o o   o   o                       o     o                     o   o o o # o % % % : : : : : : , > 3 > 3 3 4 4 4 q q q w w v v v v v v v v v v v v v w w q 9 9 3 3 3 3 > > : : % @ # o o o     X . O O @ # & * 2 2 7 s g g h A ^ A S A S A C k f h d d u d u u f f f f C C A C S A S V A A h b c b b ^ ^ ^ ( { { { { | :.| | 2.| ,.:.:.:.>.:.:.........` ' ` ' N `  . .3. .>.3. .3.3.3.3.6.4.6.3.8.6.8.8.6.8.p.p.p.8.p.p.8.p.p.p.p.p.p.p.8.p.6.6.6.6.i.;.;.;.;.;.*.=.*.*.! *.! ! ! U ! U E U E E Y Y Y Y Y Y [ [ [ [ ] / / ^ A A g g s a 1 - & & # # X X o o o o # # # % % % : % : > > , > 9 3 9 9 9 q w v v v v v v v v v v v v v v w w q 4 q 4 4 3 3 3 , > > > : : : % $ @ @ # o o o o o   o                           o     o                   o o o # o % # # % # % % $ % : : > , > 3 , 3 4 4 4 q 4 q w w v v v v v v v v v v v v v v q w q 9 9 4 3 3 > > > : % % @ o o o o     . X X X O O # + # + # & & ",
"# & # & + & O @ @ O X X X       o o o # # % : : > , , 3 4 3 9 9 q w w v v v v v v v v v v v v v z w w q 9 9 4 4 3 3 3 > > > > : : : % @ % @ # o @ o o o o         o                                           o   o o o o @ # # % % : : : : : > , > > 3 3 3 4 4 q 4 q w w v v v v v v v v v v v v v v w w 9 9 4 9 3 > 3 > > : % % # @ o o o   X . X X O # & & < 1 2 7 s g g A A / S A S A A A h h f f d d u u f u u f C f C C S A Z A A A ^ h c c c ^ v ( ( ( ( { { | | | | 1.| :.:.1.:.>.:.:.>...:...' ' ' ' ' ` ` .. ... .3. .3.>.3.3.6.3.6.3.8.6.8.8.6.8.8.p.p.8.p.p.p.p.p.p.p.8.p.p.p.p.6.i.6.6.i.;.6.;.;.;.=.;.=.=.*.=.! ! ! E ! Q E U U E I E E Y Y o.Y o.[ [ ] ] ] / S ^ h h g s 7 2 1 > * # O @ o o o o # o # # % % % % : : : > > 3 3 4 4 9 4 q w w v v v v v v v v v v v v v w w w q q 4 4 4 3 3 > 3 > > > : : % $ % % # o # o o o o o                                                     o o # o # # # % % % % % % : : : , > , , 3 3 3 4 q 4 q w w w v v v v v v v v v v v v v z z q 9 9 4 3 9 > 3 > : : % # # # o o   o   X X O O O @ + # + # & # # ",
"& # & + # + # + O O O . X . X o   o @ # # % % : , , 3 3 3 9 4 9 q q w v v v v v v v v v v v v v v w w w a 9 4 4 4 3 3 3 > > > : > % : $ @ % @ @ o o o o o o   o                                       o     o   o o o o @ o % # % % : : : : > > > 3 3 3 3 4 4 4 9 q w w w v v v v v v v v v v v v v w w w q 4 4 4 3 3 > > : : % $ @ @ o o       X X O @ + & * * 2 2 7 g g h h ^ A / A A A A C h f d d d d 6 u u f f f f C A C A A A A A h h c c h c b ^ ^ ( ( { { | | | | :.| 1.:.:.:.:.>.:.:...:..... .' ` ' _ ' ' `  . .3. .3.&.3.3.3.3.5.5.8.3.6.7.6.8.8.8.8.p.p.8.p.p.p.p.p.p.p.8.p.p.p.8.6.6.i.6.i.;.6.;.;.;.=.=.*.=.! =.! ! ! U E U U E I E I Y E P Y o.Y [ [ [ ] ] / / A A h g s a 7 1 = & & @ O O X o o o # # # # % % % % : : > > 3 > 3 4 9 9 q q w v v v v v v v v v v v v v v w w w 4 q 4 4 4 3 3 > 3 > : : : : $ $ @ @ % o @ o o o o o   o     o                                     o   o o # # # # % % % % % % % : > : , > 3 3 3 3 9 4 4 q q w w z v v v v v v v v v v v v v w w q 9 9 4 3 3 3 > > > : % % @ o o o     X . X X O O # # + & # + & & ",
"& & & # & # & O # O O X . X       o o o # % : : : > , 3 3 3 9 4 q w q v v v v v v v v v v v v v v w w w q 4 q 4 4 3 3 > 3 > > > : : % $ % @ % @ @ @ o o o o o   o                                       o     o o o o @ o # @ % % : : > : > > > > > , 3 4 4 4 4 q w w w v v v v v v v v v v v v v v w w q 4 q 4 3 3 3 > > : : % % # o o o     . . X O + # # * 1 1 7 s s g h A A / A A A A f h h f d u d 6 d u d u u f C f C C A C A V A b h c h c c b ^ ^ ( ( ( { { { | :.| :.:.:.1.:.>.:.>.:.>... .:.' ' ' ` ' ` ` ` ` >. .3. .3.3.3.3.6.3.8.3.6.8.6.8.8.6.8.p.p.8.p.p.p.p.p.p.8.p.p.p.p.8.6.i.8.6.6.;.i.;.;.;.;.;.=.=.*.=.! *.! ! ! ! U U U E U Y E Y E Y Y P o.[ [ ] ] / / A ^ h g s s 2 2 1 * & # O O o o o @ o # # # % % % : % : > > > 3 3 4 4 4 q w w v v v v v v v v v v v v v v w w w q 4 q 4 4 3 3 3 > > > > : : : $ $ % @ # @ @ o o o o o   o                               o       o   o o @ @ # @ % % % : % % $ : > : > > 3 , 3 3 4 4 4 q 4 w w w v v v v v v v v v v v v v v w q q 9 9 4 3 3 > > > : % % # # o o o     . X X O O @ + + # + & & & & ",
"& & & & + & + # O O O X X . .   o o o # # # % : , > , , 3 9 4 9 9 q w z v v v v v v v v v v v v v v q w q 9 4 4 4 4 3 3 3 > > > : > : : $ $ @ % @ @ @ o o o o o   o   o     o     o       o     o   o     o o o o o o @ # @ @ % % : : : > : > > 3 3 3 3 3 4 4 q 4 w w w v v v v v v v v v v v v v v w w q 4 4 4 3 3 > > > : : % @ @ @ o o       X X O @ & & * = 2 2 a s g b A ^ A S A A A A h f g d p d 6 u 6 u f f f f A C A f A A A h h h g c g b ^ ^ ^ ( ( { { | | | | :.:.:.:.:.:.:.>.:.:...:..... .' ' ` ` ' ` ` `  .3. .3. .3.3.5.3.6.3.8.3.8.6.8.6.8.8.p.p.p.8.p.p.p.p.p.p.8.p.8.p.p.8.p.6.6.i.i.;.6.;.;.;.=.;.=.=.! =.! ! ! ! U E U E U E U Y E Y Y Y o.P [ [ [ ] / / / A h h g s 7 2 1 * & # # X O o o o @ @ # % # % % % : : : > 3 3 3 3 4 q 4 w w w v v v v v v v v v v v v v w w w q 9 4 4 4 4 3 > 3 > > > : : : : $ $ @ @ # @ o @ o o o o   o   o     o     o                 o     o o o @ # # % % % : # : % : : : > > > , 3 3 3 4 4 q 4 q q w w v v v v v v v v v v v v v w w w q 9 4 4 3 3 3 > > : : # @ @ @ o   o     X X X @ O # # # & # & & & ",
"& & & & # & # + # @ O O X .     o o o @ @ % % : : > , 3 3 3 4 4 q w w w v v v v v v v v v v v v v v w w w 9 q 4 4 4 3 3 > 3 > > > : : % $ $ % @ # @ o @ o o o o X o o   o                         o .   o o o o o o @ @ @ @ $ # % : : : > > > > 3 > 3 3 4 4 q 4 q w w q v v v v v v v v v v v v v z w q q 4 4 4 3 3 3 > > : : # $ @ o o   o   . X O O + # * * 1 2 7 s g h h A A / A A A A h f h d d d 6 u 6 u d u d f B f A C A A h V h h g c g c h v ^ ^ ( ( { { { | :.| :.+.:.:.:.1.:.:.>.:.>. ... .'  .` ` ' ` ` ` >. . .>. .3.3.3.3.5.4.3.6.8.3.8.6.8.8.8.p.p.p.8.8.p.8.p.8.p.8.p.p.p.8.p.6.i.6.i.;.i.;.6.;.;.;.=.=.=.=.! *.! ! U ! Q E U U U Y U Y Y Y o.P o.[ [ ] ] ] / S A h h g s 7 2 1 * & # O @ o X o o @ @ # @ % % : % % : > > > > 3 4 4 9 4 q w w v v v v v v v v v v v v v v w w w 4 q 4 4 3 3 3 3 3 > : > : : $ % $ $ $ @ @ @ o o o o o o . o   o                   o     o   o o o o o # @ $ # % : # : % $ : : : > > > 3 3 3 3 4 4 4 q q w w z v v v v v v v v v v v v v v w q q 4 4 4 3 3 > 3 : : % % % @ o o o   X . X X O O # # + & # & & & & ",
"& * & & & # + # + O O X X . X X   o o @ # % % : : , > 3 3 3 4 q 4 q w w v v v v v v v v v v v v v v w w w 9 4 9 4 4 3 3 3 > > > > : : : : # $ # @ $ @ o @ o o o o X . o . o   o       o       o . . o o X o o o o o @ @ @ $ @ % % % : > : > > > 3 3 3 3 4 4 9 q 9 w w v v v v v v v v v v v v v v v w w 9 q 4 4 3 3 > > > : % % # @ @ o X     X . X @ @ # & = < 7 7 s g g h A A A A A A h f h d d d p 6 p u u 6 f f f f C f A C h A h h g h g c x c c ^ ^ ( ( _ { { | | | :.:.:.:.:.:.1.:.:.>...>. ... .' ` ` ` ` _ `  ... .&.>. .3.3.3.5.3.6.4.6.6.8.7.8.6.8.8.p.8.8.p.8.p.8.p.8.p.8.p.p.p.8.i.6.8.i.6.6.i.;.;.;.;.;.=.*.=.*.! ! ! ! Q U Q U E U E Y E Y Y Y Y [ o.[ [ ] / / / ^ A h g s s 2 1 > * & @ O X @ X o o @ @ # % % % : % : : > > 3 3 3 4 4 q q w w v v v v v v v v v v v v v v w w w q 4 9 4 4 3 3 > > 3 > > : : : $ $ # # @ @ @ @ o o o o o X . o . o   o       o         o   o   o o o @ @ # % % % % : % % : : : > > > 3 > 3 3 4 4 4 q 4 w w w v v v v v v v v v v v v v v w w w 9 9 4 4 3 > > > > : : # @ @ o o       X X O O O O # # + & & & & * ",
"* & & & & # & # O @ O O . X     X o o @ @ # % % > : 3 > 3 4 4 4 9 q w q v v v v v v v v v v v v v v w w w 4 q 9 4 4 3 3 3 > 3 > : > : : % % % # # @ @ @ o o o o X o o . X . X     o       o . o . o . X o o o o o @ @ @ @ # # : # : : : > : > 3 > 3 3 4 4 4 9 4 q w w w v v v v v v v v v v v v v w w w 9 4 4 4 3 > 3 > > : : % @ @ o o X     . X X O + # * * 1 2 7 s s h h A ^ A A A h h h d g d p 6 p 6 6 6 d u d f f f A f A C h h h h g g g x c ~ c ( ( ( { { | | } :.+.:.:.$.:.>.:.>.@...>.+... ...` ` ` ` ` ` `  . .>. .>.3.@.3.3.3.6.4.6.3.8.5.8.6.8.8.8.p.p.p.8.8.8.8.8.8.8.p.p.p.8.i.8.p.6.i.6.6.;.6.;.;.;.=.=.=.=.! =.! ! ! U ! U E U T T E Y E Y Y o.Y [ [ [ ] ] ) / A A h h s 7 7 2 = * # # O @ X o o o @ @ % # % % % : : : > > 3 3 3 4 9 9 q w w w v v v v v v v v v v v v v w w w 4 9 9 4 4 3 3 3 3 > > : > : : % % % # # @ @ @ o o o o X o o . X . X     o       o   o . o . o o o o @ @ % # % % : % % : : : : > : 3 > 3 3 3 4 4 9 9 9 q w w z v v v v v v v v v v v v v w w w 9 9 4 3 3 3 3 > : : # % @ @ o o   X . . X X O O # + # & & & & * & ",
"& * & & & # # # # O O X X X     X X o @ @ # % : : > > 3 3 3 4 4 9 9 w w v v v v v v v v v v v v v v w w w q 4 9 4 4 3 3 1 3 > > > : : : : # # # # @ @ @ @ o o o o X o X X X X X X   X   X   X X X X X o X o o o @ o @ @ # # # # : : : : > > > < 3 1 3 4 4 4 9 9 q w w v v v v v v v v v v v v v v w w w 9 9 4 4 3 1 < > : : : # # @ o o X X   . X X @ # # & > 1 2 7 s g g h A A A A h A h h d d p p 8 6 8 6 6 d d f f f h C h h h h h g g g g g h c c ^ ^ ( _ _ { } } :.} :.:.:.:.>.+.>.:.>.+.:...+... . .` ` ` ` ` `  . . .>.@.>.3.3.3.5.3.6.7.6.8.8.6.8.8.8.8.8.p.p.p.p.p.p.p.p.p.8.p.8.p.8.p.6.p.6.i.6.6.;.;.;.;.;.=.=.*.*.! ! ! ! ! U E U U U T T T Y Y Y Y o.P [ [ ] ] / / ^ A h g g s 2 2 1 & & # @ X X X X o @ @ @ # % % & : : : > > 1 3 3 4 4 9 q w w v v v v v v v v v v v v v v w w w 9 9 4 4 4 3 3 1 3 > > > : : : : # # # # @ @ @ @ o o o o X o X X X X X X   X   X   X X X X X o X o @ @ # # % # : % & % # : : : > > > 3 < 3 3 4 4 4 9 9 w w w v v v v v v v v v v v v v v w w q 4 9 4 4 3 1 > > > : % # # @ o o X     X X X O @ @ # # # & & & & * "
};
