/* XPM */
static char *result[] = {
/* columns rows colors chars-per-pixel */
"512 512 256 2 ",
"   c #9D744E",
".  c #A0764F",
"X  c #A3794F",
"o  c #A67B50",
"O  c #A97E51",
"+  c #9F5D72",
"@  c #A15F73",
"#  c #A56E62",
"$  c #A77062",
"%  c #AA7463",
"&  c #AF7864",
"*  c #B37C65",
"=  c #B3766B",
"-  c #B6796B",
";  c #BA7D6C",
":  c #A86675",
">  c #B57277",
",  c #C17D7A",
"<  c #AD8252",
"1  c #B18553",
"2  c #B58953",
"3  c #B98D55",
"4  c #BE9256",
"5  c #BA8266",
"6  c #BF836B",
"7  c #C29657",
"8  c #C69957",
"9  c #C79A58",
"0  c #CA9D58",
"q  c #CEA159",
"w  c #D2A55A",
"e  c #D7A95B",
"r  c #DAAC5C",
"t  c #DEB05C",
"y  c #E2B45D",
"u  c #E7B95E",
"i  c #EABC5E",
"p  c #C3856E",
"a  c #C48B6A",
"s  c #CD956B",
"d  c #C98977",
"f  c #D19771",
"g  c #D29472",
"h  c #DB9C74",
"j  c #DCA46E",
"k  c #E2AA6F",
"l  c #E3A774",
"z  c #EBAB76",
"x  c #E5B371",
"c  c #E6BC73",
"v  c #E6B57E",
"b  c #E6BC7C",
"n  c #F4B478",
"m  c #FAB57F",
"M  c #FCBB7D",
"N  c #EEC05F",
"B  c #EFC260",
"V  c #F2C460",
"C  c #F6C961",
"Z  c #F9CD62",
"A  c #F7D063",
"S  c #FDD463",
"D  c #FFDC65",
"F  c #E6C376",
"G  c #E6C37A",
"H  c #FEC37B",
"J  c #FFCB7A",
"K  c #FFD577",
"L  c #FFDB76",
"P  c #FFD178",
"I  c #FFE267",
"U  c #FFE668",
"Y  c #FFEC6A",
"T  c #FFF16E",
"R  c #FFE474",
"E  c #FFEC71",
"W  c #FFF070",
"Q  c #89378F",
"!  c #8C3A8F",
"~  c #903C8F",
"^  c #863593",
"/  c #883790",
"(  c #8D3A91",
")  c #86339B",
"_  c #8C379B",
"`  c #933E91",
"'  c #963D9B",
"]  c #983E9F",
"[  c #8732A0",
"{  c #8832A4",
"}  c #8B31AB",
"|  c #9339A2",
" . c #983EA0",
".. c #9135AD",
"X. c #9639AA",
"o. c #8D31B4",
"O. c #8F30B9",
"+. c #9334B5",
"@. c #9030BE",
"#. c #9B4E83",
"$. c #9E5184",
"%. c #964093",
"&. c #9A4295",
"*. c #9F4498",
"=. c #A25485",
"-. c #A65986",
";. c #AB5D87",
":. c #B25F8F",
">. c #A3469A",
",. c #A7489D",
"<. c #A9499E",
"1. c #AD5495",
"2. c #AF5991",
"3. c #AE519B",
"4. c #B15C91",
"5. c #B0509F",
"6. c #AE6087",
"7. c #B16387",
"8. c #B3648C",
"9. c #B46B8B",
"0. c #BE6498",
"q. c #A145A2",
"w. c #AD4BA2",
"e. c #A343AC",
"r. c #B24DA5",
"t. c #B64FA8",
"y. c #B251A2",
"u. c #B954A6",
"i. c #B750A9",
"p. c #BB51AC",
"a. c #BD59A9",
"s. c #A543B3",
"d. c #A743BA",
"f. c #A842BE",
"g. c #BF53B0",
"h. c #BF55BC",
"j. c #C67689",
"k. c #C9758F",
"l. c #CA7B8A",
"z. c #C06896",
"x. c #D17797",
"c. c #D27B93",
"v. c #D1749C",
"b. c #C45CAA",
"n. c #C35BAC",
"m. c #C455B3",
"M. c #C857B7",
"N. c #C658B5",
"B. c #C959B7",
"V. c #CC59BA",
"C. c #D05FB7",
"Z. c #D15BBE",
"A. c #C760AA",
"S. c #D36FA6",
"D. c #D66DAC",
"F. c #D270A2",
"G. c #DC79A3",
"H. c #D364B5",
"J. c #D768B6",
"K. c #D96AB6",
"L. c #D664BB",
"P. c #D866BD",
"I. c #D768B8",
"U. c #DC6ABA",
"Y. c #E57FA7",
"T. c #E67EAC",
"R. c #E87DAF",
"E. c #E26DBD",
"W. c #E97CB4",
"Q. c #E570BF",
"!. c #ED7ABC",
"~. c #922FC3",
"^. c #9130C1",
"/. c #A942C2",
"(. c #C154C3",
"). c #D55DC2",
"_. c #D95FC4",
"`. c #DB61C6",
"'. c #DE62C9",
"]. c #E167C6",
"[. c #E46BC4",
"{. c #E96EC6",
"}. c #E464CD",
"|. c #E569C9",
" X c #EB6CCD",
".X c #E770C0",
"XX c #EB72C4",
"oX c #EF79C0",
"OX c #EE71CA",
"+X c #F075C7",
"@X c #F179C4",
"#X c #F576CC",
"$X c #F877CF",
"%X c #F578CB",
"&X c #F878CF",
"*X c #E766D0",
"=X c #E967D1",
"-X c #ED69D3",
";X c #F16BD6",
":X c #F56ED9",
">X c #F86FDB",
",X c #F571D4",
"<X c #FB77D4",
"1X c #F878D0",
"2X c #FC73DB",
"3X c #D58C87",
"4X c #D5838C",
"5X c #DA8B8A",
"6X c #DA8C89",
"7X c #CD9783",
"8X c #E19685",
"9X c #E49C84",
"0X c #EB9E87",
"qX c #E6948D",
"wX c #E7988B",
"eX c #E99B89",
"rX c #EB998E",
"tX c #E38C94",
"yX c #E2859C",
"uX c #E28898",
"iX c #E88D9A",
"pX c #E49090",
"aX c #EB9496",
"sX c #ED9795",
"dX c #F19D92",
"fX c #F69D9E",
"gX c #E5A382",
"hX c #EDA285",
"jX c #E6AA80",
"kX c #F0A784",
"lX c #F3AB82",
"zX c #F7A78F",
"xX c #F9AC8E",
"cX c #F7B180",
"vX c #F8B380",
"bX c #FBB38C",
"nX c #FBBB8A",
"mX c #F5A390",
"MX c #F7A999",
"NX c #F7B397",
"BX c #E481A3",
"VX c #E986A6",
"CX c #ED8AA6",
"ZX c #E680A9",
"AX c #E982AB",
"SX c #F08DA7",
"DX c #F38DAD",
"FX c #F192A1",
"GX c #F394AB",
"HX c #EE82B3",
"JX c #F186B1",
"KX c #F38AB0",
"LX c #FBC687",
"PX c #FBCD86",
"IX c #FBC488",
"UX c #FBD282",
/* pixels */
"@XoXW.T.Y.tXqXlXK E S q $ %.%.~ ! ! / / ^ ^ ) { } o.~.O.~.~.~.~.O.o.} [ ) ) ^ ^ / Q ! ~ ~ &.B._.M.g.p.p.r.r.r.r.t.p.m.M.)._.-X:X2X<X`.O.~.~.~.O.~.o.} ) ) ^ ^ / Q ~ ~ %.%.>.<.r.r.m.m.)._.}.-X:X>X2X2X<X&X@X+XW.R.Y.yXuXtX9XhXm H L R T Y D Z VXoXW.oXR.R.Y.BXBXuXuXuXtXpXpXpXeXeX0X0XhX2.&.~ ~ ! Q / / ^ ) ) { } o.O.~.~.~.~.~.O.O.} } [ ) ^ ^ ^ / Q ~ ~ ~ &._ } } { { ) ^ / Q Q &.>.<.p.M._.-X:X2X2X$XE.<.r.p.m.V._.'.-X;X>X2X2X<X<X&X+XW.W.Y.BXyXpXqXhXn H K R T Y D C y q 3 < X     . X 1 4 w i S I T Y R K M lXrXrXW.@X&X$X<X<X2X2X2X>X:X;X-X}._.).V.m.p.t.w.<.&.&.` ~ ! ! Q Q ^ ^ ) ) { } o.O.~.~.~.~.~.O.O.o.} [ ) ) ^ ^ ^ / Q ~ ~ ~ &.w.}.=X;X;X>X>X2X2X2X2X<X2X<X<X$X%X%X%X%XoXoXoXGXS N e 8 1 O .     . 1 3 0 y Z I T Y R K M lX0XqXtXyXBXW.W.+X@X<X2X2X2X>X-X-X'.).V.g.p.r.<.&.>.~ ~ Q Q ^ ^ ^ { { o.O.^.`.1X2X>X-X}._.V.m.p.p.r.w.r.w.w.r.t.p.g.h.Z.'.}.r.&.` ~ ~ ! Q / / ^ ^ ) ) { } o.O.O.~.~.~.~.O.~.O.O.o.{ [ ) ) ^ ^ ^ / Q ! ~ ~ ` &.4XpXBXT.oX%X$X2X2X2X>X:X;X;X;X-X-X-X:X>X>X2X2X<X$XU.,.! ^ ^ ^ { } o.~.~.~.~.~.o.} { ^ ^ / Q ~ ~ &.&.>.w.r.",
"%XoX!.R.Y.yXpX0XM U Y B 4 @ %.~ ~ ! ! / / ^ ) ) { } o.~.~.~.~.~.O.O.o.} [ ) ^ ^ ^ ^ Q ! ~ &.&._.Z.M.p.p.r.r.r.w.r.t.p.m.M.).}.-X>X2X<X`.@.~.~.~.O.O.} { ) ) ^ / Q ! ~ %.&.>.>.<.t.p.m.V._.}.-X-X>X>X2X2X<X&X@X!.W.Y.BXuXtXqXhXn M K R T T I Z i oXoXW.oXW.R.Y.Y.BXuXuXuXuXpXpXpXpX8XrXeX0X1.%.~ ~ ! ! Q ^ ^ ) ) { } o.O.~.~.~.~.~.O.O.} [ [ ) ^ ^ ^ / Q ~ ~ %.&._ } o.} { ) ) ^ Q ~ &.>.r.g.V._.-X:X2X2X$XE.r.r.m.V.Z.'.}.;X:X>X2X2X<X$X@XoXW.T.BXuXtXqXhXlXM K R Y T I Z u w 4 1 X .     X < 4 w y Z D Y T R K M n hXqXiXXX@X&X$X<X<X2X2X2X>X:X-X*X}.).Z.m.m.t.w.<.>.&.&.` ~ Q ! Q ^ ^ ^ ) ) { } o.O.~.~.~.~.~.~.O.o.{ { [ ) ^ ^ ^ / Q ~ ~ ~ &.r.=X;X;X>X>X>X2X2X2X2X<X<X<X$X$X%X%XoX%XoXoXoXSXC t 0 3 O .     . O 3 0 y V D Y T R K H lXhXqXtXyXBXT.W.!.#X#X<X2X2X>X:X-X'._.V.m.p.r.<.>.&.&.~ ~ Q Q ^ ^ ) { } O.~.~.`.1X>X>X-X=X`.V.V.g.g.p.r.t.t.t.t.p.g.m.V._.}.-X_.&.` ` ~ ! ! / / / ^ ) ) { { o.O.O.~.~.~.~.~.O.O.O.} { [ [ ) ^ ^ ^ ^ / Q ~ ~ &.&.j.uXY.W.+X$X<X2X2X2X:X:X-X-X-X-X-X-X-X:X:X>X2X2X<X@X,.^ ^ ) ) { o.O.~.~.~.O.O.} { ) ^ ^ / Q ~ &.&.>.<.r.",
"@X+XoXW.R.BXuXqXlXJ T D t 1 $.%.` ~ ! Q / ^ ^ ) { { o.O.O.~.~.~.~.~.O.} } ) ) ^ ^ / Q Q ~ ~ &.<.Z.M.g.p.r.5.r.r.r.r.r.p.m.M._.}.;X2X2X&Xf.~.~.~.^.O.o.{ { ^ ^ / Q ! ~ ~ %.&.<.<.r.p.m.V.).'.*X;X:X>X2X2X<X&X+XoXW.Y.Y.uXtXqX0XlXM J R E Y Y S N j oXoXW.W.W.R.G.BXBXyXyXuXuXuXtXpXpXpX8XpX8X&.` ` ~ Q Q / ^ ^ ) ) } } O.O.~.~.~.~.~.O.o.o.[ ) ) ^ ^ / Q Q ~ ~ %.&.o.o.o.} { ^ ^ Q Q ` &.>.r.g.Z.}.-X>X2X<X#XE.p.p.M.Z._.}.-X:X>X2X2X<X$X$XoXW.T.Y.yXtXqXrXkXM J L E Y Y S B e 8 2 X .     X < 2 0 e V D Y T E L J m kX9XtXyX@X@X#X<X<X2X2X2X>X:X;X-X}._.Z.V.m.p.r.w.>.&.&.` ` ` ! Q Q / ^ ^ ) { { } O.O.~.~.~.~.~.O.O.O.{ [ ) ) ^ ^ / Q Q ~ ~ ~ &._.;X;X>X>X2X2X2X2X2X<X<X<X$X&X%X%X%X%XoX%XoXoXSXy w 3 < .     . O 1 7 w V S Y T E L H m kX8XpXtXG.T.T.!.@X&X<X2X2X>X:X-X}._.V.V.p.r.<.<.&.&.~ ~ Q / ^ ^ ) { } o.~.^.^._.1X2X2X;X*X'.).V.h.p.p.p.t.t.p.p.g.m.V.)._.-X;X}.&.` ~ ~ ! ! / / ^ ^ ) ) { } } O.O.~.~.~.~.~.^.O.O.o.{ [ [ ) ^ ^ ^ / / Q ~ ~ ~ &.1.yXY.W.+X$X2X2X>X:X:X-X-X}.-X}.}.-X-X;X:X>X2X2X<X#X>.^ ^ ) { o.O.~.~.~.~.O.o.{ ) ^ / Q ! ~ ~ &.>.<.r.",
"%X@X@X!.W.Y.yXpX0Xm L Y C q X &.~ ~ ~ ! / / / ^ ) { } o.O.~.~.~.~.~.O.O.} } [ ) ^ ^ ^ Q Q ~ ~ &.u.M.m.p.r.r.<.<.r.<.r.r.p.m.V._.}.;X2X2X%X/.~.~.O.O.o.} ) ) ^ ^ / Q ~ ~ %.>.&.<.r.t.m.V.Z.`.}.-X:X>X2X2X2X&X@XoX!.R.Y.BXtXpXrXhXM H L E T Y D V t g oXoXW.W.R.R.Y.Y.BXyXyXyXuXtXuXtXtXpXpXpX4X` ` ` ~ Q ! / / ^ ) ) } } o.~.~.~.~.~.O.O.o.} [ ) ) ^ ^ ^ / Q ~ ~ &.` +.o.o.} { ) ^ Q ~ &.>.<.p.m.).}.;X>X2X<X$Xn.g.m.Z._.}.*X;X>X>X2X<X<X@X@XW.W.Y.BXuXpX8XkXm H L E T Y D V t 0 2 < X       o 1 7 e N S U Y T L J M lXrXqXtXBX@X%X&X<X<X2X2X2X>X:X-X*X'._.V.m.p.t.w.>.>.&.&.` ` ` Q ! Q / ^ ^ ) { { } o.O.~.~.~.~.~.^.O.o.{ { [ ) ^ ^ ^ Q Q ~ ~ ~ &.'.,X>X>X>X2X2X2X2X<X<X<X$X$X%X%X%XoX%XoXoXoXoXVXw 7 1 O .     o 1 7 w u Z I T W L J M kXrXpXuXyXY.W.!.oX#X<X2X2X2X:X;X*X'.).m.m.r.r.>.>.&.~ ~ ~ Q / ^ ) [ } o.O.~.~.~.).1X2X2X:X-X'.).V.V.m.g.p.p.p.p.m.m.V.Z._.}.-X:X}.&.` ` ~ ! ! / / / ^ ) ) { { } O.O.~.~.~.~.~.~.O.O.o.{ [ [ ) ^ ^ ^ ^ / Q ! ~ ~ &.2.BXR.oX$X<X2X2X>X:X-X-X}.}.}.}.}.}.-X-X;X>X2X2X<X$XH.^ ) { } O.~.~.~.^.O.o.{ { ^ ^ / Q ~ ~ &.>.>.r.",
"$X@X@XoXW.R.Y.uXpXlXH E I y 4 # &.` ~ ! ! / / ^ ) ) { } O.O.~.~.~.~.~.O.o.} [ [ ^ ^ ^ Q Q ! ~ ~ &.g.m.p.r.r.r.<.<.<.<.r.r.p.m.V._.-X;X2X<X`.~.~.~.^.o.} { ) ^ ^ / Q ! ~ %.%.>.<.<.p.p.m.Z._.}.-X:X>X2X2X<X<X%X+XW.W.T.yXuXtX8XmXn H K R W Y I Z y w Y.W.oXW.W.R.R.Y.Y.Y.BXyXuXBXuXuXuXuXtXpXiXc.&.` ~ ~ Q Q ^ ^ ^ ) { { o.O.O.~.~.~.~.~.o.o.} [ ) ) ^ ^ / Q Q ~ ~ &.] @.o.o.} ) ^ Q Q ~ &.>.r.p.V.).-X;X2X2X<X@XB.m.V.).'.-X;X>X2X2X2X<X&X+X!.W.Y.BXuXtXqXhXlXH K R T Y I C y q 4 1 X     . X 1 7 w y S I Y T R K M lXhXqXtXyXT.@X@X$X<X<X2X2X>X>X;X-X}._.Z.V.m.p.r.>.>.&.` &.` ` ~ ! Q / / ^ ^ ) { { o.O.O.~.~.~.~.~.O.O.o.{ [ [ ^ ^ ^ ^ Q Q ~ ~ ~ &.].>X>X2X2X2X<X2X2X<X$X$X&X%X%X%X%XoXoX+XoXoXoXVX0 1 O .     . O 3 0 y Z I Y Y R K nXn 0XqXtXyXY.T.W.+X%X<X<X2X2X>X;X*X'.).V.m.p.r.<.>.&.%.~ Q Q / ^ ^ { { o.O.~.~.^.^._.<X2X2X:X-X}._.).V.m.m.m.g.m.m.m.V.Z._.'.-X:X>X=X&.%.` ~ ! ! ! / ^ ^ ^ ) { } } o.~.O.~.~.~.~.~.O.O.o.} [ [ ) ^ ^ ^ / Q Q ! ~ ~ %.1.F.W.+X$X<X2X>X:X;X-X-X'.}.'.'.}.}.=X-X;X:X2X2X<X$XP.) ) } O.O.~.~.~.~.o.} ) ^ ^ / Q ~ ~ &.&.>.w.",
"%X#X@X@XW.W.Y.BXtXeXm K T S w 2 + &.` ~ ! ! / / ^ ) ) { } o.~.O.~.~.~.^.O.o.[ [ ) ) ^ ^ ^ Q ! ~ ` &.M.g.t.r.<.<.<.<.<.<.5.t.p.m.Z._.=X:X2X<X`.~.~.O.O.} { ) ) ^ / Q ! ~ ~ &.>.>.<.r.p.m.V.).}.}.:X:X>X2X2X<X&X@X!.W.T.BXuXtXqX0XlXM K R Y T I S i w 7 BX!.!.W.R.R.Y.G.Y.Y.Y.BXyXuXuXuXuXuXuX4XuX1.` ~ ~ ~ ! Q / ^ ) ) { } o.O.~.~.~.~.~.~.O.o.} ) ) ) ^ ^ ^ Q ! ~ ~ &. .@.@.} } ) ^ Q Q ` &.>.r.p.Z._.=X;X2X2X&X@XC.M.Z.'.*X-X;X>X2X2X<X<X@XoXW.R.Y.yXtXqX0XlXM J R E T I S i e 7 1 X X     . 1 2 0 y V I U T E K H vXhXqXtXuXBXT.+X%X&X<X2X2X2X>X:X;X*X'.).V.m.p.t.w.>.&.&.` ` &.` ~ ! ! Q / ^ ^ ) { { } o.~.~.~.~.~.~.^.O.o.[ [ [ ) ^ ^ ^ Q Q ~ ~ ~ %.].>X2X2X2X2X<X<X<X<X$X%X%X%X%XoX%XoXoXoXoXoXoXY.2 O . .   . O 1 0 r V D Y T E L H lXhXrXtXyXBXT.W.!.+X$X<X2X2X>X:X-X}.).Z.m.p.r.<.>.&.%.~ ~ ! Q ^ ^ ) { } O.~.~.~.~.O./.%X<X2X2X-X*X'.).V.V.M.m.m.m.m.V.V.).'.}.-X:X>X Xr.%.~ ~ ~ ! ! / ^ ^ ^ ) ) { } o.O.~.~.~.~.~.~.~.O.o.} [ [ ) ) ^ ^ ^ Q Q ! ~ ~ &.&.S.W.$X<X2X2X>X;X-X}.}._._._._.'._.}.=X-X:X>X2X2X<X@Xe.{ o.^.~.~.^.O.O.} { ) ^ ^ / Q ~ &.&.>.<.",
"#X@X%X@XoX!.T.Y.uXpXkXH R Y B 0 < $.` ` ! ! Q / ^ ^ ) { { o.O.~.~.~.~.~.O.o.o.} [ ) ^ ^ / Q Q ~ ~ &.<.m.p.r.<.<.<.>.>.>.w.<.r.p.m.Z.}.-X>X2X&X/.~.^.O.o.{ { ^ ^ / Q Q ~ ~ &.&.>.<.r.p.m.M.)._.-X-X:X>X2X2X<X$X+XoXW.T.Y.yXtXqX9XlXM J L E T Y S V r 0 3 !.!.!.HXE.R.R.R.Y.G.Y.BXBXBXBXyXuXuXBXuXuX1.&.` ~ ! Q / ^ ^ ^ ) { } o.O.~.~.~.~.~.O.O.} } [ ) ^ ^ ^ / Q ~ ~ ~ %.+.@.O.} { ^ ^ Q ~ ` >.<.p.m.Z.}.-X:X2X2X&X+XZ.Z._.'.-X:X>X2X2X<X&X+XoX!.R.Y.yXuXpX0XkXm J L E T Y D V r 8 3 o .     X o 1 0 e V S Y T E L J m kX9XqXuXyXY.W.+X$X$X<X2X2X2X>X:X-X}.'.Z.V.m.t.r.>.>.&.` ` &.` ` ~ ! Q / ^ ^ ^ ) { { o.O.O.~.~.~.~.~.O.O.o.} { ) ) ^ ^ ^ Q Q ~ ~ %.%.|.2X2X2X2X<X<X<X$X$X%X%X%XoX%X+X+XoXoXoXoXoX!.Y.1 .     . O 1 7 e i S Y T E L H M hX9XqXyXyXT.W.!.oX&X<X2X2X>X:X-X*X_.Z.M.p.r.w.>.>.&.~ ~ Q Q ^ ^ ) [ } o.~.~.~.~.^.O.s.<X<X2X>X;X}.}._.).V.V.V.m.V.V.Z.)._.}.-X:X>X2X<Xy.%.` ~ ! ! ! / / ^ ^ ) { { } o.O.O.~.~.~.~.O.~.O.o.o.{ [ ) ^ ^ ^ ^ Q Q ! ~ ~ ~ &.D.oX$X<X2X>X:X-X}.'.'._._.).Z._.`.`.}.}.;X:X2X2X<X#Xe.o.O.O.~.~.~.O.o.{ ) ^ / / ! ~ ` &.>.<.",
"%X%X@X@X@XW.W.T.BXtX8XcXP Y U y 7 $ &.` ` ! ! / / / ^ ) { } o.O.~.~.~.~.~.O.O.{ { [ ) ^ ^ ^ Q Q ~ ~ &.5.p.r.r.<.<.>.>.>.>.5.w.r.p.M.Z.}.;X>X2X&X/.~.O.o.} { ) ^ ^ / Q ~ ~ %.&.>.<.r.r.m.M.Z._.}.-X:X:X2X2X2X&X%XoXW.R.Y.G.tXpXrXhXm H L R W Y I V y 0 3 6 oX!.!.W.W.R.R.Y.Y.Y.Y.Y.Y.BXBXBXBXuXBXuXyX1.~ ~ ~ ! ! Q ^ ^ ) ) { } o.O.~.~.~.~.~.~.o.} { [ ) ^ ^ ^ / Q ! ~ %.&...@.+.{ { ^ Q Q ~ &.>.<.p.M.).}.;X>X2X2X$X!.V.).}.-X;X:X>X2X2X<X&X@XW.W.Y.yXyXpXqXhXn H L R T Y D C y q 3 < X     . X 1 4 w i S I Y T R P M lXrXqXtXyXY.T.!.+X$X$X<X2X2X>X>X:X-X'._.V.m.p.r.w.>.&.&.~ ` &.` ` ~ ! ! Q / ^ ^ ) { { } O.O.~.~.~.~.~.O.O.o.[ [ ) ) ^ ^ ^ / Q ~ ~ %.%.|.,X2X2X<X<X$X$X$X$X+X@X%XoXoXoXoXoXoX!.XXoXoXG.o .     . 1 4 w y Z I T Y R J M lXrXqXtXyXY.T.!.+X%X$X2X2X2X:X;X*X'.).h.g.p.w.<.&.%.%.~ ! Q / ^ ^ { } o.O.~.~.~.~.o.o.X.&X<X2X2X:X-X}._.).Z.Z.V.V.V.Z.)._.}.*X;X:X>X2X<Xy.%.` ~ ! ! ! / / ^ ^ ) ) { } o.O.~.~.~.~.~.~.O.O.O.} { [ [ ) ^ ^ ^ ^ Q Q ! ~ &.&.5.+X<X2X2X>X;X-X}._._.Z.Z.Z.Z.Z._._.}.}.-X;X>X2X<X&Xm.O.~.~.~.~.O.o.{ ) ^ ^ / Q ~ ~ &.>.>.",
"%X@X%X@X+XoX!.R.Y.uXpXhXM R Y S r 4 $ &.` ~ ! ! / / ^ ) ) { } o.O.~.~.~.~.~.O.o.} [ ) ) ^ ^ Q Q ! ~ ~ &.t.t.5.<.>.>.>.>.>.>.>.r.r.p.M.Z.}.;X2X2X@X~.^.O.} { ) ^ ^ Q Q ! ~ %.&.&.<.<.t.p.m.Z._.'.-X:X>X2X2X<X<X%X+X!.W.Y.BXyXpX8X0Xn M P E Y T I S y w 7 1 - oXW.oXW.R.HXR.R.R.G.Y.Y.Y.Y.Y.BXBXBXBXBXF.&.%.~ ~ ! Q / ^ ^ ) { { } O.O.~.~.~.~.O.~.o.o.[ ) ) ^ ^ / Q ! ~ ~ %.&.+.@.o.{ ^ ^ Q ~ ` &.>.r.g.V._.=X;X>X2X<X$X{.).'.*X-X>X2X2X2X<X$X@XoXW.T.BXyXtXqXhXlXM K R W Y I Z u w 4 1 X .     X 1 4 w y Z I Y T R P H vXhXqXtXyXyXT.W.oX@X$X<X<X2X2X>X:X-X*X_.).V.m.p.w.<.&.&.` ~ ~ &.` ~ ~ ! Q Q ^ ^ ^ ) { { o.O.O.~.~.~.~.~.O.O.o.{ { ) ^ ^ ^ / Q Q ~ ~ %.%.|.<X<X<X$X$X$X%XoX%X%X+XoXoXoX+X!.!.!.!.!.!.!.G.      . O 3 0 y C D Y T R K M lX0XqXtXyXY.R.W.oX+X<X<X2X2X>X-X-X'.).V.m.p.r.>.>.>.%.~ ! Q / ^ ) ) [ o.O.O.~.~.~.O.o.} X.%X<X2X2X;X;X}.}._.).).Z.Z.Z.).'.'.}.-X:X>X2X2X%Xy.%.%.~ ~ ! Q / / ^ ^ ) ) { } o.o.O.~.~.~.~.~.~.O.o.o.{ [ [ ) ^ ^ ^ / Q ! ~ ~ ~ &.5.$X<X2X>X;X-X}._.Z.Z.Z.V.V.V.V.Z.Z._.}.-X;X>X2X2X&X`.@.~.~.~.O.o.} ) ) ^ / ! ! ~ &.&.>.",
"@X%X%X@X@XoXHXW.R.BXtX8XlXJ Y Y C w 3 $.` ` ~ ! ! / / ^ ) ) { o.o.O.~.~.~.~.O.O.o.} [ ) ^ ^ ^ ^ Q ! ~ ~ &.t.r.<.<.>.>.*.*.*.>.>.5.r.g.M._.}.;X2X<X`.@.O.} { { ^ ^ ^ Q ! ! ~ &.>.>.<.r.p.m.V.).}.}.;X:X>X2X2X<X&X@XoXW.T.Y.uXuXpX0XlXM J L W T I S B r 7 1 < , oXW.oXR.E.R.R.R.R.T.G.R.G.Y.Y.R.BXY.Y.Y.S.%.~ ~ ~ ! Q / ^ ^ ) { { o.o.O.~.~.~.~.O.O.o.} [ [ ) ^ ^ ^ / Q ~ ~ &.] @.@.} { ^ / Q ~ &.>.<.r.m.V.'.-X;X>X2X<X#X!.'.}.-X;X>X2X2X<X<X+XoXW.R.Y.uXuXpX0XlXM J L Y T Y S B e 8 2 X .     X o 2 0 y V D U Y E L H n hX0XtXtXBXT.T.!.+X@X&X<X<X2X2X>X:X-X}.).Z.m.p.r.w.>.&.` ~ Q ~ &.~ ` ~ ! ! Q ^ ^ ^ ) { { } O.~.~.~.~.~.~.O.O.o.{ [ ) ^ ^ ^ ^ / Q ~ ~ %.&.].<X<X$X$X%X%X%XoX+XoX+XoXoXW.oX!.!.!.!.!.!.!.G.      O 1 7 r V S Y T E L H n hXwXtXyXyXT.W.!.+X$X<X2X2X2X:X-X}.).).m.p.r.w.>.] %.~ ~ Q Q / ^ ) { } O.~.~.~.~.O.O.} [ X.%X<X2X2X>X;X-X}._._._.)._._._.'.}.-X-X>X>X2X<X@XA.&.` ~ ~ ! ! Q / ^ ^ ) ) { { o.o.O.~.~.~.~.~.^.^.O.o.{ [ [ ) ) ^ ^ ^ Q Q ! ~ ~ &.5.[.<X>X>X;X}.'.).Z.V.M.M.m.m.M.V.Z.)._.}.-X;X>X2X<X'./.~.~.@.O.} { ^ ^ / / ! ~ &.&.>.",
"@X@X@X&X@X+XoXW.R.Y.BXpX0XM L T D i w 3 =.%.` ~ ! / / ^ ^ ) { { o.O.O.~.~.~.^.~.O.} } ) ) ^ ^ / Q Q ~ ~ &.>.t.w.>.>.&.>.&.*.*.>.>.5.t.g.M._.-X;X2X<X(.O.o.} ) ) ^ / Q Q ~ ~ %.&.>.<.<.p.m.M.Z._.}.-X:X>X2X2X<X$X#X!.!.T.Y.uXuXpX0XkXm J L Y T Y D V t 0 3 o . G.oXW.oXW.W.W.W.R.R.R.R.R.Y.R.G.R.Y.G.T.Y.S.&.~ ~ ! ! Q ^ ^ ^ ) { { o.O.~.O.~.~.~.~.O.o.} [ ) ^ ^ ^ / Q Q ~ ~ &.] @.o.{ [ ^ Q Q ~ &.>.w.p.M.Z.}.-X,X>X2X<X$XE.}.-X;X>X2X2X<X<X@X+XW.R.Y.G.uXpX9XhXm H L E T Y D V t 0 2 < X     . o 1 7 e i S Y T Y R J M lXrXqXtXyXBXW.W.oX@X+X$X<X2X2X>X>X-X-X}.).V.m.p.w.<.&.&.` ~ Q ! >.~ ~ ~ Q Q Q ^ ^ ) ) { } o.O.O.~.~.~.~.~.~.o.} } { ) ) ^ ^ / Q Q ~ ~ ~ &.E.$X$X%X%X%X+X+XoX.X!.!.!.!.!.!.W.!.!.W.!.!.!.G.  . X 1 7 w i S Y T E L J M kXwXpXtXBXBXW.!.@X%X<X2X2X>X:X-X}.'.V.V.p.t.w.<.&.&.` ~ ! Q ^ ^ [ ) } o.~.~.~.~.~.O.} { )  .@X<X2X>X>X;X-X}.}._.'._._._.'.}.-X;X:X2X2X2X&X@XD.&.` ` ~ ! ! / / ^ ^ ^ ) { { o.O.O.~.~.~.~.~.~.O.O.o.} [ [ ) ^ ^ ^ / / Q ! ~ ~ ` &.[.2X>X;X-X]._.Z.B.m.m.g.m.m.m.M.M.Z._.}.-X;X>X2X<X#X/.~.~.O.} { ) ^ / Q ! ~ ` &.>.",
"VX+X@X@X@X@X@X!.W.R.BXuXqXkXH R T D y q * %.` ~ ! ! ! / ^ ^ ) { } o.O.~.~.~.~.O.^.O.{ } [ ) ) ^ ^ Q Q ~ ~ &.>.5.<.>.>.%.*.&.*.*.>.>.<.t.g.Z._.-X>X2X$Xd.o.} { ) ^ ^ / Q ! ~ %.&.>.<.r.r.p.M.Z._.}.-X;X>X>X2X2X<X%X@XW.W.T.BXuXpXqXhXn H K R W T I Z y w 4 1 X . G.oXW.W.!.R.W.R.W.R.W.R.R.R.R.R.R.R.R.R.R.5.&.~ ~ ! ! Q / ^ ^ ) { } o.O.~.~.~.~.~.~.O.o.} [ ) ) ^ ^ ^ Q Q ~ ~ &.] @.} { ^ ^ Q ~ &.&.>.r.g.M._.}.;X>X2X2X$X$X[.=X;X;X2X2X2X<X&X@XoXR.T.BXuXtXqXhXlXH K R W Y I Z y q 4 < X .   . o 1 4 w i Z I Y T R K M lXhXqXtXyXBXT.W.!.+X@X$X$X<X2X2X2X:X-X*X_.).m.g.t.w.>.&.` ~ ! Q ^ >.~ ` ~ ~ Q Q ^ ^ ^ ) { } } O.~.~.~.~.~.~.~.O.} { { ) ^ ^ ^ ^ / Q ~ ~ %.%.E.+X%X%XoXoXoXoX!.!.W..X!.W.!.!.!.W.!.!.!.!.!.G.  . O 3 w y Z I Y T R J M lX0XqXuXyXG.T.!.oX&X$X2X2X2X>X:X*X'.).V.m.t.r.>.>.&.` ~ Q Q Q ^ ) [ } o.O.~.~.~.~.O.o.[ [ ^ | P.$X<X2X>X>X;X=X}.'.'.'.'.}.}.}.;X;X>X>X2X<X%X!.F.&.` ` ~ ! ! ! / / ^ ) ) { { } o.O.~.~.~.~.~.~.O.O.o.} [ [ ) ) ^ ^ ^ / / ! ~ ~ &.&.[.2X>X-X}._.Z.V.M.g.p.p.p.p.g.g.m.V.Z._.=X-X:X2X<X$X(.~.O.o.{ ) ) ^ / Q ~ ~ &.>.",
"tXJX@X@X%X+XoXoXW.R.Y.uXtX0Xn K Y Y S t q 5 &.` ` ! ! / / ^ ^ ) { } O.O.~.~.~.~.~.O.O.} [ ) ^ ^ ^ Q Q ! ~ ~ &.<.<.>.%.*.&.&.&.%.>.&.<.<.t.g.V.}.-X>X<X#Xd.} { ) ^ ^ / Q ! ~ %.&.&.>.<.r.p.M.V.).'.*X:X:X2X2X2X<X$X@X!.W.Y.BXyXpXqX0XlXM K R Y Y I S i w 7 1 o . = W.!.!.W.!.W.!.W.W.R.R.W.W.R.W.R.W.W.W.W.W.<.&.~ ~ ! Q / / ^ ) ) { } o.O.~.~.~.~.~.O.O.o.{ [ ) ^ ^ ^ / Q ! ~ ~ &.| @.{ ) ^ Q Q ~ &.>.<.r.m.V._.=X;X>X2X2X$X+X X;X>X>X2X2X<X$X+XoXW.Y.Y.yXtXqXrXlXM J R Y T I Z i e 7 1 o         1 2 0 y V I Y T R L H n hXqXtXtXG.Y.W.!.oX&X@X#X$X<X2X2X>X:X-X}.).V.m.p.r.>.>.&.~ ~ Q Q ^ &.` ~ Q ! Q Q ^ ^ ) ) { } o.O.O.~.~.~.~.~.O.O.o.{ { ) ^ ^ ^ / Q Q ~ ~ %.%.E.oXoXoXoXoX!.!.!.!.W.W.W.!.W.W.W.!.W.!.W.!.!.G.. O 3 0 t V D Y T R K H vXhXqXtXuXY.T.W.oX+X$X<X2X2X>X;X-X'._.V.m.p.r.<.>.&.&.~ ~ Q Q ^ ^ [ [ o.O.O.~.~.~.@.o.} [ ) ^ / H.$X<X2X>X:X;X-X-X}.}.}.}.}.=X-X;X>X2X2X2X&X@XW.F.&.&.~ ~ ! ! Q / ^ ^ ^ ) ) } } o.O.O.~.~.~.~.~.~.O.o.o.[ [ ) ) ^ ^ ^ / Q ! ~ ~ ` &.r.>X;X=X}.Z.M.m.g.p.p.p.r.p.p.g.g.M.Z.Z.}.-X;X2X2X&X`.@.o.} { ^ ^ / ! ! ~ &.&.",
"tXtX@X@X@X&X@XoXoXW.T.Y.uXpXhXH L T I S y q -.` ` ~ ! ! / / ^ ) ) { } o.~.~.~.~.~.O.O.o.} [ ) ) ^ ^ Q Q ! ~ %.&.>.>.>.%.&.&.%.&.&.>.>.>.<.p.m.Z.}.;X2X<X`.o.{ ) ) ^ / / Q ! ~ &.>.>.<.r.p.g.C.).'.}.-X:X>X2X2X<X$X+XoXW.R.Y.yXuXqX0XlXm J L E T Y D V r 0 3 o X   = oX!.!.W.W.W.W.W.!.W.W.W.W.W.W.W.W.W.!.W.W.&.&.~ ~ ! ! / ^ ^ ) ) { } O.O.~.~.~.~.~.O.O.o.{ [ ) ^ ^ ^ / Q ! ~ &.&...o.{ ^ ^ Q Q ~ &.>.<.p.M.Z.'.-X;X>X2X<X<X+XOX;X2X2X2X2X<X@XoXoXR.Y.yXuXpX9XkXm J L E T Y D B r 8 3 o X     . o 2 0 e V S U Y W L J m hX0XqXuXyXY.T.!.XX&X%X@X&X$X<X2X2X>X;X-X}.).V.p.t.w.>.&.%.~ Q Q Q ^ &.` ` Q ! Q Q ^ ^ ^ ) { } } O.~.~.~.~.~.~.O.O.o.{ [ ) ) ^ ^ ^ Q Q ~ ~ %.%.E.oX!.oXW.!.W.W.!.W.W.W.W.W.W.W.W.W.W.!.!.!.!.G.X 1 7 r i S Y T E L H n hXrXpXuXY.Y.W.!.@X&X<X2X2X>X:X-X*X).V.h.p.t.w.>.>.` ~ ~ Q Q / ^ ) { } o.~.~.~.~.O.O.} [ ) ^ ^ ^ H.$X<X2X2X>X:X-X-X}.}.}.}.-X=X;X;X>X2X2X2X@XoXR.v.1.%.~ ~ ~ ! ! / / ^ ^ ) ) { } o.O.O.~.~.~.~.~.O.O.O.o.[ [ [ ) ^ ^ ^ ^ Q Q ~ ~ ` &.r.>X=X]._.Z.m.g.p.t.r.r.r.r.t.t.p.g.M.Z._.=X-X>X2X<X`.s.} { ) ^ / / ! ~ %.&.",
"tXqXaX@X@X@X@XoXoXW.W.Y.yXuX0XlXJ R T I C u e ;.` ` ! ! / / ^ ^ ) { { o.O.O.~.~.~.~.O.O.} } [ ) ^ ^ / Q Q ~ ~ %.&.1.*.*.%.%.&.~ &.%.&.>.<.<.p.m.).}.:X2X<XL.} { ) ^ / / ! ~ ~ ~ &.&.<.r.p.g.h.)._.}.-X:X>X2X2X<X$X#XoX!.T.Y.yXuXtX9XhXm H K E T T D V y 0 3 1 . .   , !.!.!.!.!.!.W.W.W.W.W.!.W.W.!.W.!.W.!.!.K.&.` ~ ! ! Q / ^ ^ ^ { { } O.O.~.~.~.~.~.O.O.} { [ ) ^ ^ / Q Q ~ ~ ~ &.} } ) ^ Q Q ~ &.&.<.r.p.M.).}.-X:X2X2X<X$X@X;X>X2X2X<X$X&X+XW.R.Y.BXuXpXqXhXn H K E T Y D C y q 3 < X     . o 1 4 w i S Y Y T L K M lXrXqXtXyXY.T.W.oX@X$X$X@X#X<X<X2X2X:X;X}.'.Z.V.p.r.<.>.&.~ ~ Q ^ ^ _ &.` ~ ! ! Q Q ^ ^ ) ) { } o.O.O.~.~.~.~.~.O.O.} } [ ) ^ ^ ^ / Q Q ~ ~ %.%.D.oXW.W.W.W.W.T.W.W.T.T.T.W.T.W.W.W.W.W.W.!.!.G.< 4 w i S I T E R J M lXwXpXuXyXT.T.!.+X#X<X2X2X>X:X;X}.'.).V.g.t.w.>.&.&.&.~ Q Q ^ ^ [ ) } o.~.~.~.~.@.O.o.[ ) ^ ^ Q Q J.$X<X2X>X>X:X;X-X-X-X=X-X-X-X:X>X2X2X2X<X@X!.BXyX1.%.%.~ ! ! ! / / ^ ^ ) ) { } o.O.O.~.~.~.~.~.~.O.o.o.} [ ) ) ^ ^ ^ / Q Q ! ~ ~ %.5._.=X_.Z.M.g.p.r.r.r.<.r.<.r.r.p.p.m.V.Z.}.;X>X2X<X%Xs.{ ) ^ ^ / ! ~ ` &.",
"tXqXrXAX@X@X@X@XoXoXW.R.Y.uXpX0Xm K Y T I Z i s &.` ~ ~ ! / / ^ ^ ) { } o.O.~.~.~.~.~.O.O.} [ [ ) ) ^ ^ Q Q ~ ~ &.&.>.&.&.&.~ &.~ &.&.&.>.>.5.p.m._.-X:X2X$Xs.{ ) ) ^ / Q ! ~ &.&.>.>.<.r.p.m.V._.}.-X-X>X2X2X2X<X%X@X!.W.Y.BXuXpXqX0XlXH K R W Y I S i w 4 1 o .     G.!.!.!.!.!.!.!.!.W.oXW.!.!.W.oX!.!.!.oX@XK.&.` ` ! ! ! / ^ ^ ) { { } O.O.~.~.~.~.O.O.O.} [ [ ) ^ ^ ^ / Q ! ~ &.&.| { ) ^ Q ! ~ &.>.<.t.m.M._.=X-X>X>X2X<X&X+X:X>X2X2X<X$X@XoXW.R.BXuXtXqXhXlXM K R W Y I Z u w 4 1 X .     X 1 4 0 i Z D Y T R K M n hXqXtXuXY.Y.W.!.+X&X<X<X@X&X<X<X2X2X:X-X}._.V.m.t.w.>.] %.~ ! Q ^ ) _ &.` ~ ! ! Q Q ^ ^ ^ ) { } } O.~.O.~.~.~.~.O.O.} } [ ) ^ ^ ^ ^ Q Q ~ ~ %.%.S.W.R.W.T.T.T.T.G.R.Y.T.T.T.T.W.T.W.W.W.!.!.!.G.3 0 y C D Y W R K M lXhXqXtXyXY.T.W.oX#X<X<X2X2X>X;X-X'.).V.m.p.r.<.>.&.~ ~ ! Q Q ^ ^ [ { o.O.~.~.~.~.O.o.[ [ ) ^ ^ Q Q D.#X<X<X2X2X>X:X;X-X-X-X-X;X;X:X>X2X2X2X&X@XW.BXtX1.` %.~ ~ ! ! / / ^ ^ ) ) { { o.o.O.~.~.~.~.~.~.O.O.o.} [ ) ) ^ ^ ^ ^ Q Q ! ~ ~ &.&._.].Z.M.g.p.r.r.<.<.<.<.<.<.5.r.p.p.M.Z._.-X:X2X2X#Xg.) ^ ^ / ! ! ` &.",
"tXtX9XhXJX@X@X@XoXoXW.W.T.yXuXqXkXH L E Y I S B f &.%.! ! ! / / ^ ) ) { } O.O.~.~.~.~.~.O.O.} [ [ ^ ^ ^ Q Q ! ~ ~ &.>.*.&.~ &.~ ~ &.~ &.%.>.>.r.p.V.`.-X2X2X#Xe.) ^ ^ / Q ! ~ ~ &.&.>.<.r.p.m.V.).'.*X;X:X>X2X2X<X&X+XoXW.Y.Y.yXtXpX0XlXM P L Y T Y S i e 0 2 o .     . G.!.!.!.!.!.!.!.!.oXW.oXW.oX!.oX!.@X@X@X@XU.%.%.! ! ! / / ^ ^ ) { { o.O.O.~.~.~.~.~.O.o.} [ [ ^ ^ ^ / / ! ~ ~ %.' } ) ^ Q Q ~ %.&.>.5.t.M.Z._.=X;X>X2X2X<X#X#X2X2X2X<X$X%X+XW.T.Y.yXtXqXrXkXM J L Y T Y S B e 8 2 X .     X o 2 w e V D Y T E L J m hXwXpXyXyXT.W.!.@X@X<X2X<X+X$X<X2X2X>X:X-X'.).V.g.t.w.>.&.` ! Q ^ ^ ) ' &.` ~ ! ! Q / ^ ^ ) ) { } o.O.~.~.~.~.~.O.~.O.} { { ) ^ ^ ^ Q Q Q ~ ~ %.%.S.T.Y.Y.Y.Y.Y.Y.Y.Y.Y.Y.Y.ZXT.T.T.W.W.W.W.!.!.Y.8 r V D Y T R L H m hXqXtXyXyXT.W.oX@X$X<X2X2X>X;X-X}._.V.m.p.r.<.>.&.&.~ ~ Q Q ^ ^ [ [ o.O.O.~.~.~.~.o.} [ ) ^ ^ Q ! ~ 5.%X<X2X2X>X>X>X:X;X-X;X;X;X>X>X2X2X2X<X@X!.R.yXtXj.&.` ~ ! ! ! / / ^ ^ ) ) { } } o.O.~.~.~.~.~.~.O.O.o.} } [ ) ) ^ ^ ^ Q Q ! ~ ~ %.&.Z._.Z.g.p.r.w.<.<.>.>.>.>.<.<.<.r.p.m.B._.}.;X2X2X$XL.) ^ ^ ! ! ~ &.",
"yXtXqX0XdXoXoX@X@XoX!.W.R.Y.yXpX0XlXJ U E T I S C 6.%.` ~ ! ! / / ^ ) ) { } o.~.~.~.~.~.O.O.o.[ [ ) ) ^ ^ ^ Q ! ~ ~ &.&.&.%.~ %.~ ~ ` &.&.&.>.>.r.p.V.}.;X2X<X@X{ ) ^ ^ / Q ! ~ &.&.>.<.r.t.m.m.).'.}.-X:X>X2X2X2X&X@XoX!.R.Y.yXuXpX0XkXm H L R T Y D V t 0 3 < X     . X !.oX!.!.!.!.!.!.HXoXoXoXoXoXoX@X@X@X@X%X%Xy.%.` ! ! ! / / ^ ^ ) { } o.O.~.~.~.~.~.~.O.o.} ) [ ) ^ ^ / Q Q ~ ~ &.` { ^ ^ Q Q ~ &.>.<.r.p.M._.}.-X;X>X2X2X<X@X#X2X2X2X<X+X@XW.W.Y.Y.uXtX9XhXm H L R T Y D V t 0 2 < X     . o 1 4 e i S U Y T L J M lX0XqXuXyXBXT.W.XX%X&X<X2X<X+X&X<X2X2X>X;X-X_.).m.p.w.<.*.&.~ ! Q / ) { ' &.` ` ! ! Q / ^ ^ ) ) { } } O.O.~.~.~.~.O.O.O.o.{ { ) ) ^ ^ ^ Q Q ~ ~ %.&.F.Y.BXBXBXBXBXBXBXBXY.Y.G.BXZXT.T.T.W.W.!.!.!.Y.w i S U T E L J n kXrXpXuXY.Y.W.!.+X%X<X<X2X2X:X-X*X_.Z.m.p.t.w.>.&.&.~ ~ Q Q / ^ ) { } o.~.~.~.~.o.O.o.[ ) ^ ^ ^ Q ! ~ 5.+X$X<X2X2X>X>X:X:X;X:X;X:X>X>X2X2X2X&X@XW.T.uXqX6X&.~ %.! ! ! ! / ^ ^ ^ ) { } } o.O.~.~.~.~.~.~.O.O.o.} [ [ ) ) ^ ^ ^ ^ Q Q ~ ~ %.&.<.Z.M.p.r.r.<.>.>.>.>.&.>.>.<.<.<.r.g.m.).}.-X2X2X<XP.>.^ ! ! ~ %.",
"yXtXpX0XlXxXXX@XoX+XoXW.W.T.BXuXqXkXM J R T Y Y D Z 7.%.` ! ! / / ^ ^ ) { { o.O.O.~.~.~.~.O.O.o.} ) ) ^ ^ / Q Q ~ ~ &.&.&.%.%.~ ~ ~ ~ ~ ~ &.&.>.>.r.m.Z.}.:X2X<XP.) ^ ^ / ! ! ~ ~ &.>.>.r.t.p.V.V._.}.-X:X>X2X2X<X<X&X+XW.R.Y.BXuXpXqXhXn H K E W Y I Z y q 7 1 o     . . 6 oX!.!.oX!.!.oXoXoXoXoXoX@X@X@X@X@X%X%X%X%Xy.%.%.! ! ! / / ^ ) ) { } o.O.~.~.~.~.~.O.O.o.} [ ) ^ ^ ^ / Q ! ~ ~ &.&.[ ^ / Q ~ %.%.>.<.t.m.M._.}.-X>X>X2X<X<X+X#X2X<X<X$X@X!.W.T.yXyX5XqXmXn M K R W Y D Z y q 4 1 X .   . X 1 7 w i Z I T Y R K M vXrXqXtXiXG.T.!.!.@X&X<X2X2X2X@X$X<X2X2X>X-X-X_.V.m.p.w.>.&.` ! ! ^ ^ ) } ' &.` ~ ! ! Q Q ^ ^ ) ) { } o.O.~.O.~.~.~.~.O.O.} { [ ) ^ ^ ^ / Q Q ~ ~ %.%.v.BXBXyXBXBXBXyXBXBXyXBXBXBXY.BXT.T.W.W.W.!.!.VXi Z U Y T R J M lX9XqXuXyXBXR.!.oX&X<X2X2X>X:X-X}.'.).V.m.t.r.>.>.&.&.~ Q Q ^ ^ ) ) } o.O.~.~.~.~.O.o.[ ) ^ ^ Q Q ~ ~ %.5.%X$X<X2X>X2X>X:X:X:X>X>X>X2X2X2X2X<X%XoXR.BXuX0X9X&.%.` ~ ! ! ! / ^ ^ ) ) ) } } o.O.O.~.~.~.~.~.~.O.o.o.[ { ) ) ^ ^ ^ / Q Q ~ ~ ~ &.<.M.g.p.5.<.>.>.&.&.>.&.&.&.>.>.<.<.p.m.V.}.;X>X2X<X#X>./ ! ~ ` ",
"yXuXqXrXhXm DX@X+XoXoX!.W.R.Y.yXuX8XkXH K R T Y Y I x &.` ` ! ! ! / ^ ^ ) { } o.O.~.~.~.~.~.O.O.} } ) ) ) ^ ^ Q Q ~ ~ &.&.&.~ ~ ~ ~ ~ ~ ~ ~ &.&.>.<.r.m._.=X;X2X$Xg.^ ^ ^ Q ! ~ ~ &.>.>.<.r.p.m.V.).}.}.;X:X>X2X2X<X&X@XoXW.R.BXuXtXqXhXlXM K L W Y I S i r 7 1 o X     . o p %X!.oXoXoXoXoXoXoX+XoX@X@X%X@X%X%X%X&X&X<Xy.%.%.! ! ! / ^ ^ ) ) { } o.O.~.~.~.~.~.O.O.o.{ ) ) ) ^ ^ / Q ! ~ ~ &.` [ Q Q Q ~ &.>.>.5.p.M.Z._.=X;X>X2X2X<X<X+X<X2X<X$X+XoXW.R.Y.yXtXqX9XlXM J R E T Y Z i e 7 1 o .     X < 2 0 y C D Y T E K H n hXwXpXyXyXT.T.!.+X&X$X2X2X2X;X%X<X<X2X2X>X-X}.).V.g.t.<.>.&.` ! Q ^ ^ { o.' &.` ` ! ! Q / ^ ^ ) ) { } o.o.~.~.~.~.~.~.O.O.o.{ [ ) ) ^ ^ ^ Q Q ~ ~ %.&.x.yXyXuXuXuXuXuXyXyXyXG.yXBXG.BXT.T.W.W.!.!.!.VXC D Y W R K H lXhXqXtXuXG.T.W.oX+X$X<X2X2X>X:X-X'.).V.m.p.r.<.>.&.` ~ ! Q Q ^ ^ { } o.O.~.~.~.~.o.o.} ) ) ^ ^ Q Q ~ ~ *.5.+X$X<X<X2X2X>X>X>X:X>X>X>X2X2X2X<X<X@X!.R.yXtXhX9X&.%.` ! ! ! ! / / ^ ^ ) ) } } } O.~.~.~.~.~.O.~.O.O.o.[ [ [ ) ^ ^ ^ ^ Q Q ! ~ ~ &.&.t.t.r.<.>.&.>.%.%.&.&.%.&.>.>.>.<.r.g.V._.-X:X2X<X#XU.! ! ` ",
"yXuXtX8XhXlXH DX!.@X@XoX!.W.T.Y.uXpX0XlXH K E T T Y I x %.%.! ! ! / / ^ ) ) { } o.~.O.~.~.~.~.O.o.} [ ) ^ ^ ^ Q Q ! ~ ~ &.&.%.~ ~ ! ! ! ! ~ ~ %.&.>.<.p.M._.-X>X2X$Xq.^ / / ! ! &.~ &.>.<.r.p.g.V.)._.-X-X:X>X2X2X<X&X+XoXW.T.Y.uXuXqXrXlXm J L Y T Y D V r 0 3 o .     . O 2 d oXoXoXoXoXoXoX@X@X@X%X@X@X%X%X%X%X<X<X<X.X&.%.` ! ! Q / ^ ^ ) ) { } O.O.~.~.~.~.~.~.O.} } [ ) ^ ^ ^ / Q ~ ~ ~ &.( ^ Q ! ~ ~ %.>.<.r.g.M._.].=X;X>X2X2X<X$X+X<X<X$X%X+XW.T.Y.yXuXpX0XhXm J L Y T I D V r 0 3 o .     . o 1 0 e N D Y T E L J m lXrX5XuXyXY.W.W.+X+X<X<X2X2X>X;X@X&X2X2X>X:X-X'.).V.p.t.>.*.` ~ Q Q ^ [ { +.| &.` ` Q ! Q Q ^ ^ ) ) { } o.O.~.~.~.~.~.O.~.o.o.{ [ ) ^ ^ ^ / Q Q ~ ~ %.%.c.uXtXtXuXuXuXuXuXuXuXyXyXyXyXY.Y.T.W.W.!.!.!.DXS Y T E L H m hXqXpXuXY.T.R.oX+X$X<X2X2X>X:X-X}._.V.M.p.r.w.>.&.&.~ ~ Q / ^ ^ ) [ } O.O.~.~.^.~.O.} [ ) ^ ^ Q ! ~ %.%.&.u.E.$X<X2X2X2X2X>X>X>X2X>X2X2X2X2X<X%X@XW.Y.yXqXlXJ 9.%.%.~ ! ! Q / / ^ ^ ) ) { } o.O.O.~.~.~.~.~.~.O.O.o.} [ [ ) ^ ^ ^ ^ Q Q ~ ~ ~ &.&.r.r.<.>.>.&.%.&.%.~ &.~ %.&.&.>.>.r.p.V._.-X:X2X2X#XK.~ ~ ",
"BXyXtXqX0XlXM bX@X@XoX!.!.!.T.Y.BXtX8X0Xm H L R Y W T Y 9.` ` ! ! ! / / ^ ) ) { } o.~.~.~.~.~.O.~.o.} [ ) ) ^ ^ ^ Q ! ~ ~ &.%.~ ~ ~ ! ! ! ! ! ~ %.&.>.<.p.V.}.;X>X<X#X>.^ / ! ! ~ &.&.>.<.5.t.m.m.)._.}.-X;X>X2X2X2X<X@X@XW.R.Y.BXuXpX8XkXm H L R T Y D C y q 3 1 X .     X 1 7 BXHXoXoXoXoX@X@X@X@X@X%X%X%X%X%X<X&X<X<X2X{.' %.! ! ! ! / / ^ ) { { } o.O.~.~.~.~.O.O.O.} { [ ) ^ ^ ^ / Q ! ~ %.%.^ ^ Q ! ~ %.>.>.w.t.M.M._.=X=X;X>X2X2X<X&X@X$X<X%X@X!.W.Y.yXyXpXqXhXn H K R T T D C t 0 3 < X .   . o 1 4 w i Z I Y T R J M lX0XqXtXyXBXT.W.!.#X$X<X2X2X2X:XOX%X$X<X2X2X:X-X_.).m.t.w.>.&.` ! Q ^ ^ { o.O.] ` ` ` Q ! Q / ^ ^ ) ) { } o.O.O.~.~.~.~.O.O.O.o.{ { ) ) ^ ^ ^ / Q ! ~ %.&.4XtXtXpXpXpXtXtXtXtXuXuXyXyXyXBXBXT.W.W.!.!.oXFXU W E L J M kX0XpXuXyXY.W.!.+X%X<X<X2X>X>X-X*X_.).m.p.r.w.<.&.&.~ ~ ! Q / ^ ^ { } o.~.~.~.~.O.O.o.[ ) ) ^ ^ Q ! ~ &.>.>.<.E.$X$X2X2X2X2X2X2X>X2X2X2X2X2X<X<X@XoXW.BXtXrXn L 9.%.%.~ ! ! ! / / ^ ^ ) ) { { } O.O.~.~.~.~.~.~.O.O.O.} [ [ ) ) ^ ^ ^ / Q Q ~ ~ %.&.>.5.<.>.%.%.~ %.~ ~ ~ ~ ~ %.&.>.>.r.p.M._.=X;X2X2X<X+X<.",
"Y.yXuXqXrXkXm H MX!.@X@X!.!.W.T.Y.uXiXrXkXm H L R E W T Y 9.%.%.! ! ! / ^ ^ ) { { o.O.O.~.~.~.~.O.O.o.} [ ) ^ ^ ^ Q Q ~ ~ %.&.~ ~ ! ! ! / ! ! ~ ~ %.&.>.r.g.Z.}.:X2X<XL./ / Q ! ~ ` &.>.>.w.r.p.m.V.).'.-X:X>X2X2X<X<X&X+X!.W.Y.BXyXpXqXhXlXM K R T Y I S i w 7 1 X .   . X o 3 q Y.oXoXoXoX@X@X@X@X%X%X%X%X%X<X&X<X2X<X2X2X|.%.%.` ! ! Q ^ ^ ^ ) ) { o.O.O.~.~.~.~.~.O.O.} { ) ) ^ ^ / Q Q ~ ~ %.&.Q Q Q ~ %.%.>.<.r.p.M.Z._.=X;X>X2X2X2X&X&X@X$X&X+XoXW.T.BXyXtXqXhXlXM K R E Y I S u w 7 1 o .   . . 1 4 w y Z D Y T R K H n hXqXtXiXG.T.W.!.@X&X<X2X2X>X:X;XXX%X<X2X2X>X;X-X_.V.m.t.w.>.&.` ! Q ^ ) { o.~. .` ` ` ! ! Q / ^ ^ ) ) { } o.O.~.~.~.~.~.~.O.o.o.{ ) ) ^ ^ ^ / Q Q ~ ~ %.~ 4XrX8XqXqXpXqXqXpXtXtXtXtXuXyXG.Y.T.W.!.!.!.XX!.P E R K M lX0XqXuXyXY.T.W.oX&X&X2X2X2X:X;X*X'.).V.m.p.r.>.>.&.&.~ Q Q ^ ^ [ ) } o.O.~.~.~.~.O.o.[ ) ^ ^ Q Q ! ~ %.%.>.<.r.E.$X$X<X2X2X2X2X2X2X2X2X2X2X2X<X&X@XW.R.yXtXhXM R 9.&.` ` ! ! ! / / ^ ^ ^ ) { } } O.O.~.~.~.~.~.~.O.O.o.} } [ ) ^ ^ ^ ^ / Q Q ~ ~ ~ &.>.>.&.&.%.%.~ ~ ~ ~ ~ ~ ~ ~ %.&.>.w.p.M._.}.:X2X2X<X#X",
"Y.yXuXtX8XkXm H K GXXXoX!.!.!.W.T.BX4XpX0XkXM H K L Y E W G &.%.! ~ ! / / ^ ^ ) { } o.O.~.~.~.~.~.O.O.} { [ ) ^ ^ ^ / Q ~ ~ &.~ ~ ! ! ! ! ! ! ! ! ~ ~ >.>.r.m.).=X:X2X<XK./ ! ! ! ~ &.&.,.<.r.p.m.V.).'.*X-X:X>X2X2X<X&X@XoXW.R.Y.uXuXqX0XlXm J L E T Y S V r 8 2 O .     . o 1 7 j oXoXoXoX+X@X@X%X@X%X&X%X&X&X<X<X<X2X<X2X2Xp.' ` ( ! ! Q / ^ ^ ) { { o.o.~.O.~.~.~.O.O.O.} [ [ ) ^ ^ ^ Q Q ~ ~ &.&.Q Q ! ~ %.*.>.<.t.g.V.Z.'.=X;X>X2X2X2X<X%XoX&X@XoXW.W.Y.yXtXqXrXlXM J L Y T Y S V r 7 1 o .     . o 2 0 e C D I T E L H m hXrXpXuXyXY.W.!.+X@X<X2X2X2X>X;X-X{.#X<X<X2X>X;X}._.V.p.t.>.>.` ` Q Q ^ [ } O.~.' &.` ` Q ! Q Q ^ ^ ) ) { } o.O.~.O.~.~.~.~.O.O.o.{ { ) ^ ^ ^ ^ Q Q ! ~ &.%.5X0X0X0X0X8XrXqXqXqXpXtXtXuXyXBXBXT.W.!.!.!.+XoXP E K H n hXqXtXuXBXT.W.oX+X$X<X2X2X>X:X-X'._.V.m.p.r.<.>.&.` ` ~ Q / ^ ^ ) { } O.~.~.~.~.O.O.} [ ) ^ ^ Q Q ~ ~ >.>.>.5.p.E.&X$X<X2X2X2X2X2X2X2X2X2X2X<X<X@XoXW.Y.yXpXkXH Y b &.` ` ( ! ! / / / ^ ) ) ) { } o.O.~.~.~.~.~.~.O.O.O.} { [ [ ) ^ ^ ^ ^ / Q ~ ~ ~ &.&.>.&.%.~ ~ ~ ! ! ! Q ! ~ ~ ~ &.>.<.p.M._.}.;X>X2X<X",
"T.BXyXpXqX0XlXM K R !.@X@X!.!.W.T.Y.BXtXpXhXlXM H K L R E T G %.%.~ ! ! / / ^ ) ) { } O.O.~.~.~.~.~.O.O.} [ ) ) ^ ^ / Q Q ~ ~ &.&.! ! ! Q Q Q Q Q ~ ~ &.&.<.t.M._.;X2X2X&Xp./ ! ~ ~ ` &.>.<.w.p.g.V.Z._.}.-X:X>X2X2X<X&X+XoX!.R.Y.yXuXtX9XkXm H L Y T Y D V y 0 3 < X .   . X 1 7 w k oXoX@X@X@X@X@X%X%X%X%X&X<X<X<X2X<X2X2X2X2Xp.` ` ~ ! Q Q ^ ^ ) ) { } o.O.~.~.~.~.~.~.O.o.} [ ) ) ^ ^ / Q Q ~ ~ &.~ Q Q ~ ~ %.>.<.r.p.g.Z._.}.-X;X>X2X2X<X<X%X+X$X@X!.T.Y.Y.uXtX9XhXm H K E T Y D V y 0 3 o X     . o 1 7 e i S Y T Y R J M lX0XqXtXyXY.T.W.!.%X$X<X2X2X>X;X-X}.XX%X<X2X2X:X-X}.).V.p.r.>.&.~ ! Q ^ ) { } O.~. .` ` ~ ! ! Q Q ^ ^ ) ) { } o.O.~.~.~.~.O.~.O.o.o.{ [ ) ^ ^ ^ / Q ! ~ ~ %.%.6XlXkXhXmX0X0X0XrXwXqXqXtXiXyXG.Y.T.W.!.!.oXoXoXPXL J m hXrXpXuXBXY.W.W.+X$X<X2X2X>X:X-X*X_.Z.M.p.r.w.>.>.&.~ ~ Q / ^ ^ ) [ o.O.O.~.~.~.~.O.} [ ) ^ ^ Q Q ~ %.%.&.>.r.t.g.P.#X&X<X2X2X2X2X2X2X2X2X2X<X<X&X+X!.R.BXuXeXlXP Y c %.` ` ` ! ! ! / ^ ^ ^ ) { { } o.o.~.~.~.~.~.~.~.O.O.o.} [ [ ) ^ ^ ^ / Q Q ! ~ ~ &.&.&.%.~ ~ ! ! Q Q Q Q Q Q ! ~ &.>.<.p.m.).}.;X>X2X",
"T.Y.yXtXpX0XlXM J L PX!.@X!.!.!.W.T.Y.uXpX8X0XlXm H J D L E Y 9.%.~ ~ ! ! / / ^ ) ) { } O.O.~.~.~.~.O.O.o.} [ ) ) ^ ^ ^ Q ! ~ %.&.~ ! ! Q Q Q Q Q Q Q ~ &.>.<.p.Z._.;X>X2X$X>.! ! ~ &.&.&.<.w.r.g.m.Z._.}.*X:X>X>X2X2X<X%X@XW.W.Y.BXtXpXqX0Xn H K R T T I Z u q 4 1 X .     X 1 3 0 y n oXoXoX@X@X%X@X%X%X<X%X<X<X<X<X2X<X2X2X2X2Xt.` ` ! ! ! Q / ^ ^ ) { } o.O.~.~.~.~.~.O.O.o.{ [ ) ) ^ ^ ^ Q Q ~ ~ &.%.Q ! ~ %.*.>.5.t.g.M._._.=X-X:X>X2X2X<X<X@X@X@XoXW.T.yXyXtXqX0XlXH K R T T I Z y w 7 < X .     X 1 7 w y Z I Y T R K M lXhXqXtXyXBXT.W.!.+X&X<X2X2X2X:X;X*X_.{.%X<X2X2X>X-X'.Z.m.p.w.>.&.~ Q Q ^ ) } o.O.~.' &.` ~ Q ! Q Q ^ ^ ) ) { } o.O.~.~.~.~.~.~.O.o.o.{ [ ) ) ^ ^ ^ / Q ! ~ &.&.8Xm lXn lXkXkXhXrXhXqXqXqXtXyXY.Y.T.!.!.!.+XoXoXLXJ M lX0XpXtXBXY.T.!.+X%X$X2X2X2X:X;X}.'.).h.g.t.w.<.&.&.` ~ ~ Q / ^ ) [ { o.~.~.~.~.O.O.} [ ) ) ^ ^ Q ! ~ %.>.>.<.r.p.M.P.+X&X<X<X2X2X2X2X2X2X2X2X<X<X@X@XW.R.yXuX0Xm L Y x *.` ` ( ! ! ! / / ^ ^ ) ) { } o.o.O.~.~.~.~.~.~.O.O.o.} [ [ ) ) ^ ^ ^ / Q ! ~ ~ &.&.&.~ ~ ! Q Q Q / Q / Q Q ! ~ &.&.<.p.m.).}.-X:X",
"T.Y.yXuXpX9XhXm H K E NX@XXX!.!.W.W.Y.BXuXpXeXhXlXm M H K L R R 9.%.` ~ ! Q / ^ ^ ) { { } O.O.~.~.~.~.~.O.o.} [ ) ^ ^ ^ / Q ~ ~ ~ &.~ Q Q / / / / Q Q ~ ~ &.>.r.g.).}.:X2X<X@X>.! ~ ~ &.>.>.<.r.p.m.Z.).'.-X;X:X>X2X2X<X&X@XoXW.R.yXG.pXqX0XlXM J R E T I S i r 8 2 o .     . o 1 0 r N FXoX@X@X@X@X%X%X%X%X&X<X<X<X2X<X2X2X2X2X2X>X] ` ` ! ~ Q Q ^ ^ ) ) { } o.O.~.~.~.~.~.O.O.o.} [ ) ^ ^ ^ / Q ! ~ ~ &.%.Q ~ %.%.>.>.r.t.g.V.Z.}.-X;X>X>X2X2X<X&X@X@XoXW.T.Y.yXtXqX0XlXM J R E T I S i r 7 1 o .   . . < 2 0 y C D Y T R L H n hXwXtXuXBXY.W.!.oX&X<X2X2X>X>X-X*X}.).{.%X<X2X>X:X-X'.V.m.r.<.>.&.~ Q ^ ^ ) } o.@.@.| &.~ ~ ! Q Q Q ^ ^ ) ) { } o.O.~.~.~.~.~.O.~.o.o.{ [ ) ^ ^ ^ / Q Q ~ ~ ~ &.gXM M m m m lXz mXhX0XqXpXtXyXY.T.W.!.!.oXoX@XoXnXM lX0X8XuXuXY.R.W.oX%X<X<X2X2X:X-X-X'.).V.m.p.r.>.>.&.` ~ Q Q / ^ ) ) } o.O.O.~.~.~.O.o.} [ ^ ^ / Q ! ~ %.&.>.<.r.p.m.V.`.+X%X<X<X<X2X2X2X2X2X<X<X<X&X+XoXW.Y.yXpXkXM R U B ;.%.` ` ! ! ! / / ^ ^ ) ) { } } O.O.~.~.~.~.~.~.O.O.o.} { [ ) ^ ^ ^ ^ / Q Q ~ ~ ~ &.&.~ ~ Q Q / / ^ ^ ^ Q Q Q ~ &.>.<.p.m.Z.}.-X",
"W.Y.Y.tXpXqX0XlXH K R E GX!.!.@XW.W.T.Y.BXuXpXeX0XlXcXM H J K U b &.~ ` ! ! ! / / ^ ) { } o.O.~.~.~.~.~.O.O.o.[ [ ) ^ ^ ^ / Q ! ~ &.~ Q Q Q ^ Q / Q Q Q ~ ~ &.<.r.m._.-X:X2X<XK.! ~ ~ ` &.,.<.r.t.m.h._._.*X-X:X>X2X2X2X&X@XoXW.R.Y.uXuXpX0XlXm J L Y W Y D V r 0 3 o X .   . o 1 7 w i Z FXoX+X@X@X@X%X%X&X<X<X<X<X2X2X2X2X2X2X2X>X}.&.` ` ^ ~ Q Q ^ ^ ) ) { } O.O.~.~.~.~.~.O.O.} } ) ) ) ^ ^ ^ Q ! ~ ~ &.%.~ ~ %.>.>.<.t.g.M.Z._.}.;X;X>X2X2X2X<X&X@XoX!.R.Y.yXuXpXwXhXm J K E Y Y D V r 0 3 o X     . o 1 7 e V S U Y T L J M hX0XqXtXyXY.T.!.XX%X$X<X2X2X>X:X-X'.).V.{.%X<X2X2X:X-X_.V.m.r.>.*.` ~ Q ^ ) { } o.O.O.' &.~ ~ ~ Q Q Q ^ ^ ) ) { } o.O.~.~.~.~.~.O.O.O.o.{ [ ) ) ^ ^ ^ / Q ~ ~ ~ &.z J J H M M M n lXkXhXrXqXuXyXY.T.W.!.!.oX@XoXoXbXm kXqXpXuXBXY.W.!.+X$X<X2X2X2X:X-X}._.V.m.p.t.w.>.&.&.~ ! ! / / ^ ) { } O.~.~.~.~.~.o.} [ ) ^ ^ / Q ~ ~ &.>.<.<.p.p.V.).].+X#X<X<X<X2X2X2X2X2X2X<X<X&XoXoXR.BXuX8XkXJ Y U y -.&.` ~ ! ! ! Q / ^ ^ ^ ) { } } o.O.~.~.~.~.~.~.O.O.O.} { { ) ) ^ ^ ^ ^ / Q ! ~ ~ &.~ ~ Q Q Q ^ ^ ^ ^ ^ ^ Q Q ~ &.>.<.p.m.Z.}.",
"W.T.yXG.pXqX0XlXM J L Y T @X@X!.!.W.W.Y.BXuXpXpXeX0XlXlXm M J J L v &.~ ~ ~ Q Q ^ ^ ^ ) { } o.O.~.~.~.~.~.O.O.} } ) ) ^ ^ / Q ! ~ ~ &.&.Q Q Q ^ Q ^ Q Q Q ! &.&.>.p.V._.-X>X2X$XK.! ~ &.&.&.,.w.t.g.V.V.'.'.-X:X>X2X2X<X&X%X+XW.R.Y.BXuXpXeXhXm H K R T T D C y q 4 1 X .   . X 1 2 w y Z D GX!.@X@X%X%X%X&X%X<X<X<X2X<X2X2X2X2X>X>X:X_.] ` ` ! ! Q / ^ ^ ) { { } o.O.~.~.~.~.~.O.O.} } ) ) ^ ^ ^ Q Q ! ~ %.%.~ ~ %.%.>.<.r.t.g.Z.Z.'.}.;X:X>X2X2X2X&X&X@X!.W.T.BXuXpXqXhXn M K E T Y I C y w 3 1 . .   . o 1 7 w y S I T Y R K M lX0XqXtXyXY.T.W.!.@X$X<X2X2X>X:X-X}.'.Z.M.[.$X2X2X2X;X}._.V.p.w.>.&.` ! ^ ^ _ { } o.o.} | &.` ~ Q ! Q Q ^ ^ ) ) { } o.O.~.~.~.~.~.~.O.o.o.{ [ ) ^ ^ ^ / Q Q ~ ~ ~ &.v L K K J J M M M lXhXwXqXyXyXT.T.W.!.oXoX@X@XoXzXkX0XpXuXBXY.W.!.oX&X<X2X2X>X:X-X*X).).m.g.t.w.>.&.&.` ~ Q Q ^ ^ ) [ } o.~.~.~.~.O.O.} [ ) ^ ^ Q Q ~ %.%.&.>.w.r.m.m.).'.}.#X+X$X<X<X2X2X<X2X<X<X<X&X+XoXW.R.BXtXeXlXP Y D r : %.%.` ! ! ! / / ^ ^ ) ) ) } } o.O.O.~.~.~.~.~.~.O.o.o.{ { ) ) ^ ^ ^ / Q Q ! ~ ~ &.%.~ Q ^ ^ ^ ) ^ ) ^ ^ ^ Q ~ &.>.<.p.m.Z.",
"W.W.Y.uXuXpX0XhXm H L E T P @X!.!.!.W.R.Y.BXuXpXpXeX0XlXlXcXM H J K 8.&.~ ~ ~ Q Q / ^ ) ) { } o.O.~.~.~.~.~.O.o.{ [ [ ) ^ ^ ^ Q ! ~ ~ &.~ Q ^ ^ ^ ^ ^ Q Q Q ~ &.>.<.p.Z.}.;X>X2X$Xa.~ ` &.>.>.<.t.p.m.V.).}.}.:X:X2X2X2X<X&X@XoXW.R.BXuXuX8X0XlXM K R Y T I S u w 7 1 o .     . < 2 0 e V S K !.@X@X@X%X%X%X<X$X<X<X2X2X2X2X2X2X>X>X>X;X_.` ` ` ^ ~ Q Q ^ ^ ) { { o.o.~.~.~.~.~.~.O.O.} } ) ) ^ ^ ^ / Q ! ~ %.%.~ ~ &.*.>.w.t.p.M.Z._.}.-X;X:X>X2X2X2X<X&X@XW.AXBXyXtXqX0XlXM K L W T I S u w 7 1 o .     . 1 3 q y C I Y T R K H vXhXqXtXuXBXT.W.!.+X%X<X<X2X>X>X;X*X'.).V.g.[.#X<X2X>X;X}.Z.V.p.w.>.` ` Q Q ^ { { } o.o.} ' &.( ~ Q Q ! ^ ^ ^ ) ) { } o.O.~.~.~.~.~.O.~.o.o.{ [ ) ) ^ ^ ^ / Q ~ ~ ~ &.7XE R L L K J H M n hXrXqXuXyXT.W.W.XXoXoX@X@X@XdX0XqXtXyXY.T.W.+X%X$X2X2X2X:X:X*X'.).V.g.t.w.<.>.&.` ~ ! Q / ^ ^ { } o.O.~.~.~.~.O.o.[ ) ) ^ ^ Q ! ~ %.>.>.<.r.p.m.V._.}.-X#X+X$X<X<X<X2X2X2X<X<X<X&X@XoXW.Y.BXpXeXm L Y A q % %.%.~ ~ ! ! ! / ^ ^ ^ ) ) } } } O.~.~.~.~.~.~.~.O.O.o.} { ) ) ^ ^ ^ ^ / Q ! ~ ~ &.&.~ Q ^ ^ ) ) ) ) ^ ^ / Q ~ &.>.w.p.m.",
"!.T.Y.BXuXpXqXkXn H L R T Y NX@XoXoXW.W.R.Y.yXuXuX8XeX0XhXlXlXm M H J 7.&.~ ~ ! Q Q ^ ^ ) { { o.O.O.~.~.~.~.O.O.o.} [ [ ^ ^ ^ / Q ! ~ ~ &.! ^ ^ ^ ^ ^ ^ ^ Q Q ~ &.>.r.m.).}.:X2X<X&X<.~ &.&.>.<.r.t.m.V.).'.-X-X:X>X2X2X<X&X+XoXW.T.Y.yXpXpX0XlXM J L E Y Y D V r 0 3 o .     . o 1 7 e i S I UX@X@X@X@X&X%X%X<X<X<X<X2X2X2X2X2X>X>X;X;X-Xt.` ` ` Q ! Q ^ ^ ^ ) { { o.O.O.~.~.~.~.~.O.o.} [ ) ) ^ ^ / Q Q ~ ~ %.%.%.~ *.>.<.r.p.g.M._._.}.-X:X>X2X2X2X<X&X%X@XW.T.yXuXqX9XlXm J L Y T Y S V r 7 3 o .     . o 2 8 r V S Y T E L H M hX9XqXuXyXBXR.!.oX&X<X2X2X2X>X;X*X}.).V.m.p.E.<X<X2X>X;X}.Z.m.p.<.>.` ~ Q ^ ^ ) { } } } { ( &.` ~ ~ Q Q / ^ ^ ) ) { } o.O.O.~.~.~.~.~.O.O.} } ) ) ) ^ ^ / Q Q ~ ~ ` ` 9.T Y E R R K K H m hXwXtXyXY.T.W.W.!.+X@X@X@X@XaXqXtXuXY.T.W.oX+X$X<X2X2X>X;X-X}.).V.m.p.r.<.>.&.` ~ ! Q / ^ ) ) [ o.O.~.~.~.~.O.o.} [ ^ ^ / Q ! ~ %.%.>.>.r.t.m.V._.'.-X;X#X@X$X$X<X<X<X<X<X<X<X&X@X+XW.R.Y.uXpXkXM R Y C 0 $ &.%.` ~ ! ! Q / / ^ ^ ) ) { } o.O.O.~.~.~.~.~.~.~.O.o.} { [ ) ) ^ ^ ^ / Q Q ~ ~ ~ &.~ ^ _ ) { ) { ) ) ^ Q ~ ~ &.>.w.p.",
"!.W.T.BXyXtXqX0XlXM J R E T I FX!.!.!.W.W.G.Y.uXuXtXpXpX0X0XlXlXlXM M 9X&.~ ~ ~ Q Q / ^ ^ ) { { o.O.~.O.~.~.~.O.O.o.[ [ ) ^ ^ ^ / Q ! ~ &.&./ ^ ^ ^ ^ ) ^ ^ Q Q ~ >.>.p.m._.-X:X2X<X+X<.&.&.>.<.w.p.p.V.)._.}.-X:X>X2X2X2X&X@X@XW.R.Y.BXuXpXrXhXm H L Y W Y D C y 0 3 < X .     X 1 7 q y Z I Y P @X@X@X@X$X&X$X<X<X2X<X2X2X2X2X>X>X>X-X-X*Xw.` ` ` Q Q Q ^ ^ ^ ) { { o.O.~.O.~.~.~.O.O.o.} [ [ ) ^ ^ ^ / Q ~ ~ &.&.%.%.>.>.w.t.g.M.Z._.}.=X;X:X>X2X2X2X<X&X%X@XAXBXiXtXqXhXm H L R T Y I V y 0 3 o X .   . o 1 0 w i S I Y T R J M lXrXqXtXyXG.T.W.+X+X&X<X2X2X2X:X-X}.).Z.m.g.t.E.$X2X2X>X-X}.Z.m.r.<.*.` ~ Q ^ ^ { { { { { { ` &.` ( ! Q ! ^ ^ ^ ) ) { } o.O.~.~.~.~.~.~.O.O.} } [ ) ) ^ ^ ^ / Q ! ~ &.&.9.Y T T Y E R K J m kXwXtXyXY.T.!.!.!.+X@X@X@X@XSXpXuXyXT.W.!.+X&X<X<X2X2X:X-X*X).).m.p.t.w.>.&.&.~ ~ Q Q / ^ ) { } O.~.~.~.~.~.o.} [ ) ^ ^ / Q ~ ~ &.>.<.5.p.p.V.Z.'.-X-X>X,X@X$X$X<X<X<X<X<X<X$X&X+XoXW.R.BXtX8XkXJ Y U i 8 $ #.%.` ~ ~ ! ! / / ^ ^ ) ) { { o.o.O.~.O.~.~.~.~.O.O.o.} { [ ) ) ^ ^ ^ ^ / Q ! ~ ~ &.&.^ _ { } { { ) ) ^ Q ! ~ &.>.r.",
"!.W.T.Y.yXtXpX9XlXM J L Y T Y D oXoXoXW.W.R.Y.BXuXuXtX8XpXeX0X0XlXlXcXm hX%.%.~ ~ Q Q / ^ ^ ) { } o.O.~.~.~.~.~.~.o.o.[ [ ) ^ ^ / Q ! ~ ~ ~ &.^ ^ ) ) ^ ^ ^ Q Q ~ ` >.<.p.Z.`.-X>X2X<XK.~ &.>.>.w.r.g.m.V.).'.-X:X>X2X2X<X<X&X+X!.W.Y.BXuXtX8XhXlXM K R W Y I Z i w 7 1 o     . . 1 2 0 y V D Y T NX@X@X%X@X%X&X<X<X<X2X2X2X2X2X>X>X;X;X-X*X}.w.` ` ! ! ! Q ^ ^ ) ) { } o.O.~.~.~.~.~.~.O.o.} [ ) ^ ^ ^ / Q Q ~ ~ %.*.%.%.>.<.r.p.m.M.Z._.}.-X;X>X2X2X2X2X<X&X@X@XZXyXtXqXhXlXM K R W Y I S u w 7 1 o .   . X 1 2 w y Z D Y T R K M vXhXqXpXyXY.T.W.!.@X&X<X2X2X>X:X-X}.'.).V.m.t.r.@X$X2X>X>X-X_.V.m.r.>.&.~ ! ^ ^ ^ ) { { { ) [ ( &.` ~ ! Q Q / ^ ^ ) ) { } o.o.~.~.~.~.~.O.~.o.o.[ [ ) ) ^ ^ ^ Q Q ~ ~ ~ &.9.Y Y T T T E L J n hXqXtXY.Y.T.W.oXoX@X@X@X@X@XW.yXyXY.R.!.oX&X<X2X2X>X:X-X}.'.Z.V.g.t.w.<.&.&.&.~ Q Q ^ ^ ) [ } o.O.~.~.~.O.O.o.[ ) ^ ^ Q Q ~ ~ %.&.>.<.r.p.m.)._.}.-X:X>X2X@X#X&X$X<X<X<X<X$X$X%XoXoXW.Y.BXuXeXlXJ Y I u 7 < #.&.` ~ ! ! ! / / ^ ^ ^ ) { { } o.O.~.~.~.~.~.~.~.O.o.o.} [ ) ) ^ ^ ^ / Q Q ! ~ ~ &.%._ { } } } { { ^ ^ Q ! ` >.>.",
"oXW.W.Y.yXuXpXrXhXm H K R T Y D n oX!.!.W.W.R.Y.BXuXuXtXpXpX8X0X0XhXlXcXcXl.%.~ ~ ~ Q Q / ^ ^ ) } } o.O.~.~.~.~.O.^.o.} [ [ ) ^ ^ ^ / Q ~ ~ &.` ^ ^ ) [ ^ ^ ^ ^ Q ~ &.>.r.g.Z.}.;X>X2X<XK.&.&.>.<.r.p.m.V.).'.*X-X:X>X2X2X<X&X@XoXW.R.BXuXuXpX0XlXM J L Y T Y S i r 8 1 o X     . o 1 7 e N S I Y W GX+X@X&X%X&X$X<X<X2X2X2X2X2X2X>X>X;X-X-X'.'.` &.` ! Q Q Q ^ ^ ) ) { } o.O.~.~.~.~.~.O.O.o.} { ) ) ^ ^ ^ Q Q ~ ~ %.%.*.>.>.w.t.g.M.Z._.}.=X-X:X>X>X2X2X2X<X&X@X@XBXtXpX0XlXM J L Y T I S B r 7 1 o X     . < 2 0 y V D Y T E L H n hXwXtXuXyXT.W.!.oX#X<X<X2X2X>X;X-X'.).V.m.p.r.p.@X<X<X2X:X-X_.V.p.r.>.&.~ ! Q ^ ) ) ) { ) ) ^ ( &.~ ` ! ! Q ^ ^ ^ ) ) { } o.O.O.~.~.~.~.O.~.O.o.[ [ ) ) ^ ^ ^ / Q ! ~ ~ &.9.D I Y Y T Y R J vXrXqXtXY.T.W.W.+XoX@X&X@X@X@XHXyXY.T.W.oX#X$X2X2X2X>X;X-X'.).V.m.p.r.<.>.&.~ ~ ~ Q / ^ ) ) } o.O.~.~.~.~.O.o.[ [ ) ^ ^ Q ! ~ %.*.>.<.r.p.m.V._.}.-X;X>X2X<X@X#X&X$X$X<X<X$X&X&X@XoXHXW.Y.yXpXeXcXK T D u 8 2 $.&.` ` ! ! ! Q / ^ ^ ) ) { { } o.O.O.~.~.~.~.~.~.O.O.o.} [ ) ) ) ^ ^ ^ / / Q ~ ~ &.&.` } o.o.o.{ { ^ ^ Q ~ ` &.",
"+X!.W.Y.BXuXtX8XhXlXM K R E T I S dX!.!.oXW.R.R.Y.uXBXtXtXpXpXpXeX0X0XhXlXlX2.%.~ ~ ! Q Q ^ ^ ) ) { o.o.~.O.~.~.~.^.O.o.} [ [ ^ ^ ^ / Q ! ~ ~ &.^ _ ) [ ) ) ) ^ ^ Q ~ &.<.r.m._.=X:X>X<X$Xn.&.>.<.r.t.g.V.Z.'.}.-X:X>X2X2X<X&X+XoX!.T.Y.yXuXpX9XlXm H L E T Y D V y 0 3 < X     . X 1 7 w i Z I T Y R GX+X@X@X&X&X<X<X<X2X2X2X2X>X>X>X;X-X}.}._.V.&.` ~ ~ ! Q / ^ ^ ) ) { } o.O.~.~.~.~.~.~.O.o.{ [ ) ^ ^ ^ / Q Q ~ %.%.%.>.>.w.r.p.M.M._._.}.-X;X:X2X2X2X2X<X&X&X@X@XyXqXrXhXm H K E T Y D V t 0 3 o .     . o 2 7 w V S Y T Y L J M lXrXqXtXyXY.T.W.+X%X&X2X2X2X>X;X-X}._.V.m.g.r.<.u.@X$X2X2X:X}._.V.p.w.>.` ! ! ^ ^ ^ ) ) ) ^ ) ^ ` &.` ~ ! ! Q Q ^ ^ ) ) { } o.O.~.O.~.~.~.~.O.O.} } [ ) ^ ^ ^ / Q Q ~ ~ ~ &.7.S S D Y T Y R J n 0XtXyXY.T.!.W.+X@X@X@X%X%X@XW.Y.T.W.oX@X<X<X2X2X:X:X-X}._.V.m.p.r.<.>.&.&.~ ! Q / ^ ^ ) { } O.~.~.~.^.~.o.} [ ) ^ / Q Q ~ %.%.>.>.r.p.g.V.).'.-X:X>X2X2X<X@X@X&X&X$X$X$X&X%X%X+XoXW.R.BXuXpXkXM L T D u 0 3 % %.%.` ~ ! ! Q / ^ ^ ^ ) ) { } o.O.O.~.~.~.~.~.~.O.O.o.} } [ ) ^ ^ ^ ^ / / ! ~ ~ ~ &.' o.@.o.o.{ ) ^ ^ Q ~ &.",
"@X!.W.T.Y.uXuXpX0XlXm J R Y Y Y S V CX!.W.!.W.R.G.Y.iXBXuXuXpXpXpX8XeXeX0X0XlX%.%.~ ~ ! Q / ^ ^ ) ) { o.o.~.~.~.~.~.^.O.o.[ [ ) ) ^ ^ / / ! ~ &.&.^ _ ) [ ) ) ^ ^ Q Q &.&.<.p.M._.-X:X2X<X$Xy.>.<.<.p.p.m.).).}.-X;X>X>X2X2X<X%XoXW.W.Y.BXuXpXqXkXm H K R T Y I Z u q 7 < o .     X 1 3 q y C D Y T E L !.+X@X%X$X$X<X<X2X2X2X2X2X>X>X;X-X-X}.'.).m.&.` ~ ! ! Q / ^ ^ ) ) { } o.O.~.~.~.~.~.O.O.o.} ) ) ^ ^ ^ ^ Q Q ~ ~ &.&.>.<.5.p.g.M.Z._.}.-X-X;X>X>X2X2X2X<X&X%X@XJXtXqXhXlXH K R T T I Z y w 4 1 X .   . . 1 7 w y Z I Y T R K M lXhXqXtXyXBXT.W.!.+X$X<X2X2X>X>X-X}.'.Z.V.p.p.w.<.r.@X<X2X2X:X}._.m.p.<.>.` ! ! Q ^ ^ ) ^ ) ^ ^ ^ ` ` ` ~ ! ! Q ^ ^ ^ ) ) { } o.O.~.~.~.~.~.~.O.O.o.[ [ [ ) ^ ^ ^ / Q ! ~ ~ &.7.i V Z D Y Y R J kXwXtXyXT.T.!.!.+X@X&X@X+X@X%XHXT.W.!.+X@X<X<X2X2X:X-X*X_.Z.V.p.t.w.>.&.&.~ ~ ! Q / ^ ) { } o.~.~.~.^.O.O.} [ ) ^ ^ / Q Q %.%.&.<.<.t.m.m.).'.}.-X:X2X2X2X&X@X+X%X$X$X&X&X&X%X@X@XoXW.R.BXuX8XkXH R Y D i r 9 5 &.%.` ` ! ! Q / / ^ ^ ) ) { { o.o.O.~.~.~.~.~.~.O.O.o.} [ [ [ ) ^ ^ ^ / / Q ! ~ ~ &.&.+.@.@.o.{ ) ^ Q ! ~ ",
"#X!.!.T.Y.yXuXpX0XkXm J K E T Y I V y oXoXoXW.W.R.Y.BXBXuXuXuXuXpXpXpX8XrX0X0X5X%.%.~ ~ Q Q / ^ ^ ) { } o.O.~.~.~.~.^.O.O.o.{ [ ) ^ ^ / Q Q ~ ~ ~ &.[ [ { { ) ) ^ / Q ~ &.>.r.g.V.}.;X>X2X<X@X5.>.w.r.p.m.V.).'.-X;X:X2X2X2X<X&X+X!.W.T.BXyXtXqX0XlXM J R E T I S i r 7 2 o .     . o 2 0 e N D Y T Y L nX@XoX$X@X&X<X<X<X2X2X2X2X>X>X;X-X-X}.'._.Z.p.&.` ` ! ! Q / ^ ^ ) { } } O.O.~.~.~.~.~.O.O.} { { ) ^ ^ ^ Q Q ! ~ %.%.>.>.r.t.t.M.Z.Z._.}.-X;X:X>X2X2X2X2X<X&X&X@XW.pX0XlXM J R E T I S i w 7 1 o .     o o 3 0 y C D Y T R L H n hXqXpXuXBXY.W.!.@X%X<X2X2X>X:X;X*X'.).V.m.p.r.<.>.r.+X<X2X2X;X}.).m.t.>.>.` ! Q ^ ^ ^ ^ ^ ^ ^ / / ` &.~ ~ ~ Q Q / ^ ^ ) ) { } o.o.~.~.~.~.~.~.O.O.o.} [ ) ) ^ ^ ^ / Q ~ ~ ~ %.;.r i V S Y T L H hXqXtXBXY.W.W.+X@X@X$X%X&X+X@XoXR.W.oX&X<X2X2X2X:X-X*X'.).V.p.p.r.>.>.&.&.~ Q Q / ^ ) ) } o.O.^.~.~.~.O.o.[ ) ^ ^ Q Q ~ ~ %.>.>.<.r.p.m.Z._.}.-X>X>X2X2X<X&X@X+X%X%X$X&X&X%X%X+XoXW.R.Y.uXuXrXlXH E Y I C y r w ;.` ` ~ ! ! ! Q / ^ ^ ) ) { { } O.O.O.~.~.~.~.~.~.O.o.o.} [ ) ) ^ ^ ^ / / Q ! ~ ~ %.&.| ~.O.} { ^ ^ Q ! ",
"%X@XW.W.Y.BXuXpXqXhXn M K R T T I S y h oXHX!.W.W.R.G.BXBXyXuXuXuXpXtXpX8XpXeXeXz.%.~ ~ ~ Q Q / ^ ) ) { } o.O.~.~.~.~.^.O.O.} { [ ) ^ ^ ^ / Q ~ ~ &.` { { } { { ) ^ Q Q ~ &.<.r.m.Z.}.;X>X2X<XU.>.<.r.p.g.V.)._.*X-X:X>X2X2X<X$X%XoXW.R.Y.uXuXpX9XkXm J L Y W Y D V r 0 3 o X .     o 1 7 w i Z I Y T R J bX+X@X&X$X$X<X<X2X2X2X2X2X>X:X-X-X}.'.).).M.<.&.` ` Q ! Q Q ^ ^ ) ) } } O.~.~.~.~.~.~.O.O.} { { ) ^ ^ ^ / Q ! ~ ~ &.>.5.r.g.g.B._._.].-X-X:X>X>X2X2X2X<X<X%X%X@XJXqXkXm H L Y E Y D V r 0 2 o . .   . o 2 8 r N S Y T E L J m lXwXpXuXyXY.T.!.oX&X$X<X2X2X>X;X-X}.).V.m.p.r.w.>.&.5.+X<X2X>X;X}.Z.m.r.>.&.` ( ! Q ^ ^ ^ ^ / / / / ~ &.~ ~ ! ! Q / / ^ ) ) { } o.o.~.~.~.~.~.~.O.O.o.{ [ [ ) ^ ^ ^ / Q ! ~ ~ &.-.0 r i Z I T L M 0XpXuXY.T.W.!.+X@X@X$X%X%X@X@X@XW.oX+X$X<X2X2X2X:X-X'.).V.m.p.r.<.>.&.~ ~ ~ Q Q ^ ^ { { o.O.~.~.~.^.~.o.} ) ) ^ ^ Q ! ~ %.%.>.<.r.p.m.V.).}.-X-X>X2X2X<X&X@XoX+X%X%X%X&X%X$X@X@XoXW.R.Y.uXpXeXcXJ R Y U S V V i 8.&.` ~ ~ ! ! Q / / ^ ) ) { { } o.O.~.~.~.~.~.~.~.O.O.o.} [ ) ) ) ^ ^ ^ / / ! ~ ~ ~ &.] @.+.} ) ^ ^ ! ",
"#X@X!.W.T.BXyXpXqX0XlXM J R E T I S B r 6XoXoXW.W.R.R.Y.BXBXyXyXuXuXuXtXpXpXpXpXeX2.%.~ ~ ! Q Q ^ ^ ) ) { } o.O.~.~.~.~.~.O.o.} [ [ ^ ^ ^ / Q ! ~ ~ &.&.{ { } { ) ) ^ Q ! &.&.<.p.M.).-X:X2X2X<XK.<.w.t.m.M.Z._.}.-X:X>X2X2X<X<X@X+X!.T.Y.BXuXpXrXhXm H K R W Y D C y w 3 1 X .   . o 1 2 w y Z D Y T E L H zX@X@X@X&X&X<X2X2X2X2X2X>X;X;X-X}.}._.Z.Z.h.>.` ` ` ! ! Q ^ ^ ^ ) { { o.O.O.~.~.~.O.~.O.O.} { ) ) ^ ^ ^ Q Q ~ ~ %.%.>.t.t.g.M.Z.Z.}.}.-X;X:X>X2X2X2X2X<X<X&X@X@XJXhXm H K R T T D Z y q 3 1 . .   . o 1 7 w i Z I T Y R J M lX0XqXtXyXY.T.W.oX+X$X<X2X2X>X:X-X}._.Z.M.p.r.w.<.*.&.5.@X<X2X2X-X}.V.m.r.>.&.` ! Q / / ^ / / / / ! Q &.` ~ ~ ! ! Q / ^ ^ ) ) { } o.O.O.~.~.~.~.~.O.O.o.{ [ [ ^ ^ ^ ^ Q Q ~ ~ ~ &.=.3 0 y S I Y P vX9XtXyXT.R.W.!.@X#X@X&X%X&X#X@X@X!.@X&X<X2X2X>X:X-X}._.Z.M.p.t.<.>.&.&.~ ~ Q / ^ ^ ) [ } O.~.^.~.~.O.O.} [ ) ^ / Q Q ~ %.%.&.<.r.r.m.V.)._.-X:X>X2X2X<X$X$XoXHX+X@X%X%X$X@X$X@XoXoXW.R.BXuXpX0Xm K E E Y U D S S d &.%.~ ! ! ! Q / ^ ^ ^ ) ) { } o.O.O.~.~.~.~.~.~.O.O.o.} } [ ) ) ^ ^ ^ / Q Q ! ~ ~ &.&.+.o.{ ) ^ ^ ",
"$X+XoXW.R.Y.yXuXpX0XkXm J L Y W Y D V y 0 Y.W.oXW.W.R.R.Y.Y.BXyXyXuXuXuXuXtXpXpXpXpX1.%.~ ~ ! Q Q ^ ^ ) { { o.o.~.~.~.~.~.~.O.o.{ { ) ) ^ ^ ^ Q ! ~ ~ &.| } } } { ) ) ^ Q ~ &.>.w.p.V._.-X:X2X<X&XA.5.r.p.m.V._.}.}.:X:X>X2X2X<X&X@X!.W.T.BXuXtX8X0XlXM K R Y T I S u w 7 1 o .     . < 2 0 e V D I T E L H M JX+X%X&X&X$X<X2X2X2X2X2X>X;X-X-X'.'.).V.m.g.>.` ` ~ ! Q Q ^ ^ ) ) { { o.O.O.~.~.~.~.O.O.o.} [ [ ) ^ ^ ^ / Q ~ ~ %.&.<.t.g.M.M._._.}.-X-X:X>X>X2X2X2X2X<X&X&X@X@XJXlXM K R Y Y I S u w 7 1 o .   . . 1 3 0 y Z D Y T R K H vXhXrXtXyXBXT.W.!.@X&X<X<X2X2X:X;X}.'.).V.g.p.r.>.>.&.` <.@X<X2X2X-X'.V.p.w.>.` ` ! ! Q / / / / / / ! ! &.&.~ ~ ! ! Q / / ^ ) ) { } } O.~.~.~.~.~.~.O.O.o.[ [ [ ) ^ ^ ^ ^ Q Q ~ ~ &.=.1 7 r S Y Y H lXwXtXyXT.W.!.+X@X%X&X&X%X&X%X@X@X@X&X<X2X2X2X:X;X}.'.Z.B.g.r.w.>.>.&.~ ~ ! Q / ^ ) { } o.~.~.~.^.^.O.} { ) ) ^ ^ Q ! ~ &.>.>.<.t.p.M.Z.'.}.-X:X>X2X2X<X@X@XW.W.+X+X%X@X$X@X&X@XoXW.W.R.BXuXqXkXm K U E Y T Y Y I F &.%.` ~ ! ! ! Q / ^ ^ ) ) { { o.o.O.~.~.~.~.~.~.O.O.O.} [ [ [ ) ^ ^ ^ ^ Q Q ! ~ ~ &.&...} { ^ ^ ",
"<X@X+X!.T.Y.BXuXpXeXhXn H K R T Y I Z y w 3 BXoXW.W.W.R.R.G.Y.BXBXBXuXBXuXuXtXuXtXtX4X%.&.~ ~ Q Q / ^ ^ ) { { o.O.O.~.~.~.~.O.O.o.{ [ ) ^ ^ ^ / Q ~ ~ ~ &.{ o.o.} { ) ^ ^ Q ` &.>.r.m.Z.}.;X>X2X<X&Xp.r.t.m.V.)._.-X-X:X2X2X2X<X$X+XoXW.T.Y.yXtXqXrXkXM J L E T Y D V r 0 3 O .     . o 1 7 e i S Y T Y R K M lXJX@X@X&X$X<X<X2X2X2X>X>X:X-X-X}.'.).V.m.m.t.>.` ` ~ ! Q Q ^ ^ ^ ) { } o.O.~.~.~.~.~.~.O.o.} [ ) ^ ^ ^ / Q Q ~ ~ %.%.5.g.g.Z.Z._.}.}.-X;X>X>X2X2X2X2X<X<X&X&X@X@XFXm J L E T Y S V r 8 3 o .     . o 2 0 r V D Y T E L J m hX9XpXuXyXBXR.!.oX#X<X2X2X>X>X;X-X}._.V.M.p.r.w.>.&.&.~ <.%X<X2X:X-X'.V.p.w.>.` ` ! ! Q ! Q / Q Q ! ! ~ ` &.` ~ ! ! / / ^ ^ ) ) { } o.O.O.~.~.~.~.~.O.O.o.} [ ) ) ^ ^ ^ / Q ~ ~ ~ &.#.< 4 e S Y R H hXqXtXBXT.W.!.@X%X%X%X&X%X&X%X%X@X@X<X<X2X2X>X-X-X'.).M.g.p.r.<.>.&.&.~ Q Q / ^ ) ) } o.O.^.~.~.~.O.o.[ [ ^ ^ / Q ~ ~ %.%.>.<.r.p.m.V.).}.-X:X>X2X2X&X&X+X!.R.R.W.+X&X@X&X@X@X@XoXW.R.Y.yXuX8XkXm J R E W T T T T F &.&.~ ~ ~ ! Q Q Q ^ ^ ) ) { { } O.O.O.~.~.~.~.~.~.O.o.o.} [ [ ) ^ ^ ^ ^ / Q ! ~ ~ ~ &.' } ) ^ ",
"<X#X@X!.W.Y.BXuXtXqX0XlXM K R E T I S i r 7 6 oX!.!.R.W.R.R.Y.Y.Y.BXBXuXyXyXuXuXuXuXuXx.%.~ ~ ~ Q Q / ^ ^ ) { } o.O.~.~.~.~.~.O.O.} { [ ) ^ ^ ^ / Q ~ ~ &.&.} o.o.} ) ) ^ Q ! ` >.<.t.m.).}.;X>X2X<X+Xn.p.g.B.Z._.}.-X:X>X2X2X2X$X@X@XW.R.Y.BXuXpX9XkXcXH L E Y Y D C y 0 3 < X .     X 1 7 0 y Z D Y T R K H n hXW.@X&X&X$X<X2X2X2X2X2X>X;X-X*X'._.Z.V.m.p.w.&.` ` ! ! Q Q ^ ^ ) ) { } o.O.~.~.~.~.~.~.O.o.} { ) ) ^ ^ ^ Q Q ~ ~ &.%.r.g.M.Z._.}.}.-X-X:X>X>X2X2X2X2X<X<X&X@X@X@XzXH K E E T D C y 0 3 o o .     X 1 7 w i S I T Y R J M lXrXqXtXyXG.T.W.+X@X$X<X2X2X>X:X-X}.).V.h.p.t.w.>.>.&.~ ~ ,.@X<X2X:X-X_.V.p.w.*.&.` ! ! ! ! ! Q ! ! ! ~ ` &.~ ~ ~ ! ! Q / / ^ ) ) { { o.O.~.~.~.~.~.~.O.O.o.} [ ) ) ^ ^ ^ ^ Q Q ~ ~ &.&.$ 4 r D Y L nX0XtXyXY.T.W.+X@X&X&X&X<X$X%X&X@X@X&X<X2X2X>X:X-X}._.Z.M.p.r.<.>.&.` ~ ~ Q Q / ^ ) { } O.~.~.~.^.O.o.} [ ) ^ ^ / Q ~ ~ >.>.>.r.p.m.V.).'.-X;X>X>X2X2X&X@XoXW.T.yXW.@X%X@X&X@X@XoXoXW.R.Y.BXtX8XkXm H L D R E R E E W 9.&.~ ~ ~ ! Q Q Q ^ ^ ) ) { { } o.O.~.~.~.~.~.~.~.O.O.o.} [ [ ) ) ^ ^ ^ ^ Q Q ~ ~ ` &.` _ ^ ",
"<X&X+X!.W.T.Y.uXtXpX0XlXM J L E T Y D V r 0 3 5 oXW.oXW.R.R.R.G.Y.Y.Y.Y.BXuXBXuXyXuXuXuX1.&.~ ~ ! Q / / ^ ) ) { } O.O.~.~.~.~.~.O.O.} } [ ) ^ ^ / Q Q ~ ~ %.] +.o.o.} { ^ ^ Q ~ &.>.r.p.M._.-X:X>X<X<X@Xr.p.m.Z._.'.-X;X>X2X2X<X<X&X@X!.W.Y.yXuXtXqXhXn M K R W Y I Z i w 7 1 X .     X < 2 0 y V D Y T E L J m kX0X@X@X%X&X<X<X2X2X2X>X>X:X-X*X}._.).V.m.p.t.w.&.` ` ! ! Q Q ^ ^ ) ) { } o.O.~.~.~.~.~.O.O.o.{ { ) ) ^ ^ / Q Q ~ ~ %.>.g.M.Z.)._.}.-X;X;X>X>X2X2X2X2X<X<X&X%X&X@X@XxXK R W Y I S y w 4 1 X .   . o < 4 w y Z D Y T R K M vXhX8XtXuXY.T.W.!.@X$X<X2X2X>X:X-X}.'.).V.m.t.w.<.>.&.` ~ ! ,.#X<X2X:X-X_.M.p.<.*.&.` ~ ! ! ! ! ! ! ~ ~ ~ &.&.&.` ~ ! ! / / ^ ^ ) ) { } o.O.O.~.~.~.~.~.~.o.o.} [ ) ) ^ ^ ^ / Q ! ~ ~ &.&.# 4 t D Y P vX9XtXyXY.W.!.+X@X%X&X$X<X<X&X&X%X@X&X2X2X2X:X-X}._.Z.h.p.t.w.>.>.&.~ ~ Q / ^ ^ ) { } o.~.^.~.^.~.O.} [ ) ^ ^ Q Q ~ %.%.&.<.<.p.p.V.).'.*X;X>X2X2X<X<X+XoXW.Y.Y.yXW.+X@X@X@X@X+XoXW.W.T.BXuXpXeXkXm M J K K L D L L D 9.&.%.~ ~ ! Q Q Q ^ ^ ^ ) ) { } o.O.O.~.~.~.~.~.~.O.O.o.} } [ ) ) ^ ^ ^ / Q Q ! ~ ~ %.&._ ",
"<X<X%XoXW.R.Y.G.tXpXrXhXm H L U W T D C y w 4 < G.!.W.W.!.R.R.R.Y.Y.Y.G.Y.BXBXBXuXBXyXuXuX1.&.~ ~ ! Q Q / ^ ) ) { } O.O.~.~.~.~.~.O.o.{ [ [ ) ^ ^ ^ Q Q ~ ~ &.] +.O.o.{ ) ^ Q Q ~ &.>.r.m.V.'.-X:X2X2X$XE.p.m.V.).}.}.;X:X>X2X2X<X$X+XoXW.R.Y.yXtXpX0XlXM J L Y T Y S B r 7 2 O .     . o 2 7 e V S I Y T L J M lX0XtX+X@X&X$X<X<X2X2X2X2X:X;X-X*X_.).Z.m.g.t.r.>.&.` ` ! Q Q Q ^ ^ ) ) { } O.O.~.~.~.~.~.~.O.o.} ) ) ) ^ ^ ^ Q Q ~ %.%.>.M.B._._.}.=X-X;X>X>X>X2X2X2X<X2X<X&X%X@X@X@XbXL Y T I S V r 7 2 o . .   . < 3 0 t V D Y T Y L H vXhXrXpXuXyXT.W.!.+X%X<X<X2X2X>X;X*X'.).V.m.p.r.<.>.&.&.~ ~ Q ,.#X<X2X:X-X).m.p.<.>.` ` ` ! ! ! ! ! ! ~ ` ` &.&.&.` ~ ! ! / / ^ ^ ) ) { { o.o.~.~.~.~.~.~.~.O.o.} [ ) ) ^ ^ ^ ^ Q Q ~ ~ &.&.# 7 i I Y J kXqXtXY.T.W.!.+X&X&X$X<X<X<X<X&X%X@X&X2X2X>X:X}.'.).V.g.t.w.<.&.&.&.~ ! Q / ^ ^ { } o.O.~.~.~.^.O.o.[ ) ^ ^ ^ Q ! ~ %.>.>.<.r.p.m.Z._.}.-X;X>X2X2X<X&XoXoXR.Y.yXuXtX+XoX@X@X@XoXoXW.W.R.BXuXpX8XhXcXm M H H J J J J J gX&.~ %.~ ~ ! Q Q Q ^ ^ ) ) { { } o.O.~.~.~.~.~.~.O.O.O.} { [ [ ) ^ ^ ^ ^ / Q ! ! ~ %.&.",
"<X<X@X+X!.W.Y.BXuXpX8XhXlXM K R W Y I S i w 7 1 O G.!.!.W.W.R.R.R.R.Y.Y.Y.Y.Y.Y.BXBXyXBXBXyX&.` ~ ! ! / / ^ ^ ) { { } O.O.~.~.~.~.O.O.o.} [ ) ^ ^ ^ / Q ~ ~ ~ %.+.@.o.} { ) ^ Q ~ ` >.<.t.m.Z.}.-X>X2X<X%XQ.g.M.Z._.}.-X:X>X2X2X<X<X@X+XW.R.Y.yXuXqXrXhXm J L E T Y D V y 0 3 < X     . o 1 7 w y S I Y T R K H lXhXqXiX@X%X%X<X<X2X2X2X>X>X:X-X}.}._.V.V.m.p.r.w.>.&.` ~ ~ ! Q Q ^ ^ ) { { } O.O.~.~.~.~.~.O.O.} } [ ^ ) ^ ^ Q Q Q ~ ~ %.<.V.)._.}.}.-X;X:X>X2X2X2X2X2X<X<X&X&X%X%X@XoXLXE T Y D V t 0 3 O .     . o 1 7 e N S Y T E L J M lXwXqXuXyXY.T.W.oX%X<X<X2X2X>X;X-X}._.V.m.p.t.w.>.&.&.` ~ ! Q >.#X2X2X>X}._.m.t.<.>.&.` ` ` ~ ! ~ ` ~ ~ ` &.&.&.%.` ` ! ! Q / ^ ^ ) ) { { o.o.~.~.~.~.~.~.O.O.o.} { ) ) ^ ^ ^ / Q Q ~ ~ ` &.$ 8 B Y R H hXpXtXY.W.W.@X@X&X$X<X<X<X<X<X&X%X@X%X2X>X-X-X}.).V.m.p.r.<.>.>.~ ~ ! Q / ^ ) ) { o.O.^.~.~.^.O.o.} [ ) ^ / Q ~ ~ %.&.>.<.w.p.m.V.).}.-X:X>X2X2X<X&X+XW.W.Y.yXuXqXaXoX+X@X@X@XoX!.W.R.Y.BXuXtXeXhXlXlXcXcXm m M m M M 9X&.~ &.~ Q ! Q Q Q ^ ^ ) ) { { o.o.O.~.O.~.~.~.~.~.O.O.o.} [ [ ) ^ ^ ^ ^ / Q ! ~ ~ ` ",
"2X<X&X@X!.W.T.Y.uXuXqX0XlXm J L Y T Y S V r 8 3 O - oXoX!.W.W.!.Y.R.R.R.G.Y.Y.Y.Y.Y.Y.BXY.Y.F.&.` ~ ~ ! Q / ^ ^ ) { } o.O.~.~.~.~.~.^.O.o.[ [ ) ^ ^ ^ ^ Q ! ~ %.&.+.@.o.} [ ^ ^ Q ~ &.>.w.p.M._.-X;X>X2X<X%XB.B.Z._.}.-X;X>X>X2X<X<X@X@XW.W.T.yXyXpX8XkXm M K R W T I Z u w 4 1 X .     . 1 2 0 y V D Y T E L H m kX0XtXyX@X#X&X<X<X2X2X2X>X>X;X-X}.'.).V.m.p.t.w.>.&.&.~ ~ ! Q Q Q ^ ^ ) { { } o.O.~.~.~.~.~.O.O.} } { ^ ^ ^ ^ ^ Q Q ~ ~ &.<.Z._.}.}.-X;X;X>X>X2X2X2X2X2X<X<X&X%X@X%X@XoXPXT T I Z y w 3 1 X .     X 1 7 w y Z I Y T R P M lXhXqXtXyXY.T.W.!.+X$X<X2X2X2X:X-X*X'.Z.V.p.t.r.>.>.&.~ ~ ~ Q Q >.#X<X>X>X}._.m.t.w.>.&.&.` ` ~ ~ ~ ` ` ` &.&.>.*.` ` ` ! ! / / ^ ^ ) ) { } o.o.O.~.~.~.~.~.O.O.o.} { ) ) ^ ^ ^ ^ / Q ~ ~ &.&.% w S Y L nX9XtXyXY.W.!.+X&X&X$X<X<X<X<X<X<X%X@X%X2X:X-X}._.Z.m.m.r.w.>.&.&.~ ~ Q Q / ^ ) { } O.~.^.~.~.^.o.{ [ ) ^ ^ / Q ~ ~ &.&.<.r.p.m.M.).'.-X;X:X2X2X2X&X&XoXR.R.BXuXtXrXdXJX+XoX@XoXoX!.W.R.Y.BXtXpXqXeXhXhXlXlXlXlXlXlXlXlXlX2.~ ` ` ~ Q Q Q Q / ^ ) ) { { } o.O.~.~.~.~.~.~.~.O.O.o.} [ [ ) ) ^ ^ ^ / / Q ! ~ ",
"2X<X&X#XoX!.T.Y.yXuXpXeXlXm J L E T Y D V y w 3 O o & oXW.!.!.R.E.R.R.R.R.R.R.G.R.G.R.Y.Y.Y.G.0.&.` ~ ! ! / / ^ ) ) { } o.O.~.~.~.~.~.O.O.o.[ [ ) ^ ^ / Q Q ~ ~ %.&.@.@.o.{ ) ^ Q ~ ` &.>.r.m.V._.=X:X2X2X<X+XC.V.).'.-X;X:X2X2X2X<X&X+XoXW.Y.Y.uXtXqXrXlXM J R Y T I S i e 8 2 o .     X o 1 0 e V S Y T Y L J nXz rXqXtXW.@X#X$X<X<X2X2X2X>X:X-X*X'.'.V.m.g.p.r.<.>.&.&.~ ~ ~ Q Q ^ ^ ^ ) { { o.O.O.~.~.~.~.~.O.O.} { { ) ^ ^ ^ Q Q ~ ~ ~ &.<._._.}.-X;X:X>X>X2X2X2X2X2X<X<X&X&X%X%X@X@XoXUXT I S i r 7 1 o .   . . o 3 0 t Z D Y T R L H n hXqXpXyXyXT.W.!.oX&X<X2X2X>X:X-X*X'.).V.m.p.w.<.>.&.&.~ ! Q Q ^ >.$X<X>X>X}.).m.t.w.>.&.&.%.%.~ ` ~ ` ` &.&.>.>.*.` ` ` ! ! Q Q ^ ^ ) ) { { o.O.O.~.~.~.~.~.~.O.o.} { ) ) ^ ^ ^ / Q Q ~ ~ ~ &.% r D Y P lXwXtXBXR.W.oX@X&X<X<X<X2X<X2X<X<X<X@X%X:X-X-X`.Z.V.p.t.<.<.&.&.&.~ ! Q ^ ^ ^ { } O.~.~.~.^.^.o.o.[ ) ^ ^ / Q ~ ~ %.>.<.<.r.p.M.Z.'.}.-X>X>X2X<X<X+XoX!.T.Y.yXtX8XrXn DX@X@XoXoX!.!.W.R.BXBXuXtXpXeXeX0XeX0XeXhX0X0X0X0X0X1.&.` ~ ~ ~ Q Q / ^ ^ ^ ) ) { } o.o.O.~.~.~.~.~.~.~.O.o.o.{ [ ) ) ^ ^ ^ / Q ! ! ",
"2X2X<X@X@XW.W.Y.BXuXpXqX0Xm M K R T T I S y w 7 1 o . , oX!.W.!.W.W.R.R.W.R.R.R.T.T.G.R.Y.T.T.T.1.&.~ ~ ! ! / ^ ^ ) ) { } o.O.~.~.~.~.~.O.o.o.[ [ ) ^ ^ ^ / Q ~ ~ &.] @.@.} { ^ ^ Q ~ &.>.<.r.m.Z.}.-X:X2X2X<X+XL.)._.}.-X:X>X2X2X2X&X$XoXW.R.Y.yXtXpX9XkXm J L E T Y D V t 0 2 < X       o 1 4 w i Z I Y T R K M vXhXqXtXyXW.@X&X$X<X2X2X2X>X>X;X-X'._.).V.m.p.r.w.>.&.&.&.~ ~ ! Q Q Q ^ ^ ) { { o.o.~.~.~.~.~.~.O.O.} { { ) ^ ^ ^ ^ Q ! ~ ~ &.<.}.}.-X-X;X>X>X>X2X2X2X2X<X<X<X&X&X+X%XoX@XoXUXY D V r 0 3 O . .   . O 1 8 r i S Y T E L J m lXrXqXuXyXBXT.!.+X@X<X<X2X2X>X:X-X'.).V.m.p.t.w.>.&.&.~ ~ ! Q / ^  .$X<X>X>X}.Z.m.p.w.>.>.&.&.%.` %.` %.&.&.*.>.w.*.` ` ` ( ! Q Q ^ ^ ) ) { { o.o.~.~.~.~.~.~.O.O.o.} { [ ) ^ ^ ^ ^ / Q ~ ~ &.&.* i Y U J hXqXiXG.T.!.+X@X$X<X<X<X2X<X2X<X<X<X@X%X;X X'.).B.m.p.r.<.>.&.~ ~ ~ Q / ^ ) ) } } O.~.~.~.^.^.o.[ [ ^ ^ ^ Q ! ~ %.&.>.<.r.p.m.V._.}.-X:X>X2X2X<X$X@XW.W.Y.yXuXqX0XlXM GXXXoX@X!.!.W.W.R.BXBXuXuXpXpXpXrXpXeX8XrXqXpXqXpXqX4X&.` ~ ~ ~ Q ! Q / ^ ^ ) ) { { o.o.O.~.O.~.~.~.~.O.~.o.o.} [ ) ) ^ ^ ^ ^ / Q ",
"2X<X<X&X+X!.W.T.BXyXtXqXhXlXM J R E T I S B r 7 3 o .   G.!.!.W.!.W.!.W.W.R.R.W.R.R.R.R.R.R.R.T.R.<.&.~ ~ ! Q / ^ ^ ^ { { } O.O.~.~.~.~.O.~.o.} { ) ) ^ ^ / Q ! ~ ~ &.] @.o.} ) ^ ^ Q ~ &.>.w.p.M.).}.;X>X2X<X$X{.V._.}.-X:X>X2X2X<X<X@X+XW.W.Y.G.uXpXqXhXn H K R T Y I Z y q 4 1 X     . X 1 4 q y C I Y T E K H m hX9XtXuXyX!.+X#X<X<X2X2X2X>X:X-X-X'._.V.m.p.r.r.>.>.&.&.&.~ ~ ! Q Q ^ ^ ^ [ { { o.O.O.~.~.~.O.~.O.o.} { ) [ ^ ^ ^ Q Q ~ ~ ~ &.C.}.-X;X;X>X>X2X2X2X2X<X2X<X<X$X$X%X@X%XoXoXGXY I Z y q 3 1 .     . o 1 7 w i S I T Y R P M lX0XqXtXyXBXW.W.oX+X$X<X2X2X>X:X-X*X_.).m.g.t.w.>.>.&.&.~ ! Q / ^ ) q.$X<X>X;X}.).m.p.w.,.>.&.&.&.%.&.%.&.&.*.*.w.r.>.` ` ` ! ! Q Q ^ ^ ^ ) { { o.O.O.~.O.~.~.~.~.O.o.o.{ ) ) ^ ^ ^ / Q Q ~ ~ ~ &.> V Y L H 9XpXyXT.W.oX@X&X&X<X2X<X2X<X<X2X<X&X%X%X X}._.Z.M.p.r.<.>.&.&.~ ! Q / ^ ^ ) { o.O.^.~.~.^.O.o.} ) ) ^ / Q ! ~ %.%.>.<.r.p.m.V.).}.*X:X>X2X2X<X$X@XoXW.T.yXuXtX9XlXM J LX@X!.+X!.!.W.W.R.G.iXuXuXpXtXpXpXpXpXpXpXpXpXpXuXuXx.&.%.~ ~ ~ ! Q / / ^ ^ ^ ) { { } o.O.~.~.~.~.~.~.~.O.O.o.} { [ ) ) ^ ^ ^ / ",
"2X2X<X<X@XoXW.R.Y.uXuXpX8XkXm J L Y W Y D V y 0 3 o o .   oX!.!.W.W.W.W.W.!.R.R.W.W.W.W.W.W.W.W.W.D.&.` ~ ~ ! ! / ^ ^ ) { { o.o.~.O.~.~.~.O.O.o.[ [ ) ) ^ ^ ^ Q Q ~ ~ &.+.@.} { ^ ^ Q ~ ` &.<.r.p.V._.-X;X>X2X<X$X!.).}.}.;X>X>X2X2X<X&X@X!.W.T.BXuXtXqXhXlXM K R E Y I S i e 7 1 o .     . o 2 0 e V S U Y T R H M lXrXqXiXyXY.!.#X&X$X<X2X2X2X>X:X-X}._.).V.m.p.w.<.>.&.&.&.` ~ ~ ! Q Q ^ ^ ^ [ { } o.o.~.~.~.~.~.O.~.o.} [ ) ) ^ ^ ^ / Q ~ ~ %.&.Z.OX;X;X:X>X2X2X2X2X2X<X<X<X<X&X$X%XoX%XoXoXGXI S i w 7 1 O .     . < 3 0 y Z D Y T R K H n hXwXpXyXG.BXW.!.@X&X<X<X2X>X>X;X}.'.).V.m.t.r.>.>.&.~ ~ ~ Q Q / ^ ) X.$X<X2X:X}.Z.m.p.r.<.,.>.&.&.&.&.&.&.>.>.,.w.p.>.` ` ` ! ! Q Q ^ ^ ) ) { { } o.~.~.~.~.~.O.~.O.o.} } [ ) ^ ^ ^ ^ / Q ! ~ ` &.6.S T K M wXtXyXT.W.+X@X$X<X<X2X2X2X2X<X2X2X<X%X@X X`.Z.M.p.p.<.>.&.&.` ~ ! Q / ^ ) ) } O.~.O.~.~.^.O.} [ ) ^ ^ / Q ~ ~ >.%.<.5.r.m.M.)._.-X-X>X2X2X<X<X+XoXW.R.Y.yXpXqXhXm J L UX@X!.@X!.!.W.W.T.G.BXyXuXuXuXuXuXtXuXuXuXuXuXuXuXyXyX3.%.~ ~ ~ ! ! Q / / ^ ) ) { { } o.o.O.~.~.~.~.~.~.O.O.O.} { [ ) ) ^ ^ ^ ",
"2X2X<X&X@X+XW.T.Y.BXuXpXrXkXn H K R Y T I Z u q 7 1 o .   & oX!.!.!.!.!.W.W.W.!.W.W.W.W.W.W.W.!.W.W.D.&.` ~ ! ! / / ^ ^ ) { } o.O.~.~.~.~.~.O.O.o.} [ ) ^ ^ ^ / Q ~ ~ %.&.+.@.} { ^ Q Q ~ &.&.<.p.m.Z._.-X:X2X2X<X#XXX_.=X;X:X2X2X2X<X$X#XoXW.T.Y.yXtXqXrXlXm J L E T Y D V r 0 3 O X     . o 1 7 w i S I Y T L K M lXhXqX5XyXY.T.@X+X<X<X<X2X2X>X:X;X*X}.).V.m.p.t.w.<.&.&.~ &.&.~ ~ ! Q Q ^ ^ ) ) { } o.O.~.~.~.~.~.O.O.o.} { ) ) ^ ^ / Q Q ~ ~ ~ &.Z.;X:X>X>X2X2X2X2X2X2X<X<X$X$X%X%X%X%XoX@XoXGXS N t 8 2 O .     . O 1 0 r V S Y T E L J m hXwXtXuXyXT.T.!.+X+X<X2X2X2X:X;X-X'.).V.m.p.r.w.>.&.&.` ~ Q Q ^ ^ ) ) e.#X2X>X;X}.).V.p.r.w.q.*.>.&.*.*.&.*.>.>.w.r.p.>.&.` ~ ! ! Q Q ^ ^ ^ ) { { o.o.O.~.~.~.~.~.~.O.O.} { [ [ ^ ^ ^ / Q Q ~ ~ ~ &.7.D Y J lXqXiXBXW.!.oX&X<X<X2X2X2X2X2X2X2X2X<X&X@X].).M.m.r.r.<.>.&.~ ~ Q Q / ^ ) { } o.O.~.~.~.^.O.} } ) ^ ^ / Q ~ ~ ~ >.>.<.r.p.m.Z._.}.-X:X>X2X2X<X%X+XW.T.Y.yXtXqXhXlXH K R UXGX@X!.!.!.W.W.Y.Y.BXBXyXyXuXuXyXuXyXyXuXyXyXBXBXY.Y.5.&.%.~ ~ ! ! Q / ^ ^ ^ ) ) { { o.O.O.O.~.~.~.~.~.~.O.o.o.} { ) ) ^ ^ ",
"2X2X2X<X&XoXoXW.Y.BXuXpXqX0XlXM K R E Y I S i r 7 2 o X     , oX!.!.!.!.!.R.!.W.W.!.W.!.W.W.!.W.!.!.W.n.&.~ ~ ! ! / / ^ ^ ) { } o.O.~.~.~.~.~.O.o.o.[ [ ) ^ ^ ^ / Q ~ ~ ~ &.@.o.{ ) ^ Q ! ` >.>.<.p.M.).}.-X:X2X2X<X#X].}.-X;X>X2X2X<X<X@X@XW.R.Y.BXuXpX8XkXm H K E Y T D C y q 4 < X .     X < 7 q u Z D Y T E K H n hXrXtXuXyXT.W.+X@X$X<X2X2X2X>X:X-X}.'.).V.g.t.r.<.>.&.` ` &.` ~ ~ ! Q Q ^ ^ ) ) { } o.O.~.~.~.~.~.~.O.o.{ { ) ) ^ ^ ^ Q Q ! ~ &.&._.;X>X>X>X2X2X2X2X<X2X<X<X&X$X%X%XoX%XoXoXoXSXC y q 3 O . .   . o 1 7 w i S I T Y R J M lX0XqXtXyXBXT.W.!.#X$X<X2X2X2X:X-X}.'.V.m.g.r.w.<.&.&.~ ~ ! Q / ^ ^ { { s.OX<X>X:X}.).V.g.t.w.w.>.>.*.>.*.>.>.w.<.r.p.m.>.&.` ` ! ! Q Q ^ ^ ) ) { { o.o.O.~.~.~.~.~.O.O.O.} [ [ ) ) ^ ^ ^ / Q ! ~ ` &.7.Y U H hXqXyXBXW.+X@X$X<X<X2X2X2X2X2X2X2X2X2X&X@X].V.m.p.r.<.>.&.%.~ ~ Q Q ^ ^ ) { o.O.~.~.~.^.O.o.{ [ ) ^ ^ Q Q ~ %.&.>.<.r.p.m.C._.}.-X;X>X2X2X<X$X@XoXR.Y.yXuXqXrXlXM K R Y T FX@X!.!.!.W.W.T.G.Y.Y.BXBXBXyXBXyXBXBXBXBXY.Y.G.R.R.D.&.%.~ ~ ~ ! Q / / ^ ^ ) ) { { o.o.O.~.~.~.~.~.O.~.O.O.o.} { { ) ^ ",
"2X2X2X<X&X+X!.W.T.Y.yXuXpX9XlXM J L E T Y D V t 0 3 o X     . G.!.!.!.!.!.!.!.W.!.W.oXW.!.!.W.!.!.!.!.oX<.&.~ ! ! ! / ^ ^ ) ) { } o.~.O.~.~.~.~.~.o.o.[ ) ) ^ ^ / Q Q ~ ~ &.] O.} ) ^ Q Q ~ ~ >.<.r.g.M._.}.;X>X2X<X<X+X[.=X;X>X2X2X2X$X&X+X!.W.T.BXyXpXqX0XlXM K R W Y I S i w 7 2 X .     . 1 2 0 e V D Y T E L J m lXwXqXtXyXY.T.!.@X%X<X<X2X2X>X>X-X-X}._.V.m.p.t.w.>.&.&.` ~ &.` ~ ! ! Q Q ^ ^ ) ) } } o.O.~.~.~.~.~.O.O.o.} { ) ^ ^ ^ / Q ! ~ ~ %.&.].>X>X2X2X2X2X2X2X<X<X<X$X%X%X%X%X%X@XoX+XoXSXu w 7 1 o .   . . 1 3 q y Z D Y T R K H vXhX8XtXiXG.T.W.!.@X&X<X2X2X>X:X-X*X_.).V.g.p.r.>.>.>.~ ~ ! Q / ^ ^ ) { } f.#X2X2X:X}.).V.g.i.w.w.w.>.>.>.>.>.>.<.r.t.p.V.>.&.` ~ ! ! Q Q ^ ^ ^ ) { { } O.O.~.~.~.~.~.~.O.O.o.[ [ ) ) ^ ^ / Q Q ! ~ ~ %.9.Y L M rXpXG.T.W.+X%X<X<X2X2X2X2X2X2X2X2X2X<X<X@XP.M.g.r.<.<.&.&.~ ~ Q / ^ ^ ) { } O.~.~.~.~.^.o.} { ) ^ / Q Q ~ %.&.&.<.r.p.g.V.).'.-X;X>X2X2X<X<X+XoXW.T.BXuXtX8XkXm J R E Y I dX!.!.!.W.W.W.R.Y.Y.G.Y.Y.Y.Y.Y.Y.Y.Y.R.G.R.R.W.W.W.K.&.&.` ~ ! ! ! / / ^ ^ ^ ) { { } o.O.O.~.~.~.~.~.~.O.O.O.} { { ) ",
">X2X2X2X&X&XoXW.R.Y.yXuXpXrXhXm H K Y E T D C y w 4 < X .     . G.oX!.!.!.!.!.!.!.!.W.oXW.oX!.!.!.oX@XoX@X&.%.` ! ! ! / / ^ ) ) { o.o.~.~.~.~.~.O.O.o.} [ ) ) ^ ^ ^ Q Q ~ ~ &.] +.{ ) ^ Q Q ~ &.>.<.p.m.Z._.-X;X>X2X<X<X+X=X;X;X2X2X2X<X$X@XoXW.T.Y.yXuXqX0XlXM J L Y T Y S B r 8 2 O .     . o 1 7 e i S I Y T R J M lXhXqXtXyXyXT.W.oX+X&X$X<X2X2X>X:X;X}.'.).V.m.t.w.<.>.&.` ~ ` &.~ ` ! ! Q Q ^ ^ ) ) { } O.O.~.~.~.~.~.O.O.o.{ { ) ) ^ ^ ^ Q Q ~ ~ &.&.].>X2X2X2X2X2X<X<X<X<X$X$X%X%X@X@X%XoXoXoXoXCXe 8 2 O .     . O 3 8 r V D Y T E L H m hXrXpXuXyXY.W.!.oX$X$X2X2X2X>X;X-X'.).V.m.p.r.<.>.&.&.~ ~ ! Q / ^ ) [ } o./.OX<X2X:X}.'.V.m.g.w.w.w.,.,.>.,.<.w.w.t.p.m.Z.<.&.` ` ! ! Q Q / ^ ^ ) { } } o.O.~.~.~.~.~.O.O.O.o.[ [ ) ) ^ ^ ^ Q Q ! ~ ~ &.9.Y K n qXiXY.T.!.+X$X<X2X2X2X2X2X2X2X2X2X2X2X&X%XQ.g.r.r.>.>.%.~ ~ ! Q / ^ ) ) } o.~.O.~.~.~.O.} [ ) ^ ^ ^ Q ~ ~ %.>.>.<.r.g.h.Z.'.}.;X:X>X2X2X&X@X@XW.R.Y.uXtXqXhXn H L E T Y S n !.!.!.W.W.W.R.T.T.G.Y.G.R.G.R.G.R.R.R.R.W.!.W.oXoX@Xy.&.` ~ ~ ! ! / / ^ ^ ^ ) ) { } } O.O.~.~.~.~.~.~.O.O.O.} } { ",
">X2X2X<X<X@X+X!.R.Y.BXuXpX8XhXlXM K R W Y I S i w 7 2 o .     . 5 !.!.!.!.!.!.!.!.!.oXHXoXoXoXoXoX@X@X@X%XU.&.%.~ ! ! / / ^ ^ ) { { o.O.O.~.~.~.~.~.o.o.} { ) ^ ^ ^ / Q ! ~ ~ &.| } { ^ ^ Q ~ ` &.>.w.p.M.Z.}.-X;X2X2X<X&XXX-X:X>X2X2X2X$X#X!.!.T.Y.yXuXtX9XhXm H L E T Y D C y q 3 < X .   . . 1 7 w y Z I Y T R K H n hXqXtXuXBXZXW.W.+X@X$X<X<X2X2X>X;X-X}._.).m.p.t.w.>.&.&.~ Q &.&.` ~ ! ! Q ^ ^ ^ ) { { } o.~.O.~.~.~.~.~.o.o.{ { ) ^ ^ ^ / Q Q ~ ~ %.&.>X2X2X2X2X2X<X<X<X$X$X%X%X%X%X%XoX%XoXoXoXoXVX0 3 O .     . O 1 7 e N S I T E L J M lXwXqXtXyXY.T.W.+X@X<X<X2X2X>X;X-X}.).Z.M.p.r.w.>.&.&.%.~ Q Q ^ ^ ^ { { o.O./.OX2X2X:X|.'.V.m.g.i.w.w.w.w.<.<.w.w.r.p.m.B._.w.&.` ~ ! ! Q / ^ ^ ^ ) ) } } O.O.~.~.~.~.~.~.O.o.o.} [ ) ) ^ ^ ^ / Q ! ~ ~ &.9.G H lXpXyXY.W.oX%X$X<X2X2X2X2X2X2X2X2X2X2X2X<X%XE.p.r.<.>.&.&.~ ! / ^ ^ ^ { { o.O.~.~.~.~.O.o.{ { ^ ^ / Q ~ ~ %.&.>.<.r.p.m.V.).}.-X:X>X2X2X<X&X+X!.T.Y.yXuXqX0XlXM K R W Y D i l oX!.!.!.W.W.R.R.R.R.T.R.T.R.R.R.W.W.W.!.HXoXoX%X@X@XB.&.%.` ( ! ! Q / ^ ^ ^ ) ) { } } o.O.~.~.~.~.~.~.~.O.O.o.} ",
":X>X2X2X<X&X@XoXW.T.Y.uXuXpX0XlXM J L Y T Y D V r 0 3 o X .   . o 6 !.oX!.!.oXoX!.oXoXoXoXoX@X@X@X@X@X%X@X%XE.%.%.! ! ! ! / ^ ^ ) { { o.O.~.~.~.~.~.~.O.o.[ [ ) ) ^ ^ / Q ! ~ ~ &...{ ) ^ Q ! ~ &.>.<.r.p.V._.}.;X>X2X2X<X&X+X;X>X>X2X<X<X&X@X!.W.Y.BXuXpXqXhXlXH K R Y T I Z u w 7 1 X .     X < 2 0 y V D U T E L J m hX0XqXuXyXG.T.!.!.+X%X&X<X2X2X2X:X:X-X'.).V.m.t.r.>.>.&.` ~ Q &.` ` ~ ! Q Q Q ^ ^ ) { { } o.~.~.~.~.~.~.O.O.o.{ [ ) ) ^ ^ ^ Q Q ~ ~ &.5.2X2X2X<X2X<X<X<X$X$X%X%X%X@X%X@XoX+XoXoXoXoXY.4 1 . .     o 1 4 q y Z I Y T R P H lXhXqXpXyXBXT.W.!.+X&X<X2X2X2X:X;X}.'.Z.M.p.p.w.<.>.&.~ ~ ! Q Q ^ ^ ) { } O.~./.OX2X2X:X=X'.Z.B.g.i.t.w.w.w.w.w.r.r.p.p.h.Z.`.m.` ` ~ ~ ! ! / / ^ ^ ) ) { } o.O.~.~.~.~.~.~.O.O.o.[ [ [ ) ^ ^ ^ ^ Q ! ~ ~ &.&.b M hXtXyXT.!.+X&X<X<X2X2X2X>X2X>X2X2X2X2X2X<X&XE.r.<.>.>.~ ~ ~ ! / ^ ^ ) { } O.~.~.~.O.O.o.} ) ) ^ ^ / Q ~ %.&.>.<.r.p.m.V.).}.}.:X>X2X2X<X$X@XoXW.Y.BXuXpX8XlXM J R Y T I C y 8 BX!.!.W.!.W.W.W.R.W.R.W.W.W.W.W.W.oXW.oXoX+X@X&X&X<X[.&.%.` ` ! ! ! Q / ^ ^ ) ) ) } } o.o.~.~.~.~.~.~.~.O.O.o.",
":X2X2X2X<X&X$XoX!.T.Y.yXuXpX0XkXm H L E T Y D V y q 3 1 X .   . . 1 BX!.oXoXoXoXoXoXoX@XoX@X@X@X@X%X@X%X%X%X&Xy.%.%.! ! / / / ^ ) ) { } o.O.~.~.~.~.~.O.O.o.{ ) ) ^ ^ / / Q ~ ~ ~ &.| { ^ ^ Q ! ~ &.>.<.p.m.Z.'.=X;X>X2X2X$X#X#X:X2X2X2X<X#X#X!.W.T.Y.uXuXqX0XlXM J L E T Y S B r 8 2 o .     . o 1 7 e i S Y T Y R J M lXhXqXtXyXY.T.W.oX@X@X+X<X<X2X2X2X:X-X*X_.Z.V.g.r.w.>.&.` ~ ! Q ` &.` ~ ! ! Q ^ ^ ^ ) { { o.O.O.~.~.~.~.~.~.o.} } [ ) ^ ^ ^ / Q Q ~ ~ &.r.2X2X2X2X<X<X$X$X%X%X%X@X%X+XoX+XoXoXoXoXoX!.BX1 O .   . . O 3 0 t V D Y W E L H n hXrXtXyXBXBXW.!.+X#X<X2X2X>X:X-X-X'.).V.m.p.r.<.>.&.&.~ ~ Q / ^ ^ ) { } o.~.~./.OX2X2X:X-X'.).B.m.p.i.t.r.r.w.r.t.t.g.m.V.).}.).&.&.~ ! ! ! / ^ ^ ^ ) { { } o.O.O.~.~.~.~.~.O.O.o.} [ ) ) ^ ^ ^ / Q Q ~ ~ ~ &.v n rXtXY.R.oX+X$X<X2X2X2X2X>X2X>X>X2X2X2X2X<X$XE.a.<.&.&.` ~ ! / / ^ ) { } o.~.~.~.~.~.O.} { ) ^ / Q Q ~ ~ &.&.>.w.t.g.V.)._.-X;X:X2X2X<X<X+XoXW.T.BXuXpXrXhXm J L E T I Z y w 3 G.!.oXW.!.W.W.W.W.W.W.W.!.W.W.oXW.oX@X@X@X%X&X<X<X2X|.t.` ` ` ~ Q Q Q / ^ ^ ^ ) ) { } o.O.O.~.~.~.~.~.~.~.O.",
";X>X2X2X2X<X@X@XW.W.T.BXuXpXqX0Xm M K R W T I S u w 7 1 o .     . o 3 BX!.oXoXHX+XoXoXoX@X@X@X@X%X@X%X%X&X%X%X<Xy.%.%.~ ! ! / / ^ ) ) { } o.O.~.~.~.~.~.O.o.o.{ [ ) ^ ^ ^ / Q ~ ~ &.` { ) ^ Q ! ~ &.&.<.5.p.M.Z.'.-X;X>X2X2X<X@X,X>X2X2X<X<X@XoXW.R.Y.yXuXpX9XkXm H L E Y Y D V y 0 3 < X .     o 1 7 w y Z I Y T R K H lXhXwXtXtXY.Y.W.!.+X&XoX@X<X<X2X2X>X:X-X}.).V.m.p.r.<.>.&.~ ~ Q Q ` ` ` ~ ! Q Q Q ^ ^ ) { { } O.O.~.~.~.~.O.~.o.} } ) ) ) ^ ^ ^ Q ! ~ ~ &.r.2X<X<X<X<X$X$X%X%X%X%XoX%XoXoXoXoXoXoXoXoXoX4XO . .     o 1 8 e N S Y Y E L J M kX9XqXtXyXG.T.!.!.#X$X<X2X2X>X:X-X'._.Z.M.p.r.w.>.&.&.~ ~ ! Q / ^ ) [ { o.O.~.~./.OX2X2X>X-X}._.V.m.g.i.i.r.t.r.t.p.p.m.M.Z._.-X_.&.` ~ ~ ! ! / / ^ ^ ) ) } } o.O.~.~.~.~.~.~.O.O.o.{ [ [ ) ^ ^ ^ ^ Q Q ! ~ &.&.z lXqXyXY.W.+X%X<X<X2X2X>X>X>X>X>X>X>X>X2X2X<X<X@Xu.>.&.~ ~ ! ! / ^ ^ { { o.O.~.~.~.~.O.o.[ { ^ ^ ^ Q ! ~ %.>.>.<.r.p.m.Z._.}.-X:X>X2X2X<X&XoXW.W.Y.yXuX8X0XlXH K E Y Y D i e 4 1 5 oX!.!.W.!.W.!.W.W.!.W.!.W.oXoX+X@X%X%X&X&X<X<X2X2X2Xt.' ` ` ` Q Q ! Q / ^ ^ ) ) { } } O.O.~.~.~.~.~.~.~.",
":X>X2X2X2X<X&X+XoXW.Y.Y.uXtXqXhXlXM J R E Y Y S B r 8 3 O .     . o 1 7 oXoXoX+XoXoX@X@X@X@X@X%X@X%X%X%X%X%X<X<X<X&.%.` ! ! Q / ^ ^ ) { { } O.O.~.~.~.~.O.~.o.} [ ) ) ^ ^ / Q ! ~ ~ &.] ) ^ ^ Q ~ ~ &.>.<.t.g.M._.}.-X:X2X2X<X$X+X,X2X2X<X<X#X@X!.R.Y.BXuXpXqXhXlXH K R T Y I S y w 7 1 X .   . . 1 2 0 y Z D Y T E L H M hXqXqXyXyXY.T.W.+X@X&X@X&X&X2X2X2X:X;X-X'.).V.m.t.w.>.&.&.~ Q Q / >.` ~ ! ! Q Q ^ ^ ) ) { } o.O.O.~.~.~.~.~.O.O.} } ) ) ^ ^ ^ Q Q ! ~ ~ &.r.<X<X<X$X$X%X%X%X%X@X+X+XoXoXoXoX!.oX!.!.oXoX; o       o 1 7 q i Z I Y W R P H lX0XqXtXyXY.T.W.!.@X<X<X2X2X>X:X-X*X_.Z.h.g.t.w.>.>.&.%.~ ! Q ^ ^ ^ [ { } O.~.~.^./.OX<X2X>X-X}.).).m.m.p.p.t.p.t.p.p.m.M.Z._.}.;X_.&.` ` ! ! ! Q ^ ^ ^ ) ) { } o.o.~.~.~.~.~.~.~.O.o.} [ [ ) ^ ^ ^ / Q ! ~ ~ ~ &.9XkXtXyXY.!.+X<X<X2X2X2X>X>X>X:X>X>X>X>X2X2X<X&X+Xu.&.&.~ ! / / ^ ) ) { o.O.~.~.~.O.~.o.} ) ^ ^ / Q ~ ~ %.&.>.<.r.t.m.V.).}.-X:X>X2X2X<X&X+X!.R.Y.yXuXpX0XlXM K R T Y D V r 0 1 O & oXW.oXW.oXW.oX!.W.!.!.oXoX@X@X@X@X%X&X<X<X2X2X2X2X2X'.&.` ` ` ! ! Q / / ^ ^ ) ) { { } o.O.O.~.~.~.~.~.",
"-X:X>X2X2X<X$X@XoXW.R.Y.yXuXpX8XkXm H L Y T Y D C t 0 3 O X .     X 1 7 s oXoXoXoXoX@X@X@X@X@X%X%X%X%X&X&X<X<X<X<X{.' %.~ ! ! ! / / ^ ) { { } O.O.~.~.~.~.O.O.o.} [ ) ) ^ ^ ^ Q Q ~ ~ &.&.) ^ Q Q ~ &.&.<.<.p.m.Z._.-X-X>X2X2X<X$X@X<X2X2X<X&X@XoXW.T.Y.uXtXqX0XlXM J R E T I S B r 7 2 O .     . o 2 0 e i S U Y T L J M lX0XqXtXyXBXT.W.!.+X$X$X+X&X<X<X2X2X:X-X}._.Z.m.g.r.<.>.&.~ ~ Q Q ^ >.` ` ~ ! Q Q ^ ^ ^ ) { { o.O.~.~.~.~.O.~.O.O.} } ) ) ^ ^ ^ ^ Q ! ~ ~ &.r.<X$X&X%X%X%X%XoX+XoXoXoXoXoX!.!.!.!.!.!.!.+X- .     . O 3 q t C D Y Y E P H vXhXwXtXuXBXY.W.!.+X@X<X2X2X2X:X;X*X'.).V.m.t.r.<.>.&.%.~ ~ Q Q / ^ ) { } o.~.O.~.~./.OX1X2X>X;X*X).).M.m.m.p.p.p.p.p.m.m.V.).'.=X;X}.&.` ~ ~ ! ! Q ^ ^ ^ ) ) { } o.o.~.O.~.~.~.~.O.O.o.} [ [ ) ^ ^ ^ ^ Q Q ~ ~ ~ &.l.0XuXY.T.oX+X<X<X2X2X2X>X:X>X;X>X>X>X>X2X2X2X&X%Xy.&.~ ~ ! / / ^ ) { } O.~.~.~.~.O.O.} { ) ^ ^ / Q ~ ~ &.>.>.r.p.m.V.).'.-X;X>X>X2X<X<X@XoXW.T.BXuXpXqXkXm J L T T I C y 0 3 O .   G.W.oXW.oXW.oXoXHXoXoX+X@X@X$X%X&X$X<X<X2X2X2X2X>X>X'.&.` ` ` ^ ! ! Q / ^ ^ ^ ) { { } o.O.O.~.~.~.~.",
"-X:X>X2X2X<X<X@X+XW.R.Y.BXuXpXeXhXm H L R E T I Z u w 7 1 o .   . X o 3 8 j oXoXoX@XoX@X@X@X%X@X%X%X&X%X<X<X<X<X2X2X{.%.%.~ ! ! Q ^ ^ ^ ) { } o.O.~.~.~.~.~.~.O.o.} [ ) ^ ^ ^ / Q ! ~ ~ %._ ^ ^ ! ! ~ &.&.<.r.g.M.Z._.-X;X>X2X2X<X%X#X2X2X<X$X+XoX!.T.Y.yXuXpX0XkXm J L E T Y D V t 0 3 o X     . o 1 7 w u S I Y T R P M vXhXqX5XuXY.T.W.!.oX$X<X<X+X$X<X2X2X>X:X-X}._.Z.g.p.r.>.&.&.~ ! Q ^ ^ &.` ` Q ~ Q Q ^ ^ ) ) { } o.O.O.~.~.~.~.~.O.o.} { [ ) ^ ^ ^ / Q ~ ~ ~ &.5.$X&X%X%X%XoX+XoXoXoX!.!.oX!.!.!.!.!.!.!.!.!.=     . O 1 7 r N S Y T E L J m lXwXqXuXyXT.T.!.oX&X<X<X2X2X>X-X-X}._.V.m.p.r.<.>.>.&.~ ~ Q / ^ ^ [ ) } o.O.~.~.~.^./.OX2X2X>X;X*X'.).V.M.m.g.g.g.p.m.m.V.Z._.}.;X:X}.&.%.` ! ! Q Q / ^ ^ ) ) { } o.O.~.~.~.~.~.~.~.O.o.} [ [ ) ^ ^ ^ / Q Q ~ ~ ~ &.:.pXuXY.W.+X$X<X2X2X>X>X>X;X;X;X;X:X>X>X>X2X2X<X%Xn.` ~ ! / / ^ ) ) } o.O.~.~.~.~.O.} { ) ^ ^ Q Q ! &.~ >.>.w.r.p.m.)._.*X-X:X2X2X2X<X+XoX!.T.Y.yXpXrXhXn H L E T I S i w 4 < .     G.!.oXW.oXoXW.oXoXoX@X@X@X@X&X%X<X<X<X2X2X2X2X>X:X;X-Xw.` ` ` ` Q ! Q Q ^ ^ ^ ) ) { } } O.O.O.~.~.",
"-X-X>X2X2X2X<X&X@XoXW.Y.Y.uXpXpX0XlXM J R Y T I S B r 7 3 o .     . o 1 7 e iXoXoXoX+X@X@X@X%X%X%X%X%X<X%X<X<X2X<X2X2Xp.' %.! ! ! Q ^ ^ ^ ) { } o.O.~.~.~.~.~.O.O.o.[ [ ) ^ ^ ^ / Q ! ~ &.&.^ ^ ^ ! ~ ~ >.>.<.t.g.Z._.}.-X;X>X2X2X<X@X#X2X<X<X#X@XW.W.T.yXuXpXqXhXn H P R W Y I C y w 4 1 X .     . 1 2 w y V I U T Y L H vXhXrXpXuXyXY.T.!.+X@X<X<X<X+X<X<X2X2X>X:X-X_.).h.g.r.w.>.&.` ~ Q Q ^ _ &.` ` Q ! Q Q ^ ^ ) ) { } o.O.~.~.~.~.O.~.O.o.} [ [ ) ^ ^ ^ / Q ! ~ ~ &.5.+X%X%XoX+XoXoXoX!.!.!..XW.!.!..XW.!.W.!.!.oX=     o 1 7 w u S I T Y R P M lX0XqXtXyXBXT.W.!.+X&X<X2X2X2X:X-X}._.).m.g.t.w.>.] &.~ ~ ~ Q / ^ ^ [ { o.O.~.~.~.~.O.d.{.<X2X>X:X-X'.).V.V.M.m.m.m.m.M.M.Z.).}.}.;X>X}.&.` ` ` ! Q Q / ^ ^ ) ) { } o.o.~.~.~.~.~.~.~.O.o.} [ [ ) ) ^ ^ ^ / Q ~ ~ ~ &.:.pXBXY.!.+X$X2X2X2X>X>X:X;X;X;X;X;X:X>X>X2X2X<X&XK.~ ! ! / ^ ^ { { o.O.~.~.~.~.O.o.} ) ) ^ / Q ! ~ &.&.>.<.r.p.m.V._.}.-X;X>X2X2X<X$X@XW.W.Y.BXuX8XrXlXH K R T Y D B e 7 1 O     . 5 oXoXoXoXoXoXoX@X@X@X#X%X%X<X$X<X2X2X2X2X2X>X>X;X-X}.p.&.` ` ` Q ! Q Q ^ ^ ^ ) ) { { } o.O.~.~.",
"-X;X:X>X2X2X<X&X+XoXW.T.Y.uXuXpX0XkXm J L E T Y D V y 0 3 < X     . X < 7 w y FX+XoX@X@X@X%X@X%X%X%X<X%X<X<X2X<X<X2X2X2Xt.` ` ! ! Q Q ^ ^ ) ) { } o.O.~.~.~.~.~.O.o.o.{ [ ) ^ ^ / Q ! ~ ~ ~ &.^ / Q ~ ~ %.>.<.r.p.m.Z._.-X;X>X2X2X<X<X#X@X2X<X$X@X!.W.Y.Y.yXtXqX0XlXM P R Y T I S i r 7 2 X .     X o 2 0 e V S Y T E L J M lXwXqXtXyXY.T.W.oX+X$X<X<X%X@X<X<X2X2X>X-X-X_.).m.p.r.<.&.&.~ ~ Q ^ ^ _ &.` ~ ~ Q Q Q ^ ^ ) ) { } o.O.~.~.~.~.~.~.O.o.} [ [ ) ^ ^ ^ / Q ~ ~ ~ &.E.@X+XoXoXoX!.oX.XW.!.W.!.!.!.W.!.!.!.W.!..X!.=   . < 3 q y V I Y T R K H n hXqXtXtXG.Y.W.!.+X&X<X2X2X>X:X;X}.'.).V.m.t.r.>.>.&.&.~ Q Q / ^ ^ [ { } o.~.~.~.~.~.O.s.%X1X2X2X-X-X}._.).V.M.M.M.M.m.V.Z.).'.}.-X:X2X}.*.` ` ~ ! ! / / ^ ^ ) ) { { o.O.O.~.~.~.~.O.~.O.o.o.[ [ ) ) ^ ^ / Q Q ! ~ ~ %.2.tXY.W.oX$X<X2X2X>X>X:X;X-X-X-X-X;X:X:X>X2X2X<X&XK.! ! / ^ ) ) { } O.~.^.~.~.O.o.} ) ) ^ / Q ! ~ ~ &.&.<.r.p.m.V.).'.-X:X>X2X2X<X$X+XoXW.T.yXuXiX9XkXM J R Y Y I C t 0 3 X .   . . 6 oX!.oXoXoXoX@X@X@X%X%X&X#X<X<X<X2X2X2X>X>X:X-X-X}.'.m.&.` ` ` ! ! Q Q Q ^ ^ ^ ) { { } o.O.O.",
"}.-X:X>X2X2X2X&X@X@XW.W.Y.BXuXpX8XkXm H K R W Y I Z y w 4 1 o .     X < 2 0 y z HX+XoX@X@X@X%X%X%X%X%X<X<X<X<X2X2X<X2X2X2X*.%.` ! ! Q Q ^ ^ ) ) { o.o.O.~.~.~.~.~.O.O.} [ [ ) ^ ^ ^ / Q ~ ~ &.` ^ Q Q ~ %.&.>.<.r.g.M._._.-X;X>X2X2X<X<X+X<X<X$X#XoXW.R.Y.yXuXqX0XkXM H L E T Y D V r 0 2 < X       o 1 4 w i Z I Y T R P M vXhXqXtXyXBXT.T.!.+X%X<X2X2X#X@X<X<X2X2X>X-X}._.V.m.t.w.>.&.%.~ Q Q ^ ) _ &.` ~ ~ Q Q Q ^ ^ ) ) { } o.O.~.~.~.~.O.~.o.o.{ [ [ ) ^ ^ ^ / Q ~ ~ ~ &.K.oXoXoXW.!.!.W.!.W.W.W.W.W.W.W.W.!.!.!.W.!.!.= . O 1 8 r V S Y T E L J m lXwXqXuXyXY.W.!.!.$X$X2X2X2X>X;X-X'.).V.m.g.r.w.>.&.&.` ~ Q Q / ^ ^ [ } o.O.~.~.~.O.O.o.X.OX1X2X2X:X-X}._._.Z.V.M.V.V.V.V.)._.}.-X;X>X2X|.&.` ` ~ ! ! ! / / ^ ^ ) { } } O.O.~.~.~.~.~.O.O.O.} [ [ ) ^ ^ ^ ^ / Q ! ~ ~ &.2.uXY.W.+X$X<X2X2X>X:X;X-X-X-X=X-X-X;X:X>X>X2X2X&XK.,./ / ^ ) { } o.~.~.~.^.^.O.} { ) ^ ^ / Q ~ ~ &.>.>.w.r.m.m.).'.}.;X:X>X2X<X<X@XoXW.R.Y.uX5XrXhXm H L T T I S u q 3 < X     . < 3 iX+XoXoXoX@X@X@X#X%X&X<X<X<X2X2X2X2X2X>X:X;X-X}._.).V.>.&.` ` ! ! Q Q Q ^ ^ ^ ) ) { } } o.",
"'.-X:X>X2X2X<X<X%X+X!.W.Y.BXuXpXqX0XlXM K R Y T I S i e 8 2 o .     . o 2 7 w V n !.@X@X@X%X@X#X%X%X<X&X<X<X<X2X<X2X2X2X2X*X' ` ~ ! ! Q / ^ ^ ) { { } O.O.~.~.~.~.~.O.o.} [ ) ) ^ ^ / Q Q ~ ~ &.` / Q ! ~ %.>.>.r.p.m.V._.}.-X>X>X2X2X<X$X@X$X<X@X+XW.R.Y.yXuXpXqXkXlXH K R T Y I C y q 4 1 X .   . X 1 4 q y Z I Y T E L H n hXrX5XyXyXY.W.!.oX&X<X<X2X2X#X#X<X2X2X>X:X-X'.).V.g.t.<.>.&.~ ! Q ^ ^ [ ' &.` ~ ~ Q Q Q ^ ^ ) ) } } o.O.~.~.~.~.~.~.O.o.} [ [ ^ ^ ^ / Q Q ! ~ %.%.D.oXW.!.W.W.W.W.W.W.W.W.W.W.W.W.W.W.W.!.!.!.!.= o 1 7 w i S I T E R J M lX0XqXtXyXY.T.W.oX+X<X<X2X2X>X:X-X}._.Z.m.p.t.w.<.&.&.~ ~ ! Q ^ ^ ) { { o.O.~.~.~.~.~.o.} [ _.1X2X2X:X;X-X_._.Z.Z.Z.V.V.Z.)._.'.*X-X:X2X2X[.5.%.` ~ ! ! / / ^ ^ ) ) { { o.o.O.~.~.~.~.~.~.O.o.o.[ [ ) ) ^ ^ ^ / Q ! ~ ~ %.&.v.R.W.$X<X2X2X>X:X;X-X-X=X=X}.}.-X;X;X>X>X2X2X<X@X,.^ ^ ^ ) } o.O.~.~.~.~.O.o.{ ) ^ ^ Q Q ~ ~ &.&.>.<.r.p.V.V._.}.-X:X2X2X2X<X&X+XW.T.Y.yXtXqXhXlXH K R T Y S i e 7 1 X .   . O 1 0 iXoX@X@X@X@X%X@X%X%X&X<X<X<X2X2X2X2X>X:X-X-X}.'.).V.m.>.&.` ` ~ ! ! Q Q ^ ^ ^ ) ) ) } } ",
"'.-X-X:X>X2X2X<X&X@XoXW.T.Y.yXuXqX0XlXM J L E T Y D V t 0 3 o X     . o 1 7 w y S xX!.@X@X@X%X@X#X&X&X<X<X<X2X<X2X2X2X2X2X2X}.' ` ` ! Q Q / ^ ^ ) { } o.O.O.~.~.~.~.O.O.o.} [ ) ) ^ ^ ^ Q ! ~ ~ &.&.Q ! ~ ~ &.>.<.r.p.M.Z.'.}.-X:X>X2X2X<X%X@X$X&XoXoXW.T.BXuXtXqX0Xn M K R E T I S i e 7 1 o .     . o 2 0 e V S U T Y L J M lXrXqXtXyXG.T.W.oX+X&X<X2X2X2X#X#X<X<X2X>X:X-X_.).m.p.r.>.] %.~ Q Q ^ ) { ] &.~ ~ ~ Q Q ^ ^ ^ ) ) { } O.O.~.~.~.~.~.O.O.o.[ [ [ ) ^ ^ ^ / Q ! ~ %.&.D.W.W.W.W.R.T.W.T.T.T.T.W.W.W.W.W.W.W.W.!.!.!.= < 3 q y Z D Y T R K H lXhXqXtXuXY.Y.W.!.@X$X<X2X2X2X:X-X*X'.).V.g.t.r.<.>.&.&.~ Q ! Q / ^ ) { } O.O.~.~.~.O.O.} [ ) Z.,X<X2X>X;X-X}._.).Z.).Z.Z.)._.'.}.-X;X>X>X2X<Xy.` ~ ~ ~ ! ! / ^ ^ ) ) { { o.o.O.~.~.~.~.~.O.^.O.o.} [ ) ) ^ ^ ^ / Q ! ~ ~ &.&.v.W.oX$X<X2X2X>X;X-X-X}.}.}.}.}.}.-X-X:X>X2X2X<X%X>.^ ) ) { } O.~.~.~.^.~.o.} ) ) ^ ^ Q Q ~ %.&.>.<.r.r.m.V.).}.-X-X>X2X2X<X&X@X!.W.Y.BXuXqX0XlXM K R T Y I V r 8 2 X .     X 1 7 e z W.oX@X@X@X%X#X%X&X<X<X<X2X2X2X2X2X:X;X-X*X_.).V.m.g.w.&.` ` ` ! ! ! Q / ^ ^ ) ) ) } ",
"'.}.-X:X>X2X2X<X<X+XoX!.R.Y.yXuXpX9XhXm H K E T T D Z y q 4 1 X .   . . 1 2 0 y V D FX@X@X@X@X%X%X%X&X$X<X<X<X2X2X2X2X2X2X>X>Xt.&.~ ~ ! ! Q ^ ^ ) ) { } o.O.~.~.~.~.~.^.O.} } [ ) ^ ^ ^ / Q ~ ~ ~ %.! Q ! ~ &.>.>.<.p.m.V.).'.-X:X>X2X2X<X<X%X@X&X+XoXW.T.Y.yXuXpXhXhXM J L E Y Y D V r 0 3 o X     . o 1 7 w i S I Y T R P M lXhXqXtXyXY.Y.W.!.@X&X<X2X2X>X>X@X$X<X2X2X>X-X-X_.V.m.t.w.>.&.` ~ Q ^ ^ [ } ' &.( ~ ~ Q Q Q ^ ^ ) { { } O.O.~.~.~.~.~.~.o.o.} { ) ) ^ ^ / Q ! ~ ~ %.%.S.R.R.T.T.T.T.T.Y.T.T.T.T.T.T.T.W.W.W.W.!.!.!.; 2 0 r V S Y T E L H n kXwXpXyXyXY.T.!.+X@X<X2X2X2X:X;X*X}.).V.m.p.r.<.>.&.` ` ~ Q Q ^ ^ ) { } o.~.~.~.~.~.O.o.} [ ^ L.<X2X>X>X;X=X}.'._.).).).).).'.}.-X-X>X2X2X<X@X5.&.~ ~ ! ! Q / ^ ^ ^ ) { { } O.O.~.~.~.~.~.^.O.O.{ } [ ) ) ^ ^ ^ / Q Q ~ ~ ~ &.S.W.+X$X2X2X>X:X;X-X}.}.'.}.'.}.}.-X-X;X>X2X2X<X#X>.^ ) { } o.^.~.~.~.O.O.} { ) ^ / Q ! ~ ~ &.&.>.w.p.g.V.).'.*X:X>X2X2X<X&X$XoXW.T.BXuXtXrXhXm J L E T I C y 0 3 O .     X < 4 w i M oXXX@X@X%X@X$X&X$X<X<X2X2X2X2X>X:X:X-X}.}._.Z.m.p.t.w.&.&.` ~ ~ Q ! Q Q ^ ^ ^ ) ) ",
"_.}.-X;X>X>X2X2X&X%X@XW.W.Y.BXuXtXqXhXlXM K R Y T I S i e 7 2 X .     . o 2 7 e i S I fXXX@X@X%X%X%X&X<X$X<X2X<X2X2X2X2X2X>X>X>Xr.' ` ~ Q ! Q ^ ^ ^ ) { } o.O.~.~.~.~.~.O.O.o.[ [ ) ^ ^ ^ / Q ! ~ &.&.! ! ~ ~ &.>.<.r.p.m.V._.}.-X:X>X2X2X<X<X%X+X&XoXW.W.Y.yXuXpX8XkXm H K E T Y D C y q 4 < X .     X 1 4 w y Z D Y T U P H n hXrXpXuXyXT.W.!.XX@X<X<X2X2X>X;X@X&X<X2X2X>X-X}.).V.g.t.>.>.&.~ Q Q ^ ) { o.' &.~ ~ ~ Q Q Q ^ ^ ) { { } O.O.~.~.~.~.~.^.O.o.[ { ) ) ^ ^ ^ / Q ! ~ &.&.F.Y.Y.Y.Y.Y.Y.Y.Y.Y.Y.Y.T.T.T.T.W.W.W.W.!.!.!.6 7 w i S I T E R J M hXhXqXtXyXY.T.W.oX#X$X<X2X2X2X:X-X}._.V.V.p.t.w.>.*.&.` ~ Q Q Q ^ ) ) { o.O.~.~.~.~.~.o.} [ ) ^ B.&X<X>X>X>X-X}.}._._._._.'.'.'.*X-X;X>X>X2X<X@X5.%.~ ~ ~ ! ! / ^ ^ ^ ) { { } o.O.~.~.~.~.~.^.O.O.o.[ { [ ) ^ ^ ^ ^ Q Q ~ ~ &.&.S.oX%X<X2X2X>X;X-X}.}.'.`._.`.'.}.}.-X-X:X>X2X<X$XH._ ) } o.O.~.~.~.^.O.} { ) ) ^ / Q ! ~ %.>.>.<.r.p.V.V.'.}.-X:X>X2X2X<X@X@XW.R.Y.yX5XqXhXm H L Y W I S i w 4 < X     . < 3 0 y Z I fX@X@X@X%X@X$X$X<X<X2X2X2X2X2X>X:X-X-X'._.).M.m.t.w.<.*.&.` ~ ` ! ! Q Q / ^ ^ ^ ",
").}.-X;X:X2X2X2X<X&X+XoXW.Y.Y.yXtXqXrXkXM J L E Y Y D V r 0 2 < X     . o 1 7 w i Z I UX@X@X@X%X@X%X%X$X<X<X<X2X2X2X2X2X>X>X>X;X;Xw.` ` ~ ! Q Q ^ ^ ) ) } } o.O.~.~.~.~.~.~.o.o.[ [ ) ^ ^ / Q Q ~ ~ ~ &.~ ~ ~ %.>.<.<.t.m.V.).'.}.-X>X>X2X2X<X$X@X@X+X!.W.Y.Y.uXtXqXhXlXM K R E T I S i w 7 1 o .   . . 1 2 0 e V D Y T E L J m lXwXqXtXyXT.T.W.oX#X$X<X2X2X>X:X X+X<X<X2X>X:X-X'.).m.p.r.<.&.` ~ Q ^ ^ ) } @.] %.~ ~ ~ ! Q ^ ^ ^ ) { } } O.O.~.~.~.~.~.O.O.o.{ { ) ^ ^ ^ / Q ! ~ ~ %.&.F.Y.Y.BXBXBXBXBXY.BXY.Y.Y.Y.T.T.T.W.W.W.!.!.!.d q y Z I Y T R K H vXhXqXtXuXY.T.W.oX@X$X<X2X2X>X:X-X}.'.).m.m.t.w.<.>.&.` ~ ~ Q Q ^ ^ [ { } O.O.~.~.~.O.O.} [ ) ^ ^ H.$X<X>X>X>X;X=X}.}._._.'.'.'.}.-X;X>X2X2X2X%XoX3.%.%.~ ! ! Q / / ^ ) ) ) } } O.O.O.~.~.~.~.^.~.O.o.{ [ [ ) ^ ^ ^ / Q Q ~ ~ ~ &.5.@X$X<X2X>X;X;X}.'.'._.)._._._._.}.-X-X:X>X2X2X$XL._ { o.O.~.~.~.~.O.o.} ) ^ ^ / Q ~ ~ %.&.>.<.r.p.m.V._.'.-X:X>X2X2X<X&X+X!.T.Y.uXuXqX0XlXM K R T Y D V r 7 2 X     . o 1 7 t V D Y NX!.@X@X%X%X&X$X<X<X2X2X2X2X>X:X;X-X}.'.).V.m.p.t.<.>.&.&.&.~ ~ ! ! Q Q / ^ ^ ",
")._.}.-X:X>X2X2X2X&X@XoX!.R.Y.yXuXpX9XkXm H L E W Y D C y q 4 < o .     . 1 2 w y Z D U L @X!.@X%X#X&X&X<X<X<X<X2X2X2X2X2X>X>X>X;X'.` ` ` ! ! Q Q / ^ ) ) { o.o.O.~.~.~.~.O.O.o.} [ [ ) ^ ^ ^ / Q ~ ~ &.~ ~ ~ %.&.>.<.5.p.m.Z._.}.-X;X:X2X2X2X<X&X@X@X!.W.T.Y.yXtXpXrXlXM J L Y W Y S V r 8 3 o X     . o 1 7 e i S I Y T R J M lXhXqXtXyXyXT.W.!.@X<X<X<X2X2X:X;X=X@X$X<X2X2X:X-X'.Z.m.t.w.>.&.~ ! Q ^ ^ { o.O.X.~ ~ ~ Q ! Q Q ^ ^ ) { { o.o.O.~.~.~.~.~.O.O.o.[ [ ) ) ^ ^ ^ Q Q ~ ~ %.&.v.BXBXBXBXBXuXBXG.yXBXY.Y.Y.Y.T.T.W.W.W.!.!.!.g e V D Y T E L H n hXwXpXuXyXT.R.!.oX&X$X2X2X2X>X:X*X'.).V.m.p.r.<.>.&.&.~ ! Q Q Q ^ ) { } o.~.~.~.~.~.O.o.[ [ ) ^ ^ H.%X<X>X>X>X;X-X}.}.}._.}.'.*X-X-X;X>X2X2X<X@X!.3.%.` ` ! ! ! / / ^ ^ ) ) { } o.O.~.~.~.~.~.^.^.O.o.} [ ) ) ) ^ ^ ^ Q Q ! ~ ~ &.5.+X<X2X2X>X;X=X}._._._.Z.Z.Z._.).'.}.-X;X:X2X2X$XP.{ } O.@.~.~.~.O.O.} { ) ^ ^ Q Q ~ %.&.>.>.w.p.g.V.).}.-X-X>X>X2X2X&X@XoXW.T.BXuXpX9XkXnXJ R E T I V y 0 2 O .     X 1 7 w N S Y T PX!.@X@X%X&X&X$X<X<X2X2X2X2X>X:X-X*X'.).V.m.p.t.w.>.*.&.&.&.~ ` ~ ! ! Q Q / ",
"Z._.}.-X:X>X2X2X<X<X&X+XW.W.Y.BXuXpXqX0Xn M K R W Y I S u e 7 1 o .     X o 2 0 e i D U T NX@X@X%X@X%X&X$X<X<X2X2X2X2X2X2X>X>X;X;X-X).&.` ~ ! ! Q ^ ^ ^ ) { { o.o.~.O.~.~.~.~.O.o.} [ [ ^ ^ ^ / Q ! ~ ~ &.%.~ ~ %.>.>.r.r.p.B.Z._.}.-X:X>X2X2X2X<X%X@XoX!.R.Y.yXuXqX9XhXm H K E W Y I V y q 3 1 . .   . . 1 4 w y Z D Y T R K H n hXqXtXuXBXZXW.W.+X@X<X2X2X2X>X;X-X}.#X$X2X2X>X;X}._.V.g.r.w.>.&.~ Q Q ^ [ { O.+.&.&.~ ~ Q ! Q ^ ^ ^ ) { { o.O.O.~.~.~.~.~.O.O.} } [ ) ^ ^ ^ Q Q Q ~ ~ %.&.x.uXuXuXuXBXuXBXyXBXBXyXY.BXBXZXT.W.W.!.!.!.!.l i S I T E L J M lX0XqXuXyXBXR.W.+X+X<X<X2X2X>X;X-X}.).Z.m.p.r.w.>.&.&.` ~ ! Q ^ ^ ^ [ } o.O.~.~.~.~.O.o.} [ ) ^ ^ Q H.<X<X2X>X>X;X-X-X}.}.}.}.}.-X-X;X>X2X2X2X&XoXW.3.&.` ~ ~ ! Q / / ^ ^ ) { { } o.o.~.~.~.~.~.^.^.O.o.} } [ ) ^ ^ ^ / Q Q ~ ~ ~ %.5.$X<X2X>X;X-X}.}._.Z.Z.Z.Z.V.).)._.'.-X;X:X2X2X<X%Xe.o.@.@.~.~.~.O.} { ) ^ / Q Q ~ ~ %.>.>.r.r.m.m.).'.}.;X:X2X2X<X<X+XoX!.Y.Y.yXpXqXhXn H L Y T I S u q 3 < X     . < 3 q y S I T E IXDX@X@X%X&X$X<X<X2X2X2X2X>X:X-X-X}._.).V.m.t.r.>.>.&.~ &.&.` ` ~ ! ! Q / ",
"V._.}.-X-X>X>X2X2X<X$X@XoXW.R.Y.uXtXqX0XlXM J L Y T Y S V r 8 3 o X .     o 1 4 w i Z I Y T GX@X@X%X%X&X$X$X<X<X2X2X2X2X2X>X>X>X;X-X-Xg.` ` ~ ! ! Q / ^ ^ ) { } o.O.~.~.~.~.O.~.O.o.{ [ [ ) ^ ^ ^ Q Q ~ ~ &.%.~ %.*.>.<.r.p.m.V._.}.}.;X:X>X2X2X2X<X%X@X!.W.T.BXyXtXqXhXlXH K R Y Y I S u w 7 1 o .     . < 2 0 t V D Y T E L J m lX0XqXtXyXG.T.!.!.#X$X<X2X2X2X:X-X*X[.#X<X<X2X>X;X}.).V.p.w.>.*.` ~ Q ^ ^ { } O.@.&.` ` ~ Q Q Q ^ ^ ^ ) { { o.o.~.~.~.~.~.~.~.o.} } ) ) ) ^ ^ ^ Q Q ~ ~ %.&.x.uXuXuXuXuXuXuXuXyXyXyXY.Y.G.BXT.T.W.W.!.!.XXz Z I Y W R K M lXhXqXpXyXG.Y.W.!.+X&X<X<X2X>X>X-X}.'.Z.V.p.p.w.<.>.&.` ~ Q Q Q ^ ^ ) { } O.~.~.~.~.O.O.} [ ) ) ^ ^ Q D.$X<X2X2X>X:X;X-X*X}.-X}.}.-X;X;X>X2X2X<X&X!.R.0.&.~ ~ ~ ! ! Q / ^ ^ ) ) { } o.o.~.O.~.~.~.~.O.O.o.} [ [ ) ) ^ ^ ^ Q Q ! ~ ~ &.5.E.2X2X>X;X=X`._.).V.V.V.C.V.V.).)._.*X-X;X>X2X2X&Xs.@.~.~.~.@.@.o.{ ) ) ^ / Q ! ~ %.&.>.<.r.p.m.V._.}.-X:X>X2X2X<X&XoXW.W.Y.yXuXqX0XlXH K R T Y D i e 7 1 X .     o 2 0 r Z D Y T R J DX@X@X%X&X$X<X<X2X2X2X2X>X:X-X*X'.).V.m.p.t.w.>.&.&.~ ~ &.` ` ~ ~ ! ! ",
"V.).'.}.-X>X>X2X2X<X$X@XoXW.T.Y.yXuXqXrXkXm H L E T Y D C y q 3 < X     . X < 4 q y C I Y T R GX@X@X%X%X&X<X<X<X2X2X2X2X2X>X>X:X;X-X*X}.w.&.~ ~ ! Q Q ^ ^ ) ) { } o.O.~.~.~.~.~.^.o.o.[ [ ) ^ ^ ^ / Q ~ ~ ~ %.%.~ %.>.>.r.t.p.M.Z._.}.-X:X>X2X2X2X<X<X%X@XW.T.BXyXtXqX9XlXM J L E T Y S V r 0 3 o .     . o 2 7 e i S I T Y R J H lXrXqXtXuXY.T.W.!.@X&X<X2X2X>X:X-X*X'.XX@X<X2X2X:X-X}.).m.p.w.>.&.` ! Q ^ ) { o.@.+.&.` ~ ~ ! Q Q ^ ^ ) ) { } o.O.O.~.~.~.~.O.~.O.} } ) ) ^ ^ ^ ^ Q ~ ~ ~ %.%.tXpXtXpXpXtXuXuXuXyXyXyXyXyXBXY.T.T.W.!.!.!.!.n D Y T E L H m hXqXpXuXY.Y.W.!.oX&X<X2X2X>X:X-X-X'.).V.m.p.r.<.>.&.&.~ ~ Q Q ^ ^ [ { } O.O.~.~.~.~.O.o.[ ) ^ ^ Q Q Q D.$X<X2X2X>X>X;X-X-X*X-X-X-X-X:X>X2X2X2X&X@XW.BXv.&.` ~ ~ ! Q / / ^ ^ ) ) { } o.o.~.~.~.~.~.~.~.O.o.o.[ [ ) ^ ^ ^ ^ Q Q ! ~ ~ &.%.[.2X>X;X=X}._.Z.Z.V.B.h.m.m.V.V.).).}.*X:X>X2X<X&Xf.@.~.~.~.@.o.} { ^ ^ / Q ! ~ %.%.>.>.r.t.m.C._.'.-X:X>X2X2X<X$X+X!.W.T.yXuXpX0XlXM K R W Y D C t 8 2 X .   . X 1 7 r i D Y T R P M dX+X#X@X&X&X<X2X2X2X2X>X:X;X-X}._.).V.m.t.r.>.&.&.` Q ` ` &.` ~ ! ! ",
"V.Z.`.}.-X;X>X2X2X<X<X+X@XW.W.Y.BXuXtX8XhXm M K R W T I Z i w 7 1 o .     . < 2 0 e V S U Y T LX!.@X@X%X$X$X<X<X2X<X2X2X2X2X>X>X;X-X-X}.'.<.&.` ! ! Q Q ^ ^ ) ) { } o.O.~.~.~.~.~.~.o.o.[ [ ) ^ ^ ^ / Q ! ~ %.%.%.%.*.>.<.r.p.m.V.).'.}.-X:X>X2X2X2X<X&X@X@XR.Y.yXyXqXwXkXM H L Y W Y D V y 0 3 < . .   . . 1 7 w y Z I Y T R K M n hXrXtXyXyXT.W.!.@X$X$X2X2X2X>X:X-X'._.{.%X<X2X2X:X-X_.).m.t.w.>.` ` Q Q ^ ) } o.@.+.&.` ~ ~ Q Q Q ^ ^ ^ ) { { o.O.~.O.~.~.~.O.O.O.} } ) ) ) ^ ^ ^ Q Q ~ ~ &.2.pXpXpXpXpXpXpXuXtXtXuXuXyXyXBXBXT.W.W.!.!.!.oXH U T E L J M lX0XpXtXyXY.T.W.+X@X$X2X2X2X>X:X-X'._.V.m.p.r.w.>.&.&.` ~ Q Q / ^ ) [ { o.O.~.~.~.~.@.o.} [ ) ) ^ Q Q ! D.$X$X2X2X>X>X:X;X-X-X-X-X;X;X:X>X2X2X2X&XoXW.yXv.&.` ` ! ! ! Q / / ^ ) ) { } o.o.O.~.~.~.~.O.~.O.o.o.[ [ [ ) ^ ^ ^ ^ Q ! ~ ~ &.&.].2X>X;X}.`.).Z.m.m.m.m.m.m.m.V.V.).'.}.-X:X>X2X&X`.@.~.~.@.o.} { ) ^ ^ Q Q ~ ~ >.&.<.w.t.m.h.Z.}.}.;X:X2X2X<X<X@XoXW.T.Y.uXpXqXhXM H L E T I Z y q 2 < .     . 1 4 w i S I T Y L H n dX!.+X%X&X$X<X<X2X2X2X>X:X;X-X'.).V.m.p.t.w.>.&.` ` ! Q ` &.` ` ` ",
"m.V.).}.-X;X:X2X2X2X<X$X@XoXW.Y.BXyXpXqX0XlXM J R E Y Y S B r 8 3 o .     . o 1 7 w i S I Y T R nXXX@X$X@X&X<X<X<X2X2X2X2X>X>X:X;X-X*X}.'._.] ` ` ~ ! Q Q ^ ^ ) ) { } O.O.~.~.~.~.O.~.o.o.[ [ ) ^ ^ / Q Q ~ ~ %.&.%.&.>.>.r.p.g.M.Z._.}.-X-X>X>X2X2X<X<X&X@X!.ZXBXtXtXqXhXlXH K R W Y I S y w 7 1 o .     o o 2 0 y V D Y T E L J m kX9XtXtXyXY.T.W.+X@X<X<X2X2X>X:X-X*X_.Z.[.&X<X2X2X;X-X_.V.g.t.>.>.` ~ Q Q ) ) o.o.@.@.&.` ~ ! ! Q Q ^ ^ ) ) { } o.o.~.~.~.~.~.~.O.O.} { { ) ^ ^ ^ / Q ~ ~ ~ %.2.eXeXrX8XqXpXrXtX5XtXuXtXyXyXG.Y.Y.W.W.!.!.oXXXJ Y E R K M lX0XqXtXuXY.T.W.oX+X<X<X2X2X>X:X-X*X_.).m.m.r.w.>.>.&.` ~ ! Q ^ ^ ^ [ { o.O.~.~.~.~.O.o.o.[ ) ^ ^ Q Q ~ ~ A.%X<X2X2X>X>X:X:X-X;X;X;X;X>X>X2X2X2X<X@X!.R.yXc.&.` ` ~ ! ! / / ^ ^ ) ) { { o.O.O.~.~.~.~.~.O.~.o.} } [ ) ) ^ ^ ^ Q Q Q ~ ~ %.%.].2X;X=X}._.V.V.m.g.g.p.p.p.m.m.V.Z._.}.-X:X2X2X<X`.~.~.~.O.o.{ { ^ ^ Q Q ~ ~ ~ >.>.<.r.p.m.Z.`.}.-X:X2X2X2X<X&X+XW.T.Y.yXtXqXhXlXH L E Y Y S i w 7 1 X     X o 3 0 y Z I Y W L J m hXrXW.@X+X%X$X<X2X2X2X2X>X:X-X}.'.).V.m.p.w.>.>.&.` ! Q ^ ^ &.` ` ",
"m.V.).'.*X;X:X>X2X2X<X<X+XoXW.R.Y.yXuXqXrXlXn J K E T Y D C t q 3 < X .     X < 4 w y Z D Y T E L MX+X@X$X%X$X<X<X2X2X2X2X2X>X>X;X;X-X}.'._.m.` ` ` ! ! Q Q ^ ^ ) { { } O.~.~.~.~.~.O.O.O.} [ [ ) ^ ^ ^ / Q ~ ~ &.&.%.>.>.<.r.p.m.V.)._.-X-X;X>X2X2X2X2X<X%X@X!.BXyXtXqXrXlXM J L Y T Y S V r 7 3 o .     . o 1 8 e i S I Y W R J M lX0XqXtXyXBXT.W.!.+X&X<X2X2X2X:X;X*X'.).V.[.&X<X2X>X:X}._.V.p.w.>.&.` ! Q ^ _ { o.o.O.+.&.` ` Q ! Q Q ^ ^ ) ) { } o.O.O.~.~.~.~.O.O.O.} { ) ) ^ ^ ^ ^ Q Q ~ ~ %.2.0X0X0X0XrX8XrXqXqXpXtXtXuXyXyXT.T.W.W.!.!.!.oXP W E L H m hXrXpXyXyXT.W.!.+X+X<X<X2X2X>X;X*X'.).V.g.p.r.<.>.&.` ` ! ! Q / ^ ) { } o.~.~.~.~.~.O.} [ [ ^ ^ ^ Q Q ~ ~ 5.%X$X<X>X2X>X>X:X;X;X;X;X:X>X>X2X2X2X&X@XW.Y.yX4X&.` ` ~ ! ! ! / / ^ ^ ) { { } O.O.~.~.~.~.~.O.^.o.o.[ [ [ ) ^ ^ ^ ^ Q Q ~ ~ &.&.r.>X;X}._.Z.V.m.m.p.t.p.p.p.p.m.m.Z.Z.].}.;X>X2X<X'./.~.@.o.} ) ) ^ ^ Q ! ~ %.&.>.<.r.p.m.V.).}.-X-X>X2X2X<X&X@XoXW.Y.yXuXpX0XlXM P R W Y D V r 7 1 o .   . X 1 8 r V D Y Y R K M lXrXqXT.@X#X%X$X<X<X2X2X2X:X:X-X}._.).m.m.t.w.>.&.` ` ! / / ) ' ` ",
"g.V.)._.}.-X:X>X2X2X<X$X@X+XW.W.Y.yXuXtX8XhXm M K E W Y I Z u w 4 1 o .     . 1 2 0 e V S Y T Y L J DX+X@X%X%X<X<X<X2X2X2X2X>X>X:X-X-X-X'._.Z.m.&.` ~ ! Q Q / ^ ) ) ) } o.o.~.O.~.~.~.~.O.o.} [ [ ^ ^ ^ / Q Q ~ ~ &.&.&.>.<.r.p.g.M.Z._.'.-X;X:X>X2X2X2X<X<X%X@X!.yXyXqX9XhXm H L E T Y D V y 0 3 1 . .   . o 1 4 w i Z I Y T R L M n hXqXtXuXBXZXW.!.oX&X<X2X2X2X>X-X-X}.).Z.m.E.&X2X2X>X;X}.Z.m.p.w.>.&.~ Q ^ ^ ) { o.O.O.o.&.` ` ! ! Q Q ^ ^ ) ) { } o.O.~.~.~.~.~.~.O.O.} } ) ) ^ ^ ^ / Q ! ~ ~ %.:.lXkXhXhX0X0X0XqXqXqXqXtXuXyXyXT.T.W.!.!.oXoXoXUXE L H M kX0XtX5XBXY.R.W.oX$X$X2X2X2X>X;X-X'._.V.M.p.r.w.>.&.&.` ~ Q Q ^ ^ ) ) } o.O.~.~.~.~.O.o.} ) ) ^ ^ Q ! ~ %.%.5.%X$X<X2X>X>X>X:X:X:X:X>X>X>X2X2X2X<X%XoXR.BXtX4X&.%.~ ~ ! ! / / ^ ^ ) ) { } } O.O.~.~.~.~.~.^.~.o.o.} [ [ ) ^ ^ ^ / Q Q ~ ~ ~ &.r.;X=X}.).V.m.p.p.p.p.r.r.r.p.p.g.M.Z._.=X;X>X2X<X@X/.@.O.} { ) ^ / Q ! ~ ~ %.>.>.w.p.g.V.).'.-X:X>X2X2X<X&X+XoXW.Y.BXuXpXwXkXm J R Y T I C y 0 3 O .     X < 4 e i S Y T E L M lX0XpXtXY.!.+X%X$X<X2X2X2X2X:X;X*X}.).Z.m.p.r.<.>.&.~ ! ! ^ ^ ) ' ",
"p.m.Z._.}.}.:X:X2X2X2X<X&X@XoXR.T.BXuXtXqX0XlXM K L Y T Y S B e 8 2 O . .     o 1 7 w i S I Y T R K M DX@X#X&X&X<X<X2X2X2X2X2X>X:X;X-X}.}._.).V.<.&.` ` Q ! Q Q ^ ^ { ) } o.O.~.~.~.~.~.O.O.o.[ [ [ ) ^ ^ ^ Q Q ~ ~ &.&.>.>.<.t.p.m.V.Z.'.}.-X;X:X>X2X2X2X<X&X%X@XBXiXtXqXhXn H K R W Y I Z i w 4 1 o .   . . 1 2 q t V D Y Y Y P J m hX0XqXuXyXG.R.W.+X@X$X<X2X2X2X:X-X}.'.V.V.B.@X$X<X>X>X;X}.Z.m.t.w.&.&.~ Q ^ ^ { { o.o.O.' ` ` ` ! ! Q Q ^ ^ ) ) { } o.O.~.O.~.~.~.O.O.o.} } ) ) ^ ^ ^ ^ Q ! ~ ~ &.:.cXm lXlXkXhXhX9XrXqXqXpXtXyXyXY.T.W.!.!.+XoXoXP R K M lXhXrXuXuXY.T.W.!.+X$X<X2X2X>X:X-X*X_.Z.h.g.t.w.>.>.&.` ~ ! Q / ^ ) ) { o.O.~.~.~.~.O.O.} [ ) ) ^ ^ Q ! ~ &.*.5.%X$X<X2X2X2X>X>X>X:X>X>X>X2X2X2X2X&X@X!.T.yXpXkX:.&.` ! ~ ! ! / / ^ ^ ) { { } o.O.~.~.~.~.~.^.^.O.o.} [ [ ) ) ^ ^ ^ Q Q ! ~ ~ &.r.;X}._.Z.m.m.p.r.r.r.r.r.r.t.p.p.m.Z.Z.}.-X:X>X2X&Xf.o.} { ) ^ ^ / Q ! ~ &.&.>.<.r.g.m.).`.}.-X:X>X2X2X<X@X@XW.R.Y.yXtXqXhXn H L E T I S i w 3 < X     . < 3 0 y S I Y W L J n hXrXtXyXBX!.+X&X$X$X<X2X2X2X>X:X*X'.).V.m.t.w.<.*.&.` ! Q ^ ^ { ",
"p.m.V.).'.-X-X>X>X2X2X<X$X+XoXW.T.Y.yXtXpX0XkXM H L E T Y D V y 0 4 o X     . o < 4 w y Z I Y T E L H mX@X@X@X&X$X<X<X2X2X2X2X>X:X;X-X*X}._.).Z.M.>.` ` ~ Q ! Q ^ ^ ^ ) { } o.O.~.~.~.~.~.^.o.o.} [ ) ^ ^ ^ / Q ! ~ ~ &.&.>.<.r.p.m.M.Z.).}.-X-X:X>X2X2X2X2X<X%X%X@XBXtXqXhXlXM J L Y T Y S V w 0 1 o .     . o 2 7 e N S Y T E R J M kX0XqXtXyXY.T.W.!.+X&X<X2X2X>X:X-X*X'.).V.m.B.+X<X<X2X:X-X_.Z.m.r.<.&.` ! Q ^ ) { } o.o.} ' &.` ~ ! ! Q Q ^ ^ ) ) { } o.O.~.~.~.~.~.~.O.o.} { ) ) ^ ^ ^ Q Q ! ~ ~ &.8.M M M n lXlXmXhX0X0XqXpXtXyXY.Y.W.W.!.!.oXoXoXPXK H m 0X8XpXuXyXT.W.!.@X%X<X2X2X>X:X-X*X'.).V.m.t.r.>.>.&.` ~ ! Q / ^ ^ [ { } o.~.~.~.~.~.O.} } ) ^ ^ Q Q ! ~ %.%.>.u.%X$X<X2X>X2X>X>X>X>X>X>X2X2X2X2X<X%X@XW.Y.uXqXlX:.%.%.~ ! ! ! / / ^ ^ ) ) } } o.O.~.~.~.~.~.~.O.O.o.} [ [ ) ^ ^ ^ / Q Q ! ~ ~ %.r.Z.].Z.M.m.p.r.r.r.w.<.r.<.r.r.p.g.M.Z._.=X:X>X<X&X`.o.} ) ) ^ / Q ! ~ &.&.>.<.r.p.m.V.).}.-X:X>X2X2X<X&X+XW.W.Y.yXuXqX0XlXM L R W Y D i r 7 1 X     . o 1 0 r C D T Y R J nXlX9XpXuXY.T.oXoX%X$X<X2X2X2X>X:X-X-X'.Z.V.m.t.w.>.&.` ` ! / ^ ) ",
"p.g.B.Z._.}.-X;X>X2X2X2X$X@X@X!.R.Y.BXuXpXrXhXn H K R T Y I Z y w 7 1 o .     . 1 2 0 e V D I Y T L J M dX@X@X&X&X$X<X<X2X2X2X2X>X:X-X-X}.'.).V.V.m.>.` ` ~ Q Q Q ^ ^ ) ) { } o.O.~.~.~.~.~.^.O.o.[ [ ) ^ ^ ^ / Q ! ~ ~ >.>.<.<.p.p.M.Z._.'.}.-X:X:X>X2X2X2X<X<X%X%X@XiXpXrXhXm J L R T Y D C y 0 3 < . .   . X 1 7 w u Z I Y T R K H vXhXqXtXtXY.T.W.!.@X#X<X<X2X2X>X;X-X'.).V.m.p.n.@X<X2X2X>X=X_.V.p.r.>.&.~ ! Q ^ _ { } } o.} ' ` ` ~ Q ! Q Q ^ ^ ) ) } } o.O.~.~.~.~.O.~.O.o.} { [ ) ^ ^ ^ ^ Q ! ~ ~ &.7.J H H M M n lXlXrXhXqXqXtXyXY.T.W.W.!.oX+XoXoXLXH M lX0XpXuXG.yXW.W.+X$X$X<X2X2X>X:X-X'._.V.m.p.t.w.>.*.&.` ~ Q Q / ^ ) [ } o.O.~.~.~.~.O.o.{ [ ) ^ ^ Q Q ! ~ &.>.>.a.+X$X<X<X2X2X>X>X>X>X>X>X2X2X2X2X<X@X@XW.Y.tX0Xn 8.%.%.! ~ ! ! / / ^ ^ ) ) { } o.o.O.~.~.~.~.~.O.O.o.o.[ [ ) ) ^ ^ ^ / Q ! ~ ~ &.&.Z._.V.m.p.p.r.w.<.<.<.<.<.r.r.t.p.m.V._.}.;X>X2X$XP.} ) ) ^ ^ / ! ~ ~ &.>.<.w.p.g.V.).'.-X;X>X>X2X2X&X@XoXR.T.yXuXpX9XlXM J R Y T I Z t 8 2 O .     o 1 7 r i D I T E K M lXrXqXtXyXY.T.+XoX%X$X$X<X2X2X2X:X;X}.'.).m.g.t.<.*.&.` ( ! ^ ^ ",
"E.g.m.Z._.}.-X:X>X2X2X<X<X$X@XW.W.T.BXyXtX8X0XlXM K R E T I S B r 7 2 o .     . o 1 7 e i Z Y Y T R J H lXsX@X@X&X$X<X2X<X2X2X>X>X:X;X-X}.}._.Z.V.m.t.&.` ~ ! ! Q Q ^ ^ ) { { } O.O.~.~.~.~.~.O.o.o.[ [ ) ^ ^ ^ / Q ~ ~ ~ &.>.w.r.p.m.V.Z._.'.-X-X:X>X2X2X2X2X<X<X%X@X@XtXqXhXm M K E W Y I Z y w 7 1 o .   . . 1 3 0 y V D Y T E L H m hXwXqXyXyXBXR.W.+X%X&X2X2X2X>X:X-X}.).).m.g.r.g.#X$X2X>X;X=X_.M.p.w.>.&.~ Q ^ ^ ) ) } { } { ' ` ` ` ~ Q Q / ^ ^ ) ) { } o.O.~.~.~.~.~.~.O.o.} [ [ ) ^ ^ ^ Q Q ! ~ ~ &.8.K J J H H M m n kXhXwXtXiXyXBXT.W.!.!.oXoXoXoXnXM lX0XpXuXuXY.T.W.oX@X$X<X2X2X>X:X-X}.).).m.g.t.r.>.&.&.` ~ Q Q / ^ ^ [ { o.O.~.~.~.O.~.O.} [ ) ^ ^ Q Q ~ ~ %.&.>.<.a.%X$X<X2X2X2X2X2X>X>X2X2X2X2X2X<X&X@XW.T.yXtXhXM 9.%.%.~ ! ! ! / / ^ ^ ) ) { } o.O.~.O.~.~.~.~.~.O.o.} [ [ ) ) ^ ^ ^ / Q ! ~ ~ ` &.M.).m.g.r.r.<.<.<.>.>.>.>.<.<.r.p.g.V.Z.}.;X>X2X<X`.e.) ^ / / ! ~ ~ &.&.>.w.t.g.m.).'.*X-X:X2X2X<X<X+XoX!.Y.Y.yXpXqXhXm H L T T I Z y w 3 < .     . < 3 q i Z Y T E L H n hXqXtXyXY.W.W.+XoX+X&X<X<X2X2X>X:X;X}._.).m.p.r.w.>.` ` ! ! ^ ",
"%XB.N.V.).'.-X-X:X>X2X2X<X$X+XoXW.T.Y.yXuXpX0XlXm J L Y W Y D V t 0 3 < X .     X 1 4 w u Z D Y T Y L H vXhXHX@X@X&X$X<X2X2X2X2X2X>X;X-X-X'.'.).V.M.p.r.&.` ` ! ! Q Q / ^ ) { { } O.O.~.~.~.~.~.O.o.o.[ [ ) ^ ^ ^ / Q ~ ~ %.&.<.r.p.g.M.Z.).}.}.-X;X:X>X>X2X2X2X<X&X%X@XHXqX0XlXM J L Y T Y S B w 8 1 O . .   . o 2 8 e N S I T Y R J M lX0XqXtXyXG.T.W.!.+X$X<X<X2X>X:X-X-X'.).V.m.p.r.u.$X<X2X>X;X=XZ.M.t.w.&.&.! Q ^ ^ { { { { { ) ' &.` ^ ~ Q Q / ^ ^ ) ) { } o.O.~.~.~.~.~.~.O.o.} [ [ ) ^ ^ ^ ^ Q ! ~ ~ &.9.R L K J J H M m vXhX9XpXtXBXBXW.W.!.!.+XoX@XoXxXm 0XeXpXuXY.Y.W.!.+X%X<X<X2X2X:X;X*X'.).V.g.t.w.<.>.&.` ~ ~ Q Q / ^ ) { } O.O.~.~.~.O.O.} [ [ ) ^ ^ Q ! ~ &.&.>.<.r.g.@X$X<X2X2X2X2X2X2X2X2X2X2X2X<X<X%X@XW.Y.uXpXkXJ 9.%.%.~ ! ! ! / / ^ ^ ) ) { } o.o.~.~.~.~.~.O.~.O.O.o.[ [ ) ) ^ ^ ^ / / Q ~ ~ &.&.u.V.g.p.r.w.>.>.>.>.>.>.>.>.<.<.r.p.m.Z._.;X:X>X<X#Xq.) ^ / / ! ~ &.&.>.<.r.p.m.V._.}.-X:X>X2X2X<X$X@XW.W.Y.yXtXqX0XlXH L R T Y D i e 4 1 X .   . o 3 0 r Z D Y T L J M hX9XtXuXY.T.W.!.$XoX+X&X<X<X2X2X>X:X-X}._.Z.m.p.w.>.>.` ` Q Q ",
"<X@XB.V.Z.'.}.-X:X>X2X2X<X<X@X+XW.R.Y.yXuXpX0XhXm H K R W Y I Z y q 7 1 o .     X < 2 0 e V D Y T E L H M kX0XHX@X&X&X<X<X2X2X2X>X>X:X;X-X}._.).Z.h.g.p.w.&.` ~ ! Q Q ^ ^ ^ ) { } } O.O.~.~.~.~.O.^.o.} [ [ ^ ^ ^ / Q Q ~ ~ &.&.w.u.g.m.V._._.'.-X;X:X>X2X2X2X2X<X<X&X%X@XHXrXkXm J L E T Y D V y 0 3 o .     . o < 7 w u S I Y T R K M vXhXqXpXuXY.Y.W.!.oX&X<X2X2X2X>X;X*X}.).V.m.p.r.<.u.$X<X2X>X-X}.Z.m.r.<.&.` ! Q ^ ^ ) { { { { ) ` ` ` ` ! Q / / ^ ^ ) { { } O.O.~.~.~.~.O.~.O.o.} [ ) ) ^ ^ ^ / Q ! ~ ~ &.9.Y E R L K J H M n mX9XtXtXG.Y.W.W.oXoXoXoX+XoXzXkX0XpXuXyXY.W.W.+X&X<X2X2X2X:X;X-X'.).V.m.p.r.w.>.&.&.` ~ Q Q ^ ^ [ ) } o.~.O.~.~.~.O.o.} ) ^ ^ ^ Q ! ~ ~ %.>.>.5.t.p.{.#X<X<X2X2X2X2X2X2X2X2X2X2X<X&X@X!.W.Y.uX0XlXK F %.%.` ! ! ! / / ^ ^ ) ) { { o.O.O.~.~.~.~.~.~.O.o.o.} [ ) ) ^ ^ ^ / Q ! ~ ~ ~ &.<.M.p.r.<.<.>.>.&.>.&.&.>.>.>.<.5.p.g.Z._.-X:X2X<X#Xq.^ / ! ! ~ ~ &.>.<.w.p.m.V.).}.-X:X>X2X2X<X$X@X!.W.Y.yXuXpX0XlXM J R W Y D V r 0 1 o .   . X 1 7 r V D Y T R K M lX0XpXuXyXY.W.oX+X$X<X@X@X<X<X2X2X2X:X-X}.`.V.m.p.r.>.*.` ` ! ",
"2X<XE.B.Z._.}.-X;X>X2X2X<X<X#X@X!.W.Y.BXuXtXqX0XlXM K R Y Y I S i r 7 1 o X     . o 1 0 e i S I Y T R K M n rXwXXX@X&X$X<X<X2X2X2X2X>X;X-X-X'.).Z.V.m.p.t.*.&.~ ` ! ! Q / ^ ^ ) { } o.O.~.O.~.~.~.O.O.o.{ [ [ ) ^ ^ ^ Q Q ~ ~ &.>.r.p.m.B.Z._.}.}.-X;X:X>X>X2X2X2X<X<X%X@X@XJX0Xm M K R W Y I Z i w 7 1 o .     . 1 3 0 y V D Y T Y L H m hX9XtXtXyXY.T.!.+X@X$X2X2X2X2X:X-X}.'.V.V.p.t.r.>.A.$X<X2X>X-X}.Z.m.r.>.&.` ! Q ^ ^ ) ) ) ) ) ) ` &.` ~ ! ! / / ^ ^ ) { { } O.O.~.~.~.~.~.O.O.o.} [ [ ) ^ ^ ^ / Q ! ~ ~ &.9.T T E R L K J H n mX9XtXiXY.T.W.W.oXoXoX@X@XoXdX0XqXuXuXY.Y.W.!.+X$X<X2X2X2X:X-X*X).).m.g.t.w.>.>.&.~ ~ Q Q Q ^ ) [ { o.O.~.~.~.~.O.o.} [ ) ) ^ Q Q ! ~ &.&.>.<.r.p.M.!.#X<X<X2X2X2X2X2X2X2X2X2X<X<X%X@XW.R.yXtX0XM L F %.%.~ ~ ! ! ! / ^ ^ ) ) { { } O.O.~.~.~.~.~.~.O.O.o.} [ [ ) ^ ^ ^ ^ / Q ! ~ ~ &.>.g.r.r.>.>.&.>.%.&.&.&.&.>.>.>.<.r.g.M._.=X;X2X2X&XJ.^ / ! ! ~ &.>.>.w.r.m.m.).'.}.;X>X2X2X<X<X+XoXW.R.Y.uXtXqXkXm J L E T I Z y 0 3 O .     X 1 4 w i S Y Y E K H lXhXqXtXyXY.T.!.+X&X<X<X#X@X<X<X2X2X2X:X-X}._.V.m.t.w.>.&.` ( ",
"2X<X%X{.V.).}.}.;X>X>X2X2X<X$X#X!.W.T.Y.yXtXpX0XkXM J L E T Y D V t 0 2 < .     . o 1 7 0 i Z I Y T R K H lXlXqXiX@X@X%X<X<X2X2X2X>X>X:X-X*X}.'.).V.m.p.r.r.&.&.~ ~ Q ! Q ^ ^ ^ ) { } o.O.~.~.~.~.~.^.O.o.} [ ) ^ ^ ^ / Q ! ~ ~ &.>.p.m.M.Z.).'.}.-X;X:X>X2X2X2X2X2X<X<X&X@X@XFXlXM K R Y T I S i e 7 1 o .     . o 2 8 r N S Y T E L J M lXrXqXtXyXY.T.W.!.+X<X<X2X2X>X:X-X}.'.).V.m.p.r.<.>.K.$X<X2X>X-X_.V.p.w.>.&.! ! ^ ^ ^ ) ) ) ^ ) ^ ` ` ` ~ ! ! / / ^ ^ ) { { } O.O.~.~.~.~.~.~.O.o.} [ ) ) ^ ^ ^ / Q ! ~ ` &.9.Y T T E E L L H n mXqXtXyXBXR.W.!.oX+X@X@X@XoXaXqXpXuXY.T.W.!.@X&X<X2X2X>X:X-X}.'.).V.m.t.r.>.>.&.` ~ ! Q / ^ ^ [ { } O.~.~.~.~.~.O.} } ) ^ ^ Q Q ! ~ &.&.>.<.r.p.g.M..X$X$X<X2X2X2X2X2X2X2X2X2X<X<X+XoXR.Y.yXqXhXH E F &.%.~ ~ ! ! ! / ^ ^ ^ ) { } } O.O.~.~.~.~.~.~.O.O.o.} { ) ) ^ ^ ^ / Q Q ! ~ ~ &.>.r.r.<.>.>.&.%.&.%.&.&.~ >.&.>.<.<.p.M.).=X;X2X2X&XH./ ! ! ~ &.&.>.<.r.p.m.Z._.}.-X:X>X2X2X<X%X+XW.T.Y.uXtXqX0Xn H L E Y Y S i w 7 < X     . o 3 q y Z I T Y R H m hXrXtXyXY.T.W.oX&X<X2X2X,X@X$X<X2X2X>X:X-X}._.V.m.t.w.>.&.` ",
"2X2X<X%XU.)._.-X-X:X>X2X2X2X&X@X@XW.R.Y.G.tXpX8XkXm H K E T Y I Z y q 7 < o .   . . 1 2 w e C D U T E L J M hX0XqXyX@X%X%X<X<X2X2X2X2X:X:X-X*X'.).V.V.g.p.w.w.&.&.` ~ Q Q Q ^ ^ ) ) { } o.O.~.~.~.~.~.O.O.o.[ [ ) ) ^ ^ ^ Q ! ~ ~ &.<.g.M.V.)._.}.-X-X;X>X>X>X2X2X2X<X<X&X%X@X@XdXm H L E T Y D V y 0 3 O X .     X 1 7 w i Z I Y T R K M n hXqXtXuXY.Y.W.!.+X@X<X<X2X2X>X:X-X'.).V.M.p.r.w.>.>.J.$X<X2X:X-X_.V.p.w.&.&.` Q / ^ ^ ) ) ) ^ ^ ^ &.` ` ~ ! ! / / ^ ^ ) { { } o.O.~.~.~.~.~.O.O.o.} [ [ ) ^ ^ ^ / Q ! ~ ~ &.9.Y Y T T E R L J n hXpXtXG.BXW.W.!.oX@X@X@X@X@XaXpXuXyXY.T.!.+X&X$X2X2X2X>X;X-X'.).V.m.p.r.<.>.&.&.~ ~ Q Q / ^ ^ { } o.O.~.~.~.~.O.o.[ [ ) ^ ^ Q Q ~ ~ &.>.>.w.t.g.M.Z..X%X$X<X<X2X2X2X2X2X2X<X<X<X&X@XoXR.Y.uXqXlXJ Y c &.%.~ ! ! ! ! / / ^ ) ) ) { } o.O.~.~.~.~.~.~.O.O.o.} { { ) ^ ^ ^ ^ / / ! ~ ~ &.&.<.w.>.>.&.%.&.~ %.~ &.~ &.>.&.<.<.p.m.Z.}.;X2X2X<XU.>.! ! &.&.>.<.r.p.m.V.).}.=X;X>X2X2X<X&X@XoXR.Y.Y.tXqXrXlXM K R W Y D V r 7 2 X .   . X 1 7 r V D Y T R K M lX9XtXtXBXT.W.!.+X$X<X2X2X:X+X#X<X<X2X2X:X-X}._.V.m.t.w.*.&.",
":X2X2X<X#XP._.}.-X;X>X2X2X<X<X#X@X!.W.Y.BXuXpXqX0XlXM K R E T I Z i r 7 2 o .     . o 1 7 w N S I T Y R K M lXhXqXtXT.@X%X$X<X<X2X2X2X>X:X-X*X}._.).V.m.p.t.w.>.&.` ~ ~ ! Q / ^ ^ ) ) { } o.~.O.~.~.~.~.O.O.} } [ ) ^ ^ ^ / Q ! ~ ~ &.r.m.V.)._.}.}.-X;X:X>X2X2X2X2X<X<X<X&X%X%X@XzXH L R T Y I Z y w 4 1 . .   . . 1 3 0 t Z D Y Y E L H m hXwXpXuXyXY.T.!.oX&X&X2X2X2X>X;X-X}._.Z.m.g.r.w.<.&.>.J.$X2X2X:X}.`.m.i.w.&.` ! ! Q ^ ^ ^ ^ ^ ^ ^ Q &.%.~ ~ ! ! / / ^ ^ ) { { o.o.~.O.~.~.~.~.~.O.o.} [ ) ) ^ ^ ^ Q Q ! ~ ~ &.9.I Y Y T T E L J m 9XqXiXBXT.W.!.oX+X@X@X@X@X@XiXtXyXY.R.W.oX@X$X<X2X2X>X:X-X}._.V.m.g.t.r.>.&.&.&.~ Q Q / ^ [ [ { o.O.~.~.~.O.~.o.} ) ) ^ ^ Q Q ~ ~ &.&.>.5.r.g.m.Z._.{.%X$X<X<X2X2X2X2X2X2X2X<X&X%X+XW.R.BXtXrXn K T x ;.%.%.~ ! ! ! / ^ ^ ^ ) { { } o.O.O.~.~.~.~.~.~.O.o.} { [ ) ) ^ ^ / / Q ! ~ ~ ~ &.>.1.&.&.&.~ &.~ ~ ~ ~ ` ~ &.&.>.<.r.m.Z.}.;X>X2X<X#X,.~ ~ &.&.>.r.t.m.M.).'.-X:X>X2X2X<X$X%XoXW.T.yXuXtX9XkXm J R Y T D C y 0 2 O .     X < 7 e i S Y T R L H lXrXqXtXyXY.W.!.@X&X<X2X2X>X;X+X#X<X<X2X2X>X;X=X_.V.m.t.w.>.",
";X:X2X2X<X@X`.].-X;X:X>X2X2X<X&X@XoXW.T.Y.yXtXqX0XlXM J L Y T Y D V r 0 3 O X     . o 1 7 w y Z I Y T R K H vXhXwXtXtX!.@X&X&X<X<X2X2X2X>X:X-X}.'.).V.m.p.t.r.>.>.&.` ~ ~ Q ! / ^ ^ ) { { } O.~.~.~.~.~.~.O.O.} [ [ ) ^ ^ ^ / Q ! ~ &.&.u.M.Z._.'.}.-X-X:X:X>X2X2X2X2X<X<X&X%X@X@X@XxXJ R E T I S i r 7 1 O . .   . o 3 8 r N S Y T E L J M lX0XqXtXyXG.T.W.!.+X&X<X2X2X>X:X;X}.'.).V.g.p.r.<.>.&.&.J.$X2X2X;X}.).m.r.,.&.` ! Q / ^ ^ ^ ^ ^ ^ / Q &.%.~ ~ ! ! / / ^ ^ ) { { } o.~.~.~.~.~.~.O.O.o.{ [ [ ) ^ ^ ^ Q Q ! ~ ~ &.7.S D U Y T Y L H vXwXpXyXBXT.W.!.!.@X@X%X@X@X@XiXyXBXT.W.!.+X&X<X<X2X2X:X;X*X'.).V.g.t.w.<.>.&.~ ~ ! Q Q / ^ [ { } O.~.~.~.~.O.O.} } ) ) ^ ^ Q ! ~ %.*.>.>.r.t.m.M._.}.{.+X$X<X<X2X2X2X2X2X<X2X<X&X@XoXR.Y.yXtX0XM L T C ;.%.%.! ! ! ! / / ^ ^ ) ) { } o.O.O.~.~.~.~.~.~.O.O.} { [ ) ) ^ ^ ^ / / Q ! ~ &.&.>.>.&.&.~ ~ ~ ~ ~ ! ~ ~ ~ ` &.>.<.r.m.Z.}.-X>X2X<X$Xb.~ ~ >.>.<.r.p.M.Z._.}.-X:X>X2X2X<X@X@XW.R.Y.yXtXqXhXn H L E T Y S u w 4 < X     . < 3 0 u Z I Y T L H vXhXqXtXyXBXT.W.+X%X<X<X2X>X>X-X{.+X$X<X2X2X>X;X}._.V.m.t.w.",
"}.;X>X2X<X$XXX`.}.;X:X>X2X2X<X&X+XoX!.T.Y.yXuXtX9XhXm H K E T Y D Z y q 4 < X .   . . 1 2 0 y V D Y T E L H M lXrXqXtXyX!.@X%X<X<X2X2X2X>X:X-X*X}._.Z.M.m.p.w.w.>.&.&.~ ~ ~ Q Q / ^ ^ ) ) } } O.O.~.~.~.O.~.O.o.o.[ ) ) ^ ^ / / ! ~ ~ ~ &.g.V._._.}.-X-X:X>X>X2X2X2X2X2X<X<X&X&X@X@X+XnXL E Y Y D V t 0 3 O X     . X 1 7 w i Z I Y Y R K H lXhXqXtXuXY.T.T.!.+X#X<X2X2X2X>X-X-X'._.V.M.p.r.<.<.&.&.~ U.&X2X2X;X}.Z.m.r.>.&.` ! ! / / / / ^ / / / ! &.%.~ ! ! ! / ^ ^ ^ ) { { o.o.O.~.~.~.~.~.^.O.o.} [ [ ^ ^ ^ ^ Q Q ! ~ ~ &.7.C S D I T E R H lX9XtXyXT.T.W.!.+X@X@X%X@X@X@XBXyXT.R.!.oX&X<X2X2X2X>X-X*X}.).V.m.t.r.<.>.&.&.` ~ Q / ^ ^ ^ { } O.O.~.~.~.~.O.o.[ [ ^ ^ ^ Q ! ~ %.%.>.>.w.t.g.M.)._.}.OX@X&X<X<X<X2X<X2X2X<X<X$X%X+XoXW.Y.uXpXlXH R Y i -.%.%.~ ! ! ! / / ^ ^ ) ) { } o.o.~.~.~.~.~.O.~.O.o.o.} [ ) ) ^ ^ ^ / / ! ~ ~ ~ &.&.&.&.` ~ ~ ! ! ! ! ! ~ ~ ~ ~ >.<.r.m.Z.}.-X>X2X<X#XK.&.&.>.<.r.p.m.V._.'.-X:X>X2X2X<X&X+X!.R.Y.yXuXqX0XlXM K R T Y S V e 7 1 X .   . o 1 0 r C I Y T L J M lX9XtXuXY.T.W.oX%X&X2X2X>X:X-X}.].+X$X<X2X>X>X:X}.'.V.m.t.",
"'.-X:X>X2X<X&XXX}.-X;X>X2X2X<X<X%X@XW.W.Y.BXuXpXqXhXlXM K R E T I S i e 7 2 X .     . o 2 0 e V S I Y T R P M lXhXqXtXyXBXXX%X&X<X<X2X2X2X>X:X-X}.'.).V.m.p.t.w.>.>.&.&.~ ~ ! ! Q / ^ ^ ) { } } O.~.~.~.~.~.O.O.o.} [ ) ) ^ ^ / / Q ~ ~ &.&.Z._._.}.}.-X;X:X>X>X2X2X2X<X<X<X<X%X%X@X@XKXK R T Y I Z y w 4 1 . .     X < 3 q y C D Y T E L H n hXrXpXuXyXY.W.!.!.$X$X<X2X2X>X:X-X}._.V.h.g.r.w.>.>.&.` ~ P.$X2X>X-X}.Z.g.r.>.` ` ! ! Q / / / / / / / ! &.` ` ~ ! ! Q / ^ ^ ) { { o.O.O.~.~.~.~.~.~.O.o.[ [ [ ) ^ ^ ^ Q Q ! ~ ` &.: u V S D Y Y L H hXqXtXBXT.T.!.!.+X@X%X@X%X@X@XBXBXR.W.oX+X&X<X2X2X2X:X-X'.).Z.m.g.t.w.>.>.&.~ ~ ~ Q / ^ ) [ { o.O.~.~.~.~.~.o.} [ ) ^ ^ ^ Q ! ~ &.*.>.w.r.p.M.V._.}.-X;X@X&X$X<X<X2X2X<X<X2X<X$X@XoXHXR.BXuXqXlXJ E U t -.%.%.~ ! ! ! / / ^ ^ ) ) { { o.o.O.~.~.~.~.~.~.O.O.o.} [ [ ) ^ ^ ^ / / Q ! ~ ` &.&.&.~ ~ ~ ! ! Q Q Q Q Q ~ ~ ` &.<.r.g.V.}.-X:X2X2X$XK.r.>.>.5.p.g.B._.}.-X;X>X>X2X2X&X@XoXW.T.yXuXpX0XkXM J R E T I C t 0 2 X .     X 1 7 e i D I T E K M lXrXqXtXyXT.W.!.+X&X<X2X2X>X;X}.'.)..X#X<X<X2X>X:X}.'.V.m.",
").}.-X:X2X2X<X%X].=X;X>X2X2X2X<X&X+XoXW.T.Y.yXtXqXrXlXM J L Y T Y D V r 0 2 < X     . o 1 7 w y Z I Y W E P H n hXwXtXuXBXAX@X%X$X<X2X2X2X>X:X-X-X'._.Z.m.g.p.w.<.>.&.&.&.~ ~ ! Q / / ^ ) ) { } o.O.~.~.~.~.~.~.O.o.} { ) ^ ^ ^ / Q ! ~ ~ &.<.Z._.}.=X-X;X:X>X2X2X2X2X2X2X<X<X&X%X#X@X@XDXR E T I S i r 7 1 O .     . o 3 8 r N S Y T E L J M lX0XqXtXyXY.T.W.!.+X<X<X2X2X>X:X-X*X'.).V.m.p.r.<.>.&.&.~ ~ @X<X2X2X-X'.V.p.w.>.&.~ ! ! Q / / / / / ! ! ~ &.` ` ~ ! Q / ^ ^ ^ ) { { } O.O.~.~.~.~.~.O.O.o.} [ ) ) ^ ^ ^ Q Q ! ~ ~ &.;.e u C D Y Y K nXhXpXtXBXT.W.!.+X@X@X#X@X$X@X@XY.R.W.oX@X&X<X2X2X>X:X-X*X'.).V.m.t.r.>.>.&.` ~ Q Q / ^ ^ [ { } O.~.~.~.~.O.O.} [ ) ^ ^ Q Q ~ ~ %.&.>.<.r.p.m.V._.'.-X;X;X+X%X<X<X<X<X<X2X<X<X$X&X+XoXR.R.yXtXrXn K Y D e : %.%.` ! ! ! / / ^ ^ ) ) { } } O.O.~.~.~.~.~.~.O.O.o.} { ) ) ^ ^ ^ / Q Q ! ~ ~ ` &.&.~ ! ! ! Q Q Q Q Q Q Q ~ &.&.<.r.m.Z._.-X:X2X2X<X@X5.>.r.r.g.M.Z._.}.-X>X2X2X<X<X@X+XW.T.Y.yXtXqXhXm H L Y T I Z i q 3 < X     . 1 3 q i Z Y T E L H n hXqXtXyXBXR.!.oX$X<X2X2X>X:X-X}.).V.P.@X<X<X2X2X:X-X'.V.",
"V._.-X-X>X2X2X<X@X X;X;X>X2X2X2X&X@XoXW.R.Y.yXuXpX9XkXm H L R T Y D C y q 4 < X .     X 1 2 q y C D Y Y Y L H M hX0XqXtXyXG.R.@X%X$X<X2X2X2X2X:X-X*X'.).V.m.p.t.w.>.&.&.&.` ` ~ ! Q Q ^ ^ ^ ) { } o.O.~.~.~.~.~.O.O.o.{ { ) ) ^ ^ ^ Q Q ~ ~ &.<.`.}.}.-X;X;X>X>X2X2X2X2X<X2X<X<X%X&X@X@X@XGXE T Y D V r 0 3 O . .     o 1 7 w i S I Y Y R P M lXhXqXtXyXBXY.W.!.+X+X<X<X2X2X>X;X*X'.).V.m.p.t.w.>.&.&.` ~ ,.@X<X2X:X-X`.V.p.<.>.%.` ! ! Q Q / ! / / ! ! ` &.~ ~ ~ ! ! Q / ^ ) ) { { o.o.O.~.~.~.~.~.O.O.o.} [ [ ) ^ ^ ^ ^ Q ! ~ ` &.;.0 r N D Y Y J vX9XtXyXY.T.W.!.+X@X@X$X@X#X@X@XR.R.!.+X%X$X2X2X2X>X:X*X'.).V.m.p.r.w.>.&.&.~ ~ Q Q / ^ ^ { } o.~.~.~.~.~.O.o.[ [ ^ ^ ^ Q Q ~ %.&.*.>.r.t.g.M.Z.'.}.-X:X,X+X#X$X$X<X<X<X<X<X<X$X%XoXoXR.Y.yXpX0XM L Y A q $ %.%.` ! ! ! ! / / ^ ) ) { { } o.O.~.~.~.~.~.~.O.O.o.} { [ ) ^ ^ ^ ^ / / ! ~ ~ &.&.~ ~ ! Q Q / / / Q Q Q Q ~ ~ &.<.r.m.V.'.-X;X>X2X<X%Xu.<.r.p.M.V._.}.-X;X>X2X2X<X&X@XW.W.Y.yXtXqX0XlXH L R T Y D i e 4 1 X .   . o 3 0 t Z D Y T L J m kX9XtXuXG.T.W.+X@X<X<X2X>X:X-X}._.Z.m.B.E.%X<X2X2X:X-X}.",
"m.Z._.-X:X>X2X<X&X+X-X;X>X2X2X<X&X#X@X!.R.Y.BXuXpXqX0Xn M K R E T I S i e 7 2 X .     . o 1 8 e i S I T T L K M lX0XqXtXyXBXT.!.+X&X<X<X2X2X>X:X;X-X}._.).m.g.t.w.>.>.&.&.&.` ~ ~ ! Q Q ^ ^ ) ) { } o.O.~.~.~.~.~.~.o.o.{ [ ) ^ ^ ^ / Q ! ~ ~ &.<.].}.=X;X:X:X>X2X2X2X2X2X<X<X<X&X%X$X@X@XoXGXT Y D Z u q 4 < o     . . 1 3 0 y V D Y T E L H m hX9XpXuXyXY.T.!.oX&X&X2X2X2X>X;X-X}.'.V.m.g.r.w.>.>.&.~ ~ ! ,.@X<X2X:X-X_.m.p.<.>.` ` ! ! ! ! Q ! ! ! ! ~ ` &.` ~ ~ ! Q / ^ ^ ^ ) { { o.o.~.~.~.~.~.~.~.O.o.} [ ) ) ^ ^ ^ Q Q ! ~ ~ &.=.7 w u S Y Y J kXwXtXyXY.W.!.!.@X&X@X%X$X@X@X+XW.W.oX+X<X<X2X2X>X;X-X}._.V.m.p.r.w.>.&.&.~ ~ Q Q ^ ^ ) [ } o.O.O.~.~.~.O.o.} [ ) ^ ^ Q ! ~ ~ %.*.>.<.r.p.m.Z._.'.-X:X>X<X@X%X&X$X<X<X<X<X<X$X&X+X@XW.R.BXyXqXhXH R Y B 9 $ %.%.%.! ! ! Q / ^ ^ ^ ) { { } o.O.~.~.~.~.~.~.~.O.o.} } ) ) ) ^ ^ ^ / Q ! ~ ~ ~ &.~ ! Q / / / / ^ ^ ^ Q Q Q &.&.>.r.m.V._.-X:X2X2X<X$XK.r.t.g.V._.'.-X:X>X2X2X<X$X+XoXW.Y.yXuXtX9XlXM J R T T D V r 0 1 o .   . X 1 7 r N D Y T R K M lX0XpXuXBXT.W.!.+X$X<X2X2X>X;X*X_.Z.M.p.r.E.#X<X2X2X>X-X",
"p.V.).}.-X:X>X2X<X%X+X;X>X2X2X2X<X&X@XoXW.R.Y.uXuXqX0XlXm J R Y W Y D B r 0 2 < X     . o 1 7 w i Z I Y T R K H vXhXwXtXuXyXT.W.!.+X&X<X<X2X2X>X:X-X*X'.).V.m.p.r.w.>.&.&.` &.&.! ~ ! Q Q ^ ^ ) ) { } o.O.~.~.~.~.~.~.o.o.{ [ ) ^ ^ ^ / Q ! ~ ` &.Z.=X=X;X;X>X>X>X2X2X2X2X2X<X<X&X&X%X@X%X@XoXNXT I S i e 7 2 O .     . O 3 8 r V S Y Y E L J M lXrXqXtXyXY.T.W.!.+X$X<X2X2X>X:X;X}.'.).V.g.p.r.<.>.&.&.~ ~ Q ,.#X<X2X:X-X).m.t.<.*.%.` ! ~ ! ! ! ! ! ! ~ ` &.&.~ ` ~ ! ! Q / ^ ^ ) { { o.o.O.~.~.~.~.~.O.O.o.[ [ ) ) ^ ^ ^ ^ Q ! ~ ` &.=.3 0 u D Y R H hXqXuXBXT.W.!.+X@X&X%X%X&X%X@X@XW.oX@X&X<X2X2X2X:X-X*X'.).V.g.t.w.<.>.&.` ~ ! Q Q ^ ^ ) { } O.~.~.~.~.O.O.} [ ) ) ^ ^ Q ! ~ %.*.*.<.r.p.m.V.).}.-X;X:X2X2X%X&X$X$X<X<X<X<X$X&X%X@XoXW.R.yXuXqXlXJ E U u 8 $ &.%.` ~ ! ! ! / / ^ ^ ) { { } o.O.O.~.~.~.~.~.O.O.O.} } [ ) ) ^ ^ ^ ^ / Q ~ ~ ` &.&.Q Q / ^ ^ ^ ^ ^ ^ / Q Q ` >.<.r.m.V._.-X;X>X2X<X<XE.t.g.M.Z.'.}.;X:X>X2X2X<X@XoXW.R.Y.uXpXqXhXm J L E T I S y q 3 O . .   X 1 3 w i S I T E L H lXhXqXtXyXY.T.!.+X$X<X2X2X>X:X-X'.).M.g.t.w.u.@X<X<X2X>X",
"t.m.V._.}.;X:X2X2X<X#X+X:X>X2X2X<X$X+XoXW.T.Y.yXuXpXrXkXM H K E W Y D C y q 4 < X .   . . 1 3 0 y Z D Y T E L J m lXwXqXtXyXBXT.W.@X+X$X<X2X2X2X:X:X-X}._.).m.m.t.w.>.>.&.~ ` ` &.~ ! ! Q / ^ ^ ) { { o.O.O.~.~.~.~.O.~.O.} { [ ) ^ ^ ^ / Q ! ~ ~ &.Z.=X;X:X:X>X2X2X2X2X2X<X<X<X<X&X%X$X@X@X@XoXUXY D V t 0 2 < .     . o 1 7 w u S I T Y R K M lXhXqXpXyXY.T.W.!.+X#X<X2X2X>X>X;X-X'._.V.m.p.r.<.>.&.&.~ ~ ! Q >.#X<X2X;X=X).m.r.,.*.&.` ~ ~ ! ! ! ! ! ` ~ ` &.&.` ~ ! ! Q / ^ ^ ) ) { { o.O.O.~.~.~.~.~.~.o.o.} [ [ ^ ^ ^ ^ Q Q ! ~ ~ &.$.2 0 u D T L M rXqXyXY.T.W.!.@X@X%X&X%X%X%X#X@X!.@X%X<X2X2X2X>X-X-X'.).V.m.p.r.<.>.&.&.~ ~ Q / ^ ^ [ [ } o.~.~.~.~.~.O.o.[ [ ^ ^ / Q ! ~ %.%.>.<.5.t.g.V.Z.'.}.-X>X>X2X2X@X@X$X$X$X$X<X<X&X&X+XoX!.W.Y.yXtXrXn J Y I u 4 o $.%.~ ~ ! ! ! / / ^ ^ ) ) { } o.O.O.~.~.~.~.~.~.O.O.} } [ ) ) ^ ^ ^ / Q Q ~ ~ ~ &.~ / Q ^ ) ^ ) ) ^ ^ / Q ~ ` &.<.r.g.V._.-X;X>X2X<X$X@XB.m.V._.}.-X:X>X2X<X<X&X+XW.T.Y.yXuXqXhXlXH P E Y Y S i w 7 1 .     . o 3 0 y Z I T Y L J m hXqXpXyXY.T.W.oX&X<X2X2X>X:X-X}._.V.m.p.r.<.y.U.&X<X2X",
"w.p.m.).'.-X:X>X2X2X<X@X,X2X>X2X<X<X#XoX!.W.Y.BXuXtX8X0XlXH K R Y T I S u e 7 1 <       . o 2 7 e i S U Y T L P M lXhXqXtXyXBXT.W.!.@X%X$X<X2X2X2X>X;X-X'._.V.m.p.r.<.>.&.&.~ &.~ ` ~ ! ! Q Q ^ ^ ) { { } O.O.~.~.~.~.O.O.O.} [ [ ) ^ ^ ^ / Q ! ~ ~ &._.;X;X>X:X2X2X2X2X2X2X<X<X<X&X%X&X@X%XoX@XoXP D Z y q 4 < o       . 1 3 q y C D Y T E L H n hX0XtXtXyXY.T.!.oX$X$X<X2X2X>X;X-X}.).Z.m.g.t.w.<.>.&.~ ~ ~ Q Q >.#X2X2X;X}.).m.r.,.*.&.` ` ~ ~ ! ! ~ ~ ` ` %.&.&.` ` ! ! ! Q ^ ^ ^ ) { { o.O.O.~.~.~.~.~.^.O.o.} ) [ ) ^ ^ ^ Q Q ! ~ ` &.$.1 0 i I T P n wXtXyXY.W.W.XX@X&X@X<X%X&X%X@X@X@X#X$X<X2X2X>X:X-X}._.V.m.g.t.w.>.*.&.` ~ ! Q / ^ ) [ { o.O.~.~.~.~.O.o.} [ ) ^ ^ / Q ~ ~ %.*.>.w.r.g.m.Z._.}.-X;X>X2X2X2X@X@X$X&X$X$X$X<X&X$X@XoXW.W.Y.uXpX0XM L Y D t 9 O $.&.%.~ ! ! ! / / ^ ^ ) ) { { o.O.O.~.~.~.~.~.~.O.O.o.} [ ) ) ^ ^ ^ ^ / Q ! ~ ~ &.&.Q ^ ^ ) ) ) ) ) ^ ^ Q ~ ` &.<.r.m.V._.-X-X>X2X2X<X+XC.V.).}.=X;X>X2X2X<X$X@XoXW.Y.yXuXpX0XlXM P R T Y D V r 7 1 O .     X 1 7 r V D Y T R K M lXwXpXuXyXT.W.!.+X$X<X2X2X:X;X}.'.Z.M.p.r.<.>.&.n.%X<X",
"<.r.p.V.).}.-X:X2X2X<X<X@X;X2X2X2X<X&X+X!.W.Y.Y.uXpXqX0XlXM J L E T Y S V r 0 3 o X     . X 1 7 w i Z I Y T E K M n hXwXtXyXBXBXW.!.oX@X$X<X<X2X2X>X:X-X}._.).M.g.t.w.>.*.&.` Q &.&.` ` ! Q Q ^ ^ ^ ) { } o.O.O.~.~.~.~.~.O.o.} [ [ ^ ^ ^ / / ! ~ ~ &.&._.:X:X2X2X2X2X2X2X<X2X<X<X$X&X%X&X@X%XoXoXoXJ Z N e 7 2 O .     . O 2 8 r V S Y T E L J M lXrXqXtXyXY.T.!.oX@X$X<X2X2X>X:X-X}.'.).V.m.t.r.<.>.&.&.~ ~ Q Q ^ >.#X2X2X;X}.V.m.r.w.&.&.%.~ ~ ~ ` ~ ` ~ ` &.&.>.&.` ` ! ! Q / ^ ^ ) ) { } } O.O.~.~.~.~.~.O.O.} } [ ) ) ^ ^ ^ Q Q ! ~ ~ &.$.< 0 B I Y J kXqXtXyXT.W.!.+X@X&X%X&X&X%X$X@X@X@X&X<X2X2X2X:X-X}.`.Z.B.g.t.w.>.>.&.` ~ Q Q / ^ ^ [ { o.O.O.~.~.~.~.O.} [ ) ^ ^ Q Q ~ ~ %.*.>.<.r.p.m.V.).}.-X;X>X2X2X<X<X@X@X%X%X&X&X&X$X@X$XoXoXW.R.Y.uXqXhXM R Y D t 9 1 $.&.~ ` ! ! ! / / ^ ^ ) ) { } } O.O.~.~.~.~.~.~.O.O.o.} } ) ) ^ ^ ^ / / Q ! ~ ~ &.&.^ ^ ) ) ) { ) ) ^ ^ Q ! &.&.<.r.m.V._.-X;X>X2X<X<X#X!.Z._.-X;X>X2X2X<X&X+XoXW.T.Y.uXpXqXkXm J L E T I C y 0 3 O .     X < 7 w i S Y T E K H lX0XqXtXyXT.W.!.oX$X<X2X2X>X;X-X_.).M.g.r.w.>.&.&.<.@X",
">.w.p.m.V.'.}.-X>X2X2X<X$X@X2X2X2X<X$X$XoXW.R.Y.BXuXqX0XhXM H L Y W Y D C y q 3 1 X .   . X 1 2 w y C D U Y E L J m hX0XqXtXyXG.T.W.+X@X@X&X<X<X2X2X>X:X-X'._.V.M.p.r.<.>.&.` ` Q &.` ` ~ ! Q Q ^ ^ ^ ) { } o.O.~.O.~.~.~.O.O.o.} [ [ ) ^ ^ / / Q ~ ~ &.<.;X>X>X>X2X2X2X2X2X<X<X<X<X$X&X@X%X@X%XoXoXoXH V t 0 2 O o     . o 1 7 w u Z I T Y R P M lXhXqXtXyXyXT.T.!.+X%X<X<X2X2X>X;X-X'.).V.m.g.r.<.>.&.&.~ ~ ~ Q / ^ q.#X2X2X;X}.V.m.w.w.>.&.&.` ` ~ ` ~ ` %.%.&.&.>.%.` ` ! ! ! Q ^ ^ ^ ) { } o.o.~.~.~.~.~.~.~.O.o.} ) ) ) ^ ^ ^ Q Q ! ~ ` &.$.< q C Y R H hXqXyXBXT.!.!.+X%X&X&X&X<X%X&X%X@X%X<X<X2X2X>X-X-X'.).V.m.p.r.<.>.&.&.~ ~ ! Q / ^ ) { } o.~.~.~.~.O.O.o.[ [ ^ ^ ^ Q Q ~ %.%.>.>.5.t.m.M.Z._.-X-X:X>X2X2X<X&XoX@X%X%X&X&X&X%X@X&XoXW.W.R.BXuXrXkXH R Y S y 0 3 : &.~ ` ~ ! ! Q / ^ ^ ) ) { { } o.O.~.~.~.~.~.~.O.O.o.} } ) ) ) ^ ^ ^ / / Q ! ~ &.&.` ) ) { { { { ) ^ ^ Q ~ &.>.<.r.m.V._.-X-X>X>X2X<X$XXX].].;X:X>X2X2X<X&XoXW.R.Y.yXtXqX0Xn H L E Y Y S i w 4 < X .   . < 3 0 y Z I T Y L J vXhXrXtXyXyXT.!.+X$X$X2X2X2X:X-X}._.V.g.p.r.>.>.` ` ! ",
">.<.r.p.m.Z.'.-X;X>X2X2X<X%X#X2X2X<X<X@X+XW.W.T.yXuXtXqXhXlXH K R W Y I S i e 7 1 o .     . o 2 0 e i S Y T Y R J M lX0XqXtXyXBXT.W.!.@X@X+X$X<X2X2X>X>X-X-X_._.h.m.t.w.>.*.&.` ! Q ` ` ` ~ ! Q Q ^ ^ ) ) { } o.O.~.~.~.~.~.^.O.o.} [ ) ) ^ ^ / Q ! ~ ~ &.r.:X>X2X2X2X2X2X2X<X<X<X$X&X%X%X%X%XoX@X@X@XSXZ y q 4 1 .     . . 1 3 q y Z D Y W E L H m kX9XtXtXG.Y.W.W.+X$X$X2X2X2X>X;X-X}._.Z.m.p.r.r.>.>.&.%.~ Q Q / ^ ^ q.&X2X2X-X}.V.m.y.,.,.&.&.%.` ` ` ` ` %.&.*.>.>.&.` ` ! ! Q / ^ ^ ) ) { { o.O.O.~.~.~.~.~.O.O.} } [ ) ) ^ ^ ^ Q Q ! ~ ~ &.$.1 w A Y L M wXqXyXT.T.!.@X+X%X&X<X$X<X&X%X%X@X&X<X2X2X:X:X-X}._.Z.m.p.t.w.>.&.&.` ~ Q Q ^ ^ ) [ } o.O.~.~.~.~.~.o.} [ ) ^ ^ Q Q ~ %.%.*.>.w.t.p.m.Z._.}.-X:X>X2X2X<X&X+XoX+X%X%X%X%X&X&X@X@X+XW.R.Y.yXtX8XlXK R Y D i e 8 5 &.` ` ~ ! ! Q / ^ ^ ^ ) { { } o.O.O.~.~.~.~.~.~.O.o.} } [ ) ) ^ ^ ^ / / ! ~ ~ ~ &.&.{ { } } } { ) ^ Q Q ~ &.>.<.r.m.V._.=X-X>X2X2X<X$XoX=X-X;X>X2X2X<X$X@XoXR.Y.yXuXqX0XlXM K R T Y D V r 7 2 X     . o 1 8 r C D Y T R J m lX9XpXuXY.T.W.oX@X<X<X2X>X:X;X}._.Z.M.p.r.<.>.&.` ` ",
"&.>.w.r.m.V.).}.-X:X>X2X2X<X%X+X2X2X<X&X@X!.W.T.Y.uX5XqX0XlXM J L Y T Y S V r 0 3 o X     . o 1 4 w i Z I Y T R K H vXhXwXtXtXyXT.W.W.+X%X@X#X$X<X2X2X>X:X-X}.).Z.m.g.r.w.>.&.` ` Q ` &.` ~ ~ ! Q Q ^ ^ ) ) { } o.O.~.~.~.~.~.O.O.o.{ [ [ ^ ^ ^ ^ Q Q ~ ~ &.r.2X2X2X2X2X2X<X2X<X<X<X$X&X%X%XoX%XoX@XoXoXSXN e 8 1 O .     . O 2 8 r N S Y Y E L J M lXrXqXtXyXY.T.W.!.+X$X<X2X2X>X:X;X}.'.).V.g.p.r.<.>.&.&.~ ~ ! Q / ^ ) X.&X2X2X-X'.V.g.i.q.,.*.&.&.` ` ` %.%.&.&.>.<.*.` ` ` ! ! ! / ^ ^ ) ) { { o.o.~.~.~.~.~.~.~.O.o.} [ [ ) ^ ^ ^ Q Q ! ~ ~ &.$.2 t D Y K lXwXtXyXT.W.!.@X%X&X$X<X<X<X&X&X%X@X<X2X2X2X:X-X}.'.Z.B.g.t.w.<.>.&.~ ~ ~ Q Q ^ ^ ) { } O.~.~.~.~.O.O.} [ [ ^ ^ ^ Q Q ~ %.*.>.>.t.p.m.V._.}.}.:X:X>X2X<X<X@X@XW.+X@X$X%X&X&X#X@X@XoXW.R.Y.uXpX0XlXK U Y D V y r a &.` ~ ` ! ! ! Q ^ ^ ^ ) { { } o.o.~.~.~.~.~.~.O.O.O.} } [ ) ) ^ ^ ^ / / Q ! ~ ~ &.&.{ o.} } } { ^ ^ ^ Q ~ &.>.<.r.m.V._.=X;X:X>X2X<X<X@XOX;X:X2X2X<X<X+XoXW.R.BXuXpXrXhXM J R E T I C y 0 2 O .     . 1 7 w i S Y T E K H lXrXqXtXyXY.W.!.+X&X<X2X2X>X:X}._.).M.g.r.w.>.>.` ~ ",
"` >.>.r.p.M.V._.-X-X>X2X2X<X$X+X<X2X<X$X+XoXW.T.Y.yXuXpX0XhXm H L E W Y D V y q 3 1 X .   .   1 4 0 y C D Y T E L J m lXwXqXtXBXBXT.!.!.@X<X@X%X&X2X2X2X>X;X-X}.).V.m.t.r.>.&.&.` ! Q ~ &.` ~ ! ! Q Q ^ ^ ) ) { } o.~.O.~.~.~.~.O.O.o.{ ) ) ^ ^ ^ / Q ! ~ ~ &.r.2X2X2X2X2X2X<X<X<X$X&X%X%X%X%X%X@X@XoXoXoXCXt 8 3 O o     . O 1 7 w i S I T Y R P M lXhX8XtXuXY.Y.W.!.@X$X<X2X2X>X>X-X-X'._.V.m.p.r.<.>.&.&.~ ~ Q Q / ^ ) ) L.<X<X>X-X'.V.g.i.w.>.>.&.&.&.&.%.&.&.&.>.>.w.>.&.` ~ ! ! Q Q ^ ^ ) ) { { o.O.O.~.~.~.~.~.O.O.o.} [ ) ) ^ ^ ^ Q Q ! ~ ~ &.=.3 u Y E H kXqXiXBXT.W.@X@X%X&X<X<X<X<X<X&X%X@X&X2X2X:X;X*X'.).V.m.p.r.<.>.&.&.~ ~ Q / ^ ^ [ { } o.~.~.~.~.~.O.o.[ ) ^ ^ / Q ~ ~ %.%.>.<.w.t.g.M.)._.-X-X:X2X2X2X<X$X@XoXW.+X@X&X@X$X@X#X@XoX!.W.R.BXuXpX0XM K E Y U S V B f ;.&.` ~ ! ! Q / ^ ^ ^ ) ) { } o.O.O.~.~.~.~.~.~.O.O.o.} [ ) ) ^ ^ ^ / Q Q ! ~ ~ ~ &.| o.@.} } { ) ^ Q ~ ~ &.>.r.r.m.V._.}.;X>X2X2X<X<X@X+X>X2X2X2X<X@X+XW.T.Y.uXtXqX0Xn H L Y T I S u w 3 < X     X o 3 w y S I T E L H n hXqXtXyXY.T.W.+X&X<X2X2X>X;X-X}.).V.g.t.r.>.&.&.` ",
"` &.>.<.r.p.V.).'.-X;X:X2X2X<X&X@X<X<X<X%X@XW.W.Y.BXuXpXqXhXm M K R Y T I S i w 7 1 o .     . o 2 0 e V S U Y T R J M lXhXqXtXtXG.AXW.!.@X%X#X@X$X$X<X2X2X>X;X*X'.).m.g.t.w.>.&.` ` Q Q ^ &.` ` Q ! Q / / ^ ) { { } o.~.~.~.~.~.~.O.O.} } [ ) ^ ^ ^ / Q ! ~ ` &.B.2X2X2X<X2X<X<X<X$X$X$X%X%X%XoX%XoX%XoXoXoXVXq 4 1 . .   . . 1 3 q y V I Y T E L H n hXrXpXuXyXY.W.W.+X%X$X<X2X2X>X:X-X}.).Z.M.g.r.w.<.>.&.~ ~ ! Q Q / ^ ) { Z.<X2X2X-X'.V.g.i.w.,.*.&.&.&.&.&.&.*.*.,.<.r.>.&.` ` ! ! Q Q ^ ^ ) ) { { o.o.~.~.~.~.~.~.O.O.o.[ [ [ ) ^ ^ ^ Q Q ! ~ ~ &.=.8 C Y R M hXpXyXBXW.!.XX%X&X$X<X<X<X<X<X&X%X@X%X2X>X;X-X}.`.V.m.p.t.w.>.&.&.~ ~ ! Q / ^ ) [ { o.O.~.~.~.~.O.o.} [ ) ^ ^ / Q ~ ~ *.*.>.w.t.p.M.Z._.}.-X;X>X2X2X<X$X@XoXW.R.!.+X&X@X$X@X%X@XoXW.W.R.BXuXqXhXM L Y Y Y U S Z Z 7.` %.~ ! ! ! Q / ^ ^ ) ) { { o.o.O.~.~.~.~.~.~.O.O.o.} { [ ) ^ ^ ^ ^ / Q ! ~ ~ &.&.| @.@.o.} { ^ ^ Q ~ ~ &.>.r.p.m.Z._.=X;X:X>X2X2X&X&X+X<X>X2X<X&X@XoXR.Y.BX4XrX0XlXM K R T Y D V e 7 1 X .   . o 2 0 r V I Y T R J M hX9XtXyXBXT.W.!.#X$X2X2X2X:X;X}._.Z.M.p.r.<.>.&.` ",
"` ` >.>.w.p.m.V.).}.-X:X2X2X2X<X&X@X2X<X#X@X!.W.T.BXyXtXqXrXlXM J L E T Y S V r 0 3 o X     . o 1 8 w y S I Y T R K M n hXwXtXyXBXBXW.!.@X%X<X$X@X$X<X2X2X>X:X-X}._.V.m.p.r.>.>.&.` Q Q Q ( &.` ` Q ! Q ^ ^ ^ ) { { o.O.O.~.~.~.~.~.O.O.} { [ ) ^ ^ ^ / Q ~ ~ ~ &.].2X2X2X<X<X<X$X&X$X%X%X%XoX%XoX+XoX+XoXoXoXiX7 1 O .     . O 2 8 r V S Y T Y L J M lXrXqXtXyXY.T.W.oX@X<X<X2X2X>X:X-X}.'.).V.p.p.r.<.>.&.&.~ ~ Q / ^ ^ ^ { } L.1X2X>X-X'.V.N.i.w.w.,.*.*.*.&.*.&.>.>.<.w.t.>.&.` ~ ! ! Q Q ^ ^ ) ) { { o.O.O.~.~.~.~.~.O.o.o.} [ ) ) ^ ^ ^ Q Q ! ~ ~ &.=.q S Y L m 9XtXBXZXW.!.@X%X$X<X<X2X<X<X<X<X%X@X%X2X:X-X}.`.Z.M.g.t.w.>.>.&.&.~ Q Q / ^ ^ [ { o.O.O.~.~.~.O.o.o.[ ) ^ ^ Q Q ~ ~ %.%.>.<.r.p.m.V._.'.-X:X>X2X2X<X<X+XoXW.R.Y.W.+X@X%X#X@X@X@XoXW.R.Y.yXtXqXlXM K E T Y Y Y I D 9.%.` ~ ~ ! Q Q / ^ ^ ) ) { } } O.O.~.~.~.~.~.~.~.O.o.} { [ ) ) ^ ^ ^ / Q Q ~ ~ ~ &.] @.@.+.{ { ^ ^ Q ~ &.&.<.<.p.m.Z._.}.;X:X2X2X2X&X&X+X<X2X<X$X+XoXW.Y.BXuXtX0XhXM J R W Y I V t 0 3 X .   . X 1 4 r B S Y T R K M lXrXqXuXyXY.W.!.+X$X<X2X2X>X;X}.}.Z.h.g.r.w.>.&.%.",
"~ ` &.>.<.r.p.m.).`.}.-X:X2X2X2X&X%X@X<X<X+XoXW.T.Y.yXuXqX9XkXm H L E Y Y I V y q 3 1 X .   . . 1 2 w y C D U Y E L J m hX0XqXtXyXG.T.W.XX@X<X<X<X@X$X<X2X2X>X:X-X'.).V.p.t.w.>.&.` ` Q Q ^ ` ` ` ` Q ! Q / ^ ^ ) { { } O.~.~.~.~.~.O.O.O.} [ [ ) ^ ^ ^ / Q ! ~ &.&.].<X2X<X<X<X$X$X%X%X%X%X%XoX%XoXoXoXoXoXoXoX5X3 O . .   . o 1 7 w i Z I Y T R K M n hXqXtXuXY.Y.W.!.+X@X<X<X2X2X>X-X-X'.).V.M.p.r.w.>.&.&.` ~ ~ Q / ^ ) ) { o.).,X2X>X-X'.V.B.i.w.w.,.*.*.*.*.*.>.>.<.w.r.p.>.&.` ` ! ! Q Q ^ ^ ) ) { } o.o.~.~.~.~.~.~.~.O.o.[ [ [ ) ^ ^ ^ Q Q ! ~ ~ &.=.t I Y J lXwXtXG.T.!.!.%X&X$X<X<X2X<X2X<X<X%X@X%X>X-X-X`.).V.m.p.r.<.>.&.` ~ ~ ! Q / ^ ) { } o.~.~.~.~.~.O.} [ [ ^ ^ ^ Q ! ~ ~ *.>.>.5.p.g.V.Z.'.}.;X:X>X2X2X<X&XoX!.R.T.yXW.@X@X%X%X%X@XoXoXW.R.Y.yXpXrXkXM K R Y E W T T Y 7X&.` ` ! ! ! Q / ^ ^ ) ) { { } o.O.~.~.~.~.~.~.O.O.O.} { [ ) ) ^ ^ ^ / / Q ~ ~ ~ &.] @.@.o.{ ) ^ ^ Q ~ &.&.<.r.p.M.Z._.=X-X:X>X2X2X<X$X@X@X2X&X%XoXHXW.Y.yXpXqXhXm H L E T U S y w 3 < .     X < 7 0 i S I T Y L H n hXqXtXyXY.T.!.+X$X$X2X2X>X:X-X'.).V.m.t.w.>.>.` ",
"! ~ ` >.>.w.r.m.V.).'.-X:X>X2X2X2X&X%X+X$X%X@X!.W.T.yXuXtXqXhXn M K R T T D S i w 7 1 o .     . o 2 0 e N S Y T Y R J M lX0XqXtXyXBXT.W.!.@X%X<X2X&X+X$X<X2X2X>X;X*X'.Z.V.p.r.<.>.&.` ! Q / ^ ' &.` ~ ! Q Q ^ ^ ^ ) { } o.O.O.~.~.~.~.~.O.o.} [ ) ) ^ ^ / Q Q ~ ~ ~ &.].<X<X<X$X&X$X%X%X%X%XoX%XoX+XoXoXoXoXoXoXoXp < o     . . < 4 0 y C I Y T R L H m hXqXpXyXyXY.W.W.+X&X<X2X2X2X>X:X-X}._.Z.h.p.t.w.>.>.&.~ ~ Q Q / ^ ^ ) { } o.`.1X2X>X-X'.V.N.p.r.w.w.>.>.>.>.>.>.>.w.r.t.m.<.&.` ` ! ! Q Q ^ ^ ) ) { { o.O.O.~.~.~.~.~.O.O.o.} [ ) ) ^ ^ ^ / Q ! ~ ~ &.-.i I E H hXqXiXY.T.!.+X%X<X<X<X<X2X<X2X<X<X<X@X%X;X-X}._.Z.M.p.r.w.>.&.&.` ~ Q Q ^ ^ ) { { o.O.~.~.~.^.^.o.} [ ) ^ / Q Q ~ %.%.*.>.w.t.p.m.Z._.}.-X:X>X2X2X<X$X+XoXW.Y.Y.uXW.@X@X@X@X@X+XoXW.W.T.BXyXpX8XlXM K L E E E Y W T G &.` ` ~ ~ ! Q Q ^ ^ ^ ) { { } o.O.O.~.~.~.~.~.~.O.O.} } [ ) ) ^ ^ ^ / Q Q ~ ~ ~ ~ &.+.O.o.{ ^ ^ Q Q ~ &.>.<.r.p.M.Z.'.}.;X>X>X2X2X<X$X%X+X<X&X+XW.R.Y.yXuXqX0XlXM K E W Y S B r 4 1 X .   . o 1 0 y V I Y E R J nXhX9XtXuXY.T.W.oX%X<X2X2X>X:X-X}._.V.m.p.r.>.*.&.",
"! ~ ` &.>.<.r.p.m.V.'.}.-X:X>X2X2X<X&X@X$X#X@X!.W.T.Y.uXtXqX0XlXM J L E T Y S V r 8 3 o X     . o 1 4 w i Z I Y T R K H vXhXqXtXtXBXT.T.!.+X%X$X<X2X%X%X<X<X2X2X>X-X}._.V.m.t.w.>.*.` ` ! Q ^ ^ ` ` ` ( ! ! Q ^ ^ ) ) { } o.O.~.O.~.~.~.O.O.o.} [ ) ) ^ ^ ^ / Q ~ ~ &.&.E.<X<X$X$X%X%X@X%X@X+XoX+XoXoXoXoXoXoXoXoXoX6 O .     . O 2 8 r N S Y T E L J M lX0XqXtXyXBXT.W.!.+X$X<X2X2X>X:X;X*X'.).V.m.t.r.<.>.&.&.~ ~ Q Q / ^ ) ) } o.O.).1X2X>X-X'.).N.p.i.w.w.>.>.>.>.>.w.<.r.t.g.h.<.` ` ` ( ! Q Q ^ ^ ) ) { { o.o.~.~.~.~.~.~.O.O.o.} [ ) ) ^ ^ ^ / Q ! ~ ~ &.;.C Y R M rXpXyXT.W.!.+X&X<X<X2X<X2X<X2X<X<X&X@X%X-X}.`.Z.M.g.t.w.<.>.&.~ ~ ~ Q / ^ ^ ) { o.O.~.~.~.~.O.O.{ { ) ) ^ ^ Q ! ~ %.>.>.>.r.p.m.V.).}.-X;X:X>X2X<X<X+XoXW.R.Y.yXuXBX@X@X@X@X@XoXoXW.W.R.BXuXpX0XlXm H K D R R Y R Y G &.` ~ ~ ~ ! Q Q / ^ ^ ) ) { } o.O.O.~.~.~.~.~.~.O.O.o.} [ ) ) ) ^ ^ ^ / Q ! ~ ~ &.&.+.+.} { ^ ^ Q ~ ~ &.>.<.r.p.V.Z.}.}.;X:X>X2X2X<X<X@X@X&X@XoXW.Y.yXuXpX0XlXM J R Y Y I V t 0 2 O .     X 1 7 e V D Y Y R P M lXrXqXuXyXT.W.!.+X$X<X2X>X>X;X*X'.V.m.p.t.w.>.&.",
"! ~ ~ ` >.>.w.t.p.V.).'.*X-X:X2X2X2X<X&X@X$X@XoXW.T.Y.yXtXpXrXkXm J L E T Y I V y q 3 1 o .   .   1 4 0 y C D Y T E K J m kX0XqXtXyXBXW.W.oX@X&X<X2X2X#X%X<X2X2X>X:X-X'.).V.g.t.<.>.&.~ ! Q / ^ _ &.` ` ! ! Q Q ^ ^ ) ) { } o.O.~.~.~.~.~.~.O.o.} [ [ ^ ^ ^ / Q Q ~ ~ &.r.$X$X$X%X%X%X%X@X+XoX+XoXoXoXoX!.!.oX!.oXoXoX- .     . o 1 7 w i Z I Y Y R K M lXhXqXtXtXG.T.W.!.+X%X<X2X2X2X>X-X-X'.).V.m.p.r.w.>.&.&.` ~ Q Q / ^ ) ) { o.O.~.`.<X>X>X-X'.).h.g.i.w.w.w.>.>.<.>.w.w.t.p.m.V.w.` ` ` ! ! Q Q ^ ^ ^ ) { } o.o.~.~.~.~.~.~.~.O.o.[ } ) ) ^ ^ ^ Q Q ! ~ ~ &.;.S Y P n qXtXBXT.W.@X@X$X<X<X2X2X2X2X<X2X<X<X%XXX-X'.).V.m.p.r.<.>.&.&.~ ! Q / ^ ^ ) { } O.O.~.~.~.^.o.o.{ [ ^ ^ / Q ~ ~ %.%.*.<.r.p.m.V.).'.*X;X:X2X2X2X<X$X@XW.R.Y.yXuXpXaXoX@X@X@X+XoX!.W.R.Y.BXuXpX0XlXm H H J K K L L U b 8.&.~ ~ ~ ! Q Q ^ ^ ^ ) ) { { o.o.O.~.~.~.~.~.~.~.O.o.} } [ ) ^ ^ ^ ^ / Q ! ~ ~ ~ &.] O.{ [ ^ Q Q ~ %.&.>.<.p.p.V.Z.}.}.:X:X2X2X2X<X&X&X@X@X+XW.T.Y.yXpXqXhXm H L E T U Z u q 3 O .     . 1 3 w i Z Y T E P H vXhXqXtXyXY.T.!.+X#X<X2X2X>X;X-X'.).V.m.t.w.>.>.",
"&.Q ~ ` &.>.<.r.p.m.V._.}.-X;X>X2X2X2X<X&X@X+X@X!.T.T.Y.uX5XqXhXn M K R W Y I S u w 7 1 o . .   . o 2 0 e V S U Y T R J M lXrXqXtXtXG.AXW.!.+X&X<X2X2X2X@X%X<X2X2X>X:X-X_.).m.p.w.<.&.&.~ ! Q / ) _ &.` ` Q ! Q Q ^ ^ ) ) } } o.O.~.~.~.~.~.O.O.o.} ) ) ) ^ ^ ^ Q Q ~ ~ &.5.$X%X%X@X%X+XoX+XoXoXoX!.oX!.!.!.!.oX!.!.!.oX- .     . < 3 q y C D Y T E L H n hXwXpXuXyXY.T.!.!.$X$X<X2X2X>X:X-X}._.Z.m.g.r.w.<.>.&.~ ` ~ Q Q / ^ ) { } o.O.~._.<X>X>X;X'._.B.g.i.t.w.w.w.<.w.w.w.r.p.g.V.).w.` ` ` Q ! Q ^ ^ ^ ) ) { } o.o.O.~.~.~.~.~.O.O.o.[ [ [ ) ^ ^ ^ Q Q ! ~ ~ &.7.I Y J lXqXyXBXW.!.@X$X$X<X<X2X2X2X2X2X2X<X<X%X@X}._.Z.m.p.r.w.>.&.&.~ ~ ! Q / ^ ^ { { o.O.~.~.~.^.^.o.[ [ ) ^ ^ / Q ~ ~ %.>.>.<.r.p.m.Z._.}.-X:X>X2X2X<X$X+XoXW.T.BXuXpXqXaXoX@X@X@XoXoX!.W.R.Y.yXuXpX0XhXlXM M H H J J J K K 8.%.~ ~ ~ ! Q Q Q ^ ^ ) ) { { o.o.O.~.O.~.~.~.~.O.O.o.} { [ ) ) ^ ^ ^ ^ Q Q ~ ~ ~ &.&.} { ^ ^ Q Q ~ &.>.>.5.p.m.V._.}.}.;X>X>X2X2X2X<X%X@X@XW.W.Y.yXtXqX0XlXH K E Y Y D i e 7 1 X       o 3 0 t Z D T Y R J n hXwXtXuXY.T.W.oX$X<X<X2X2X:X-X}._.V.m.p.w.w.&.",
"` &.! ` ~ >.>.w.r.g.m.).`.}.;X:X>X2X2X<X&X&X@X@X!.W.T.yXyXtXqXhXlXM J L Y T Y S V r 0 3 o X     . o 1 7 w y S I Y T R P H n hX9XtXyXBXBXW.!.@X+X<X<X2X2X,X+X$X<X2X2X:X;X}._.V.m.p.w.>.&.` ! ! ^ ^ ) _ &.` ` ! ! Q Q ^ ^ ) ) { } O.O.~.~.~.~.~.O.O.} } [ ) ^ ^ ^ / Q ! ~ ~ &.5.%X%X%X+XoX+XoX!.!.!.oX.XW.!.!.!..XW.!.!.!.oX&     . O 3 8 r N S Y T E L J M lX0XqXtXyXY.T.W.oX+X$X<X2X2X>X:X-X}.'.).V.m.p.r.<.>.&.&.~ ! Q / ^ ^ [ [ } o.~.^.^.`.<X>X>X;X'.).B.m.p.t.r.w.w.w.w.w.t.t.g.m.V._.w.&.` ` ! ! Q Q ^ ^ ) ) { { o.O.O.~.~.~.~.~.~.o.o.} [ ) ) ^ ^ ^ / Q ! ~ ~ &.7.Y R H hXqXyXY.W.+X@X$X<X2X2X2X2X2X2X2X2X2X<X%X+X`.Z.M.m.t.r.>.>.&.&.~ ! Q / ^ ) ) { o.O.~.~.~.~.O.O.} [ ) ^ ^ Q Q ~ ~ %.*.>.<.r.p.m.V.).}.*X:X>X2X2X<X<X@X+XW.T.Y.yXtXqX0XmX!.@XoX@XoX!.!.W.R.Y.yXuXpX0X0XlXlXlXm m M M M M H :.%.%.~ ~ ~ Q Q Q ^ ^ ) ) { { } o.O.~.~.~.~.~.~.O.~.o.o.{ { ) ) ^ ^ ^ / Q Q ~ ~ ~ &.&.{ ) ^ ^ Q ~ ~ &.>.<.r.p.m.V._.}.-X;X>X>X2X2X<X<X&X@X@XW.Y.BXuXqXrXkXM K R T Y D V r 8 1 o .   . o 1 7 r V D Y T R J M lXrXqXyXyXY.W.oX@X$X<X2X>X>X-X}._.Z.m.p.r.<.>.",
"` ` &.~ &.&.>.<.r.p.m.V.).}.}.;X:X>X2X2X<X&X@X@X@XW.T.Y.yXuXqXwXhXm H L E T Y D C y q 3 1 X .     X 1 2 w y V D Y T E L H m kXwXqXtXyXG.T.W.!.#X$X<X2X2X2X,X@X<X<X2X2X:X-X}.).V.g.r.w.>.&.` ! Q Q ) { | ` ` ` ! ! Q Q ^ ^ ) { { } O.O.~.~.~.~.~.~.o.} } ) ) ^ ^ ^ ^ Q ! ~ ~ &.5.+X@XoXoXoXoX!.!.!.W.!.!.!.W.!.!.!.!.!.!.!.S.    . o 1 7 w i Z I Y W R K H lXhXwXtXuXY.Y.W.!.@X%X<X2X2X2X>X;X-X'.).V.m.p.t.w.>.&.&.~ ` ! Q / ^ ^ ) { o.O.O.~.~._.<X>X>X;X}.).V.m.g.i.t.w.r.w.r.r.i.p.m.V.).'.w.&.` ` Q ! Q Q ^ ^ ^ ) { { o.o.~.O.~.~.~.~.~.O.o.} [ [ ) ^ ^ ^ / Q ! ~ ~ &.9.Y L n rXtXBXT.W.+X&X$X<X<X2X2X2X2X2X2X2X2X<X%XXXP.V.m.p.r.<.>.&.` ~ ~ ! / ^ ^ ) ) } o.~.~.~.~.^.O.o.[ ) ^ ^ ^ Q ! ~ %.%.>.<.r.p.m.V.)._.-X-X:X>X2X2X<X%X@XW.W.Y.yXuXpX0XhXM DX@X@XoXoX!.W.W.T.Y.uXuXpXqX0X0XlXhXlXlXlXlXm lXm k.%.~ ~ ~ ~ Q Q Q ^ ^ ^ ) { { } o.O.O.~.~.~.~.~.O.O.O.o.{ [ [ ) ^ ^ ^ ^ / Q ! ~ ~ &.&._ _ ^ / Q ~ ~ &.>.<.r.g.m.Z._.}.-X;X>X>X2X2X2X<X&X@X@XW.yXyXtX8XkXm H L E T I S y q 3 O . .   . 1 7 w i S Y Y E L H lXhXpXtXyXY.W.!.+X&X<X2X2X>X:X-X'.).V.g.t.w.>.",
"~ &.&.~ ~ %.>.>.r.y.p.M.Z._.}.-X:X>X2X2X2X<X&X@X!.!.W.T.BXtXtXrXhXvXH K R T Y I S i w 7 1 o .     . o 2 0 e N S Y T Y R J M lX0XqXtXuXY.T.W.!.@X$X<X2X2X2X>X;X+X&X2X2X>X:X-X'.).m.p.r.>.&.` ~ Q ^ ^ ) { ' &.` ~ ! Q Q ^ ^ ^ ) { } } O.O.~.~.~.~.O.~.O.} } [ ) ^ ^ ^ / Q ~ ~ ~ &.5.oXoXoX!.W.!.!.W.!.!.!.W.!.W.!.!.W.!.!.!.!.G.. . . < 3 0 t Z D Y Y E L H m hXqXpXyXyXY.W.W.+X#X<X<X2X2X>X;X-X}._.Z.M.p.r.w.>.>.&.` ~ ! Q Q ^ ^ [ { } o.~.~.~.^.`.<X<X>X;X|._.V.B.g.i.t.t.r.r.t.t.p.g.m.)._.}.w.&.` ` ! ! Q Q ^ ^ ) ) { } o.o.~.~.~.~.~.~.O.O.o.} [ ) ) ^ ^ ^ Q Q ! ~ ~ ` &.F P vXqXtXY.R.!.+X$X<X2X2X2X2X2X2X2X2X2X2X<X&X@XP.m.p.r.w.>.&.&.` ~ Q Q / ^ ) { } o.O.^.~.~.^.O.o.} [ ) ^ / Q Q ~ %.%.*.>.<.t.p.m.Z._.}.-X:X>X2X2X<X&X+XoXW.Y.BXuXpXqXhXm H DXoX@XoXoX!.W.W.Y.Y.uXuXpXpXeXeX0X0X0X0XlX0XkXkXkX6X%.&.~ ~ ! ! Q Q ^ ^ ^ ) ) { } o.O.O.~.~.~.~.~.~.O.O.o.} { ) ) ^ ^ ^ ^ / Q Q ~ ~ %.&.` ^ / Q ! ~ &.&.>.r.r.m.M.).`.}.-X:X>X2X2X2X<X<X&X%X@X!.yXtXqX0XlXH K E T Y S i w 7 1 .     . O 3 0 y Z I T E L J m hX9XtXyXY.T.W.oX&X<X2X2X>X:X-X}._.V.m.t.r.>.",
"! ~ ` &.~ &.&.>.<.r.p.m.V.).}.}.-X:X>X2X2X2X<X%X@X!.W.T.BXyXtX6XhXlXM J L E T Y S V r 8 3 o X .     o 1 4 w i Z I Y T R K H vXhXwXtXuXyXT.T.!.+X@X<X<X2X2X>X:X#X#X<X<X2X>X:X}._.Z.m.t.w.>.&.` ! Q / ^ { } ' &.` ` Q ! Q Q ^ ^ ) { { o.o.~.~.~.~.~.O.O.O.} [ [ ) ^ ^ ^ / Q ! ~ ~ &.D.oXW.!.!.W.!.W.W.W.W.W.W.W.W.W..XW.!.!.!.!.F.  . O 1 0 r i D Y T E L J M lX0XqXtXyXBXT.W.!.+X$X<X2X2X2X:X-X*X'.).V.m.p.r.<.>.&.&.~ ~ Q Q / ^ ) [ } o.O.~.~.~.~.).<X>X>X;X}.`.V.V.m.p.i.i.t.r.p.p.g.m.V.).}.-Xr.` ` ` ( ! Q Q ^ ^ ) ) { { o.O.O.~.~.~.~.~.~.O.o.{ [ [ ) ^ ^ ^ ^ Q ! ~ ~ &.&.c H hXqXyXY.W.!.#X$X<X2X2X2X2X2X2X2X2X2X2X2X&X@XL.p.p.w.<.>.&.` ~ ~ Q Q ^ ^ ) { o.O.~.~.~.~.O.O.} [ ) ^ ^ ^ Q Q ~ %.>.>.<.r.p.m.V.).}.-X-X>X2X2X2X&X@XoXW.R.Y.yXtXqX0XlXM K GXXXoXoX!.!.W.W.T.Y.uXuXpXpXpXqXeXeXeXeXeX0X0XeXrX4X%.%.~ ` ! ! Q Q ^ ^ ^ ) ) { { o.o.O.~.~.~.~.~.~.O.O.O.} } ) ) ) ^ ^ ^ ^ / Q ~ ~ ~ &.&./ Q Q ~ ~ >.&.<.r.p.m.V.).}.}.-X:X>X2X2X2X2X<X&X@X@XoXiXtX0XkXM K R E Y D V r 8 1 O .     o 1 7 r V D Y Y R J M lXrXpXuXBXT.W.oX+X$X<X2X2X:X;X}._.Z.m.p.r.w.",
"! ~ ~ &.&.~ %.>.>.w.i.p.m.Z.).}.-X;X>X2X2X2X<X<X%X@XW.T.BXyXyXqX0XhXm H L E T Y D V y w 3 1 X .   . . 1 4 0 y V D Y T E L J m lXwXqXtXyXY.T.W.oX@X$X<X2X2X2X:X-XXX#X<X2X2X:X;X}.).V.g.t.<.>.` ` ! / ^ ) } o.] ` ` ~ ! Q Q ^ ^ ^ ) { } o.O.O.~.~.~.~.~.O.o.o.[ ) ) ^ ^ ^ / Q ! ~ %.%.D.!.W.W.W.W.W.W.W.W.W.W.W.W.W.W.W.W.W.!.!.!.G.  O 1 4 w i Z I Y Y R K M vXhXqXtXtXG.T.W.!.oX&X<X2X2X2X>X-X-X'._.V.m.p.r.w.<.&.&.` ~ Q Q ^ ^ ^ [ { } O.~.~.~.^.^.`.1X2X>X:X}.'.V.V.m.m.p.p.p.p.p.g.m.V.Z.'.}.-Xr.&.` ` ! ! Q / ^ ^ ^ ) { } } o.~.~.~.~.~.~.O.O.o.} [ ) ) ^ ^ ^ / Q ! ~ ~ &.&.b M rXpXBXT.!.+X$X<X<X2X2X2X2X2X2X2X2X2X2X<X&X+XC.u.r.<.>.&.` ~ ! Q / ^ ^ ) { } o.^.~.~.~.^.O.o.[ { ^ ^ / Q ~ ~ %.&.*.<.w.p.m.M.).'.*X;X:X>X2X<X<X&X+X!.R.Y.yXuXpX9XlXM J R NX@XXX!.!.!.W.R.Y.Y.yXuXuXtXpXpXpXpXpXqXpXpXpX8XpXpX1.` ` ~ ~ ! Q Q / ^ ^ ) ) { } } O.O.~.~.~.~.~.~.~.O.O.} { { ) ) ^ ^ ^ / Q Q ! ~ ~ ~ &.! Q ! ~ ~ >.>.5.r.p.m.Z.).}.=X;X:X>X2X2X2X<X<X&X&X@X+XiXrXkXm J L Y T I Z y 0 3 O .   . . O 7 w i S Y T E L H lX0XqXtXyXY.W.W.@X$X<X2X2X>X;X-X'.).V.g.t.w.",
"! ! ~ ~ &.&.%.&.>.<.r.p.m.V.).'.}.-X:X:X>X2X2X<X&X%X@XW.ZXBXtXtXqXhXn H P R W Y I S i w 7 1 o . .   . o 2 0 e N S I Y T R J M lXhXqXtXyXBXT.W.!.@X%X<X2X2X2X>X:X-XXX&X<X2X2X>X-X}.).m.p.w.>.&.` ~ ! / ^ ) } @.&.` ` ~ ! Q Q ^ ^ ^ ) { } o.O.~.O.~.~.~.O.O.o.} [ [ ) ^ ^ ^ / Q ! ~ %.&.S.W.R.R.T.T.T.T.T.T.W.T.W.W.W.W.W.W.W.!.!.!.G.. O 7 0 y Z D Y T E L H m hXwXqXuXyXY.T.!.+X+X&X<X2X2X2X:X-X}._.Z.M.p.r.w.>.>.&.~ ~ ! ! Q / ^ ) { } o.~.O.~.~.~.O.).1X2X>X;X*X'.Z.V.m.m.p.p.p.g.g.m.m.Z.).}.-X:Xr.` ` ` ! ! Q / / ^ ) ) { } o.o.O.~.~.~.~.~.O.~.o.} [ [ ) ^ ^ ^ ^ Q Q ~ ~ ` &.x n rXtXY.T.!.#X$X<X2X2X2X2X>X2X>X2X2X2X2X2X&X@XB.r.<.>.>.&.~ ~ ! Q / ^ ^ { { o.O.~.~.~.~.O.o.} ) ) ^ ^ / Q ~ ~ &.>.>.5.r.p.M.Z._.}.-X:X>X2X2X<X&X@XoXW.T.BXuXpXqXhXm H L Y UX!.@X!.!.W.W.R.Y.Y.yXyXuXuXuXtXtXtXpXpXpXpXuXpXuXtX1.` ` ~ ~ ! ! Q / ^ ^ ) ) ) { } o.O.O.~.~.~.~.~.O.O.O.o.{ { [ ) ^ ^ ^ ^ Q Q ! ~ ~ &.&.~ ! ~ ~ &.*.>.r.u.m.M.Z.`.}.-X-X:X>X2X2X2X2X<X&X@X@X@XJX0XcXM L E Y Y S i w 7 1 . .   . O 3 0 y Z I T E L J n hXrXtXyXBXT.!.+X$X$X2X2X>X:X-X}.).V.m.t.w.",
"Q ! ! ~ ~ &.&.&.>.<.r.r.m.m.Z.).}.-X-X:X2X2X2X2X<X&X@X!.ZXBXyXtXqXhXlXM J L Y T Y S V r 7 3 o X     . o 1 7 w i Z I Y T R K M n hXwXtXyXyXZXR.!.+X&X<X<X2X2X:X:X-X}.+X$X<X2X>X:X-X_.).m.t.w.>.&.` ! Q ^ ) { o.+.&.` ` ~ ! Q Q ^ ^ ) ) { } o.O.~.~.~.~.~.^.O.o.} [ [ ^ ^ ^ / Q ! ~ ~ %.%.S.T.T.T.T.T.Y.T.T.T.T.T.T.T.T.W.W.W.W.!.!.!.G.O 1 7 r i S Y T E L J M lX0XqXtXyXY.T.W.oX@X$X<X2X2X>X:X-X}.'.).V.g.p.r.w.>.&.&.` ~ Q Q ^ ^ [ ) } o.O.~.~.~.^.^.O._.<X2X>X:X*X'.).Z.B.m.m.m.p.g.m.V.V.)._.}.;X>Xt.&.` ` ! ! Q / ^ ^ ) ) { { o.O.O.~.~.~.~.~.O.O.o.} { ) ) ^ ^ ^ / Q ! ~ ` ` &.gXlXpXuXY.W.oX&X<X2X2X2X2X2X>X2X>X2X2X2X2X<X<X@XB.w.<.>.&.~ ~ ! Q / ^ ) ) { o.O.~.~.~.~.O.O.} { ) ^ ^ Q Q ~ ~ %.&.>.<.r.p.m.V.).}.-X:X>X2X2X<X<X+XoXW.T.Y.yXtXqXhXlXM K R Y UX@XoX!.oXW.W.R.Y.R.yXyXyXyXuXuXuXuXuXuXuXuXuXuXuXuX0.&.~ ` ~ ! ! Q Q ^ ^ ^ ) { { } o.O.~.~.~.~.~.~.~.O.O.o.} { ) ) ^ ^ ^ ^ Q Q ! ~ ~ ~ &.%.~ ~ ~ >.>.<.r.p.m.Z.Z.}.}.-X:X>X>X2X2X2X<X<X&X&X@X@XJXdXM K R T Y D V r 7 1 X .   . O 1 8 r C D Y Y R J nXlX9XtXtXG.T.W.!.@X<X<X2X>X>X-X}._.Z.m.p.r.",
"^ Q ! ! ~ ~ &.&.&.>.<.r.p.m.V.)._.}.-X:X:X>X2X2X2X<X%X@X!.BXyXuXqXwXhXm H L E W Y D Z y w 3 1 X .     . 1 2 w t C D Y Y E L J m lXwXqXtXyXG.T.W.!.+X&X<X2X2X2X:X-X*X].+X$X<X2X>X:X}._.V.m.r.w.*.` ` Q Q ^ { { O.+.&.~ ~ ~ ! Q Q ^ ^ ) ) { } o.O.~.~.~.~.~.O.O.o.[ [ [ ) ^ ^ ^ Q Q ~ ~ &.&.F.Y.Y.Y.Y.Y.Y.Y.Y.BXT.T.T.T.T.W.W.W.W.!.!.!.k.1 7 w u Z I Y W R K H lXhXqXtXuXY.Y.T.!.+X&X$X2X2X2X>X;X-X'._.V.M.p.r.w.>.*.&.~ ` Q Q Q ^ ) ) { o.o.~.~.~.~.O.O.o.P.1X2X2X:X*X'.).Z.V.M.m.m.m.m.m.V.Z._.'.-X;X>Xt.` ` ` ! ! ! / / ^ ^ ) { { o.o.~.~.~.~.~.~.O.O.o.} { ) ) ^ ^ ^ ^ Q Q ! ~ &.&.9XhXpXBXY.!.+X&X<X2X2X2X>X>X>X>X>X>X>X2X2X2X&X@Xn.<.>.&.&.~ ! ! / / ^ ) { } o.O.~.~.~.~.O.} [ { ^ ^ ^ Q ! ~ ~ >.&.<.r.p.g.V.).`.*X-X:X2X2X2X<X%X@XW.W.Y.yXuXpX0XkXnXJ R E T J CXoX!.!.W.W.R.G.Y.Y.yXyXyXyXyXyXyXyXyXyXyXBXBXBXBXF.&.` ` ~ ! ! Q Q / ^ ^ ) ) { } } O.O.~.~.~.~.~.~.O.O.o.} } ) ) ) ^ ^ ^ ^ Q Q ~ ~ ~ &.~ ~ &.%.>.>.r.t.g.M.Z._.}.-X-X:X:X>X2X2X2X<X<X&X%X@X@X@XxXJ L E T I C y 0 2 O .     . 1 4 w i S Y T E P H lXrXqXtXyXY.W.!.+X$X<X2X2X>X;X*X'.).M.p.t.",
"^ Q Q Q ~ ~ ~ &.&.>.<.r.p.g.M.Z._.}.-X-X:X>X2X2X2X<X<X%X@XZXBXtXtXqXhXvXH K R Y T I Z i w 7 1 o .     . o 1 8 e N S Y T Y R J M lX0XqXtXyXY.T.W.!.+X#X<X2X2X2X:X;X-X}.].+X&X2X2X>X;X}.).M.g.w.>.&.` ! Q ^ ^ { o.@.+.&.` ~ ! ! Q Q ^ ^ ) ) } } o.O.~.~.~.~.^.~.o.o.} [ [ ^ ^ ^ / Q Q ~ ~ %.&.Y.Y.Y.BXBXBXY.BXG.Y.Y.Y.Y.T.T.T.W.W.W.W.!.!.6 3 0 y V D Y T E L H m kX9XpXuXyXY.W.W.oX+X<X<X2X2X>X:X-X}._.Z.h.g.t.w.>.>.&.` ~ ! Q / ^ ^ ) [ } O.O.~.~.~.^.O.o.X.%X<X2X>X:X*X}._.Z.V.M.M.M.m.M.V.Z.).}.}.-X>X>Xt.&.` ` ! ! ! / ^ ^ ) ) { { o.O.O.~.~.~.~.~.~.O.o.} { ) ) ^ ^ ^ / Q ! ~ ` ~ &.8XeXtXY.R.oX+X$X<X2X2X2X>X>X>X>X>X>X>X2X2X2X<X&XK.>.>.&.` ~ ! Q / ^ ) { { o.~.O.~.~.~.O.o.} ) ) ^ / Q Q ~ %.%.>.>.<.r.p.m.Z._.}.-X:X>X2X2X<X&X+XoXW.Y.BXuXpXqXkXn H L E Y Y D CXoX!.!.!.R.R.R.Y.Y.BXBXY.yXBXyXBXyXBXBXBXY.Y.Y.Y.S.&.` ` ~ ~ ! Q / / ^ ^ ) ) { } } O.O.~.~.~.~.~.~.~.O.O.} { { ) ) ^ ^ ^ / Q Q ! ~ ~ &.&.~ %.&.>.<.r.p.m.V.)._.}.-X:X>X>X2X2X2X2X<X<X&X%X$X@X@XfXK E T Y S i w 7 < .     . O 3 q y S I T E L H n hXqXtXyXY.T.!.oX$X<X2X2X>X:X-X}.).V.m.t.",
"^ ^ / Q Q ~ ~ &.&.>.>.<.r.p.m.V.)._.*X-X;X:X>X2X2X2X<X&X%X@XZXyXtXqX9XlXM J L E T Y D V r 0 3 o X .   . o 1 7 w u Z I Y T R K H n hXqXtXtXyXY.T.!.!.$X$X<X2X2X2X:X-X*X_._.+X<X<X2X:X-X}.).m.p.w.>.&.` Q Q ^ ) { o.~...&.` ` ! ! Q Q / ^ ) ) { } o.O.~.~.~.~.^.^.O.o.[ [ [ ) ^ ^ ^ Q Q ~ ~ &.1.yXyXBXBXBXyXY.BXBXBXY.Y.Y.Y.T.T.T.W.!.!.!.!.p 0 e V S Y T Y L J M lX0XqXtXyXBXT.W.+X@X$X<X<X2X>X:X;X*X'.).V.m.p.r.<.>.&.&.~ ~ Q Q / ^ ^ { } o.O.~.~.~.~.~.o.} X.OX1X2X2X:X-X}.`.).Z.V.V.V.V.V.Z.)._.}.-X;X>X2Xt.&.` ~ ! ! ! / / ^ ^ ) { { } O.O.~.~.~.~.~.O.O.O.} { { ) ^ ^ ^ ^ Q Q ! ~ %.%.8XpXuXY.W.+X&X<X2X2X2X2X>X:X:X>X>X>X>X>X2X2X<X&XK.>.&.` ~ ~ Q / ^ ^ ) { o.O.~.~.~.~.O.O.} { ) ^ ^ / Q ! ~ %.>.>.<.r.p.m.V._.}.-X;X:X>X2X<X<X@XoX!.R.BXuXtXqX0XlXM K R W Y D C CX!.!.W.oXR.R.R.G.R.Y.Y.Y.Y.Y.Y.Y.Y.Y.Y.Y.T.T.R.W.W.5.` ` ~ ~ ! ! Q / ^ ^ ) ) { { } o.O.O.~.~.~.~.~.O.O.O.o.{ { [ ) ^ ^ ^ ^ / Q ! ! ~ &.&.&.&.>.<.r.p.g.M.Z._.}.}.-X:X>X>X2X2X2X2X<X<X&X@X@X@X@XGXR Y Y D V r 7 1 O .   . O 1 8 r C D Y W R J M lXrXpXuXY.Y.W.+X@X<X<X2X>X>X;X}._.V.V.p.",
") ^ ^ / Q ! ~ ~ &.&.>.<.r.p.m.V.Z._.'.-X-X>X>X2X2X2X2X<X%X%X@XBXuXqX0XhXm H L E W Y D V y w 3 1 X .   . . 1 3 0 y V D Y T E L J m lXrXqXtXyXY.T.!.oX@X&X<X2X2X>X:X-X*X'.)..X#X<X2X2X:X-X_.V.m.t.<.>.` ` Q Q ^ { } o.~.] &.` ~ ! Q Q ^ ^ ^ ) { { o.o.O.~.~.~.~.~.O.O.o.{ [ ) ^ ^ ^ / Q Q ~ ~ &.1.yXyXyXuXBXuXBXBXyXY.yXY.Y.Y.Y.T.W.W.W.W.!.+Xa w y Z I Y T R K H lXhXqXtXtXG.T.W.W.+X%X<X2X2X2X:X;X-X'._.V.m.p.r.w.>.>.&.` ~ Q / / ^ ) [ [ } O.~.~.~.~.O.O.o.[ q.%X<X2X2X:X-X}.'._.Z.Z.V.V.V.Z.)._.'.-X;X>X2X2Xy.%.%.~ ! ! ! / ^ ^ ) ) { { o.o.O.~.~.~.~.~.~.O.o.} { [ ) ^ ^ ^ / Q Q ~ ~ %.%.5XpXyXT.!.+X<X<X2X2X>X>X:X>X;X>X;X>X>X2X2X2X<X&XK.&.&.~ ! Q / ^ ^ ) { } o.~.~.~.~.~.O.o.{ ) ^ ^ / Q ~ ~ %.%.>.<.r.p.m.V.Z.'.*X-X:X2X2X2X<X&X+XW.R.Y.G.uXqXrXlXM J R Y T I S y pX!.oXW.oXW.W.R.R.G.R.Y.G.Y.G.Y.G.T.T.T.R.W.W.W.W.!.5.&.` ~ ! ! ! / / ^ ^ ^ ) { { } o.O.~.~.~.~.~.~.~.O.O.o.} { [ ) ) ^ ^ ^ Q Q ! ~ ~ ~ &.&.&.>.<.r.p.m.V._.'.}.-X;X>X>X2X2X2X2X<X<X&X&X$X@X@X@XoXUXT D Z y 0 3 O .     . < 7 e i S Y T E K M lX9XqXuXyXY.W.W.+X$X<X2X2X>X-X-X_.).m.p.",
") ^ ^ ^ / Q ! ~ ` &.>.<.r.r.p.m.V.).'.}.-X-X:X>X2X2X2X2X<X%X@XHXiXtXqXhXn M K R Y T I S i w 7 2 o X     . o 2 8 e N S I Y T R J M lXhXqXtXyXBXT.T.!.+X&X$X2X2X2X>X;X-X}._.Z..X$X<X2X2X;X-X_.V.p.r.<.&.` ! Q ^ ) { o.O.~.' ` ` ` ! Q Q Q ^ ^ ) { { o.o.~.~.~.~.~.~.O.O.} { [ ) ^ ^ ^ ^ Q Q ~ ~ &.1.uXuXuXuXuXuXuXBXuXG.yXY.Y.Y.Y.ZXT.W.!.W.!.!.h y V D Y T E K J m hX0XpXuXyXY.T.!.!.#X$X<X2X2X2X:X-X}._.Z.m.g.t.w.>.>.&.` ~ ! ! Q / ^ ) { } O.O.~.~.~.~.O.o.} [ | %X1X2X2X:X-X=X`._.).Z.Z.Z.Z.)._.'.}.-X;X>X2X2Xy.&.%.! ! ! ! / / ^ ^ ) { { o.o.O.~.~.~.~.~.O.O.O.} { [ ) ) ^ ^ ^ / Q ~ ~ %.&.5XuXBXR.oX+X<X2X2X2X>X>X:X;X;X;X;X>X>X>X2X2X<X&XK.&.~ ~ ! Q / ^ ^ { { o.O.~.~.~.~.O.o.} { ) ^ ^ / Q ~ ~ &.>.>.<.r.p.M.Z._.}.-X:X>X2X2X<X&X@XoXR.T.BXuXuX8XhXm H L E T Y S V e g oXW.W.W.W.W.W.R.R.R.R.R.R.R.R.R.R.R.W.W.W.!.!.!.@XU.&.` ` ! ! ! ! / ^ ^ ^ ) ) { } o.o.O.~.~.~.~.~.~.O.O.o.} [ [ ) ) ^ ^ ^ ^ Q Q ! ~ ~ &.&.>.<.r.u.m.B.Z._.}.-X-X:X>X>X2X2X2X2X<X<X&X&X$X@X@X@XoXGXY S i w 3 1 . .   . O 3 q u S I T E L J vXhXqXtXyXY.T.!.+X%X<X<X2X>X:X-X}.).V.m.",
") ) ^ ^ / / Q ~ ~ ~ &.>.<.r.p.m.B.)._.'.-X-X:X>X2X2X2X2X<X&X%X@X!.tXqXhXlXM J L E T Y S V r 0 3 o .     . o 1 7 w i Z I Y T R K H n hX9XtXuXyXY.W.W.+X%X<X<X2X2X>X:X-X}._.Z.M.E.&X2X2X>X;X}.).V.p.w.>.&.` ! ^ ^ ) { o.O.~. .&.~ ~ ! Q Q ^ ^ ^ ) { { o.O.O.~.~.~.~.~.O.O.} } ) ) ^ ^ ^ / Q ~ ~ ~ &.1.pXuXpXuXuXuXuXuXyXyXyXyXBXBXG.T.W.W.!.W.oXoXh B S I T E R J M lX0XqXtXuXY.T.W.!.+X$X<X2X2X>X:X-X*X'.).V.m.p.r.<.>.&.&.~ ~ Q Q ^ ^ ) ) } o.O.~.~.~.~.O.O.} [ ) ' %X<X2X2X:X;X=X}._._.).Z.).)._.'.'.-X-X:X2X2X<Xy.%.%.~ ! ! ! / ^ ^ ) ) { { o.O.O.~.~.~.~.~.~.O.o.} { [ ) ^ ^ ^ / Q Q ~ ~ ~ %.1.uXY.W.+X$X<X2X2X>X>X:X;X;X;X;X;X:X>X>X2X2X2X$XK.&.~ ! Q / ^ ) ) { o.O.O.~.~.~.O.O.} { ) ^ ^ Q Q ~ ~ %.&.>.<.r.p.m.V.).}.-X:X>X2X2X<X&X+XoX!.T.Y.uXpXqX0Xn M K R T Y I V y 0 p oXoX!.!.W.W.W.W.R.R.W.R.W.R.W.W.W.!.W.!.!.oX@X%X@X[.&.%.%.( ! ! Q / / ^ ^ ) ) { { o.o.~.O.~.~.~.~.~.~.O.o.o.[ [ ) ) ^ ^ ^ / Q Q ! ~ ~ &.` >.r.t.g.M.V._.].}.-X;X>X>X2X2X2X2X<X<X<X$X@X$X@X@X@X@XFXM V r 7 1 .     . O 1 8 t V D T Y R J m lXqXpXuXY.T.W.oX%X&X2X2X>X:X-X}._.Z.m.",
"} { ) ^ ^ ^ / Q ! ~ %.&.>.r.p.p.M.V.).}.}.-X;X:X>X>X2X2X2X<X&X@X@XHXpXrXhXm H L Y W Y I Z y w 3 1 X .   . . 1 2 q t V D U T E L H M kXrXqXiXyXY.T.W.!.+X$X<X2X2X2X:X;X*X'.).V.m.E.$X<X2X>X;X}.Z.m.t.w.*.&.~ Q Q ^ { } o.O.O.| &.` ~ ! Q Q ^ ^ ^ ) { } } O.~.~.~.~.~.O.O.O.} } ) ) ^ ^ ^ / Q ! ~ ~ &.1.pXtXpXpXtXtXuXuXuXuXyXyXyXY.BXZXT.W.!.W.XXoXz Z I Y W R K H vXhXqXtXuXBXY.W.!.+X$X$X2X2X2X>X;X-X}.).Z.m.p.t.w.>.&.&.&.~ Q Q / ^ ^ [ { } O.~.~.~.~.@.O.o.[ [ ) ' #X,X<X2X>X;X-X}.'._._.).)._._.}.}.-X;X>X>X2X<Xy.%.%.~ ! ! ! / / ^ ^ ) { { o.o.O.~.~.~.~.O.~.O.O.} { [ ) ^ ^ ^ ^ Q Q ! ~ %.&.2.yXT.!.+X$X2X2X2X>X:X;X;X-X-X-X-X;X:X>X>X2X2X<XK.~ ~ ! / / ^ ) { } O.~.~.~.~.~.O.o.{ ) ^ ^ ^ Q Q ~ %.&.>.<.r.p.g.V.Z.'.}.;X:X>X2X2X<X&XoXHXW.Y.BXuXpX0XkXM J L E T I S y w 4 < G.!.W.!.W.W.W.oXW.W.W.W.W.W.W.oXW.oX!.@X@X%X@X&X%X.Xy.&.%.` ! ! ! Q ^ ^ ^ ) ) { { } o.O.~.~.~.~.~.O.~.O.O.o.} [ ) ) ) ^ ^ ^ / / Q ~ ~ &.&.&.t.p.M.Z.Z.}.}.-X;X;X>X>X2X2X2X<X2X<X$X&X@X$X@X@XoXoXoXn y 0 3 O .     O 1 7 w V S Y T E P H lX0XqXuXyXY.W.!.+X&X<X2X2X>X-X*X'.Z.M.",
"} { ) ) ^ ^ / Q Q ~ ~ %.&.r.u.p.m.V.)._.'.-X-X:X>X2X2X2X2X<X<X&X%X@XiXqXhXn M K R E T I Z i w 7 2 o .     . o 2 8 e N S Y T Y R K M lXhXqX5XyXY.Y.W.!.oX&X<X2X2X2X:X;X-X}._.Z.M.B.+X$X2X>X:X-X'.V.m.t.<.&.` ! Q ^ ) { } o.O.+.&.` ` ~ ! ! Q ^ ^ ) ) { } o.O.O.~.~.~.~.~.O.o.} [ [ ) ^ ^ ^ / Q ~ ~ ~ &.4X8XqXqXpXpXpXpXpXuXuXyXyXyXBXG.T.T.W.!.!.!.oXn D Y T E L J m kX0XqXuXyXY.T.W.oX@X<X<X2X2X>X:X-X}._.V.V.g.t.w.<.>.&.~ ~ ~ Q / ^ ^ ) [ } o.O.~.~.~.~.O.o.} [ ) ^ *.%X<X2X2X>X;X-X}.'.'._.'._.'.'.}.-X;X:X2X2X<X%X5.&.%.~ ! ! Q / ^ ^ ^ ) { { } O.O.O.~.~.~.~.~.O.o.} } [ ) ^ ^ ^ / Q Q ~ ~ ~ &.1.Y.R.oX$X<X2X2X>X>X;X-X-X-X-X-X-X;X:X:X2X2X<X<X@X,.! / ^ ^ ) ) } o.O.~.~.~.~.O.o.{ { ) ^ / Q ! ~ ~ &.&.>.<.r.p.m.Z._.}.-X:X>X2X2X<X&X+XoXW.T.BXuXpXqXhXm H L E T Y S B r 7 2 X G.!.oXW.oXW.W.W.W.W.W.oXW.oXW.!.oXoX@X@X@X&X%X<X<X2Xy.%.` ` ~ ! Q Q / ^ ^ ^ ) { { } o.o.~.~.~.~.~.~.~.O.O.o.} } ) ) ) ^ ^ ^ / / ! ~ ~ ~ &.>.r.M.M._._.}.=X;X>X>X2X2X2X2X2X<X<X$X&X$X@X%X@X@X@XoXoXVXq 4 1 .     . O 3 w y S I T E L H n hXqXtXyXY.R.W.+X$X<X2X2X>X:X-X}.).V.",
"o.} { ) ) ^ ^ / / Q ~ ~ &.&.r.p.m.M.Z._.'.}.-X;X:X>X>X2X2X2X<X&X%X@X@XiX0XlXM J L Y T Y D V r 0 3 o X .   . X 1 4 w u Z D Y T R K H n hXrXtXuXyXT.T.!.+X@X$X<X2X2X2X:X-X*X_.).M.g.A.$X<X<X2X:X-X_.V.p.r.>.&.` Q Q ^ ) { o.o.o.} &.` ~ ~ Q Q Q ^ ^ ^ ) { } o.O.~.O.~.~.~.O.O.o.} [ [ ) ^ ^ ^ / Q ~ ~ ~ &.5XeX8XrXqXpXpXpXpXtXtXuXyXyXBXY.T.T.!.W.!.!.oXS I T E R J M lXrXqXtXuXY.T.W.!.+X%X<X<X2X2X:X;X*X'.).V.m.p.r.<.>.&.&.~ ~ ! Q / ^ ) [ } o.O.~.~.~.~.@.O.} [ ) ) ^ ` #X<X<X2X>X:X-X-X'.'._.'.'.}.'.-X-X;X>X>X2X<X@X5.` ` ~ ~ ! Q Q / ^ ^ ) { { } O.O.~.~.~.~.~.O.~.o.} } [ ) ) ^ ^ ^ Q Q ! ~ ~ &.1.Y.W.+X$X<X2X>X>X:X;X-X-X-X*X-X-X-X:X:X>X2X2X<X@X,.! / / ^ ) { } O.~.~.~.~.O.O.} { ) ^ ^ / Q ! ~ %.>.>.<.r.p.m.V.).}.-X;X>X>X2X2X&X@XoXW.R.Y.yXuXqX0XlXM K R E Y I V y 0 2 O X G.!.!.W.oXW.oXW.W.oXW.oXW.oXoXoX@X@X%X%X%X<X<X<X2X2XC.%.%.~ ~ ! ! Q Q ^ ^ ^ ) ) { } o.o.O.~.~.~.~.~.~.O.O.o.} } ) ) ) ^ ^ ^ ^ / Q ! ~ ~ &.&.t.B.Z._.}.=X-X;X>X>X2X2X2X2X<X<X<X$X%X&X@X@X@XoXoXoXoXVXa 1 X .     O 1 0 t C I Y W R J M hX0XtXuXY.T.W.oX+X<X<X2X>X>X-X}._.V.",
"O.o.} { ) ) ^ ^ / Q ! ~ ~ &.>.t.m.M.V.).'.}.-X-X:X>X2X2X2X2X2X<X&X&X@X@XrXkXm H K E W Y D C y w 3 1 o .   . . < 3 0 t V D Y T E L J nXlXwXqXtXyXBXT.W.!.+X&X<X2X2X>X:X-X*X'.).V.M.p.g.@X<X2X>X:X}._.M.p.w.>.&.` ! ^ ^ ) { o.o.o...&.` ~ ~ ! Q Q ^ ^ ) ) { } o.O.~.~.~.~.~.~.O.o.} [ [ ^ ^ ^ / Q Q ! ~ %.%.6X0X0X0X0X0XqXqXpXtXtXtXyXyXyXY.T.T.W.!.!.oXSXU Y T R P H n hX8XpXuXBXY.W.!.+X&X<X2X2X2X:X;X-X}._.V.m.p.r.w.>.>.&.&.~ Q Q / ^ ^ [ [ } O.~.~.~.~.@.O.o.[ [ ^ ^ / >.@X<X2X>X>X:X-X-X}.}.}.'.'.}.*X-X;X>X2X2X2X&X!.b.&.%.~ ~ ! Q / ^ ^ ^ ) { { } O.O.~.~.~.~.~.O.~.o.} } [ ) ) ^ ^ ^ Q Q ~ ~ ~ &.1.R.oX+X<X2X2X>X:X;X-X*X}.}.}.}.*X-X;X:X>X2X2X<X%X,./ ^ ^ ) { } O.O.~.~.~.~.O.o.{ ) ^ ^ / Q ~ ~ %.%.>.<.r.p.m.V.Z.'.*X-X:X2X2X2X&X&X+XW.R.Y.yXuXpX9XlXM J R Y T I S y w 4 1 . . & oXoXW.oXW.oXoXW.oXW.oXoXoX@X%X@X%X%X&X<X<X2X2X2X2X*X` &.` ~ ~ ! Q Q ^ ^ ^ ) ) { } } O.O.~.~.~.~.~.~.O.~.o.} } [ ) ) ^ ^ ^ / Q Q ! ~ ~ ~ &.<.Z._.}.}.;X:X>X2X2X2X2X2X<X<X<X&X&X@X%X%X@X+XoXoXoXoXoXp O .   . X 1 7 w V S Y T R K M lXrXpXuXyXY.W.!.+X$X<X2X2X>X;X}.'.).",
"O.O.o.} [ ) ^ ^ ^ / Q ! ~ ` &.r.p.m.V.Z._.}.}.-X;X:X>X>X2X2X2X<X<X%X%X@XJX0XlXH K R Y T I S i e 7 1 o . .   . o 2 8 e N S I Y T R P M lXhXqXtXuXG.ZXW.!.@X$X$X2X2X2X>X:X-X}.).V.h.p.p.p.&X<X2X>X;X}.).m.t.w.*.` ! Q ^ ^ { { } o.} { &.&.! ! ! Q Q ^ ^ ) ) { } o.O.~.~.~.~.~.~.O.o.{ [ [ ) ^ ^ ^ / Q ! ~ &.&.8XhXkXhX0X0XrX9XqXqXpXtXtXyXyXT.T.W.W.!.!.+XFXY T E L H m lXrXpXuXyXY.T.W.oX+X$X<X2X2X2X:X-X}.'.Z.V.g.t.r.<.&.&.~ ~ ~ ! Q / ^ ^ { } o.O.~.~.~.~.O.o.} [ ) ^ ^ ^ &.@X<X<X2X>X:X:X-X}.}.}.}.}.}.-X;X;X>X2X2X<X%X!.S.` ` ~ ~ ! ! / / ^ ^ ) { { } O.O.~.~.~.~.~.O.~.o.} [ [ ) ) ^ ^ ^ Q Q ~ ~ ~ %.1.W.oX$X<X2X>X>X:X-X-X}.}.'.}.}.}.-X-X:X>X>X2X<X#X,.^ ^ ^ { } o.O.~.~.~.^.O.o.} ) ) ^ ^ Q Q ~ ~ >.&.>.<.r.p.M.Z._.}.-X;X>X2X2X2X&X%XoXW.Y.BXuXpXqXhXn H L E T Y S B r 7 2 X .   & oXoXoXoXW.oXoXoXoX!.oX+X@X@X%X%X&X&X<X<X<X2X2X2X2X*X] ~ ~ ~ ~ ! Q Q Q ^ ^ ) ) { { } o.O.~.~.~.~.~.~.O.~.O.o.} [ [ ) ^ ^ ^ ^ / Q Q ~ ~ ~ &.<.M.}.=X-X;X>X>X2X2X2X2X<X<X<X$X%X$X@X@X@XoXoXoXoXoX!.+XG..     . O 3 w y S U T E L H n hXqXtXyXY.T.!.oX$X<X<X2X>X:X-X'.).",
"~.O.O.} } [ ) ^ ^ ^ / Q ~ ~ ~ &.r.m.M.Z._.'.}.-X;X:X>X2X2X2X2X2X<X<X&X@X@XJXlXM J L E T Y D V r 0 3 o .     . o 1 4 w y Z D Y T E P H n hXwXqXyXyXY.W.W.+X@X<X<X2X2X>X:X-X}._.).V.m.t.r.K.$X<X2X>X-X'.).m.t.>.&.` ! / ^ ) ) } } } } { ` ` ` Q ! Q / ^ ^ ) ) } } O.O.~.~.~.~.~.O.O.o.{ { [ ^ ^ ^ / Q ! ~ ~ ~ %.8Xn lXkXkXhXrX0XqXqXqXtXtXyXyXY.T.W.!.!.!.@XFXT E R K M lX0XqXtXuXY.Y.W.oX@X&X<X2X2X>X>X-X*X'.).V.m.p.r.<.>.>.&.~ ! ! Q ^ ^ [ ) } o.O.~.~.~.~.O.O.} [ ) ^ ^ Q Q >.+X<X2X2X2X:X;X-X-X*X}.}.*X-X-X;X>X2X2X2X&X@XW.S.&.` ~ ~ ! Q / / ^ ^ ) { { } o.O.~.~.~.~.~.O.~.o.o.} [ ) ) ^ ^ ^ Q Q ! ~ ~ &.1.W.+X<X<X2X>X:X-X-X}.'.}.'.'.'.}.*X-X;X:X2X2X<X%Xu./ ) ) { } O.~.~.~.~.~.o.} { ) ^ ^ Q Q ~ ~ ~ &.>.<.r.p.m.V.).}.-X:X>X2X2X<X&X+XoXW.R.Y.yXtXqXhXlXM K R T Y I C t 0 2 < .   . & G.W.oXoXoXW.oXoX@X@X@X@X%X%X%X%X<X<X2X2X2X2X2X>X>X;Xr.>.` ~ ~ ! Q Q / ^ ^ ^ ) { { } o.o.~.~.~.~.~.~.~.O.O.o.} } ) ) ) ^ ^ ^ / Q Q ~ ~ ~ %.&.Z.}.;X;X>X>X2X2X2X2X<X<X$X&X$X@X%X@X+XoX+XoXXX!.!.!.!.!.=   . O 2 0 t C D Y E R J nXkX9XpXuXY.T.W.oX$X$X2X2X>X:X-X}.).",
"~.~.O.O.} { [ ) ^ ^ ^ / Q ! ~ ` &.u.M.Z.)._.}.-X-X;X>X>X>X2X2X2X2X<X&X&X@X@XJXm H K E Y Y I Z y w 7 1 o .     . < 3 0 t V D Y Y E L J m lXrXqXtXyXBXT.W.!.+X&X<X<X2X>X>X;X*X'.).V.m.g.r.w.U.$X<X2X>X-X_.V.g.r.>.&.` Q / ^ ) ) { } { { ' &.` ` Q Q ! / ^ ^ ) ) { } o.O.~.~.~.~.~.^.O.o.[ [ [ ) ^ ^ ^ Q Q ~ ~ &.&.9XM m n lXkXhXhXrXwXqXtXtXyXBXY.T.!.W.!.oXoXGXT R K H n kXqXpXuXyXT.W.W.+X&X$X2X2X2X>X:X-X'._.Z.m.p.t.<.<.&.&.&.~ Q Q Q / ^ ) { } O.O.~.~.~.~.O.o.[ [ ) ^ ^ Q Q 1.XX<X<X2X2X>X:X-X-X-X-X}.-X-X;X:X>X>X2X2X%X@XW.v.&.` ~ ~ ! ! / / ^ ^ ) { { } o.O.~.~.~.~.~.O.^.O.} { [ ) ) ^ ^ ^ ^ Q ! ~ ~ &.&.D.$X<X2X2X>X;X-X}.}._.'._._.'.}.}.-X-X:X>X2X2X$XJ.^ ) { } o.O.~.~.~.^.O.o.{ { ^ ^ ^ Q Q ~ &.&.>.<.w.p.p.V.).`.}.;X:X>X2X2X<X&X@XW.W.Y.yXuXpXrXlXM J L E T I S u q 7 < X .     O G.HXoXoXoXoXoXoX@X@X@X%X%X%X<X<X<X<X2X2X2X2X2X>X:X-Xe.&.` ` ~ ! ! Q Q ^ ^ ^ ) ) { } o.o.O.~.~.~.~.~.~.O.O.o.} } [ [ ) ^ ^ ^ ^ / Q ! ~ ~ %.&.r.-X;X>X>X2X2X2X2X<X<X$X$X%X%X@X+XoXoX!.!.!.!.!.!.!.!.!.j.  . 1 7 w V D Y Y R P M lXrXqXuXyXT.W.oX@X$X<X2X2X>X:X}.'.",
"~.~.~.O.o.o.[ ) ) ^ ^ / Q ! ~ ~ &.>.M.V.)._.}.*X-X;X:X>X2X2X2X2X<X<X<X&X@X@X@XmXM K R T T I Z N w 7 1 o .     . o 2 8 e i S I T Y R P H lXhXqXtXiXG.Y.W.!.+X&X<X2X2X2X>X;X-X}.'.V.m.p.t.r.>.U.<X<X>X:X-X_.V.p.w.>.%.` Q ^ ^ ) { { { ) { ` &.` ` ! Q Q / ^ ^ ) { { o.o.~.~.~.~.~.~.O.O.o.} [ ) ^ ^ ^ / Q Q ~ ~ &.&.hXH M M n lXlXhXhX9XqXtXtXyXBXR.T.!.W.!.+XoXGXE L J M kXrXqXuXyXY.T.W.+X@X$X<X2X2X>X:X-X}.'.Z.M.g.t.r.<.>.&.` ~ ~ Q / ^ ^ [ ) } o.~.O.~.~.~.@.o.} [ ) ^ ^ Q Q Q 1.+X$X2X2X>X>X:X;X-X-X-X-X-X-X:X>X2X2X2X<X@XW.T.v.&.` ` ! ! ! / ^ ^ ^ ) ) { } o.O.O.~.~.~.~.^.O.O.o.} { ) ) ^ ^ ^ / Q ! ~ ~ &.&.K.#X2X2X>X:X;X}.}.'._._._.)._._.}.-X-X:X2X2X<X&XL.^ _ { o.@.@.~.~.^.^.o.} ) ) ^ / Q ! ~ ~ &.&.>.w.r.p.V.V._.}.-X:X>X2X2X<X&X+XoXW.Y.BXyXpX8XhXm H L Y T Y S B r 7 1 X .   . . 1 BXoXoXoXoXoX@X@X@X%X%X%X%X<X<X<X<X2X2X2X2X>X>X;X-X-XV.&.` ` ~ ! ! Q / / ^ ^ ) ) { { } O.O.~.~.~.~.~.~.~.O.O.o.} [ ) ) ^ ^ ^ ^ / Q Q ~ ~ ~ &.w.].>X2X2X2X2X<X<X<X&X$X%X@X@XoXXX!.!.!.!.W.!.!.W.!.!.!.G.. O 3 w i Z U T E L H n 0XqXtXyXBXW.W.+X$X<X2X2X>X;X-X}.",
"~.~.~.O.O.o.} [ [ ) ^ ^ ^ Q Q ~ ~ &.>.V.Z._.'.}.-X-X;X>X>X2X2X2X2X<X2X&X&X%X@X@XxXJ L E T Y D V y 0 3 o o .     X 1 4 w u Z D Y T E K H n hX9XtXtXyXY.T.!.!.+X&X<X2X2X>X>X-X}.'.).V.m.t.r.<.>.U.<X<X2X:X}._.m.p.<.*.` ` / ^ ^ ) { { { ) ) ` ` ` ` Q ! Q / ^ ^ ) { { } o.O.~.~.~.~.~.O.O.o.[ [ ) ) ^ ^ ^ / Q ~ ~ &.8.K J H H M m lXlXhXhXqXqXtXyXG.T.W.!.!.!.oXoXGXR J M n 0XqXtXuXBXY.W.!.+X&X<X<X2X>X>X;X-X'.).V.m.p.r.<.>.&.&.~ ~ ~ Q / ^ ) [ } o.O.~.~.~.~.O.O.} { ) ) ^ ^ Q Q ~ 1.@X$X<X2X2X>X:X;X;X-X;X-X;X;X:X>X>X2X2X<X@XW.BXx.&.` ` ! ! ! Q / ^ ^ ) { { } o.O.~.~.~.~.~.~.O.O.o.{ { ) ) ^ ^ ^ ^ Q Q ~ ~ &.&.E.$X2X>X>X;X-X}._._.).).).).)._.'.}.-X;X>X2X2X$XP.) { } O.@.~.~.~.O.O.} { ) ) ^ / Q ~ ~ &.&.>.<.r.p.m.V.).'.-X;X>X>X2X2X&X@XoX!.R.Y.yXuXqX0XlXM K R T Y I C y 0 3 O .     . O 3 s oXoXoXoX@X@X@X@X#X%X&X#X<X<X2X2X2X2X2X2X>X:X-X-X}.V.&.` ` ~ ! ! ! Q / ^ ^ ) ) { { } o.O.O.~.~.~.~.~.~.O.O.o.} { [ ) ) ^ ^ ^ ^ / Q ~ ~ ~ &.&.].>X2X2X<X2X<X$X$X%X%X+X+XoX!.!.!.W.!.!.W.!.Q.W.!.!.!.!.; 3 7 y C I Y W R J m lXrXpXuXG.T.W.oX$X$X2X2X2X:X-X}.",
"~.~.~.~.~.O.o.} [ ) ^ ^ ^ / Q ! ~ ~ &.<.Z.).}.}.-X-X:X>X>X2X2X2X2X2X<X<X<X@X&X@X@XbXK R T Y I Z y q 7 1 o .   . X o 3 0 r V D Y T E L J M lXrXqXtXyXY.T.W.!.+X$X<X2X2X>X:X;X-X'.).V.m.p.r.w.<.r.@X<X2X2X;X}.Z.m.r.<.&.` ! / ^ ^ ) ) ) ) ) ) ` &.~ ~ ! Q / ^ ^ ^ ) { { o.O.O.~.~.~.~.~.O.O.} } ) ) ) ^ ^ / Q ! ~ ~ ~ 9.L K J J H M m vXhXhXwXtXuXyXY.T.W.!.!.+XoX@XGXK H lXkXqXpXuXBXY.W.W.+X&X&X2X2X2X>X;X-X}.).Z.M.p.t.w.>.>.&.&.~ Q Q / ^ ^ ) [ } o.~.~.~.~.~.O.o.[ [ ^ ^ ^ Q ! ! &.<.@X$X2X2X2X>X>X:X;X-X;X;X;X:X>X2X2X2X<X%X!.T.BXc.` &.~ ~ ! Q Q / ^ ^ ) ) { } o.o.~.~.~.~.~.~.O.O.o.{ { ) ) ^ ^ ^ / Q ! ~ ~ ` %.E.<X2X>X:X-X}.'._.).Z.Z.Z.Z.)._._.}.=X;X>X2X2X<XP.{ } o.@.~.~.~.~.O.o.{ ) ^ ^ / Q ! ~ ` &.>.<.w.p.p.V.).'.*X-X:X2X2X2X&X&X+XW.R.Y.yXuXpX0XhXM J L E T I Z i w 4 1 X     . o 1 7 h oX!.@X@X@X@X%X@X%X%X<X<X<X<X2X2X2X2X>X>X;X-X*X}._.).<.&.` ` ! ! Q Q / ^ ^ ^ ) { { } o.O.O.~.~.~.~.~.~.O.O.O.} { [ ) ) ^ ^ ^ / Q Q ! ~ ~ %.&.r.2X2X2X<X<X$X%X%X%XoXoX!.!.!.W.!.W.W.W.W.W.W.!.W.!.!.!.G.7 w V S Y T R K M lX9XqXuXBXY.W.oX+X$X<X2X2X:X;X}.",
"~.~.~.~.~.O.O.o.{ [ ) ) ^ ^ / / ! ~ ` &.m._._.}.=X-X;X:X>X>X2X2X2X2X<X2X&X&X@X@X@XKXK R E Y I S i r 7 1 O . .   . o 2 7 e i Z I Y T R P M lXhXqXtXuXBXT.W.!.@X$X<X<X2X2X>X;X-X}._.Z.m.g.t.w.>.>.<.+X<X2X2X-X}.Z.m.w.>.&.` ! / ^ ^ ) ) ) ) ^ ) ` &.` ! ! ! / / ^ ^ ) { { o.o.~.~.~.~.~.~.O.O.} } ) ) ^ ^ ^ ^ Q Q ~ ~ &.9.R R L J J H M M lX0XwXpXiXyXT.T.W.!.!.+XoXoXGXJ M kX0XqXuXyXY.T.W.!.+X$X<X2X2X2X:X-X}.'.Z.V.g.t.r.<.>.&.` ~ ~ ! Q / ^ ) [ } o.O.~.~.~.~.@.o.} [ ) ^ ^ ^ Q ! ~ &.5.K.$X<X2X2X>X>X>X:X;X;X;X:X>X>X2X2X2X<X@X!.T.yX4X` %.` ! ! ! Q / ^ ^ ) ) { } o.o.~.~.~.~.~.~.O.~.o.} [ ) ) ^ ^ ^ ^ / Q ! ~ &.&.E.<X2X>X;X-X}._.).Z.V.V.V.V.Z.Z._.}.}.-X:X2X2X<X+Xe.o.@.@.~.~.~.O.o.} { ) ^ ^ Q Q ~ ~ &.&.>.w.r.p.m.Z._.}.-X;X>X2X2X2X&X%XoXW.T.BXuXpXqXhXm H K E T Y D i r 7 1 O .     . 1 4 w u SXoX!.@X@X%X#X%X%X&X<X<X<X2X2X2X2X2X>X:X;X-X}.'.).V.q.&.` ` ` ! ! Q Q / ^ ^ ) ) { { o.o.O.~.~.~.~.~.~.O.O.O.o.} [ [ ) ^ ^ ^ ^ / Q Q ~ ~ %.&.r.].<X<X$X$X%X+XoX+X!.!.!.!.W.W.W.W.W.W.W.T.W.W.!.!.!.!.Y.h y S U W E L H lXhXqXtXyXY.T.!.+X$X$X2X2X2X:X-X",
"O.~.~.~.~.~.O.O.} } [ ) ^ ^ ^ / Q ~ ~ ~ &.M._.].=X-X;X:X>X>X2X2X2X2X2X<X<X&X&X&X@X@XDXL E T Y D V y 0 3 O .     . X < 4 q y Z I Y T E L H m hX9XqXyXyXY.T.W.+X@X$X<X2X2X>X:X-X}.'.).V.m.p.w.<.>.>.5.%X<X2X>X-X'.V.p.r.&.&.~ ! ^ ^ ^ ^ ) ) ) ^ ^ &.` ` ~ ! ! / ^ ^ ^ ) { } o.O.O.~.~.~.~.~.O.O.} } ) ) ^ ^ ^ / Q ! ~ ~ &.9.Y R R L K J H n vXhXqXpXyXBXT.W.W.!.!.@X@XoXDXM lX0XqXtXuXY.T.W.!.+X&X<X2X2X>X:X-X-X'._.V.M.p.r.<.>.&.&.` ~ Q Q / ^ ) [ { o.O.~.~.~.~.O.O.} } ) ^ ^ / Q ! ~ ~ &.>.K.$X<X2X2X>X>X>X:X:X:X>X>X>X2X2X2X2X%X@XW.BXyX4X&.` ` ~ ! Q / / ^ ^ ) ) { } o.O.O.~.~.~.~.~.O.O.o.} { ) ) ^ ^ ^ / Q Q ~ ~ ~ &.].2X2X;X;X}._._.Z.V.M.V.M.V.V.Z.)._.}.-X;X>X2X<X#Xs.@.@.~.~.~.O.O.} { ) ^ ^ Q Q ~ ~ ` &.>.<.r.p.m.V.).'.-X:X>X2X2X<X<X+XoX!.T.Y.yXtXqX0XlXM K E W Y D C y 0 3 < X     . O 3 0 y V FX@XXX@X@X@X%X%X&X<X<X<X2X2X2X2X>X>X:X;X-X}.'.).Z.m.t.&.` ` ~ ! ! Q / / ^ ^ ) ) { { o.o.O.~.O.~.~.~.~.~.O.O.o.} { [ ) ) ^ ^ ^ / Q Q ! ~ ~ %.&.[.$X$X$X%XoX+X!.!.!.W.W.T.W.T.W.T.T.T.W.T.W.W.W.W.!.!.!.rXV U Y Y R J m lXqXpXuXY.T.W.oX%X<X2X2X>X:X-X",
"o.O.~.~.~.~.~.O.O.} [ [ ) ^ ^ ^ / Q ~ ~ ` &._.}.}.-X;X;X>X>X2X2X2X2X2X<X<X<X&X&X@X@X@XGXR Y T I Z y w 7 1 o .     . < 3 0 t V S Y Y W L J M lXrXqXtXyXY.T.W.!.+X&X<X<X2X2X>X;X-X'.).V.m.p.t.w.>.&.&.<.%X<X2X:X-X).V.p.w.&.%.! ! / ^ ^ ^ ^ ^ ^ ^ ^ &.~ ` ~ ! ! Q ^ ^ ) ) { { o.O.O.~.~.~.~.O.O.O.} } [ ) ^ ^ ^ / Q ! ~ ~ &.9.T Y E R L K J M vXhXqXpXyXBXT.W.!.!.oXoX@XoXDXm kXqXpXuXyXY.W.!.oX$X$X<X2X2X>X:X-X}.).V.h.g.r.r.>.>.&.~ ~ ! Q Q / ^ ) { } O.~.O.~.~.~.O.o.[ [ ) ^ ^ Q Q ~ ~ &.&.>.E.$X<X2X2X>X>X>X:X:X>X>X>X2X2X2X2X<X@X!.W.yXtX4X&.` ` ~ ! ! / / / ^ ) ) { } o.o.~.~.~.~.~.~.O.O.o.} { [ ) ^ ^ ^ ^ Q Q ! ~ &.&.5.2X>X;X=X}.).Z.V.V.m.m.m.m.M.V.Z._.}.-X;X>X2X<X$Xs.~.~.~.~.~.O.o.{ ) ) ^ ^ Q Q ~ &.&.>.>.r.t.m.M.).`.}.-X:X2X2X2X<X&X@XW.W.Y.BXuXpX0XkXm J L E T U Z i w 4 < X .   . X 1 7 r V S bX!.@X@X@X#X%X%X<X$X<X2X2X2X2X2X>X>X;X-X*X'._.V.V.p.r.>.` ` ` ! ! ! Q ^ ^ ^ ) ) { { } o.O.~.~.~.~.~.~.~.O.O.o.} } ) ) ) ^ ^ ^ ^ / Q ! ~ ~ &.&.5.$X@X@X+X!.W.!.W.W.T.W.T.T.T.T.T.T.T.ZXT.T.W.W.!.!.!.oXFXD Y W R K H lX0XpXuXyXY.W.!.+X$X<X2X2X>X;X",
"o.o.~.O.~.~.~.~.O.o.} [ [ ^ ^ ^ / Q Q ~ ~ &.<.}.=X=X;X:X:X>X2X2X2X2X<X2X<X<X&X&X@X%XoX+XPXT T I S B e 8 2 O .     . o 2 7 w i S I T Y R P H lXhXrX5XyXyXY.W.!.oX&X<X2X2X2X>X;X-X}._.Z.m.g.t.w.<.>.%.&.n.$X<X2X;X-X).m.t.<.&.` ! Q / ^ ^ ^ ^ ^ ^ / ! &.` ~ ~ ! Q / ^ ^ ^ ) { } o.O.~.O.~.~.~.~.O.o.} [ [ ) ^ ^ ^ / Q ! ~ ` &.9.T T W Y R L J H vXhXpXtXyXBXW.W.!.oX+XoX@XoXzXkX0XqXtXyXY.T.W.oX+X$X<X2X2X>X:X-X}.'.).V.m.p.r.<.>.&.&.~ ~ Q / ^ ^ [ ) } o.O.~.~.~.~.O.o.} [ ) ^ ^ Q Q ! ~ &.&.>.<.E.$X<X2X2X2X>X>X>X>X>X>X>X2X2X2X<X<X@XW.T.yXqX6X&.` ` ~ ! ! / / / ^ ) ) { { o.O.O.~.~.~.~.~.~.O.o.o.[ [ ) ^ ^ ^ / Q Q ~ ~ ~ &.r.>X:X;X}._.Z.V.M.m.g.m.m.m.m.M.Z._._.=X;X>X2X<X&Xf.@.~.~.~.@.o.} ) ) ^ / Q ! ~ ~ &.&.>.w.r.p.N.V._.}.-X:X>X2X2X<X$X+XoXW.T.BXyXpXqXhXn H K E Y Y D B r 7 2 X       X < 4 w y S I UX@X@X@X@X%X%X&X<X<X<X2X2X2X2X>X>X;X-X*X'._.Z.V.m.p.r.&.&.` ` ~ ! ! Q Q ^ ^ ^ ) ) { } o.o.O.~.~.~.~.~.~.O.~.o.} } { ) ) ^ ^ ^ / / Q ! ~ ~ ~ &.5.K.+X!.W.!.W.T.T.T.Y.Y.Y.BXBXY.ZXBXG.Y.ZXT.W.W.W.!.!.XX!.J W E L H lXhXqXtXyXY.T.!.@X$X<X2X2X2X;X",
"{ o.o.~.~.~.~.~.O.O.o.} [ [ ) ^ ^ ^ Q Q ~ ~ &.<.=X=X;X;X>X>X>X2X2X2X2X<X2X<X&X&X&X@X%XoXoXPXW Y D V y 0 3 < . .     X 1 4 q y C D Y T Y P J n kXrXqXuXyXY.T.W.XX@X$X<X2X2X>X>X;X}.'.).V.m.p.r.<.>.>.~ ` K.$X2X2X:X}.).m.r.,.&.` ! ! / / ^ ^ / ^ / / ! &.~ ~ ~ ! ! / ^ ^ ) ) { } o.O.~.~.~.~.O.~.O.O.} [ [ ) ^ ^ ^ / / ! ~ ` &.9.Y Y T T E R J H lXhXpXiXG.BXW.W.!.!.+X@X@X@XmXhXqXtXuXY.Y.R.!.+X%X<X2X2X2X>X;X-X'.).V.m.p.r.w.>.&.&.` ~ ! Q / ^ ^ [ { } O.~.~.~.~.~.o.o.[ ) ^ ^ ^ Q Q ~ ~ *.>.>.w.E.$X<X<X2X2X2X>X>X>X>X>X2X2X2X2X<X%X@XW.Y.yXqX8X&.` ` ~ ! ! / / / ^ ) ) { } o.o.~.~.~.~.~.~.O.O.o.} [ [ ) ) ^ ^ ^ / Q ! ~ &.&.5.>X;X=X]._.V.M.m.g.p.p.p.g.m.m.V.Z._.}.-X:X>X2X&X`.O.~.~.~.o.o.{ ) ^ ^ / Q ! ~ &.&.>.<.r.p.g.V.).}.-X;X:X>X2X<X<X@X@XHXR.Y.yXuXqX0XlXM K R T Y I C t q 3 < X     . O 3 0 y V I Y P @X@X@X@X%X$X$X<X<X2X<X2X2X2X>X:X;X-X}._.).V.m.p.t.w.>.` ` ` ~ ! ! Q Q / ^ ^ ) ) { { o.o.O.~.~.~.~.~.~.O.~.O.o.} { [ ) ^ ^ ^ ^ ^ / Q ! ~ ~ &.&.D.HX!.T.T.T.Y.Y.Y.BXY.G.BXyXBXBXBXBXG.BXT.T.W.W.!.!.+XoXFXW L J nXhX0XtXyXY.T.W.oX%X<X2X2X>X:X",
"{ } o.O.~.~.~.~.~.~.O.o.} [ ) ^ ^ ^ / Q ! ~ ~ &.g.=X;X:X:X>X2X2X2X2X2X2X<X<X<X&X%X%X%XoX@X@XP T I Z i w 4 1 o .   . X o 3 0 r V S Y T E R J M lX9XqXtXyXY.T.W.!.@X$X<X2X2X>X>X-X-X}.).Z.m.p.t.<.<.] &.` ~ K.$X2X:X:X}.Z.m.w.>.&.` ! / / / / / / / / / ! &.` ~ ! ! Q / ^ ^ ) ) { } o.O.~.~.~.~.~.~.O.o.} [ [ ) ^ ^ / / Q ~ ~ ~ &.9.Y Y Y T Y E P H lX9XpXiXBXT.W.!.oXoX@X@X@XoXsXrXpXuXyXY.W.W.oX&X<X<X2X2X>X;X-X}._.Z.m.g.r.w.>.>.&.~ ~ ! Q / ^ ^ [ { } o.~.~.~.~.O.~.o.[ [ ) ^ ^ Q Q ~ ~ %.&.>.<.r.E.$X<X2X2X2X2X2X>X2X>X2X2X2X2X<X<X@X!.W.yXtX0X8X&.%.` ~ ! ! / / ^ ^ ) ) { { o.O.O.~.O.~.~.~.~.O.o.o.{ [ ) ^ ^ ^ / Q Q ! ~ ~ &.r.;X;X}._.Z.M.m.g.p.p.p.p.p.p.m.M.Z.).}.-X;X2X2X$X].~.~.@.@.} } ) ^ ^ / Q ! ~ ~ &.>.>.r.t.m.B.Z.'.}.-X:X2X2X2X<X&X+XW.W.Y.yXuXpX9XlXm J L E T I S i w 4 < X     . o 1 7 w V S Y T E GX@X@X#X@X&X$X<X<X2X2X2X2X>X:X;X-X}.}.).Z.m.g.t.w.>.>.&.` ` ~ ! ! ! / / ^ ^ ^ ) { { } o.O.O.~.~.~.~.~.~.O.O.o.} { [ ) ) ^ ^ ^ / / Q ! ~ ~ ` &.<.R.T.Y.Y.BXBXBXBXyXyXyXyXyXyXyXyXyXBXBXY.W.W.!.!.!.oXoXGXPXP M lX0XpXuXyXY.W.oX+X$X<X2X2X>X",
") { } o.O.~.~.~.~.~.O.O.} { [ ) ^ ^ ^ / Q ! ~ ` &._. X;X:X>X>X2X2X2X2X2X<X2X<X<X&X$X+X%XoX@XoXT I S i r 8 2 O .     . o 1 7 w i Z I Y T R K M vXhXqXtXuXyXT.W.!.oX&X$X<X2X2X>X:X-X}._.Z.m.g.t.w.<.>.&.` ` ! J.<X<X:X-X'.V.g.w.*.%.` ! ! / / / / / / / / ~ &.~ ~ ~ ! Q / ^ ^ ) ) } } o.O.~.~.~.~.~.O.O.o.{ { [ ) ^ ^ ^ / Q ! ~ ~ &.x D I Y Y T U L H kXwXtXyXY.T.W.!.oXoX@X@X@X@XaXqXtXyXY.T.W.!.+X$X<X2X2X2X:X-X-X_.).V.g.p.r.<.>.&.&.~ ~ Q Q / ^ ) [ } o.O.~.~.~.~.o.O.} [ ) ^ ^ ^ Q ! ~ %.&.>.<.w.t..X#X$X2X2X2X2X2X>X2X2X2X2X2X2X<X%X@XW.R.yXpXkXH 8.%.` ~ ! ! / / / ^ ) ) { { } o.~.~.~.~.~.O.~.O.O.} [ [ ) ) ^ ^ ^ Q Q ! ~ ~ &.5.;X=X`.Z.M.m.g.p.p.t.p.r.p.p.p.m.V.Z.}.=X;X>X2X<X`.~.~.@.o.} { ) ^ ^ Q ! ! ~ &.&.>.<.r.p.m.V.`.}.-X;X>X2X2X2X&X@XoXW.R.BXuXtXqXhXm H K E Y Y D B r 8 2 X .     X 1 3 w y S I Y T L DX@X@X#X&X&X$X<X2X2X2X2X2X>X:X;X-X'._.).V.m.p.r.w.>.*.&.` ` ` ! ! ! Q / ^ ^ ^ ) { { } o.O.O.~.~.~.~.~.~.O.O.O.o.{ [ [ ) ^ ^ ^ ^ / / Q ~ ~ ` &.1.S.Y.BXBXyXuXyXuXuXuXiXtXtXyXtXyXuXG.BXBXT.W.!.!.!.+XoXoXxXH cX0XqXtXyXY.T.!.+X%X<X<X2X>X",
") ) { } O.O.~.~.~.~.~.~.O.} } [ ) ^ ^ ^ / Q ~ ~ ~ &._.;X:X>X2X2X2X2X2X<X2X<X<X$X$X%X%X%X@X@X@XFXY D C t q 3 1 . .   . o 1 3 q y Z D Y T E P J m kXwXqXtXyXY.T.W.@X+X$X<X2X2X>X:X-X}.'.).V.m.p.r.w.>.&.&.` ~ ! U.<X2X>X-X`.V.t.w.*.` ` ! ! Q / / / / / ! ! &.&.` ~ ! ! Q / ^ ^ ) ) } } o.O.~.~.~.~.~.^.O.O.{ [ ) ) ^ ^ / Q Q ! ~ &.~ k S D Y Y T E P H kXqXtXyXBXR.W.oX+X@X@X%X@X@XiXtXuXBXY.W.oX+X@X<X2X2X2X:X;X*X}._.V.M.p.r.w.>.>.&.` ~ ! Q ^ ^ ^ [ { o.O.O.~.~.~.~.O.o.[ ) ^ ^ ^ Q ! ~ %.%.>.>.5.r.g..X$X&X2X2X2X2X2X2X2X2X2X2X2X<X<X%XoXW.Y.yXqXlXP 9.%.~ ` ! ! ! / ^ ^ ^ ) { { o.o.O.~.~.~.~.~.~.O.o.o.} ) ) ) ^ ^ ^ Q Q ! ~ ~ &.&._.}._.Z.M.g.p.r.r.r.r.r.r.p.p.g.V.Z._.}.;X>X2X<X`.f.@.@.} { ) ^ ^ / Q ! ~ &.&.>.<.w.p.m.V.).'.*X:X>X2X2X<X&X%X+XW.R.Y.yXuXqXrXlXM K R W T I C y q 2 < X     . o 3 0 y V D Y T R K bX@X@X@X&X$X<X<X<X2X2X2X>X>X;X-X*X'.).V.m.p.t.w.>.&.&.&.&.` ` ! ! ! Q Q ^ ^ ^ ) ) { } } O.O.~.O.~.~.~.~.~.O.O.o.} { ) ) ) ^ ^ ^ / Q Q ! ~ ~ ~ &.x.yXuXuXuXtXtXtXtX5XtXtX5XtXtXuXiXyXBXY.T.W.!.!.oX+XoX@XDXzXkX0XtXuXY.T.W.oX$X$X2X2X2X",
"^ ) ) { } o.O.~.~.~.~.O.O.O.} [ [ ) ^ ^ ^ / Q ~ ~ &.&.`.>X>X>X2X2X2X2X2X<X<X<X<X$X$X%X%X%XoXoXoXGXI S u w 7 < o .     . o 3 8 r N S Y Y Y R J M kXhXqXtXyXBXT.W.!.@X&X<X<X2X2X>X;X-X'.).Z.m.p.r.w.>.>.&.` ~ ! Q @X<X2X:X-X).V.t.w.*.` ` ! ! Q Q / ! / / ! ! &.` ~ ~ ~ ! Q / ^ ^ ) ) { } O.O.~.~.~.~.~.^.O.o.{ [ [ ) ^ ^ ^ / Q ! ~ &.&.j V S D Y Y Y P M hXqXyXBXT.W.W.!.+X@X@X@X@X@XiXyXyXY.T.W.oX$X$X<X2X2X2X:X-X}._.Z.h.g.r.r.>.>.&.` ~ ! ! / / ^ ) { } o.~.~.~.~.~.O.o.} [ ) ^ ^ Q Q ! ~ &.*.>.<.r.t.m.{.$X$X<X2X2X2X2X2X2X2X2X2X2X<X&X@X!.W.yXuXrXn L 9.%.~ ~ ! ! ! / / ^ ) ) { { o.o.O.~.~.~.~.O.~.O.O.{ o.[ ) ) ^ ^ ^ ^ Q Q ~ ~ &.&.Z.].Z.M.g.p.p.r.<.r.w.r.r.r.p.p.m.V._.}.-X>X>X2X%X/.@.} } ) ) ^ / / ! ~ ` &.>.>.r.r.m.M.Z.`.}.-X:X>X2X2X<X&X@XoXR.Y.yXuXpX8XkXM J L Y T I S u e 4 1 X .   . X 1 7 w V S Y Y E L H mX!.@X@X$X$X$X<X2X2X2X2X>X:X;X-X}._.).V.m.t.r.w.>.&.` ` &.` ` ~ ! ! Q Q Q ^ ^ ) ) { { } o.O.~.~.~.~.~.~.~.O.O.o.} } [ ) ) ^ ^ ^ ^ / / ! ~ ~ &.&.1.uXpXtXtXpXqXqXqXqXqXqXqXqXqXtXtXyXBXT.T.W.!.!.oX+XoX@XoXdX0XpXuXyXT.W.W.%X$X<X2X2X",
"^ ^ ) { { o.O.O.~.~.~.~.~.O.o.} [ ) ) ^ ^ / Q Q ~ ~ &.r.:X:X2X2X2X2X2X2X2X<X<X<X$X$X%X%X@X%XoX%X@XFXS N t 8 2 < .     . o 1 7 w u S I T T R P H vXhXwXtXuXBXBXW.W.+X#X<X<X2X2X>X:X-X}.'.V.V.g.p.w.<.>.&.&.~ ! ! ,.%X<X2X:X-X).m.t.>.*.` ` ! ! ! ! Q ! ! ! ~ ~ &.&.~ ~ ! Q / / ^ ^ ) { { } O.O.~.~.~.~.~.O.O.o.} [ ) ) ^ ^ / / Q ~ ~ ` &.s i V D I T E J vXhXpXyXBXT.W.!.@X@X@X%X@X@X+XiXyXBXR.W.oX+X&X<X2X2X>X:X;X*X'.).V.m.p.r.<.>.&.&.~ ~ Q Q ^ ^ ) [ } o.O.~.~.~.~.O.o.} [ ) ^ ^ Q Q ! ~ &.%.>.>.r.p.g.M..X%X<X<X2X2X2X2X2X2X2X2X2X<X<X&X@XW.R.yXpX0XM R 9.%.%.~ ! ! ! / ^ ^ ^ ) { { } o.O.~.~.~.~.~.^.O.~.{ } [ ) ) ^ ^ ^ / Q ! ~ ~ ~ &.Z._.Z.M.p.r.r.r.w.<.<.<.5.r.r.p.m.M.).'.-X:X2X<X+Xf.o.} { ) ^ / / ! ~ ~ &.&.>.<.r.p.m.Z._.}.-X:X>X2X2X<X&X+XoXW.T.Y.yXpXqXhXlXH K R T Y D V r 8 1 O .     X < 3 w y S I T Y R J M lXHX+X@X&X$X<X<X2X2X2X>X:X:X-X*X'.).V.m.p.t.w.>.&.&.` ~ &.&.~ ~ ! ! Q Q ^ ^ ^ ^ ) { { } o.O.O.~.~.~.~.~.~.O.~.o.} } [ ) ) ^ ^ ^ / / Q ! ~ ~ ~ %.&.4XpX8X0XqX0X0X0X0XrXhXrXwXqXpXtXyXyXT.T.W.!.!.+X@X@X@X@XW.rXtXyXY.R.oXoX$X<X2X2X",
"^ ^ ^ ) { { o.O.O.~.~.~.~.~.O.o.} [ ) ) ^ ^ ^ / Q ~ ~ &.r.2X>X2X2X2X2X2X<X2X<X<X$X$X%X%X%XoX%XoXoXoXM Z t q 4 < . .     . 1 3 q y V D Y T Y L H M hXwXqXtXyXG.T.W.!.+X$X<X2X2X>X>X;X*X'.).V.m.p.t.<.>.&.&.` ~ Q Q >.%X<X2X:X}.).m.r.>.*.` ` ~ ! ! ! ! ! ! ! ~ ` &.&.~ ~ ! ! Q / ^ ^ ) { { } O.O.~.~.~.~.~.^.O.o.{ [ ) ) ^ ^ / / Q ! ~ ` &.s t i S I Y U J lXwXtXyXBXW.W.!.+X@X@X&X@X%X@XBXBXBXW.!.oX$X$X2X2X2X>X;X-X'._.V.m.g.r.w.>.&.&.&.~ ! Q / ^ ^ ) { } O.O.~.~.~.~.O.} [ [ ) ^ ^ Q Q ~ ~ &.>.>.<.r.p.M.V.{.%X$X<X2X2X2X2X2X2X2X2X2X<X&X@XoXW.Y.yXqXkXH E 9.%.` ~ ! ! ! / / ^ ^ ) { { } o.O.~.~.~.~.~.^.O.O.o.{ [ [ ) ^ ^ ^ ^ Q Q ~ ~ &.&.B.Z.M.g.t.r.w.<.<.<.<.>.<.5.r.r.g.m.Z._.-X;X2X2X&Xf.} { ) ^ ^ / Q ! ~ &.&.>.<.r.p.p.V.).}.}.;X>X2X2X2X<X@X@XW.R.Y.yXuXqX0XlXM K R E T I C y q 3 < .     . O 3 0 r V D Y T R K M lXhXHX@X+X&X$X<X<X2X2X2X2X:X:X-X}.'.).V.m.t.r.<.>.&.` ` Q ` &.` ` ! ! Q Q Q ^ ^ ^ ) ) { } } O.O.~.~.~.~.~.~.O.~.o.o.} { [ ) ) ^ ^ ^ ^ / Q ! ~ ~ &.&.j.0X0XlXhXkXkXkXkXhXlXhXhXwXqXtXyXyXT.T.!.!.!.+X@X@X@X@X@XiXyXBXR.W.+X%X$X2X2X",
"Q ^ ^ ) ) { } o.O.~.~.~.~.~.O.O.o.} [ ) ^ ^ ^ / Q ! ~ ~ &.r.2X2X2X2X2X<X2X<X<X<X$X$X%X%X%X%X@X@X@XoX@Xn u q 8 1 O .     . O 2 7 r N S I T E R P M lXhXqXtXuXY.T.W.!.@X$X<X2X2X2X>X;X-X}._.V.m.p.r.w.>.>.&.~ ~ ! ! / >.,X<X2X;X}.V.m.r.>.*.` ` ` ! ! ! ! ! ! ` ~ ~ &.` ` ~ ! ! Q ^ ^ ^ ) { } } O.O.~.~.~.~.~.O.O.} } [ ) ^ ^ ^ / Q ! ~ ~ &.&.5 w y Z I T R H kXqXtXG.Y.W.!.oXoX%X@X+X@X@X@XBXY.R.W.+X@X<X<X2X2X>X:X-X*X_.Z.V.p.p.w.<.>.&.` ~ ! Q / ^ ^ ) { } o.~.~.~.~.O.~.o.} [ ) ^ ^ Q Q ~ ~ %.%.>.<.r.p.m.C.Z.XX%X<X<X<X2X2X2X2X2X2X2X<X<X&X+X!.W.BXuXqXlXK Y 9.&.` ~ ! ! ! / ^ ^ ^ ) { { } o.O.~.~.~.~.~.^.~.o.o.} [ ) ) ^ ^ ^ / Q Q ~ ~ ~ &.p.B.m.p.r.5.<.>.>.>.>.>.>.<.5.r.p.m.V._.}.;X2X2X&XP.{ ) ) ^ / Q ! ~ ~ &.>.>.r.r.m.m.).`.}.-X:X>X2X2X&X&X+X!.W.Y.yXuXtX8XlXm J L Y T I S i e 7 < O     . X 1 7 r i S Y T E L H vXhXwXyX@X@X&X$X<X<X2X2X2X>X:X-X-X}._.V.V.g.r.r.>.&.&.` ! Q ` &.` ` ~ ! ! Q Q Q ^ ^ ) ) { { } o.O.O.~.~.~.~.~.~.~.O.o.} } [ ) ) ^ ^ ^ / Q Q Q ~ ~ ~ &.:.8XlXm m m M m m m vXlXlXhX8XtXuXBXT.W.W.!.oX@X@X&X@X@X@XW.yXY.W.oX@X$X<X2X",
"! / ^ ^ ^ ) { } o.O.~.~.~.~.~.O.O.o.[ [ ) ^ ^ ^ ^ Q ! ~ ` &.].2X2X2X2X2X<X<X<X<X$X$X$X%X%X@X%X@XoXoXoXoXn r 8 2 O o     . o 1 7 w u Z I Y T R P H vXhXwXpXuXyXY.W.W.+X@X<X<X2X2X>X:X-X}._.).V.g.p.r.<.>.&.&.~ ~ Q Q / >.,X<X2X;X'.V.g.r.>.*.` ` ~ ~ ! ~ ! ~ ~ ` %.&.&.~ ` ! ! ! Q / ^ ^ ) { { o.o.O.~.~.~.~.~.~.O.} } [ ) ) ^ ^ ^ / Q ! ~ &.&.5 0 r Z I T L H hXpXiXY.T.W.!.+X@X&X&X@X$X@X@XR.R.W.!.+X&X<X<X2X2X:X-X*X'.).V.m.p.r.w.>.&.&.~ ~ ! Q / ^ ) ) } o.O.~.~.~.~.o.O.} [ [ ) ^ ^ Q ! ~ %.&.>.>.5.t.g.M.Z._.XX@X$X<X<X2X2X2X2X2X2X<X<X<X%XoXW.W.BXtX0Xm L Y 9.&.` ~ ~ ! ! / / ^ ^ ) { { } o.O.~.~.~.~.~.^.^.O.o.} [ [ ) ^ ^ ^ ^ Q Q ~ ~ ` &.<.m.g.r.r.<.<.>.&.>.>.*.>.>.<.5.t.g.M.).}.-X>X2X$XP.{ ^ ) / / ! ! ~ &.&.>.<.r.p.m.V._.}.-X;X>X>X2X2X&X@XoXW.R.Y.uXpXqXhXlXH K R T Y D V r 8 2 X .     X < 3 w y Z I Y T R J M lXrXqXyXXX@X&X$X<X<X2X2X2X>X:X-X-X'._.V.m.p.r.w.>.&.` ` ! Q ( &.&.~ ` ! ! Q Q ^ ^ ^ ) ) { { } o.o.~.~.O.~.~.~.~.O.O.O.} } [ ) ) ) ^ ^ ^ / / Q ~ ~ ~ &.&.gXH H H H J H H H H M lXmX9XtXyXyXT.W.W.!.+X@X@X%X@X%X@X@XR.W.W.+X%X<X<X",
"! Q Q ^ ^ ) ) { } o.~.O.~.~.~.~.O.O.} } [ ) ^ ^ ^ / Q ~ ~ ~ &.}.2X2X2X<X2X<X<X$X$X$X%X%X%X%X%XoXoX%XoXoXoXt q 4 1 .     . . < 3 0 y V D Y T E L H M lXrXqXtXyXY.T.W.oX+X$X<X2X2X>X:X-X*X}.).V.m.p.r.<.>.&.&.` ~ Q Q / ^ p.#X2X2X-X'.V.p.w.>.*.%.%.` ~ ~ ~ ~ ~ ~ ~ &.&.&.&.` ~ ! Q Q ^ ^ ^ ) { { o.o.~.~.~.~.~.~.O.O.o.{ [ ) ^ ^ ^ / Q ! ~ ~ ~ &.& 8 r C Y Y P n 0XtXyXY.T.W.!.@X@X@X$X@X#X@X@XR.R.!.oX%X<X2X2X2X>X:X-X}.).Z.m.p.r.<.<.&.&.` ~ ! Q / ^ ^ ) { } O.O.~.~.~.~.O.o.[ [ ^ ^ ^ Q ! ~ ~ %.>.>.w.r.g.m.Z._.}.XX&X&X<X<X2X2X2X2X<X2X<X<X&X+XoXW.Y.yXpXhXM R Y 8.&.%.~ ! ! ! / ^ ^ ^ ) ) { } o.O.O.~.~.~.~.~.O.O.o.} { [ ) ^ ^ ^ / Q Q ~ ~ ~ &.<.g.p.r.<.>.>.>.>.&.>.&.>.>.<.<.r.p.m.Z.}.;X>X2X<XP.{ ^ ^ Q Q ! ~ ~ &.>.<.w.p.m.V.)._.-X;X:X2X2X<X<X&X+XW.T.Y.yXuXqXrXlXM K R W T D Z y 0 4 < X     . O 2 8 y V D Y T R K H lX0XqXtXyXW.+X$X$X<X<X2X2X2X>X:X-X*X_.Z.V.m.t.r.>.*.&.` ! ! ^ ^ ` &.` ~ ~ ! Q Q Q ^ ^ ^ ) ) { { o.o.O.~.~.~.~.~.~.~.O.O.o.} } ) ) ) ^ ^ ^ / Q Q ! ~ ~ ` &.7.K L L L L L P K J H n kXwXqXyXBXT.W.!.oX@X@X%X#X@X%X@X+XW.W.oX&X&X2X",
"! ! Q Q ^ ^ ) { { } o.~.~.~.~.~.~.O.O.} [ [ ) ^ ^ ^ / Q ~ ~ %.&.].2X2X2X<X<X<X<X$X$X%X%X@X%XoX%XoX@XoXoXoXVXw 7 2 O .     . O 1 8 r N S Y Y Y R P M lXhXqXtXuXY.Y.W.!.oX$X<X<X2X2X>X:X-X'._.Z.m.g.r.w.<.>.&.` ~ ~ Q Q Q ^ L.$X2X2X-X_.V.p.w.>.*.&.%.~ ~ ` ~ ~ ~ ` &.&.>.` ` ` ~ ! Q Q ^ ^ ^ ) { { o.o.~.O.~.~.~.~.O.O.o.[ [ ) ) ^ ^ ^ / Q ~ ~ &.&.% 7 r C Y Y J lX9XtXBXY.W.!.XX@X@X&X%X$X@X%XoXW.HX+X+X&X<X2X2X>X:X;X}.'.Z.V.g.p.w.<.>.&.&.~ ! ! Q / ^ ) ) } o.~.~.~.~.~.O.o.} ) ) ^ ^ ^ Q ! ~ %.*.>.>.r.t.m.M._._.=XXX+X<X<X<X2X2X2X2X2X<X<X<X$X@XHXW.Y.uXqXhXJ E U f &.%.~ ! ! ! / / ^ ^ ) ) { } } O.~.~.~.~.~.~.O.O.o.} [ [ ) ) ^ ^ ^ Q Q ! ~ ~ &.>.p.r.<.<.>.&.&.&.&.&.&.&.>.>.<.5.p.m.Z._.;X>X2X<XP.q.^ ^ ! ! ! ` &.>.>.w.r.m.m.).`.}.-X:X>X2X2X<X&X@XoXW.Y.BXuXpX8XkXm H L Y W Y S u e 4 1 X .     X 1 7 w i S Y T E L H n kXrXtXuXY.W.+X@X<X<X<X2X2X2X>X;X-X}._.Z.M.g.t.w.>.*.` ` ! ! ^ ^ ' &.~ ~ ~ ! ! Q Q / ^ ^ ) ) { { } o.O.O.~.~.~.~.~.~.O.O.O.} } ) [ ) ^ ^ ^ ^ / Q Q ~ ~ ` &.9.F Y E Y E Y R R L J M kXrXtXyXBXT.W.!.XX@X@X&X%X%X%X@X@XoXoX+X&X<X",
"` ! ! Q ^ ^ ^ ) { { o.o.~.O.~.~.~.~.O.o.} [ ) ) ^ ^ / Q Q ~ ~ &.r.<X2X<X<X<X<X$X$X%X%X%X%X%X%X@X%XoXoXoXoXoXiX0 2 O o     . X 1 7 w y Z D T T E P H n hXqXqXyXyXY.W.W.+X#X$X<X2X2X>X:X-X}.'.Z.V.g.p.r.<.>.&.` ` ~ ! Q ^ ^ ) L.$X2X:X-X_.M.p.w.<.&.&.&.` ` ~ %.~ %.` &.&.>.&.` ` ! ! Q Q ^ ^ ) ) { } o.o.~.~.~.~.~.~.O.o.o.{ [ ) ^ ^ ^ / Q Q ~ ~ %.&.% 4 r S Y R H hXpXtXBXT.W.W.+X@X%X$X@X$X@X&X+XW.!.@X&X<X2X2X2X:X-X*X'._.V.m.p.r.w.>.&.` ` ~ ! Q / ^ ) [ { o.O.O.~.~.~.@.O.} } ) ^ ^ Q Q ! ~ %.&.&.<.5.t.g.M.Z._.}.-X+X@X&X<X<X<X2X2X<X2X2X<X$X@X+XW.R.yXuXrXlXP Y I s %.` ` ! ! ! Q / ^ ^ ) ) { } o.O.O.~.~.~.~.~.~.O.o.} } ) ) ^ ^ ^ ^ Q Q ! ~ ~ %.>.<.r.>.>.>.&.&.&.&.&.%.>.&.>.>.<.t.g.Z.'.-X>X2X<X#X>.^ Q Q ~ ~ &.&.>.<.r.p.m.V.).'.-X:X>X2X2X<X&X+XoXW.T.Y.uXtXqXhXlXH L R W Y D C t 8 2 O .     . < 3 q y Z I Y Y R J M lX9XqXuXyXT.W.+X+X$X<X<X2X2X>X>X;X-X}.).Z.m.p.r.<.>.&.` ! Q Q ^ ) _ &.&.~ ~ ! ! Q Q ^ ^ ^ ^ ) { { } o.O.O.~.~.~.~.~.~.~.O.O.} } { ) ) ^ ^ ^ ^ / Q Q ! ~ ~ &.&.7XY T Y T T T Y R P H kXwXtXyXT.T.W.!.@X%X@X%X%X%X%X&X+X@X@X%X<X",
"` ` ! ! Q / ^ ^ ) { { o.o.~.~.~.~.~.~.O.o.} [ ) ) ^ ^ ^ Q Q ~ ~ &.r.<X<X<X<X<X$X$X%X%X%X%XoX%XoXoX+XoXoXoXoXoXBX4 1 . .     . < 3 0 t V D I T E L J M lXrXqXtXyXBXT.W.!.+X$X<X<X2X2X:X;X-X'.).V.m.p.r.w.>.>.&.` ~ Q Q Q ^ ^ ) `.&X2X>X-X).M.p.w.,.*.&.&.` ` ~ %.` &.` &.>.>.&.` ` ! ! Q Q ^ ^ ) ) { { o.O.O.~.~.~.~.~.O.O.} } ) ) ^ ^ ^ ^ Q Q ~ ~ &.&.% 7 t D Y L nXhXpXyXY.T.!.!.+X@X&X&X%X&X@X@X@XoXoX#X<X<X2X2X>X:X-X}.).V.h.p.p.w.>.>.&.` ~ Q Q Q ^ ^ { { } o.~.~.~.~.~.o.o.[ [ ) ^ ^ Q Q ! ~ &.>.>.<.r.p.m.Z._.}.=X;X;X+X&X&X<X<X2X2X<X<X<X<X$X@XoXR.R.yXtX0Xm L Y A s %.` ` ( ! ! Q / ^ ^ ) ) { } o.o.~.~.~.~.~.O.~.O.O.} } [ ) ) ^ ^ ^ Q Q ! ~ ~ &.&.<.<.>.&.&.%.~ &.~ &.~ &.&.>.>.>.r.p.V._.-X:X>X<X$X>.^ ! ! ~ ` &.>.<.r.r.m.V.).'.-X;X:X>X2X2X<X%X@XW.W.Y.BXtXqXrXlXM J R Y T U C y q 4 < X     . o 2 0 r V D Y T E K H lXhXqXtXyXyXT.!.oX+X&X$X<X2X2X2X>X;X-X}.).V.m.p.r.>.>.&.` ! Q ^ ^ ) { ] &.` ~ ! ! ! Q / ^ ^ ^ ) ) { } } O.O.~.~.~.~.~.~.O.O.O.o.} { [ ) ) ^ ^ ^ ^ / Q ! ~ ~ ~ &.9.I Y I Y Y Y Y E L M kXwXtXyXY.W.W.!.+X%X%X&X%X&X%X%X%X@X+X&X",
"` ` ~ ! Q Q ^ ^ ^ ) { } o.O.~.~.~.~.~.O.O.o.{ { ) ^ ^ ^ / Q Q ~ ~ &.r.<X<X$X$X$X%X%X%X%XoX%X@X+X+XoXoXoXoXoXoX!.5X1 O .     . O 1 7 e N Z Y T Y R J H lXhXqXtXtXG.Y.W.!.oX&X<X2X2X2X>X;X-X}.).Z.M.p.r.r.>.>.&.` ~ ~ Q Q / ^ ) ) `.<X2X:X=X).m.p.r.,.>.&.&.&.%.` %.` &.&.>.>.<.` ` ` ! ! Q Q ^ ^ ^ ) { } o.O.O.~.~.~.~.~.O.O.} } [ ) ^ ^ ^ Q Q Q ~ ~ ` $.X 4 u D Y P n wXtXyXT.T.!.@X@X&X%X&X%X&X&X+X@X@X@X$X<X2X2X2X:X-X*X_.).V.m.t.w.<.>.&.&.~ ~ Q / ^ ^ ^ { } o.O.~.~.~.O.~.o.} [ ) ^ ^ Q Q ~ ~ %.&.>.<.r.t.m.B.Z.`.}.-X:X<X+X#X<X<X<X<X<X2X<X<X$X+X@XoXW.Y.uXpXhXM R Y V a %.%.` ~ ! ! / / ^ ^ ) ) { { o.O.O.~.~.~.~.~.~.O.o.o.[ [ ) ) ^ ^ ^ Q Q ! ~ ~ &.` 1.>.>.&.&.&.` ` ~ %.~ %.&.&.>.>.r.p.M._.-X>X2X<X#Xa.Q ! ~ ` ` >.>.w.t.p.m.Z._.}.-X:X>X2X2X<X$X@XoXW.T.yXuXtX8XhXm H L E W Y S B e 7 1 X .   . X 1 7 w i S Y T Y L H M hXqXtXuXY.T.W.!.@X@X&X<X<X2X2X>X>X;X=X'.).V.g.t.r.>.*.` ` ! Q ^ ^ { o.' &.` ` ~ ! ! Q / / ^ ^ ) ) { { } o.O.O.~.~.~.~.~.~.~.O.o.o.{ { ) ) ^ ^ ^ / Q Q Q ~ ~ ~ &.&.k S S S D Y Y Y L H hXqXtXBXBXT.!.!.@X%X%X&X&X<X&X&X%X%X@X",
"' ` ` ! ! Q Q ^ ^ ) ) { } o.O.O.~.~.~.~.~.O.o.[ [ ) ) ^ ^ ^ Q ! ~ ~ &.B.$X$X$X%X%X%X%XoX%XoX+XoXoXoXoXoXoXoXoXoXoXp O O       o 1 4 w y Z D Y T E L H n kXqXqXuXyXY.T.W.+X@X$X<X2X2X2X:X-X*X'.).V.m.p.r.<.>.&.&.` Q ! Q ^ ^ ) ) { `.<X2X:X}.).m.i.r.q.<.&.&.&.&.%.&.&.&.*.>.w.w.&.` ` ( ! Q Q ^ ^ ) ) { } o.O.O.~.~.~.~.O.O.O.} { [ ) ^ ^ ^ ^ Q Q ~ ~ &.#.o 8 N Y U H kXwXiXBXT.W.!.XX@X&X&X&X%X&X%X@X@X@X&X<X2X2X2X:X;X*X}.).V.m.g.r.w.>.&.&.` ~ ! Q / ^ ) ) { o.O.~.~.~.~.O.O.} [ ) ) ^ ^ Q ! ~ ~ &.>.>.w.t.p.M.Z._.}.-X;X>X<X+X$X<X$X<X<X<X<X<X<X$X@XoXW.W.Y.uXqXkXH Y U i 6 %.%.` ( ! ! ! / ^ ^ ) ) { { } o.O.~.~.~.~.O.~.O.O.o.{ [ ) ) ^ ^ ^ ^ Q Q ! ~ &.&.>.>.&.&.~ ` ~ ~ ~ ~ ~ ~ &.&.>.>.w.p.M._.=X;X2X2X&XJ.Q ~ ~ &.&.>.<.r.p.m.V._.`.-X;X>X>X2X<X<X+XoXW.R.Y.yXtXqX0XlXH K E Y Y D V t 0 2 O .     . < 3 0 y Z D Y T R J M lX0XqXtXyXY.W.!.+X@X+X%X$X<X2X2X>X>X;X-X'.).V.p.t.w.>.&.` ` Q Q ^ ) { o.+.&.` ` ~ ~ ! ! Q ^ ^ ^ ) ) { { } o.O.O.~.~.~.~.~.~.O.~.o.o.} [ [ ) ) ^ ^ ^ ^ Q Q ! ~ ~ &.&.7.y i i V D Y T L H hXqXiXG.AXW.!.!.+X%X&X&X$X<X<X$X&X%X",
"{ &.` ` ~ ! Q Q ^ ^ ) ) } } o.~.~.~.~.~.~.O.o.o.{ [ ) ^ ^ ^ / Q ~ ~ ~ %.E.$X$X%X%X%XoX%X+X+XoXoXoXoXoXoXoXoXoXoXoXoX6 . .   . . O 3 0 r V S Y T E L J m lX0XqXtXyXY.T.W.!.@X&X<X2X2X>X>X-X-X'._.V.m.g.r.<.<.&.&.` ~ ~ Q Q ^ ^ ) { X.#X<X>X:X}.).B.i.r.q.,.>.&.&.&.&.&.&.*.>.>.r.>.&.` ` ! ! Q / ^ ^ ) ) { } o.O.~.~.~.~.~.~.O.O.} } ) ) ^ ^ ^ Q Q Q ~ ~ &.#.< 0 V Y R H hXqXyXBXT.!.!.@X#X&X%X<X&X&X%X%X@X@X<X<X2X2X:X:X-X'.'.V.B.p.t.w.>.>.&.` ~ ! Q / ^ ^ ) { } o.~.~.~.~.~.O.o.} ) ) ^ ^ Q Q ~ %.%.&.>.<.r.p.m.Z.).}.-X;X:X2X2X@X@X$X<X<X<X<X<X<X$X%X+XoXW.R.yXuX9XlXJ E U t * &.` ` ~ ! ! Q / ^ ^ ^ ) { { o.O.O.~.~.~.~.~.^.O.O.} } [ ) ) ^ ^ ^ / Q ! ~ ~ ~ &.&.>.~ &.~ ~ ~ ! ! ! ~ ~ ~ ~ >.>.<.p.m._.=X;X2X2X$XK.! ~ ` &.>.>.r.p.m.B.Z.}.}.;X:X2X2X2X<X$X@XW.R.Y.yXuXpX0XlXM J L E Y I S u q 4 < X     . o 1 8 r V D Y T R L H lXhXqXtXyXY.T.W.oX@X&X@X$X$X<X2X2X>X:X;X}.'.Z.V.g.r.w.*.&.` ! Q ^ ^ ) } o.@.' &.` ~ ! ! ! Q Q ^ ^ ^ ) ) { } } O.O.~.O.~.~.~.~.O.~.O.o.} { { ) ) ^ ^ ^ ^ Q Q Q ~ ~ ~ %.&.a w r u C I Y L M hXqXiXG.ZXW.!.@X#X%X&X<X<X<X<X<X<X",
"{ | &.` ~ ~ Q Q Q ^ ^ ) ) { o.o.O.~.~.~.~.~.O.O.} [ [ ) ^ ^ ^ / Q ! ~ %.&.E.+X%X%X@X%XoXoXoXoXoXoXoX!.!.!.!.!.!.oX!.oX; . .   . . 2 7 w i S I T T R P H lXhXqXtXuXyXT.W.!.+X%X$X2X2X2X>X:X-X}._.Z.M.g.t.r.<.>.&.&.~ ! Q Q / ^ ) [ } s.+X<X2X;X}.Z.B.p.r.q.,.>.*.&.&.&.&.>.*.>.w.r.>.` ` ` ! ! Q / / ^ ) ) { } o.O.~.O.~.~.~.O.O.O.} } ) ) ) ^ ^ Q Q Q ! ~ &.#.1 w S Y L n wXpXyXBXW.!.@X@X#X&X$X<X#X&X%X%X@X%X<X2X2X2X:X;X*X`.).V.m.p.r.<.>.&.&.~ ~ Q Q / ^ ) { { o.O.~.~.~.~.~.o.} [ ) ^ ^ ^ Q ! ~ %.*.>.<.w.p.g.M.Z._.}.-X:X>X2X<X+X&X$X<X<X<X<X<X<X&X@X@XHXW.Y.yXtX0Xm K Y D e 1 $.%.` ( ! ! ! / ^ ^ ^ ) { { } O.O.~.~.~.~.~.~.O.O.o.} [ [ ) ^ ^ ^ ^ Q Q ~ ~ ` &.&.&.~ ~ ~ ~ ! ! ! ! ~ ~ ~ ~ &.>.<.p.m._.}.:X>X2X$XU.<.` &.&.,.<.r.p.M.Z._.}.-X:X>X2X2X<X$X+XoXR.R.BXuXpXqXhXm J L E T Y S B e 7 1 X .   . X 1 4 w i S I Y W L H M hX0XtXuXBXT.W.!.+X&X$X@X&X&X<X<X2X2X>X;X}.'.Z.m.g.r.w.*.&.` ! Q ^ ^ { } O.~. .&.` ` ~ ! ! Q Q / ^ ^ ) ) { { } o.O.~.~.~.~.~.~.~.O.O.O.o.{ [ [ ) ) ^ ^ ^ ^ Q Q ! ~ ~ &.&.: 3 0 r V I Y L m hXpXiXG.ZX!.!.@X&X&X<X<X<X<X<X<X",
") { } &.` ~ ~ ! Q ^ ^ ^ ) { { } O.O.~.~.~.~.~.O.O.} { ) ) ^ ^ / Q Q ~ ~ %.%.E.%X@X+XoXoXoXoXoXoXoXoX!.!.!.!.!.oX!.!.oXG..       O < 7 0 y V I Y Y E L H m kXwXqXuXyXY.T.W.oX+X$X<X2X2X>X:X-X}.'.).V.g.p.r.<.>.&.` ` ~ ! Q / ^ ^ { { } f.&X2X2X;X*XZ.B.p.t.w.,.*.*.*.*.&.*.>.>.<.r.t.>.&.` ~ ! ! / / ^ ^ ) ) { } o.O.~.~.~.~.~.~.O.o.} { ) ) ^ ^ ^ Q Q ! ~ ~ &.#.2 t I E J vXwXtXBXT.W.!.@X%X&X$X$X<X<X&X%X%X@X&X2X2X2X>X-X=X}.).V.m.p.r.w.>.&.&.` ~ ! Q / ^ ) ) { } O.~.~.~.~.O.O.o.[ ) ^ ^ ^ Q ! ~ %.%.*.>.5.r.p.m.Z._.}.-X:X>X2X2X<X@X@X&X$X$X<X<X$X&X&X@X+XW.R.Y.uXpXhXM R E A q < #.%.` ~ ! ! Q / / ^ ) ) ) } } o.O.~.~.~.~.~.~.^.O.o.} [ [ ) ^ ^ ^ / Q Q ~ ~ ~ &.&.&.~ ~ ! ! Q ! Q Q Q Q ~ ~ &.>.<.p.M._.}.;X2X2X<X@X<.&.&.>.<.r.p.m.V.).}.-X;X>X2X2X<X<X@XoX!.T.Y.yXtXqXhXlXM K R W Y D C t 0 3 O .     . < 3 q y C I T Y R K M lXwXqXtXyXY.T.!.+X#X<X2X+X+X$X<X2X2X>X>X;X}.'.Z.m.p.r.<.>.` ~ ! Q ^ ) { o.O.@.@.&.` ` ~ ! ! ! Q ^ ^ ^ ^ ) { { { o.O.O.~.~.~.~.~.~.~.O.o.o.} { [ ) ) ^ ^ ^ / / Q ! ~ ~ ~ &.=.% 3 q i I E L m gXpXuXT.T.W.oX@X&X$X<X<X<X2X<X",
"^ { } ' &.~ ~ ~ Q Q ^ ^ ^ ) { { o.o.~.O.~.~.~.O.O.O.{ { [ ) ^ ^ ^ / Q ~ ~ %.5.oX+XoXoXoXoX!.oXW.oXW.!.!.!.!.!.W.!.!.oX!.G.      . O 3 0 r V S Y T Y L P M lX0XqXtXyXY.Y.W.!.+X&X$X2X2X2X>X;X-X'._.V.h.g.r.w.>.>.&.` ~ Q Q Q / ^ ^ { } o.~.&X<X2X;X}.Z.B.p.r.w.w.>.>.>.>.*.>.>.<.w.t.p.>.` ` ~ ! ! Q / / ^ ) ) } } o.O.~.~.~.~.O.~.O.o.} } ) ) ) ^ ^ ^ Q Q ! ~ &.$.3 i Y E H kXqXuXBXT.W.XX@X%X<X<X<X<X<X&X%X%X@X&X2X2X2X:X-X}.`.V.V.p.t.w.<.>.&.~ ~ ! Q Q / ^ ) { } o.O.~.~.~.~.O.o.} [ ) ^ ^ ^ Q ! ~ %.>.>.<.r.t.m.V.).}.}.;X>X>X2X2X$X@X+X&X&X$X$X<X&X&X%X@XoXW.R.BXuXqXlXM U Y V q < $.%.%.! ~ ! ! / / ^ ^ ) ) { } o.O.~.~.~.~.~.~.O.O.o.} [ [ ) ) ^ ^ ^ / Q ! ~ ~ &.&.~ ~ ~ ! ! / Q Q Q Q Q ~ ~ &.>.<.p.m._.}.;X2X2X<X#X<.&.>.>.r.t.g.V.Z.`.}.;X:X>X2X2X<X&X@XW.W.Y.yXuXpX0XkXm J R Y T I S y w 4 < X       o 1 7 e V S Y T E P H vXhXqXtXyXBXT.W.!.#X$X<X2X$X+X$X<X<X2X>X>X;X}.'.Z.m.p.w.>.>.&.! ! Q ^ ) { o.O.O.+.| &.~ ~ ~ ! Q Q Q ^ ^ ^ ) { { { } o.O.~.~.~.~.~.~.~.~.O.o.o.[ [ [ ) ^ ^ ^ ^ / / Q ! ~ ~ &.&.+ 1 0 i I Y P vXwXpXuXZXW.!.XX@X&X<X<X2X<X2X",
"^ ) { o.] %.~ ~ ! Q Q ^ ^ ^ ) { } o.O.~.~.~.~.~.^.O.o.} [ ) ) ^ ^ / Q Q ~ %.%.5.oXoX!.oX!.XXW.oXW.!.!.!.W.!.!.!.!.W..X!.!.G.    . O 1 7 w i Z I Y T R P M n hXqXpXyXyXT.R.!.oX$X<X<X2X2X:X:X-X}._.).m.g.p.w.<.>.&.&.~ ~ Q Q ^ ^ [ [ { o.O./.1X2X>X;X}.Z.B.g.i.w.w.,.>.>.>.>.>.<.w.r.t.m.<.&.` ~ ! ! Q ^ ^ ^ ) ) { } o.O.~.~.~.~.~.~.O.o.} [ ) ) ^ ^ ^ Q Q ! ~ ~ &.=.9 C Y L H hXpXyXY.W.!.@X%X%X$X<X<X<X<X<X%X%X@X<X2X>X>X-X=X'.).V.m.p.r.<.>.&.&.` ~ ! Q ^ ^ ) { } o.~.O.~.~.^.~.O.} [ ) ^ ^ / Q ~ ~ %.%.>.>.r.p.m.M.)._.}.-X:X>X2X2X<X$X@X%X&X&X$X$X&X&X%X+XoX!.W.R.yXtXqXlXJ E Y i 9 < $.%.%.~ ! ! Q / / ^ ^ ) { { } o.O.O.~.~.~.~.~.~.O.o.o.[ [ ) ^ ^ ^ / Q Q ! ~ ~ &.&.~ ! Q Q Q / / Q Q Q Q ! ~ %.>.<.p.m.).}.;X>X2X<X$XK.&.<.<.r.p.m.V._.}.-X:X>X2X2X<X&X+XoXR.T.BXyXpXqXhXm H K E T Y S V r 7 2 X .   . X < 7 w u S I T Y R H M hXwXtXtXG.T.W.!.@X&X<X2X2X<X+X#X<X<X2X>X:X;X*X_.Z.m.p.r.>.&.&.! ! / ^ { { o.O.O.O.` &.&.~ ~ ! ! Q Q ^ ^ ^ ^ ) { { } o.O.O.~.~.~.~.~.O.~.O.o.o.} [ [ ) ) ^ ^ ^ / Q Q ! ~ ~ ~ &.#.O 7 i I E P vXwXtXyXT.T.!.+X#X<X<X<X<X2X",
"/ ^ { } o.X.%.~ ~ Q ! Q ^ ^ ) ) { } o.O.~.~.~.~.~.O.O.o.[ [ [ ^ ^ ^ ^ Q Q ~ ~ %.5.!.oXW.oXW.!.W..XW.W.W.!.W.W.!.!.!.W.!.!.!.G.    . 1 3 w y Z D Y T E K J m kXrXqXtXyXG.T.W.!.+X$X<X2X2X2X:X;X}.'.).V.m.p.r.w.>.&.&.` ~ ! Q / ^ ^ [ { } O.~./.OX2X>X:X}._.B.g.i.w.w.<.>.>.<.>.w.<.r.t.g.h.<.` ` ` ! ! Q / ^ ^ ) ) { } o.O.~.~.~.~.O.~.O.o.} [ [ ) ) ^ ^ ^ Q ! ! ~ &.=.w S Y P vXwXpXBXT.W.!.+X&X&X<X<X<X<X<X<X&X%X@X<X2X>X-X-X'.`.V.m.p.t.w.>.*.&.` ~ ! Q Q ^ ^ ) { } O.~.~.~.~.O.O.o.[ [ ^ ^ ^ / Q ~ %.%.>.>.<.r.p.m.V._.}.=X;X>X2X2X<X<X@X@X+X&X$X$X&X&X&X$X@XoXW.R.Y.yXtX0XlXK Y U i 9 1 $.` ` ` ~ ! ! / / ^ ^ ) ) { } o.O.O.~.~.~.~.O.~.O.o.} { [ ) ) ^ ^ ^ / Q ! ~ ~ &.&.~ ! Q Q Q Q ^ Q ^ Q Q Q ~ &.&.<.p.m._.}.;X>X2X<X$XU.>.<.r.p.m.V.).}.-X-X>X2X2X2X<X@XoXoXT.Y.yXtXqX0XlXM K R T Y I V y 0 3 < .     . < 2 0 y C I Y T R K M lX0XqXtXyXY.T.!.+X&X$X2X2X2X:X#X#X<X<X2X2X:X;X-X).Z.m.p.w.>.&.&.! ! / ^ ) } } o.o.o.{ &.~ ` ` ! Q ! Q / ^ ^ ^ ) ) { } } o.O.~.~.~.~.~.~.~.O.O.o.} [ [ [ ) ^ ^ ^ ^ ^ Q Q ~ ~ ~ &.&.# 7 i I Y J vXqXtXyXT.W.!.+X&X<X<X2X2X",
"Q ^ ^ { o.@.&.` ` ~ ! Q Q ^ ^ ) ) } } o.O.~.~.~.~.~.O.O.o.{ [ ) ) ^ ^ / Q ! ~ %.%.A.W.!.W.W.W.W.W.W.W.W.W.W.E.W.W.W.!.!.W.!.oX:   . O 3 7 r i S Y T E R P M lX0XqXtXuXY.T.W.!.oX&X<X2X2X2X>X;X-X}._.Z.m.p.t.w.>.>.&.~ ~ ! Q / ^ ^ ) { } o.O.^._.1X2X>X;X'._.B.g.i.r.w.<.<.>.<.>.w.w.t.p.m.V.w.` ` ~ ! Q / / ^ ^ ) { { } O.O.~.~.~.~.~.~.O.o.} [ ) ) ^ ^ ^ Q Q ! ~ ~ &.@ t I E P kXqXtXBXT.!.@X@X%X<X<X<X<X<X<X<X&X%X@X<X>X>X-X}.`.Z.V.g.p.w.>.>.&.` ~ ! Q Q ^ ^ ) { } o.~.O.~.~.~.O.o.} ) ) ^ ^ Q Q ~ ~ %.&.>.<.r.t.m.V.).'.-X-X>X>X2X2X<X$X@X@X@X%X%X$X&X$X@X$X@XoXW.R.Y.uXpX0Xm L Y I u 0 1 : &.` ~ ! ! ! / / ^ ^ ) ) { { o.O.O.~.~.~.~.~.~.O.O.} } [ ) ) ^ ^ ^ / Q ! ~ ~ ~ &.~ Q Q Q ^ ^ ^ ^ ^ ^ Q Q ~ &.>.<.p.m.Z.}.;X>X2X<X&XK.<.r.t.g.B.Z._.}.-X:X>X2X2X&X&X%XW.W.Y.yXuXtX8XlXm J L E T I S i w 4 < X .   . o 1 7 e N S Y T E K H vXhXqXtXuXY.T.W.oX+X<X<X2X2X>X;X X@X$X<X2X2X>X-X-X_.Z.m.p.w.>.&.` ! ! ^ ) ) { } } } { _ | &.` ~ ~ ! Q Q Q / ^ ^ ) ) { } o.o.O.O.~.~.~.~.~.~.~.O.o.o.} [ [ ) ) ^ ^ ^ / Q Q ! ~ ~ ~ &.=.7 B Y U J lXqXtXY.T.W.@X@X&X<X<X2X",
"! Q ^ ) } o.+.&.` ` Q ! Q Q ^ ^ ) ) { } o.O.~.~.~.~.~.O.O.} [ [ ) ^ ^ ^ ^ Q ! ~ ~ &.S.W.W.W.R.W.W.T.W.W.W.T.W.W.W.W.W.!.!.W.!.!.=   O 1 7 w u Z I Y T R P H n hXqXpXuXyXY.W.!.XX%X$X<X2X2X>X:X-X}.'.Z.V.m.t.r.>.>.&.&.~ ~ Q Q / ^ ) [ { o.O.~.~.Z.1X>X>X;X'._.V.m.p.r.r.w.w.<.w.w.w.r.t.g.V.).w.` ` ~ ! ! Q / ^ ^ ) { { } O.O.~.~.~.~.~.O.~.o.} [ [ ) ) ^ ^ ^ Q ! ! ~ &.;.i Y U H hXqXuXZXT.!.+X%X&X<X<X2X<X2X<X<X<X%X@X2X>X-X=X'.).V.m.p.r.w.>.&.&.` ~ ! Q / ^ ) ) } o.O.~.~.~.~.O.O.} } ) ^ ^ ^ Q ! ~ %.&.>.>.5.p.p.V.Z._.}.-X:X>X2X2X2X&X@XoX+X@X$X%X$X&X$X@X%X@XoXW.R.BXuXqXkXM R Y D u q 3 % &.` ~ ~ ! ! Q / / ^ ) ) { { o.O.O.~.~.~.~.O.~.O.O.} } [ ) ) ^ ^ ^ ^ / Q ! ~ &.&.%.Q Q ^ ^ ^ ) ^ ^ ^ ^ Q ~ &.>.<.p.m.).}.-X>X2X2X<X+Xa.r.p.m.Z._.}.-X;X>X2X2X2X&X+XoXW.R.Y.uXpXqX0Xm H K E W Y D B r 8 2 X .     . 1 4 w u S I Y T R J m lXwXqXyXyXT.W.!.@X&X<X2X2X2X:X-X}.@X$X<X2X2X>X:X*X_.Z.m.p.w.>.&.` ! Q ^ ) ) { } { { { ^ ` &.` ` ! ~ ! Q Q ^ ^ ^ ) ) ) { } o.O.O.~.~.~.~.~.~.O.~.O.o.{ { [ ) ) ^ ^ ^ ^ / / Q ~ ~ ~ &.&.6 C Y U H kXqXtXY.T.!.XX&X&X<X2X",
"! Q ^ ^ [ o.@.+.&.` ~ ~ Q Q Q ^ ^ ) { { o.O.O.~.~.~.~.~.O.o.o.[ ) ) ^ ^ / / Q ~ ~ %.%.S.R.T.W.T.T.W.T.T.T.W.T.W.W.W.W.W.W.!.W.!.!.= . 1 3 0 y V D Y T E L J M lX0XqXuXyXY.T.W.!.@X$X<X2X2X>X:X;X*X'.).V.m.p.r.w.<.&.&.&.~ Q Q / ^ ^ [ { } o.~.~.^.`.<X<X>X;X}.).V.m.g.r.r.w.w.w.w.w.t.t.g.m.V._.w.&.` ~ ! Q / ^ ^ ^ ) { { } o.O.~.~.~.~.~.O.O.o.} [ ) ) ^ ^ ^ Q Q ! ~ ` ` 6.C T L M wXtXyXT.W.!.+X%X<X<X<X2X<X2X<X2X<X%X@X,X-X-X}._.Z.m.p.t.w.>.>.&.` ~ Q Q / ^ ^ ) { } o.~.~.~.~.~.O.o.[ ) ) ^ / Q Q ~ ~ %.>.>.<.r.p.m.V._.'.-X;X>X2X2X<X<X%X+XW.oXoX$X@X$X@X&X+X@XoXW.W.T.yXuX8XlXH R E D B e 8 * &.%.` ~ ! ! / / ^ ^ ) ) { } } O.O.~.~.~.~.~.~.O.O.o.} [ ) ) ^ ^ ^ / / ! ~ ~ ~ &.%.^ ^ ^ ) ^ ) ) ^ ^ Q Q ~ &.>.w.p.m.).}.-X>X>X<X<X@Xg.p.m.V.).'.-X;X>X2X2X<X<X@X+XW.T.Y.uXuXqX0XlXM K R Y T I C y 0 3 < X     X o 3 0 t C D Y T R P H lX0XpXtXyXY.T.W.+X+X<X2X2X>X:X;X}.].{.#X<X2X2X>X;X-X`.Z.m.p.w.>.&.` ! Q ^ ^ ) ) { { ) ) _ ^ &.&.` ~ ~ ! Q Q Q ^ ^ ^ ) ) { } } o.O.~.~.~.~.~.~.~.O.O.O.} } [ [ ) ^ ^ ^ ^ / Q Q ! ~ ~ ~ &.;.C Y R H hXqXyXY.T.!.+X&X<X<X",
"` ! Q ^ ) { o.~...&.` ~ ! ! Q Q ^ ^ ) { { } O.~.~.~.~.~.~.O.o.} { [ ) ^ ^ ^ / Q ! ~ &.&.S.Y.Y.Y.Y.Y.T.Y.T.T.T.T.T.W.W.W.W.W.!.!.!.!.= O 1 8 r N S I T Y R J M lXhXqXpXyXY.Y.W.!.+X&X<X<X2X2X>X:X-X}.).Z.m.p.t.w.>.>.&.~ ~ ~ Q Q / ^ ) [ } o.O.~.~.~.Z.<X>X>X;X|.).V.h.p.p.r.w.w.w.r.r.t.p.m.V.).V.&.` ` ` ! ! Q / ^ ^ ) { { o.o.O.~.~.~.~.~.~.O.o.} [ ) ) ^ ^ ^ Q Q ! ! ` &.6.D Y P vXqXtXBXT.!.@X#X%X<X<X<X2X<X<X<X<X<X%X@X,X-X*X`.Z.V.m.t.r.<.>.&.` ` ~ Q Q / ^ ) ) } o.O.~.~.~.~.O.o.} [ ) ^ ^ ^ Q ~ ~ %.&.>.<.r.r.m.V.Z.'.}.;X:X>X2X2X<X&X@XoXW.oXoX%X%X&X@X$X@X@XoXW.R.Y.yXuXeXlXJ Y Y D V t w 5 &.` ~ ~ ~ ! ! / / ^ ) ) { { } O.O.~.~.~.~.~.~.O.O.o.} [ ) ) ^ ^ ^ / / Q ! ~ ~ &.~ ^ ^ ) ) ) ) ) ^ ^ ^ Q ~ &.>.w.p.m.).}.-X,X2X2X<X@XH.g.M.Z._.}.-X:X>X2X2X<X&XoXoXW.Y.BXuXpX8XkXM H L E T I S i e 4 1 X .     o 1 7 e i D U Y E L H n hXrXtXyXBXT.W.!.#X$X<X2X2X>X;X-X'.).!.#X$X<X2X2X:X-X'.Z.m.p.w.>.&.` ( Q ^ ^ ) ) ) ) ) ^ ^ ^ ` &.` ~ ~ ! Q Q Q ^ ^ ^ ) ) { } } o.O.O.~.~.~.~.~.~.O.O.O.o.} [ [ ) ) ^ ^ ^ ^ / Q ! ~ ~ ~ &.;.x Y R M hXqXyXT.W.!.+X<X<X",
"&.~ ! Q ) ) } o.~.' &.` ~ Q ! Q ^ ^ ^ ) { } o.O.O.~.~.~.~.O.O.O.{ { ) ) ^ ^ / Q ! ~ ~ %.%.Y.Y.Y.Y.Y.Y.Y.Y.Y.Y.Y.T.T.T.T.W.W.W.W.!.!.oX. 1 7 w y Z I Y T R L H n hXrXtXuXyXY.T.W.+X@X$X<X2X2X>X:X-X}.'.Z.V.m.p.r.<.>.&.&.` ~ ! Q / ^ ) [ { o.O.~.~.~.^.`.<X2X>X-X*X).V.m.m.t.t.t.r.r.t.t.p.g.m.V._.Z.&.` ` ~ ! Q / / ^ ^ ) { { } O.O.~.~.~.~.~.O.O.o.} [ ) ) ^ ^ ^ / Q ! ~ ` &.7.I U J lXpXyXBXT.!.@X&X<X<X2X2X2X<X2X<X2X<X%X@X,X|.}.).V.m.p.r.w.>.&.&.` ~ ! Q / ^ ) { { o.O.~.^.~.^.~.O.} } ) ^ ^ / Q ! ~ %.%.>.<.<.p.p.m.Z._.}.-X:X>X2X2X<X<X@X+XW.R.oX+X%X@X&X@X&X@X@XoXR.R.Y.uXpX0Xm J E Y I Z i t s &.&.~ ~ ! ! / / ^ ^ ^ ) { } } o.O.~.~.~.~.~.~.O.O.o.} } ) ) ^ ^ ^ / Q Q ! ~ ~ &.` ^ _ ) ) ) { ) ^ ^ ^ Q ` &.>.<.p.m.).}.-X>X2X2X<X&XE.m.Z.).}.-X;X>X2X2X<X$X$XoXW.T.Y.uXpXqXhXlXH K E W Y D V r 8 2 X .     . 1 3 q u Z I T Y R J m lX9XqXuXyXY.W.!.oX&X<X2X2X>X:X-X}._.Z.Z.@X<X<X2X2X;X-X'.).m.p.w.>.&.` ! Q ^ ^ ^ ) ) ^ ^ ^ / / ` &.` ` ~ ~ ! Q Q / ^ ^ ) ) ) { } o.o.O.O.~.~.~.~.~.~.O.O.o.} { { ) ) ^ ^ ^ ^ / Q Q ! ~ ~ &.&.d Y L M 0XpXyXT.W.@X+X<X",
"&.` ~ Q Q ) { o.O.~.' &.~ ~ Q ! Q ^ ^ ^ ) { } o.O.~.~.~.~.~.~.O.o.[ [ [ ) ^ ^ ^ Q Q ~ ~ &.1.BXY.BXBXBXY.BXY.Y.Y.Y.Y.T.T.T.W.W.W.W.!.!.G.X 3 0 y V S Y T E L J M lX9XqXuXyXBXT.W.oX+X&X$X<X2X>X>X;X-X'.).V.m.p.t.w.>.&.&.~ ` Q Q Q / ^ ) { } o.~.O.~.~.^.).<X2X>X-X*X).).m.m.p.t.t.t.t.t.p.g.m.V.).'.).&.` ` ~ ! ! / / ^ ^ ) { { } O.O.~.~.~.~.~.~.O.o.} [ [ ) ^ ^ ^ / Q ! ! ` &.9.Y R M hXpXBXT.W.!.@X&X<X<X<X2X2X<X<X<X<X<X%X%X X}._.Z.m.p.t.w.<.>.&.~ ~ ! Q Q ^ ^ ) { } o.~.~.~.~.^.O.o.[ [ ) ^ ^ / Q ~ ~ &.&.>.<.r.p.m.V._.}.=X;X:X2X2X2X<X&X@XW.W.Y.W.+X%X%X&X@X@X@XoXoXR.R.Y.uXpX0Xm K E T I D C B u ;.&.~ ~ ~ ! ! / / ^ ^ ) ) { } o.O.~.~.~.~.~.~.O.O.o.} } ) ) ) ^ ^ ^ / Q ! ~ ~ &.&.^ _ { { { { ) ) ^ Q Q ~ &.<.r.p.m.).}.=X;X2X2X<X$X.XB._.'.=X;X;X2X2X2X<X@X@XW.R.Y.BXuXqX0XlXM J R Y W I C y q 3 < X     . o 3 8 t C D Y T R K H lXhXqXtXyXY.T.W.+X%X<X<X2X2X>X;X*X'.Z.M.B.E.%X<X2X2X:X-X}.Z.m.p.w.>.&.` ! Q ^ ^ ^ ^ ^ ^ ^ / / Q ~ &.` ~ ~ ~ Q ! Q Q ^ ^ ^ ) ) { { o.o.O.~.~.~.~.~.~.~.O.O.O.o.{ [ [ ) ) ^ ^ ^ ^ / Q ! ~ ~ ~ &.9.F L m rXpXyXT.!.@X%X",
">.&.~ ! ^ ^ ) { o.@.~.&.` ` ~ ! Q Q ^ ^ ) ) { } o.O.~.~.~.~.~.O.O.o.} [ [ ^ ^ ^ / Q Q ~ ~ &.3.yXBXBXBXyXBXBXBXBXY.Y.Y.T.T.T.T.W.W.!.W.!.Y.1 7 w i S I T Y R J H lXhXqXpXuXY.Y.W.W.+X&X<X2X2X2X>X;X-X}._.).m.g.t.w.<.>.%.&.~ ~ Q Q ^ ^ [ ) } o.O.~.~.~.^.O._.<X2X2X-X*X_.Z.M.m.p.p.t.t.t.p.p.m.V.Z._.}._.&.` ~ ~ ! Q / / ^ ^ ) { } } o.~.~.~.~.~.~.O.O.o.} [ ) ) ^ ^ ^ / Q ! ~ ~ &.9.Y L n wXtXyXT.W.XX%X<X<X2X2X2X2X2X2X2X2X<X%X@X X'.).M.m.p.r.<.>.&.&.` ~ Q Q ^ ^ ^ [ } o.O.~.~.~.~.O.o.o.[ ) ^ ^ / Q ~ ~ &.&.>.<.w.p.m.V.Z._.}.-X>X>X2X2X<X$X+XoXW.T.Y.AX@X@X@X@X&X@X+XoXW.W.Y.yXuXpXkXM K R T Y I D S Z 7.` ` ~ ! ! ! / / ^ ^ ) { { } o.O.O.~.~.~.~.~.~.O.o.} } [ ) ) ^ ^ / / Q ! ~ ~ %.%._ { } { } } ) ^ ^ Q ~ ` &.>.r.p.M.Z.}.-X:X2X2X<X&X+XP._.}.-X>X>X2X2X<X&X+X!.W.T.yXuXtX9XhXm J L E Y Y S i e 7 1 X .   . X 1 8 w i S Y T Y L H m hXqXtXuXBXT.W.oX+X$X<X2X2X>X;X-X}.).V.m.p.E.&X<X2X2X>X-X}.).M.p.w.>.&.` ! Q Q / ^ ^ ^ / / Q Q ! ! &.&.` ` ~ ! ! Q Q ^ ^ ^ ^ ) { { } o.O.O.~.~.~.~.~.~.~.O.o.o.o.[ [ ) ) ^ ^ ^ ^ / Q Q ! ~ ~ &.&.7XK vXqXtXY.T.!.#X",
"w.>.&.~ Q Q ^ { } o.O.@.&.~ ` ~ Q Q Q ^ ^ ) ) { } o.O.~.~.~.~.~.O.O.} [ [ ) ) ^ ^ ^ Q ! ~ ~ &.1.uXBXuXBXBXyXBXBXBXBXY.Y.BXT.T.T.W.W.!.!.!.G.3 w y Z D Y T E L H m kX0XpXtXyXY.T.W.oX+X$X<X2X2X>X>X;X}.'.).V.m.t.r.<.>.>.~ ` ~ Q Q Q ^ ^ ) { o.O.~.~.~.~.~.O.{.<X2X>X-X}._.).M.m.m.p.p.p.p.g.g.m.V._.}.-X_.&.` ` ~ ! ! / / ^ ^ ) { { o.o.O.~.~.~.~.~.O.O.o.} [ ) ) ^ ^ ^ / Q ! ~ ~ &.9.T J lXqXyXBXW.!.+X%X<X<X2X2X2X2X2X2X2X2X<X%X@X|.).Z.m.p.r.w.>.&.&.~ ~ ! Q / ^ ) ) { o.O.~.~.~.^.^.O.{ { [ ^ ^ ^ / Q ~ ~ &.>.>.5.r.p.M.Z._.}.=X;X>X>X2X<X<X@X@XW.R.Y.G.yX+X@X%X%X@X@X@XoXW.R.Y.BXtX8XkXM K R Y W Y I I D 9.%.%.! ! ! ! / / ^ ^ ) ) { } o.o.~.~.~.~.~.~.O.O.O.} { [ ) ) ^ ^ ^ ^ / Q ! ~ &.&.` } o.} } } ) ) ^ Q ~ ` &.<.w.p.M.).}.-X;X2X2X2X<X@X].].-X;X>X2X2X2X$X@X@XW.R.Y.uXtXqX0XlXH K R T Y D V t 0 2 O .     X < 2 w y Z I Y T R J M lX0XqXuXyXY.W.!.+X%X<X<X2X>X:X-X}._.Z.m.p.r.p.+X<X<X2X>X;X}.).V.p.w.>.*.` ! Q Q Q Q / / / Q ! ! ~ ~ &.&.` ` ~ ! Q ! Q / ^ ^ ^ ) ) { { } o.O.~.~.~.~.~.~.~.~.O.o.o.[ { [ ) ^ ^ ^ ^ ^ / Q ! ~ ~ ~ &.9.z vXqXtXY.W.!.",
"r.<.&.` ! Q ^ ) { } O.O.+.&.` ` ! ! Q Q ^ ^ ) { { } O.O.~.~.~.~.~.^.o.o.{ [ ) ^ ^ ^ / Q ~ ~ ~ %.z.yXuXuXuXuXyXyXyXBXyXBXBXBXT.T.T.W.W.!.!.!.Y.0 r N D Y T E L J M lX0XqXtXyXY.T.W.!.+X$X<X2X2X>X>X-X-X'._.V.m.g.r.w.<.] &.` ~ ~ Q / ^ ^ [ [ } o.O.~.~.~.^.^.s.OX<X2X>X;X}._.).V.m.m.g.p.p.p.m.m.V.Z._.}.-X].&.~ ~ ~ ! ! / ^ ^ ^ ) { { } O.O.~.~.~.~.~.~.O.o.} [ ) ) ^ ^ ^ Q Q ! ~ ` %.9.Y H hXqXyXY.W.!.#X$X<X2X2X2X2X2X2X2X2X2X<X&X@X].Z.M.m.r.r.>.>.>.~ ~ ! Q / ^ ^ ) { } o.O.^.~.~.^.~.o.{ [ ) ^ ^ Q Q ~ ~ &.&.>.<.r.p.m.V._.`.-X;X>X2X2X2X<X#X@X!.W.Y.BXuXiX+X@X@X@X@X@XoXoXW.R.Y.uXuXeXkXM K R Y W T T Y Y 9.%.%.~ ! ! ! Q ^ ^ ^ ) ) { { o.O.O.~.~.~.~.~.~.O.O.} } { ) ) ^ ^ ^ / / ! ~ ~ ~ &.] } o.o.} } ) ^ ^ Q ~ ` &.<.r.p.M._.].-X:X2X2X<X<X@X{.=X-X>X2X2X<X<X$X@XW.R.Y.yXuXpX0XlXM J R E T I S y q 4 < X     . o 1 0 e V D Y T R K H lX0XqXtXyXY.T.W.oX&X&X2X2X2X:X;X*X_.).M.m.t.w.u.U.<X<X2X>X;X-X).V.p.r.>.&.` ` ! ! Q Q Q ! Q Q ! ! ` ` &.&.&.` ` ` Q ! Q Q / ^ ^ ) ) { } } o.O.O.~.~.~.~.~.O.~.O.O.o.} { [ [ ) ^ ^ ^ ^ / Q Q ! ~ ~ &.&.l.kXrXyXY.W.",
"g.r.>.&.` ! Q ^ ) { o.o.O.+.` ` ` Q Q Q Q ^ ^ ) { { } O.O.~.~.~.~.O.~.o.} [ [ ) ^ ^ ^ ^ Q ! ~ ~ &.4XuXuXuXuXuXuXuXyXyXBXG.BXBXY.T.T.W.W.!.!.!.d w i Z I Y T R K M n hXqXtXuXyXT.W.!.oX$X$X<X2X2X>X:X-X}._.).m.g.t.w.<.>.&.` ` Q ! Q / ^ ) [ } o.O.~.~.~.~.O.O.s.%X<X2X2X;X=X_.).V.V.m.m.g.g.m.m.M.Z.).}.=X;X}.&.~ ~ ~ ! ! Q / ^ ^ ) { { o.o.O.~.~.~.~.~.O.O.o.} [ [ ) ^ ^ ^ Q Q ! ~ ` &.9.R M rXpXBXT.!.oX$X$X<X2X2X2X2X2X2X2X2X2X2X&X@XP.V.m.p.r.<.>.&.&.~ ~ ! Q / ^ ) [ { o.O.~.~.~.^.O.O.{ [ ) ^ ^ ^ Q ! ~ ~ *.>.>.r.t.g.M.Z.`.}.-X:X>X2X2X<X<X+XoXW.R.Y.yXuXtX+X@X@X@X@XoXoXW.W.R.Y.uXpXeXkXM J R U E E T T Y 7X&.%.~ ~ ! ! Q / ^ ^ ) ) { } } O.O.~.~.~.~.~.~.O.O.o.{ [ [ ) ^ ^ ^ ^ / Q ! ~ ~ &.] +.O.o.} } ) ^ ^ Q ~ &.&.<.r.g.M._.}.=X;X2X2X2X&X&XXX;X;X>X2X2X<X$X+XoXW.T.BXuXtXqXhXm H L E Y Y S B e 7 1 X .     X 1 7 w i S I Y T L J m kXqXtXuXY.Y.W.!.+X$X<X2X2X2X:X-X}.).V.m.p.w.w.>.K.#X<X2X2X;X-X_.V.g.w.<.*.` ` ! ! ! ! Q ! ! ! ~ ~ ` &.&.&.&.` ` ` Q ! Q Q ^ ^ ^ ^ ) ) { } } O.O.~.~.~.~.~.~.~.O.O.o.} { [ [ ) ) ^ ^ ^ ^ / Q ! ~ ~ ~ &.8.4XpXyXT.",
"m.p.w.>.` ~ Q ^ ^ { { o.o.O. .` ` ` ~ Q Q ^ ^ ^ ) { } } O.O.~.~.~.~.~.O.o.o.[ [ ) ^ ^ / Q Q ~ ~ %.%.c.pXpXtXpXuXuXuXuXuXyXyXBXY.BXT.T.W.W.W.!.!.h y C D Y T E K J m hXrXqXtXyXY.T.W.oX+X$X<X2X2X>X:X;X*X'.).V.m.p.r.w.>.&.&.` ~ ! Q ^ ^ ^ { [ } O.O.~.~.~.~.O.o.X.%X<X2X>X;X}.}.).V.V.m.m.m.m.m.V.V.)._.}.-X:X}.&.&.~ ~ ! Q / ^ ^ ) ) { { o.O.O.~.~.~.~.~.O.O.o.} [ ) ) ^ ^ ^ Q Q ! ~ ~ &.9.P n qXuXY.R.oX@X&X<X2X2X2X2X2X2X2X2X2X2X<X&X+XL.m.g.r.<.<.&.&.&.~ ! Q / ^ ^ ) { o.O.^.~.~.^.^.O.o.} ) ) ^ / Q Q ~ %.%.>.>.<.r.p.m.Z.).}.-X;X>X2X2X<X$X&X+XW.R.Y.yXuXpXaXoX@X@X@X+XoXoXW.W.Y.BXuXpX0XlXM H K L R R E E T G &.%.~ ~ ! ! Q Q ^ ^ ) ) ) } } O.O.~.~.~.~.~.~.^.O.o.} [ [ ) ^ ^ ^ / Q Q ! ~ ~ %.&...@.@.} } ) ^ Q ! ~ &.>.<.t.p.M.).}.-X;X2X2X2X&X&X+X;X>X>X2X<X<X@X+XW.T.Y.yXtXqXhXlXM K R T Y D C t 0 3 O .     . < 3 0 y C I Y T L K nXz rXqXtXyXY.T.!.+X$X<X2X2X>X:X-X}._.).m.p.t.w.>.&.r.@X<X2X2X:X-X'.V.m.r.<.&.` ` ! ~ ! ! ! ~ ! ` ~ ` &.&.>.<.&.` ` ` ! ! Q Q Q ^ ^ ^ ) ) { } } o.O.~.~.~.~.~.~.~.~.O.O.o.} [ [ ) ) ^ ^ ^ ^ / Q Q ~ ~ ~ ` &.j.tXyX",
").m.t.w.>.` ! Q ^ ^ { } o.o.o.' ` ` ( ~ Q Q / ^ ^ ) { } o.O.O.~.~.~.O.~.O.o.} [ [ ) ^ ^ ^ / Q ~ ~ %.&.4XpXpXpXpXtXuXuXuXuXuXyXyXG.BXZXT.W.!.!.!.!.h V S Y T E R J M lX0XqXtXyXyXT.W.!.+X%X<X<X2X2X>X;X-X'._.V.m.g.t.w.>.>.&.` ~ Q ! Q / ^ ^ { } o.~.~.~.~.~.~.o.o.X.%X<X2X>X:X}.'._.Z.V.M.m.m.M.M.V.Z._.}.=X;X>X}.&.~ ~ ~ ! ! Q / ^ ^ ) { { o.o.~.~.~.~.~.~.O.O.o.[ [ ) ) ^ ^ ^ Q Q ! ~ ~ &.9.H lXqXyXY.W.+X%X&X<X2X2X2X2X2X2X2X2X2X2X2X<X@XL.p.p.r.<.>.&.` ~ ~ Q Q / ^ ) ) } o.O.^.~.~.^.^.o.{ [ ) ^ ^ / Q ! ~ &.&.>.<.r.p.g.V.).'.}.;X:X>X2X2X<X&X@XoXW.T.BXuXtX8XaXoX@X@X@XoXoX!.W.W.Y.BXuXpX0XhXm H J K L L R R E b &.` ~ ~ ! ! Q Q ^ ^ ) ) { { } o.O.~.O.~.~.~.~.O.O.o.} { [ ) ^ ^ ^ ^ / Q ! ~ ~ &.&...@.@.} { ^ ^ ^ ! ~ &.>.<.p.g.B._.}.-X;X>X2X2X<X&X@X<X>X2X2X<X&X@X!.W.Y.yXuXqX9XkXM J R E Y U Z u q 4 < X     . o 1 7 e V S Y T Y P H vXhXqXtXyXBXT.W.!.#X$X<X2X2X>X;X*X'.).V.g.t.w.<.*.&.<.U.$X2X2X:X-X}.Z.m.t.w.>.&.&.` ~ ` ` ! ` ~ ` ` &.&.>.>.w.*.` ` ` ~ ! ! Q Q / ^ ^ ) ) ) { } } O.O.~.~.~.~.~.~.~.O.O.o.o.[ [ [ ) ^ ^ ^ ^ ^ / Q ! ~ ~ ~ &.2.x.",
"'.Z.m.r.>.&.` Q Q ^ ) { } } o.} ' ` ` ~ ! Q Q / ^ ) ) { } o.O.~.~.~.~.~.~.O.o.} [ [ ^ ^ ^ / Q Q ~ ~ &.%.rX8XqXpXpXpXpXpXuXuXuXyXyXBXG.T.T.W.W.!.!.oXz Z I Y Y R K H m hX9XtXtXG.Y.W.W.oX$X$X<X2X2X>X:X-X*X_.).V.m.t.r.<.>.&.&.~ ~ ! Q ^ ^ [ { { o.O.O.~.~.~.O.~.{ { X.&X<X2X>X;X-X'._.).V.V.V.M.V.V.Z.).'.}.-X:X2X}.&.%.~ ~ ! Q / ^ ^ ) ) { { o.o.O.~.~.~.~.~.O.O.o.} [ ) ) ^ ^ ^ Q Q ! ~ ~ &.9.M 0XtXyXR.W.+X&X<X2X2X2X2X>X2X>X2X2X2X2X<X<X@XC.p.r.<.>.&.&.~ ~ ! / / ^ ) { { o.O.^.~.~.^.O.O.} { ) ^ ^ / Q ! ~ ~ &.>.>.r.r.m.M.Z._.}.-X:X>X2X2X<X&X+XoXW.T.Y.uXtXpX0XlXJX@X@XoX+XoX!.W.R.Y.yXuXpX0XlXlXM M H J K K L D v &.&.~ ~ ~ ! Q Q ^ ^ ^ ) { { } o.O.~.~.~.~.~.~.~.O.o.} { [ ) ) ^ ^ / / Q ! ~ ~ %.%.+.@.o.} { ^ Q Q ~ ~ &.>.<.t.g.V.).}.-X:X2X2X2X<X$X+X<X2X2X<X$X+XoXW.Y.Y.uXtXqXhXm H K E T Y D V r 8 1 O .   . . 1 7 w i S I T E R H M hXwXtXuXBXY.W.oX@X$X<X2X2X>X:X-X}.).V.m.p.r.<.>.&.` ` K.#X<X2X2X-X}.).m.t.w.>.&.%.&.` ` ` ` ` ` ` &.&.*.>.w.t.w.&.` ` ` ! ! Q Q Q ^ ^ ^ ) ) { } } o.o.~.~.~.~.~.~.~.~.O.o.o.} [ [ ) ) ^ ^ ^ / / Q Q ~ ~ ~ %.&.",
"-X_.V.g.w.>.&.` ! ^ ^ ) { } } } } &.` ` ~ Q ! Q ^ ^ ^ ) { } o.O.~.~.~.~.~.O.O.o.{ [ [ ) ^ ^ ^ Q Q ~ ~ &.2.0X0XeX8XrXpXpXpXtXuXuXyXyXyXY.T.T.W.!.!.!.XXn D Y T E L J m lXrXqXtXyXY.T.W.!.+X&X<X<X2X>X>X;X*X'.).V.m.p.r.w.>.*.&.` ~ Q Q Q / ^ ) { } o.~.~.~.~.~.O.o.} [ | &X<X2X2X;X-X'._.).Z.V.V.V.V.Z.)._.}.-X;X>X2X}.&.~ ~ ~ ! ! / / ^ ^ ) { } o.o.~.~.~.~.~.~.O.O.o.} [ ) ) ^ ^ ^ Q Q ! ~ ~ &.8.m 0XuXY.R.!.+X$X<X2X2X2X2X>X2X>X2X2X2X2X2X<X@XB.y.w.>.>.&.~ ~ ! ! / / ^ ) { } O.^.~.~.~.^.O.o.[ [ ) ^ ^ Q Q ~ ~ &.>.>.<.r.p.m.V._.}.=X;X>X2X2X2X<X&XoX!.W.Y.BXuXpXqXhXm DX@X@X@X!.oXW.W.R.Y.uXuXqXrXkXlXn m M M H H J K jX7.&.~ ~ ~ Q Q Q Q ^ ^ ) { { } o.O.O.~.~.~.~.~.O.~.o.} } ) ) ) ^ ^ ^ / / Q ~ ~ &.&.] @.o.} ) ^ ^ Q ~ ` &.<.<.p.g.V._.}.-X:X>X2X2X<X$X+X$X<X2X$X@X@XW.W.Y.yXtXqX9XlXM K R W Y I V y 0 3 O X     . o 3 0 y Z D Y T R K M lX0XqXtXyXY.R.!.+X%X$X2X2X2X:X-X}.'.V.V.p.t.w.>.>.&.~ ~ >.%X<X2X2X;X}.).V.p.r.,.>.&.&.` &.` ` &.%.&.&.>.>.>.r.p.t.*.` ` ` ! ! Q Q Q Q ^ ^ ) ) { { } o.o.O.~.~.~.~.~.~.~.O.O.o.} } [ [ ) ^ ^ ^ ^ ^ / Q ! ~ ~ %.",
":X*X_.m.p.w.>.` ! Q ^ ^ { { } } } _ &.` ~ ~ Q Q / ^ ^ ) ) { } o.O.~.~.~.~.~.O.O.o.} [ ) ^ ^ ^ / Q Q ~ ~ %.:.hX0X0XeX0XqXqXpXpXtXtXuXyXyXY.T.T.W.!.!.!.SXS Y T E R P M lXhX8XtXuXY.Y.W.!.+X#X<X2X2X2X>X;X-X}.).Z.m.p.t.w.>.>.&.` ~ ~ Q Q ^ ^ ) [ } o.O.~.~.~.~.O.O.} [ )  .&X<X2X>X;X-X}._.).Z.Z.V.Z.V.)._.'.}.-X>X>X2X[.%.%.~ ! ! Q / ^ ^ ) ) { { o.O.O.~.~.~.~.~.~.O.o.} [ ) ) ^ ^ ^ / Q ! ~ ~ &.8.lXqXyXY.W.+X$X<X2X2X2X2X2X>X>X2X>X2X2X2X<X<X@XB.r.<.>.&.&.~ ~ Q / ^ ^ ) ) } o.O.^.~.^.^.^.o.} [ ) ^ ^ / Q ~ ~ %.&.>.<.r.r.m.V.Z.'.}.-X>X>X2X2X<X&X+XoXW.Y.Y.yXpXqXhXlXM DX@X!.@XoXoXW.W.T.Y.yXuXpX8X0XhXlXlXm m M M M M H :.&.~ ~ ~ ! Q Q ^ ^ ^ ) ) { } o.O.O.~.~.~.~.~.O.~.o.} } [ ) ) ^ ^ ^ / Q Q ~ ~ ~ &.] @.o.{ ) ^ ^ Q ~ &.&.>.r.p.m.Z._.}.-X>X>X2X2X<X<X@X#X<X<X&X+X!.W.Y.yXuXpX0XhXm J L Y T I S i w 4 1 .     . o 1 7 r i S Y T E K H vXhX8XtXyXBXT.W.oX+X<X<X2X>X>X;X-X'.).V.m.t.r.>.&.&.` ~ ! >.U.<X<X2X:X-X_.V.g.r.w.>.*.>.&.&.&.&.&.&.&.*.>.<.w.r.m.m.w.&.` ` ~ ! ! Q Q ^ ^ ^ ^ ) ) { } } O.O.O.~.~.~.~.~.~.~.O.O.o.} [ [ ) ) ^ ^ ^ / / Q ! ~ ~ ",
"2X:X}.).m.t.>.*.` ! Q ^ ^ ) { { { { _ &.%.~ ~ ! Q / ^ ^ ) ) { } O.O.~.~.~.~.~.O.O.o.[ [ ) ^ ^ ^ ^ Q ! ~ ~ &.:.lXlX0X0X0X0XqXqXqXtXtXuXyXyXT.Y.W.W.!.!.!.DXD Y T R L H vXhXrXpXuXyXY.T.!.!.#X$X<X2X2X>X>X-X*X'.).V.m.p.r.<.>.&.&.~ ~ ! Q / ^ ) ) { o.O.~.~.~.~.~.O.o.{ [ ) | &X<X2X2X:X-X}.'._.).).Z.).).).'.}.-X-X>X2X2X[.%.` ~ ! ! ! / / ^ ^ ) { } } O.~.~.~.~.~.~.O.O.o.} [ [ ) ^ ^ ^ / Q ! ~ ~ &.:.hXtXyXT.W.+X$X<X2X2X2X>X2X>X>X>X>X2X2X2X2X&X@Xn.w.>.&.&.%.~ ! Q / ^ ^ { { o.O.~.~.~.~.O.O.} [ ) ^ ^ ^ / Q ~ %.&.>.>.<.p.p.m.Z._.}.=X;X>X2X2X2X$X@X@XW.R.Y.yXuXpX0XkXM J DX@X!.XXoX!.W.W.Y.Y.uXuXpXpX0X0X0XhXlXlXlXlXm lXm :.%.~ %.~ ! Q Q Q ^ ^ ) ) { { o.O.O.~.~.~.~.~.O.^.o.o.} [ [ ) ^ ^ ^ / / Q ! ~ ~ &.' ..o.{ ^ ^ Q ! ~ &.>.>.r.p.m.Z._.}.-X:X>X2X2X<X<X%X@X&X$X@XoXW.R.Y.yXtXqXhXcXH K R T Y D V r 8 2 O .     . 1 3 w i Z I Y T R J m lXrXqXuXG.BXW.!.+X&X<X<X2X>X:X-X}._.Z.m.p.r.w.>.&.&.~ ~ Q Q H.,X<X2X2X-X'.Z.m.p.r.w.>.>.&.>.&.*.&.>.>.>.<.w.r.p.m.V.V.` &.` ` ! ! Q Q Q / ^ ^ ) ) { { } o.o.~.O.~.~.~.~.~.~.O.O.o.} { [ [ ) ) ^ ^ ^ / / Q ! ",
"2X>X-X}.Z.m.t.>.&.~ Q / ^ ) ) { { [ [ _ %.~ ~ ! ! Q / ^ ^ ) { { } O.O.~.~.~.~.~.O.o.} } [ ) ^ ^ ^ / Q ~ ~ ~ &.l.cXcXlXhXhXrX0XqXqXpXtXtXyXyXY.T.W.!.!.!.!.GXY T E L J M lX0XqXtXyXY.T.W.!.@X$X<X2X2X>X:X-X-X'._.V.m.p.r.w.<.&.&.&.~ Q Q / ^ ^ [ [ } O.O.~.~.~.@.O.o.} [ ) ^ y.&X2X2X>X:X-X*X'._.).).).).)._.}.*X-X:X>X2X<XB.&.` ~ ! ! Q / ^ ^ ) ) { } o.O.O.~.~.~.~.~.O.O.o.} [ ) ) ^ ^ ^ Q Q ! ~ ~ &.:.0XtXY.R.oX+X<X<X2X2X2X>X>X>X>X>X>X>X2X2X2X<X%Xu.<.>.&.~ ~ ! Q / ^ ^ ) { } O.O.~.~.~.^.O.o.} [ ) ^ / / ! ~ ~ %.&.>.<.r.p.m.V.).}.-X;X>X>X2X<X<X&X+XW.W.Y.BXuXpXqXhXn H K NX@X!.@X!.!.W.W.Y.Y.uXuXpXpX8XeX0X0X0X0XlXhXlXlXkX:.&.~ ~ ~ ! Q Q Q ^ ^ ) ) { } } O.O.~.~.~.~.~.~.~.O.o.} [ [ ) ^ ^ ^ / Q Q ! ~ ~ &.&...} ) ^ ^ Q ~ ~ &.>.<.r.p.M.Z._.}.-X>X>X2X2X<X<X%X@X&X&X@XW.R.Y.yXtXqX0XlXnXP R W T D Z y q 3 < .     . o 3 0 r C D Y T R P H lX0XqXuXyXY.T.W.oX$X<X2X2X>X>X-X}.'.Z.M.g.t.w.<.&.&.` ~ ! Q ^ >.&X<X2X>X;X}.).M.g.t.w.w.w.>.*.>.>.>.>.>.<.w.r.t.m.V.).}.w.&.` ` ~ ~ ! Q / / ^ ^ ^ ) { { { o.o.O.~.~.~.~.~.~.~.O.O.O.o.} [ [ ) ) ^ ^ ^ / Q Q ",
"<X2X>X-X_.V.p.r.>.` ` ! / ^ ) ) { { ) ) | &.~ ~ ! ! Q / ^ ^ ) { { } O.~.~.~.~.~.~.O.O.} [ [ ) ^ ^ ^ / Q ! ~ ~ &.9Xn m m lXkX0XrX9XwXqXtXtXyXBXY.T.W.!.!.+X!.FXT W R P H lXhX8XtXuXyXY.T.!.+X%X<X<X2X2X>X:X-X}._.Z.V.p.t.r.<.>.&.` ~ ~ Q Q / ^ ) [ } o.O.~.~.~.~.@.O.{ { [ ^ ^ B.@X<X2X2X:X-X-X'.'.)._.)._.'._.*X-X-X>X>X2X<Xy.&.` ` ! ! ! / ^ ^ ^ ) { } } O.~.~.~.~.~.~.O.O.o.[ [ [ ) ^ ^ ^ Q Q ! ~ ~ &.:.qXuXY.W.+X$X<X2X2X2X>X>X>X>X;X>X>X>X>X2X2X<X%Xu.>.&.%.~ ~ Q Q / ^ ^ { { o.O.~.~.~.~.O.O.{ { ) ) ^ / / ! ~ %.&.>.<.5.p.g.V.Z.`.}.-X:X>X2X2X<X$X#XoXW.T.Y.yXtXpX0XlXM K L UX@X!.@X!.W.W.W.Y.Y.uXuXtXpXpXqX8XrXeX0XrX0X0X0XeX4X&.~ ~ ~ Q ! Q Q ^ ^ ) ) { { } o.O.~.~.~.~.~.~.O.O.o.} { [ ) ) ^ ^ ^ / / ! ! ~ &.&.| } ^ ^ Q Q ~ ` &.>.<.t.g.M.Z.}.}.-X:X>X2X2X<X<X&X@X@X@X!.W.Y.BXyXpXwXz m H L Y W Y S i e 4 1 X .     o 1 7 e i S Y Y E L H n hXwXpXuXY.T.W.!.+X$X<X2X2X>X:X-X'.).V.m.t.r.>.>.&.~ ~ ! Q / ^  .P.,X<X2X:X}.`.V.m.p.t.w.w.w.>.>.>.,.>.w.w.r.t.p.m.Z._.}.m.&.` ` ~ ~ ! ! Q Q ^ ^ ^ ) ) { { } o.o.O.~.~.~.~.~.~.~.O.O.o.} { [ [ ) ^ ^ ^ ^ / ",
"&X2X>X:X-X_.M.p.<.>.` ! Q ^ ^ ) ) ) ) ) ) ` &.~ ~ ! Q / / ^ ) ^ { } o.O.O.~.~.~.~.~.O.o.o.[ [ ) ^ ^ ^ Q Q ! ~ %.%.gXH M m n lXlXhXrXwXqXtXtXyXBXT.T.W.!.!.oXoXGXY E L H m hXrXqXtXG.Y.W.W.oX+X$X<X2X2X>X:X-X}.'.).V.m.p.r.<.>.&.&.` ~ ! Q / ^ ^ { [ } O.~.~.~.~.@.O.o.} ) ) ^ / H.$X<X2X>X:X-X*X}.'._.'._._.}.'.-X-X:X>X2X<X&Xy.&.` ~ ! ! Q / ^ ^ ) ) { } } O.O.~.~.~.~.~.~.o.o.} [ [ ^ ^ ^ ^ Q Q ! ~ ` ~ 2.pXyXR.W.+X<X<X2X2X>X>X>X;X>X;X>X>X>X>X2X2X<X$XA.>.&.%.~ ! / / ^ ) ) { } O.~.~.~.~.^.O.o.[ ) ^ ^ / Q ! ~ %.%.>.>.w.r.p.m.V.).}.-X:X>X2X2X<X<X@X+XW.R.Y.yXuXpX0XkXm J L E UX@X!.XX!.!.W.R.Y.Y.yXuXuXuXpXpXpXpXpX8XpXrX8XrX8X4X&.` ` ~ ! ! Q Q ^ ^ ^ ) { { } o.O.~.~.~.~.~.~.~.O.o.} } ) ) ) ^ ^ ^ / / ! ~ ~ ~ &.` { ^ ^ Q ! ~ &.&.<.<.t.g.V.Z.}.}.;X:X>X2X2X2X<X&X@X@X@XW.R.BXyXtXwXrXn M L R W Y D V r 0 2 O .   . . < 3 w y Z I T Y R J M lXrXpXuXyXY.W.!.oX$X<X2X2X>X:X-X}._.Z.m.p.r.w.>.&.&.~ ~ Q Q ^ ^ ) g.,X<X2X:X-X}.).B.m.p.t.r.w.w.w.<.w.w.w.r.t.p.m.M.).'.-X_.r.&.~ ~ ! ! ! Q / / ^ ^ ^ ) { { } o.O.O.~.~.~.~.~.~.~.O.O.O.o.} [ ) ) ) ^ ^ ^ ",
"K.$X<X2X:X}.).m.t.,.&.` ! Q ^ ^ ) ) ) ) ^ ) ` &.` ~ ! ! / / ^ ) ) { { o.O.~.O.~.~.~.O.O.o.} [ ) ) ^ ^ ^ / Q ~ ~ &.&.jXH H M m n lXhXhXrXqXpXtXyXG.T.T.!.W.!.+XoXUXY L J M lX0XqXtXuXBXY.W.!.+X$X$X2X2X2X>X:X-X'._.V.M.p.r.w.>.>.&.~ ~ ! Q Q / ^ ^ { } o.O.~.~.~.~.O.O.{ [ ) ) ^ ^ H.%X<X2X2X:X-X-X}.'._.'._.'.}.*X-X;X>X>X2X<X@Xy.&.` ` ! ! Q / ^ ^ ^ ) { } o.o.~.~.~.~.~.~.~.O.o.[ [ [ ) ^ ^ ^ Q Q ! ~ ~ &.2.uXBXT.oX+X<X2X2X2X>X>X;X>X;X;X>X>X>X>X2X2X<X$XK.&.` ~ ~ ! / ^ ^ ) { } o.O.~.~.~.^.O.o.} [ ) ^ ^ / Q ! ~ %.&.>.<.r.p.m.V.).'.=X-X:X>X2X2X<X&X@X!.R.T.BXuXpXqXhXn M L R Y UX@X!.!.!.W.W.R.Y.Y.yXuXuXuXtXtXpXpXpXpXpXpXpXpXpXc.&.~ ` ~ Q ! Q Q ^ ^ ^ ) { { } o.O.O.~.~.~.~.~.O.O.O.} } ) [ ) ^ ^ ^ / / Q ~ ~ ` &.&.) ^ ^ Q ~ ~ &.>.<.r.p.m.V.).}.}.;X:X>X2X2X2X<X&X@X@XoXR.BXyXtXtX0XlXM J R Y T I Z y q 4 < X     . o 1 8 r V D Y T R K H lXhXrXuXyXBXT.W.+X%X$X<X2X2X>X;X*X_.).V.g.t.w.<.&.&.~ ~ ! Q / ^ ) { e.#X,X2X2X-X*X`.).B.g.g.t.t.w.r.w.w.r.r.t.p.g.V.Z._.}.-X>XV.&.~ ` ` ! ! ! Q / ^ ^ ^ ) ) { { } o.O.O.~.~.~.~.~.~.~.O.O.o.} } [ ) ) ^ ^ ",
"&.K.<X2X2X;X}.Z.m.r.>.&.~ ! Q ^ ^ ^ ) ^ ) ^ ^ &.` ` ~ ! ! / ^ ^ ^ ) { } o.O.~.~.~.~.~.~.O.O.{ } ) ) ^ ^ / Q ! ~ ~ ~ &.v J J H M vXvXlXhX9XqXpXuXyXY.T.W.!.!.oXoX!.UXR K H n hXqXpXuXBXY.R.!.oX%X<X<X2X2X>X:X-X}._.).m.m.t.r.<.>.&.&.` ~ Q Q ^ ^ [ { [ o.O.~.~.~.~.@.O.} } ) ^ ^ Q Q H.&X<X2X2X:X;X-X}.}.}.'.'.}.}.-X;X:X>X2X2X<X@X3.&.` ` ! ! Q / ^ ^ ) ) { { o.O.O.~.~.~.~.~.O.O.o.} [ ) ) ^ ^ ^ / Q ! ~ ~ &.2.uXY.W.+X$X<X2X2X>X>X>X;X;X;X;X;X>X>X>X2X2X<X&XK.&.` ! ! Q / ^ ) ) { o.~.O.~.~.~.^.o.} { ) ^ ^ / Q ~ ~ %.&.>.>.r.t.g.M.Z._.}.-X:X>X2X2X<X&X#XoX!.T.Y.yXuXqXrXlXM J R E T J !.!.oX!.W.W.R.Y.Y.BXyXyXyXuXuXuXuXtXuXtXuXtXuXuXx.1.&.~ ~ ~ ! Q / ^ ^ ^ ) ) { } o.O.O.~.~.~.~.~.~.O.o.o.} [ ) ) ^ ^ ^ / Q Q ! ~ ~ %.&.^ ^ Q ! ~ ~ &.>.<.r.p.m.Z.).}.-X;X>X>X2X2X2X<X&X@X@XW.T.BXyXpXqXhXm H L E Y Y D i r 7 1 X .   . . 1 7 w i S I T E R H m kX8XpXuXY.T.W.!.+X$X<X2X2X>X;X-X}._.V.m.t.r.>.>.&.&.~ Q Q / ^ ) ) } o._.,X2X2X:X-X}.).V.m.m.p.p.t.t.t.r.r.p.p.m.m.V.).}.-X;X>X=X&.&.` ~ ! ! ! Q / / ^ ^ ^ ) { { { o.O.O.O.~.~.~.~.~.~.O.O.O.o.} { { ) ) ",
"&.~ U.<X2X>X;X'.V.p.r.>.&.! ! / ^ ^ ^ ) ^ ^ ^ ^ &.` ~ ~ ! ! / ^ ^ ) ) { } o.O.~.~.~.~.~.O.O.o.[ [ ) ) ^ ^ ^ Q Q ~ ~ &.&.R L P J H M m lXkXhXqXqXuXyXT.T.W.!.!.+XoXoXPXL H M kX0XpXuXyXY.T.W.oX+X$X<X<X2X>X>X;X*X'.).V.m.p.r.w.>.&.&.~ ~ ~ Q / ^ ^ [ { } O.~.~.~.~.~.O.o.{ [ ) ) ^ ^ Q H.&X<X2X2X>X;X-X*X}.}.}.}.}.*X-X;X>X>X2X2X%XoX3.%.` ` ! ! ! / / ^ ) ) { { o.O.~.O.~.~.~.~.O.O.o.} [ ) ) ^ ^ ^ / Q ! ~ ~ &.2.BXY.!.+X$X<X2X2X>X:X;X;X-X;X-X;X;X>X>X2X2X<X$XK.` ~ ~ Q / ^ ^ { { } o.~.~.~.~.~.O.o.[ [ ) ^ ^ / Q ~ ~ &.>.>.<.r.p.m.V._.}.-X;X:X2X2X2X<X@X@XW.W.Y.yXuXpX8XkXm H L E W Y D SX!.oX!.W.W.R.Y.Y.BXyXyXyXyXuXuXuXuXuXuXuXuXuXuXyX1.&.` ( Q ! ! Q ^ ^ ^ ) ) { { o.O.O.~.~.~.~.~.~.O.o.o.} [ [ ) ^ ^ ^ ^ / Q ! ~ ~ &.&.Q ^ ! ! ~ &.&.>.<.t.p.M.Z._.}.-X;X:X>X2X2X2X<X&X%X@X!.BXyXiXqX0XlXM K R T Y D C t 0 2 O .     . 1 3 0 y Z D T Y R P M lXrXqXtXyXY.W.!.+X%X<X2X2X>X>X-X}._.Z.m.g.t.w.>.] %.~ ~ Q Q ^ ) ) { } O.(.OX2X2X>X-X-X'.).V.m.m.g.p.t.p.p.p.p.m.m.V.Z._.}.-X:X>X2Xr.&.` ` ~ ! ! ! / / / ^ ^ ) { { { } o.O.~.~.~.~.~.~.~.~.O.O.o.} { { ) ",
"&.%.<.@X<X2X>X-X`.V.p.w.&.%.! ! / ^ ^ ^ ^ ^ ^ ^ Q &.` ~ ! ! Q / ^ ^ ) ) { } O.O.~.~.~.~.~.O.O.o.} [ ) ^ ^ ^ / Q Q ~ ~ &.9.R R L P J H M vXkXhXqXtXyXyXY.W.W.!.!.+XoXoXLXK M lX0XqXtXuXBXT.W.!.oX$X<X2X2X2X>X;X-X}.).Z.M.g.r.w.>.>.&.` ~ ! Q / ^ ^ [ ) } o.O.~.~.~.~.O.O.} [ ) ^ ^ Q Q ! K.&X2X2X>X>X;X-X-X}.*X}.}.-X-X;X>X>X2X2X<X@X!.3.&.` ` ! ! Q / ^ ^ ) ) { { o.o.~.~.~.~.~.~.~.O.o.[ } ) ) ^ ^ ^ / Q ! ~ ~ %.1.BXR.oX$X<X2X2X>X>X;X;X;X=X-X-X;X;X>X>X2X2X<X&XK.` ! Q / ^ ^ ^ { } o.O.~.~.~.O.~.o.} { ) ^ / / Q ~ ~ %.&.>.<.r.p.m.V.)._.}.;X>X>X2X2X<X&X+XoXW.Y.BXyXpXqXhXlXM P E Y T D Z SX!.!.!.W.W.R.T.Y.Y.BXY.yXBXyXBXyXBXuXBXuXBXyXY.yX<.&.` ` ~ ! Q Q / ^ ^ ) ) { } } O.O.~.~.~.~.~.~.~.O.o.} { [ ) ^ ^ ^ ^ / Q ! ~ ~ %.%.~ Q ! ~ ~ %.>.<.<.p.g.V.)._.}.-X:X:X2X2X2X2X<X&X%X@X!.yXtXqX8XlXM J L E T I S u q 7 1 . .   . o 1 8 e V D Y T R L M n hXqXtXyXY.T.W.oX%X$X<X2X2X:X;X*X'.).V.g.t.r.>.>.&.` ~ ! Q ^ ^ ^ { } o.~./.`.<X2X2X:X-X}.'.).V.m.m.m.m.p.p.m.m.m.M.Z.).'.-X;X>X2X2XE.&.%.` ~ ! ! ! ! / ^ ^ ^ ^ ) { { } o.O.O.O.~.~.~.~.~.~.O.O.o.o.} { ",
"&.&.` <.@X<X2X>X-X).m.i.,.&.` ! ! / / ^ ^ ^ / ^ / Q &.` ~ ~ ! Q / ^ ^ ) ) { } o.O.~.~.~.~.~.O.O.} } [ ) ) ^ ^ ^ Q Q ~ ~ &.9.Y E L L P H H M lXhXqXtXyXY.T.W.W.!.!.oXoXoXnXH m hXeXpXuXyXY.T.!.oX+X$X<X2X2X>X:X;X}.'.Z.V.g.p.r.<.>.&.&.~ ~ ! Q / ^ ^ { { o.O.O.~.~.~.~.O.o.[ [ ) ^ ^ Q Q ! K.$X<X2X2X>X:X-X-X*X}.*X}.-X-X;X>X>X2X2X&X@XW.1.%.` ` ! ! ! / / ^ ) ) { } o.o.O.~.~.~.~.~.O.O.o.[ [ [ ) ^ ^ ^ / Q ! ~ ~ &.1.Y.W.+X$X<X2X2X>X:X;X-X-X-X*X-X-X;X;X>X>X2X2X&XK.~ ! Q / ^ ) ) { o.O.~.~.~.~.O.O.} [ ) ) ^ ^ Q Q ~ %.&.>.>.w.r.p.M.Z._.}.=X;X>X2X2X<X<X@X@X!.R.Y.yXuXqX0XkXM J L E T Y S i CX!.!.!.W.W.R.T.G.Y.Y.Y.Y.BXBXBXBXBXBXBXBXBXY.Y.Y.0.&.` ` ~ ! Q Q / ^ ^ ) ) { { } o.O.~.~.~.~.~.~.O.O.O.} } ) ) ) ^ ^ ^ / / Q ! ~ &.&.~ ! ! ~ %.&.>.<.r.p.m.V.)._.=X-X:X:X>X2X2X2X<X&X&X@X@XBXtXrX0Xm H L E T Y S V r 7 2 O .     . 1 4 w u Z I T E L J m kX9XtXuXyXT.W.!.+X$X<X2X2X2X:X-X}._.V.m.p.r.>.>.&.` ` Q ! Q ^ ) { { o.O.~.~.).,X<X2X2X:X*X}._.).V.M.M.m.m.m.m.M.V.Z.).'.}.-X;X>X2X2X%Xy.%.%.~ ` ! ! ! Q / ^ ^ ^ ) ) { { } o.O.~.~.~.~.~.~.~.~.O.O.o.} ",
"&.&.` ~ ,.#X<X2X;X}.).m.r.,.&.~ ! ! / / / / ^ / / / ~ &.` ~ ! ! Q / ^ ^ ) { { o.o.O.~.~.~.~.~.~.O.} } [ ) ^ ^ ^ / Q ! ~ ~ &.9.T Y E L L P H M lXhXqXtXyXY.T.W.!.!.+X@XoX+Xm M lX0XqXuXyXY.T.W.oX@X&X<X2X2X>X>X-X-X'._.V.M.p.r.w.>.>.&.` ~ Q Q / ^ ^ [ [ } o.~.~.~.~.~.O.o.} [ ) ^ ^ Q Q ! ~ K.$X<X2X>X>X:X;X-X-X-X-X-X-X;X:X>X2X2X2X%X!.W.3.%.%.~ ! ! / / ^ ^ ) ) { { o.O.~.~.~.~.~.~.~.o.o.} [ ) ) ^ ^ ^ Q Q ! ~ ~ %.1.R.HX+X<X2X2X>X>X;X-X-X*X-X}.-X-X-X:X>X>X2X<X$XK.! ! Q ^ ^ ) { } O.O.~.~.~.~.O.o.} ) ) ^ / / ! ~ ~ %.&.>.<.r.p.m.V.).}.-X;X>X2X2X2X<X$X@XW.W.Y.BXuXpXqXhXm H K E T Y D V y VXoX!.!.W.W.T.R.R.G.R.G.Y.Y.Y.Y.Y.Y.Y.Y.R.G.T.T.R.D.&.` ` ~ ! ! ! / ^ ^ ^ ) { { } o.O.O.~.~.~.~.~.~.O.O.} { { ) ) ^ ^ ^ / Q Q ~ ~ ~ &.~ ! ~ ~ %.>.<.<.t.p.m.Z._.}.-X-X:X>X2X2X2X2X<X&X&X@X+XiXqX0XlXM J R W Y I Z y 0 3 O . .   . O 3 0 t Z D Y T R K H lXrXqXtXyXY.W.W.@X&X<X2X2X>X:X;X}._.Z.V.p.t.w.<.&.&.` ~ Q Q ^ ^ ) { } O.~.~.~./.OX<X2X2X:X-X*X'._.).V.V.V.M.M.V.V.Z.)._.'.-X;X>X2X2X<X@XA.&.%.` ` ! ! ! Q Q / ^ ^ ) ) { { } o.O.O.O.~.~.~.~.~.~.~.O.o.",
">.&.` ` ! n.#X2X2X;X}.Z.g.w.>.&.~ ! ! / / / / / / / / ` &.~ ~ ! ! Q / ^ ^ ) { { o.o.~.~.~.~.~.O.~.o.} { [ ) ^ ^ ^ ^ Q ! ~ ~ &.9.Y T Y E L K J M lXhXqXuXyXT.T.W.!.!.+XoX@XDXM lXhXqXpXuXyXY.T.!.+X&X$X<X2X2X>X:X-X}._.Z.h.g.p.w.>.>.&.` ` ~ Q Q / ^ ^ [ } o.O.~.~.~.~.@.O.} { ) ) ^ ^ Q Q ~ ~ K.$X<X2X2X>X>X;X-X-X-X-X-X;X:X>X>X2X2X<X@XW.ZX1.` %.( ! ! ! / / ^ ^ ) { } } O.~.O.~.~.~.~.~.O.o.[ [ [ ) ^ ^ ^ Q Q ! ~ ~ &.3.R.oX%X<X2X2X>X:X-X-X}.*X}.}.*X-X-X;X:X>X2X2X&XK.Q Q ^ ^ ^ { } o.O.~.~.~.~.O.o.} { ) ^ ^ / Q ! ~ &.%.>.<.w.p.g.V.Z.`.}.-X:X>X2X2X<X<X+XoXW.T.Y.yXtXqX0XlXM P R E T I S y w a oX!.!.!.W.W.R.T.T.T.T.G.Y.Y.G.R.Y.R.T.R.R.W.W.W.D.&.` ` ~ ! ! ! / ^ ^ ^ ) { { } o.O.O.~.~.~.~.~.O.O.O.o.{ { ) ) ^ ^ ^ ^ / Q ! ~ ~ &.&.~ ~ %.%.>.<.5.p.m.M.Z._.}.-X;X:X>X2X2X2X2X<X&X&X@X@XHXrXkXm J L Y T I S i w 7 1 . .   . X 1 7 e i D Y Y E K H vXhXqXpXyXBXT.W.!.+X&X<X2X2X>X;X-X'.).V.m.t.r.>.>.&.` ~ Q Q Q ^ ^ { } o.O.~.~.~.^.).,X<X2X2X:X-X}.'._.).Z.Z.V.Z.V.Z.)._.'.}.-X;X>X2X2X<X@XD.3.&.` ` ~ ! ! Q Q / ^ ^ ^ ) ) { { } o.O.~.O.~.~.~.~.~.O.~.",
">.&.&.` ~ ! J.&X2X2X-X'.V.p.r.&.&.~ ! ! Q / / / / / Q ! ` &.~ ~ ! Q Q / ^ ^ ) { { o.O.O.~.~.~.~.~.O.o.o.[ [ ) ^ ^ ^ / Q ~ ~ ~ &.F Y T T Y R L P M lXwXqXyXBXY.W.!.!.oXoXoX+XDXm kX0XpXtXG.Y.W.W.oX+X$X<X2X2X>X:X-X}.'.).V.m.t.r.w.>.&.&.~ ~ ! Q ^ ^ ) { { } O.O.~.~.~.~.O.o.[ [ ) ^ ^ Q ! ! ~ &.K.$X<X2X>X>X:X:X;X-X-X;X;X;X>X>X2X2X2X%X@XW.Y.1.%.%.~ ! ! / / ^ ^ ) ) { } } o.~.~.~.~.~.~.O.O.o.} [ ) ) ^ ^ ^ Q Q ! ~ ~ %.5.R.+X<X<X2X>X>X;X-X-X}.'.}.}.}.}.-X;X>X>X2X2X$XU.Q / ^ ) ) { } O.~.~.~.~.~.O.} } ) ^ ^ / Q ! ~ ~ &.>.>.w.t.p.m.V.).}.-X:X>X2X2X<X<X@X+XW.R.Y.yXuXtX9XlXm J L E T Y S V r 8 p !.!.W.!.W.W.W.R.R.R.R.R.T.R.R.R.R.W.W.W.W.W.!.!.D.&.%.` ~ ! ! ! / / ^ ^ ) ) { } o.O.O.~.~.~.~.~.~.O.O.o.} [ [ ) ^ ^ ^ / Q Q ! ~ ~ ` &.~ ~ %.>.>.r.r.p.m.V.).'.}.-X:X>X>X2X2X2X<X<X&X&X@X@XHXkXlXH L R T Y D V r 8 1 O .   . . < 3 w u Z I T E R J m z rXtXuXBXBXW.!.+X$X<X2X2X>X:X-X}.).Z.m.p.r.<.>.&.&.~ ~ Q / ^ ) ) { o.~.O.~.~.^.O.h.%X<X2X2X:X;X-X}.'._._.).Z.).).)._.'.}.-X;X>X2X2X2X&X@XW.0.&.%.~ ~ ! ! ! Q / / ^ ^ ) ) { { } o.o.~.O.~.~.~.~.~.~.",
">.>.&.` ~ ! ! L.<X2X>X-X_.V.t.w.&.&.! ! ! Q / / / / / ! ! ` &.~ ~ ! Q / / ^ ^ ) { { o.O.O.~.~.~.O.~.O.o.} [ [ ) ^ ^ ^ / Q ! ~ ~ &.c Y Y Y T E L J H kXwXpXyXY.T.W.!.!.+XoX@XoXJXlX0XqXtXuXY.Y.W.!.+X&X<X2X2X2X:X;X-X'._.V.m.g.t.w.>.>.&.` ~ Q ! Q / ^ ^ { } o.~.~.~.~.O.O.o.} [ ) ^ ^ ^ Q ! ~ ` &.E.$X<X2X2X>X>X:X;X;X-X;X:X;X>X>X2X2X<X%X!.HXyX1.%.` ! ~ ! ! / / ^ ^ ) { } o.o.O.~.~.~.~.~.O.O.o.} [ [ ) ^ ^ ^ ^ Q ! ~ ~ %.5.!.+X<X2X2X>X:X-X=X}.}.'.'.}.}.}.-X-X:X>X2X2X&XU.Q ^ ^ ) { } o.O.~.~.~.~.~.o.{ { ) ^ ^ / Q ~ ~ %.&.>.<.r.p.m.V.).'.=X-X:X>X2X2X<X&X@XoXW.Y.BXuXpXqXhXn M K R W Y I V y q 3 6 !.!.W.!.W.W.W.W.W.W.W.W.W.R.W.W.W.W.!.W.!.!.oX+X@Xy.%.` ! ! ! ! / / ^ ^ ) ) { { o.o.O.~.~.~.~.~.~.O.O.o.} { ) ) ) ^ ^ ^ / / Q ~ ~ &.&.&.%.%.>.>.r.p.m.M.Z._.}.=X-X:X>X>X2X2X2X2X<X&X&X@X@X@XmXm P R E T I Z y w 3 O . .   . O 2 8 t V D Y T R K H lXhXqXtXyXG.T.!.oX$X$X2X2X2X:X;X}.'.Z.V.p.t.w.>.*.&.~ ~ Q Q / ^ ) { } o.~.~.~.~.O.o.+.L.,X2X2X2X:X;X-X}._.'._._._._.'.'.}.*X-X;X>X>X2X2X%XoXZXF.1.&.` ` ! ! ! Q Q / / ^ ^ ) { { { } o.O.~.~.~.~.~.~.",
"<.>.&.&.` ! ! Q I.<X2X:X-X_.m.r.<.&.&.~ ! ! ! Q / ! Q Q ! ~ &.&.~ ! ! ! Q ^ ^ ) ) { } o.O.~.~.~.~.~.~.O.o.} [ ) ) ^ ^ / Q Q ~ ~ %.%.c I Y T T Y R J vXlXqXtXyXY.T.W.!.oX+X@X@X@XJXhXqXpXuXBXY.T.!.oX%X$X<X2X2X>X:X-X*X_.Z.V.m.t.w.<.>.&.&.~ ~ Q Q ^ ^ [ [ { o.O.O.~.~.~.~.O.o.[ ) ^ ^ ^ Q ! ~ ~ &.&.K.$X<X2X2X>X:X:X:X;X:X-X>X>X2X2X2X2X<X@XW.ZXyX1.%.%.~ ! ! / / ^ ^ ) ) { { o.o.~.~.~.~.~.~.~.O.o.} [ ) ) ^ ^ ^ / Q ! ~ ~ &.1.K.$X<X2X>X>X-X-X}.'.}._._.'.'.}.}.-X:X>X2X2X<X@X>.^ ) ) { o.O.~.~.~.~.O.O.} { ) ^ ^ / Q ! ~ &.&.>.>.w.t.m.m.)._.}.-X:X>X2X2X<X&X+XoXW.T.Y.yXtXqXrXlXM J R Y T I S i w 7 1 ; !.!.oXW.!.W.W.W.W.W.W.W.W.W.W.W.!.W.!.!.oX@X@X%X%Xy.%.%.~ ! ! ! Q ^ ^ ^ ^ ) { } } O.O.~.~.~.~.~.~.~.O.o.} } [ ) ) ^ ^ ^ / Q ! ~ ~ ~ &.%.%.>.<.<.r.p.m.V.)._.}.-X;X:X>X2X2X2X2X<X<X&X&X@X@X+XfXH L E Y Y S i r 7 1 o .   . o 1 4 e i S Y T E L H m hX9XtXuXY.T.W.oX+X$X<X2X2X>X;X-X}.).V.m.p.r.<.>.&.` ~ Q Q / ^ ) [ } o.~.O.~.~.~.O.o.[ L.&X<X2X2X>X;X;X-X}.}.}._.'._.'.}.}.-X;X>X2X2X2X<X@X!.R.yX0.&.` ` ` ! ! ! ! / ^ ^ ^ ^ ) { { { o.O.O.O.~.~.~.",
"w.>.&.&.` ~ ! Q >.#X<X2X:X}.).m.r.>.&.&.~ ~ ! ! ! Q ! ! ! ! ~ &.~ &.~ ! Q Q ^ ^ ) ) { } o.O.~.~.~.~.~.O.~.o.{ [ [ ) ^ ^ ^ / Q ! ~ &.&.k D I Y Y T R J n hXqXuXBXY.W.W.!.oX+X@X@X@XJXeXpXtXyXY.T.W.+X+X&X<X2X2X2X:X;X*X'.).V.m.g.r.w.>.&.&.` ~ ! Q / ^ ^ { { } O.~.~.~.~.~.O.o.} [ ) ^ ^ ^ Q ! ~ &.&.>.E.#X<X2X2X2X>X>X:X:X:X;X>X>X>X2X2X2X%XoXW.BXtX2.%.%.~ ! ! ! / ^ ^ ) ) { } o.o.O.~.~.~.~.~.O.O.o.{ [ [ ) ^ ^ ^ ^ Q ! ~ ~ &.>.K.<X<X>X>X:X-X}.}._.'._._._.'.}.}.-X;X>X>X2X<X+X>.) ) { } O.~.O.~.~.~.O.o.{ ) ) ^ ^ / Q ~ ~ &.>.>.<.r.p.m.V._.}.-X;X>X2X2X2X<X%X@XW.W.Y.BXuXpX8XkXm J K E T Y D V r 0 2 O X G.W.!.W.!.W.W.!.W.W.W.W.oXW.oXW.oX!.oX@X@X@X&X%X<XH.%.%.` ! ! ! Q / ^ ^ ) ) ) { } o.O.O.~.~.~.~.~.O.O.O.} } [ ) ) ^ ^ ^ ^ / Q ! ~ ~ &.%.&.>.<.5.p.g.M.Z._.}.}.-X;X>X>X>X2X2X2X<X<X&X%X@X@X@XDXP R T Y D C r 0 3 O .     . O 4 0 y C D Y T R J M lXrXqXtXyXT.T.!.+X&X$X2X2X>X:X-X}._.Z.m.p.r.w.>.&.&.~ ~ Q Q / ^ ) { o.O.~.~.~.~.O.o.} ) | #X,X<X2X2X>X;X;X-X}.}.}.}.}.}.-X-X-X;X>X>X2X2X&X@XW.ZXyXc.;.&.` ` ! ! ! ! / / ^ ^ ^ ) { { { } o.O.O.~.~.",
"w.>.>.&.` ~ ! Q / >.%X2X2X;X}.V.m.r.>.&.%.~ ! ! ! ! ! ! ! ! ~ &.&.~ ~ ~ ! Q Q ^ ^ ) ) { } o.O.~.~.~.~.~.O.O.o.} { [ ^ ^ ^ / Q ! ~ ~ &.%.k S D Y T Y R J vXhXpXtXY.T.W.!.oX+X@X@X@X+XJXqXtXuXY.T.W.W.+X&X<X2X2X2X>X;X-X}._.V.m.p.t.w.>.>.&.` ~ ! Q / ^ ^ ^ { } o.O.~.~.~.O.~.O.} [ ) ^ ^ / Q ! ~ ~ &.>.>.E.$X<X2X2X>X>X>X:X:X>X>X>X2X2X2X2X<X%X!.ZXBXtX2.` %.~ ! ! Q / ^ ^ ^ ) { { o.o.~.~.~.~.~.~.~.O.o.} [ ) ) ^ ^ ^ / Q Q ~ ~ ~ &.E.<X2X>X>X;X=X}.'._.)._.)._._.'.}.-X-X:X2X2X<X#X>.) { } o.O.~.~.~.~.O.o.} { ) ^ ^ Q Q ~ ~ ~ &.>.<.r.p.m.V.Z.'.}.-X:X>X2X2X<X$X@XoXW.Y.BXyXpXqX0XlXM K R W Y I Z y q 4 1 X   G.!.!.oXW.oXW.W.!.W.oXW.oXW.oXoXoX@X@X%X%X%X%X<X<X|.%.%.%.( ! ! Q Q ^ ^ ^ ) { { } o.O.~.~.~.~.~.~.~.O.O.} } [ [ ) ^ ^ ^ / Q Q ! ~ ~ &.&.&.<.r.r.p.M.V._._.}.-X;X:X>X2X2X2X2X2X<X<X&X&X#X@X@XDXPXE T I Z u q 4 1 .     . O 1 8 r V D Y T R L M n hXqXtXyXY.T.W.oX%X<X<X2X2X>X-X-X_.).V.p.p.w.>.>.&.` ~ Q Q ^ ^ ) { } o.~.~.~.~.O.o.} [ ) ^ H.<X<X2X>X>X>X;X-X-X}.-X}.*X}.-X;X;X>X2X2X2X2X%X@XW.BXyXqXk.` &.` ~ ! ! ! Q Q ^ ^ ^ ^ ) { { } o.O.O.~.",
"r.<.>.&.&.~ ~ ! Q / *.%X2X2X;X}.V.p.w.>.&.` ` ~ ! ! ! ! ! ! ~ ~ &.&.~ ~ ~ ! Q / ^ ^ ) ) { } O.O.~.~.~.~.~.O.O.o.[ [ [ ) ^ ^ ^ Q Q ~ ~ &.&.i C S I Y T R H lXrXtXyXY.T.W.!.!.@X@X@X@X@XCXpXuXyXY.T.!.oX+X$X<X2X2X2X:X-X}.'.).V.m.t.r.w.>.&.&.` ~ ! Q / ^ ) ) { o.O.~.~.~.~.O.@.o.[ [ ^ ^ ^ Q Q ! ` &.&.>.<.oX$X<X2X2X2X>X>X>X>X>X>X>X2X2X2X2X&X@X!.BXyXqX1.%.%.~ ! ! ! / ^ ^ ) ) { } o.o.O.~.~.~.~.~.O.~.o.} [ [ ) ^ ^ ^ ^ / Q ~ ~ &.&.E.<X2X>X,X-X}.'._.).Z.).Z.)._._.}.-X-X:X>X2X<X#Xq.) { o.O.~.~.~.^.^.O.} { ) ^ ^ ^ Q Q ~ &.&.>.>.w.r.p.M.Z._.}.-X;X>X2X2X<X<X+XoXoXR.Y.yXuXqX0XkXm J R Y T Y S B w 8 1 X X   G.oXW.oXW.oXoXW.oXoXW.oXoXoXoX@X@X@X%X%X&X<X<X2X<X{.' %.` ` ! ! Q Q / ^ ^ ) ) { } o.o.O.~.~.~.~.~.~.O.O.o.} [ ) ) ^ ^ ^ ^ / Q ! ! ~ &.&.&.<.r.p.g.M.Z._.}.}.-X:X:X>X>X2X2X2X<X<X<X&X%X@X%X@XoXUXT Y D N r 7 1 O .     o < 4 w i Z Y T E L J m hXwXtXuXyXT.W.!.+X$X<X2X2X2X:X-X}._.V.m.p.r.<.>.&.` ~ ~ Q Q ^ ) ) } o.O.~.~.~.~.o.o.[ ) ^ ^ r.@X<X<X2X2X>X>X;X;X-X-X-X-X-X-X;X:X>X>X2X2X<X%X@XR.BXtXqX8X;.&.%.~ ~ ! ! Q Q / ^ ^ ^ ) ) { } } o.O.",
"r.w.>.&.&.&.~ ! Q / ^ p.$X2X>X;X_.V.p.w.>.&.&.~ ~ ! ~ ! ~ ! ` ~ ~ &.&.~ ~ ! ! Q Q ^ ^ ) { { } o.~.O.~.~.~.~.O.O.o.{ [ ) ^ ^ ^ / Q Q ~ ~ %.;.y V Z D Y Y L H kXqXtXyXY.W.W.!.+X@X@X%X@X+XiXuXyXY.T.W.!.@X$X<X2X2X>X:X-X-X'._.V.m.p.r.w.>.&.&.` ~ ! Q / ^ ^ [ { } O.O.~.~.~.~.O.o.} [ ) ^ ^ Q Q ! ~ ` &.>.<.a.+X$X<X2X2X2X>X>X>X>X2X>X2X2X2X2X<X%X!.W.Y.tXrX4.%.` ~ ! ! Q / ^ ^ ) ) { { o.O.O.~.~.~.~.~.O.O.o.} [ [ ) ^ ^ ^ / Q ! ~ ~ ` &.E.2X>X>X;X}.}._.).).V.Z.V.Z.).).'.*X-X:X>X2X<X#Xq.{ } o.^.^.~.~.~.O.o.} ) ) ^ / Q ! ~ ~ &.&.>.<.r.p.m.V.).}.-X;X>X>X2X2X<X&X+XW.W.T.yXuXtXqXkXn H K R T Y D V y 0 3 < .     , oX!.oXoXW.oXoXW.oXoXoXoX@X@X@X%X%X&X&X<X<X<X2X2X=Xt.` ~ ~ Q ~ Q Q ^ ^ ^ ) ) { { o.O.O.~.~.~.~.~.~.~.O.o.} } [ ) ) ^ ^ ^ / Q ! ~ ~ ~ &.>.5.p.g.m.Z._.'.}.-X;X:X>X2X2X2X2X2X<X<X$X&X$X@X@X@XoXGXY D C y 0 3 O .     . O 3 0 t Z D Y W R K M lX0XqXtXyXY.T.!.oX$X<X2X2X>X:X;X}._.Z.M.p.r.w.>.&.&.` ! Q Q ^ ^ ) { } O.~.~.~.^.~.o.} [ ) ^ / >.J.$X<X2X2X>X>X>X;X;X;X-X;X;X-X>X>X2X2X2X2X<X@X!.R.BXtX0XM l.&.~ %.~ ~ ! ! / / / ^ ^ ) ) ) { } } ",
"r.w.<.>.&.~ ~ ~ Q Q / ^ L.$X2X>X-X).V.p.w.>.&.%.~ ~ ~ ~ ! ~ ~ ` ` &.&.&.~ ~ ! ! Q Q ^ ^ ) { { } o.~.~.~.~.~.~.O.o.o.[ [ ) ) ^ ^ ^ Q Q ~ ~ &.;.w u Z D Y Y L M hXpXiXBXT.W.!.!.+X@X@X@X@X@XiXuXBXY.W.!.+X$X$X<X2X2X>X:X-X}._.Z.m.m.t.w.<.>.&.` ` ! Q Q / ^ ) [ { o.O.~.~.~.~.O.O.} [ ) ^ ^ ^ Q Q ~ ` &.>.>.w.g.+X$X<X<X2X2X>X>X>X>X>X>X2X2X2X2X<X@X!.R.yXtX0X:.&.` ~ ! ! ! / / ^ ^ ) { } } O.O.~.~.~.~.~.O.O.o.} [ [ ) ^ ^ ^ ^ Q Q ! ~ &.&.[.2X>X,X-X}.'.).Z.Z.V.V.V.V.).)._.}.-X;X>X2X<X$Xe.{ o.O.^.~.~.^.O.O.} { ) ^ ^ ^ Q ! ~ &.&.&.<.w.p.m.M.Z._.}.-X:X>X2X2X<X$X@XoXW.R.Y.tXtXqX0XlXM K R E T I S y w 4 1 X .     - oXoXHXoXW.oXoXoXoXoX@X@X@X%X%X%X%X<X<X<X2X<X2X2X2Xp.' ` ` ^ ~ Q Q Q ^ ^ ) ) { { } O.O.~.O.~.~.~.~.O.O.o.} } ) ) ) ^ ^ ^ ^ Q Q ! ~ ~ &.&.5.p.m.V.Z._.}.}.;X;X>X>X2X2X2X2X<X<X<X&X%X%X@X@X@XoXGXY S i w 7 1 . .     o 1 7 e N S Y Y E K H n hXqXtXyXY.T.W.XX@X<X<X2X2X>X;X-X'.).V.m.t.w.>.>.&.` ` Q Q Q ^ ) { } o.O.~.~.~.O.O.} [ ) ^ ^ ^ Q b.+X$X<X2X2X>X>X:X:X:X;X:X:X:X>X>X2X2X2X<X&X@XW.R.yXtX0XM v 9.` ~ ~ ~ ! ! ! / / ^ ^ ^ ) ) { } ",
"p.r.<.>.&.&.` ~ ! Q / ^ ^ L.<X2X:X-X).m.i.<.>.&.&.%.~ ~ ` ~ ` ~ ~ &.&.&.&.~ ~ ! Q Q ^ ^ ^ ) { { o.O.O.~.~.~.~.~.~.O.o.{ [ ) ^ ^ ^ / Q ! ~ ~ %.;.w r V D Y E P m 9XpXyXY.T.W.!.+X@X@X&X@X@X+XVXyXY.R.W.oX@X$X<X2X2X>X:X;X*X'.).V.m.p.r.<.>.&.&.` ~ ! Q ^ ^ ^ [ { } O.~.~.~.~.~.O.o.} [ ) ^ ^ Q ! ! ` ~ &.>.>.r.A.oX$X<X2X2X2X2X2X>X>X2X2X2X2X2X<X&X@XW.T.yXqXkX8.&.` ~ ! ! ! / ^ ^ ) ) { { o.O.O.~.~.~.~.~.~.O.o.} { ) ) ^ ^ ^ / Q ! ~ ~ &.~ {.>X>X;X-X_._.).V.V.V.m.V.V.V.)._.}.-X;X>X>X<X$Xe.o.O.~.~.^.^.~.O.} { ) ) ^ / Q ! ~ ~ &.>.>.w.r.p.m.V._.}.-X;X>X2X2X<X<X%X+XW.R.Y.G.uXpX8XlXm J L E T I D V r 8 2 O .     . 5 !.oXoXoXoXoXoXoX@X@X@X%X%X%X%X<X<X<X2X<X2X2X2X2X>Xt.&.` ` ~ Q ! Q Q ^ ^ ^ ) { { } o.O.~.~.~.~.~.~.~.O.O.} } { ) ) ^ ^ ^ / Q Q ! ~ ~ &.&.r.m.M.Z._.}.=X-X;X>X>X2X2X2X2X2X<X<X$X&X%X$X@X@X@XoXoXM N r 8 1 O .   . . 1 3 w u S I T E R J nXlXwXqXyXyXY.W.!.@X&X<X2X2X>X:X-X}.).Z.m.p.r.w.>.&.` ~ ~ Q Q ^ ) ) { o.O.~.~.~.~.O.o.[ ) ^ ^ / Q Q 1.+X$X<X2X2X2X2X>X>X:X:X>X>X>X>X2X2X2X2X<X%X@XW.T.yXpXhXM L 7X&.` ` ` ! ! ! Q / / ^ ^ ) ) ) ",
"p.t.w.>.>.&.~ ` ! Q Q ^ ^ ) P.<X2X:X}.).m.t.q.,.&.&.` ~ ~ ~ ~ ` ` %.&.&.&.&.` ~ ! Q Q / ^ ^ ) { { o.o.~.~.~.~.~.O.O.O.} [ [ ) ^ ^ ^ / Q ! ~ ~ &.=.0 e V D Y Y J lXwXtXyXZXW.W.!.+X@X@X&X@X@X@XVXY.Y.W.!.+X&X$X2X2X2X:X;X-X'.).Z.m.p.t.w.>.>.&.` ~ ! ! Q / ^ ) { } o.O.~.~.~.~.o.O.} [ ) ) ^ ^ Q ! ! &.&.&.1.w.r.B.+X&X<X<X2X2X2X2X2X2X2X2X2X2X<X<X%XoXW.BXuXqXlX8.&.` ~ ! ! ! / / ^ ^ ) { { o.o.~.~.~.~.~.~.O.O.o.} { [ ) ^ ^ ^ ^ Q Q ! ~ &.&.].>X,X;X}._.).V.V.M.m.m.m.V.V.V._._.-X;X>X>X<X$Xm.o.O.~.~.~.^.~.o.} ) ) ^ ^ / Q ! ~ &.&.>.<.r.p.g.V.).'.}.;X:X>X2X2X<X&X@XoXR.T.BXuXpXqXhXlXH K Y E T D C y q 3 < .       o 6 BXoXoXoXoXoX+XoX@X%X@X%X%X<X%X<X<X2X2X2X2X2X2X>X>X'.` ` ` ` Q ! Q Q ^ ^ ^ ) { { } o.O.O.~.~.~.~.~.~.O.O.o.} { ) ) ) ^ ^ ^ / Q ! ! ~ &.&.5.M.Z._._.=X-X;X;X>X>X2X2X2X2X<X<X<X&X$X@X$X@X@X@XoXoXzXu 0 3 < o     . o 2 8 t V D Y W R P H lXhXqXtXyXY.T.W.+X#X$X2X2X2X:X;X}.'.Z.M.g.t.w.>.>.&.~ ~ Q Q / ^ ) { } O.~.~.~.~.O.o.} [ ) ^ ^ Q Q ~ %.K.%X$X<X2X2X2X>X>X>X>X>X>X>X>X2X2X2X2X&X%XoXW.Y.yXpXhXH R F 9.` ` ` ~ ! ! ! / / ^ ^ ^ ) ",
"g.t.r.>.>.&.&.~ ~ Q Q / ^ ) [ +X<X>X:X}.Z.m.i.<.>.&.&.%.` ` ` ` ` ` &.&.>.&.` ` ! ! Q / / ^ ) ) { { o.O.O.~.~.~.~.~.O.O.} } [ ) ^ ^ ^ / Q ~ ~ ~ &.=.7 w B D Y R H hXqXiXG.Y.W.!.!.@X%X@X&X+X@X@XY.Y.R.!.oX%X<X<X2X2X>X:X-X}.'.).m.m.p.w.<.>.&.&.` ~ Q Q ^ ^ ) { { o.O.~.~.~.~.~.O.o.[ ) ^ ^ ^ Q ! ~ ~ &.>.>.<.r.p.C.+X$X<X2X2X2X2X2X2X2X2X2X2X2X<X<X@X!.W.yXuX0XM 8.%.%.~ ! ! ! / ^ ^ ) ) { { o.O.O.~.~.~.~.~.~.O.o.} { [ ) ^ ^ ^ / Q Q ~ ~ %.%.|.>X;X-X_._.Z.V.m.m.m.g.m.m.M.V._._.}.-X>X2X2X&XP.@.@.~.~.~.O.O.} { ) ^ ^ / Q ~ ~ ~ &.>.<.r.r.m.m.Z._.}.-X:X>X2X2X<X&X+XoX!.T.Y.uXuXqXrXlXM J L E W U S i w 7 1 O .   . . 1 3 BXoXoXoXoX@X@X@X@X%X%X%X%X<X<X<X<X2X2X2X2X>X>X;X;X_.&.` ` ~ ! ! Q Q ^ ^ ^ ) ) { } o.O.O.~.~.~.~.~.~.O.O.o.} { [ ) ^ ^ ^ ^ / Q ! ~ ~ ~ &.>.Z.).].}.=X;X:X>X2X2X2X2X2X<X<X<X$X@X$X@X%X@X@XoXoXoXVXe 7 1 . .     O 1 7 w i S Y W E L H n hXrX5XuXY.T.W.!.@X$X<X2X2X>X;X-X}.).V.m.p.r.>.>.&.` ~ Q Q / ^ ) { } o.O.~.~.~.~.O.o.[ ) ^ ^ Q Q ~ ~ &.5.+X$X<X2X2X2X2X2X>X>X>X>X2X2X2X2X2X<X&X@X!.R.Y.uXqXkXH R Y d &.%.` ~ ! ! ! ! / ^ ^ ^ ",
"m.p.r.w.>.&.&.` ~ ! Q Q / ^ ) e.$X<X2X-X}.V.m.i.w.,.&.&.&.` ` ` ` ` &.&.>.>.&.` ` ~ ! ! / / ^ ^ ) { } o.O.~.O.~.~.~.O.O.O.{ { [ ) ^ ^ ^ / Q ! ~ %.&.: 3 w V I T L M 9XpXiXY.T.!.!.+X@X&X@X$X@X@X@XR.R.W.oX+X&X<X2X2X2X:X;X*X'.).V.m.p.t.w.>.&.&.` ` ! Q / / ^ ) { } o.~.O.~.~.~.o.o.} [ ) ^ ^ ^ Q ! ~ ~ &.>.<.5.p.p.H.@X$X$X<X2X2X2X2X2X2X2X2X2X<X<X%X@XW.R.yXpXhXH 9.%.%.! ! ! ! / / ^ ^ ) { { } o.O.~.~.~.~.~.~.O.o.} [ [ ) ) ^ ^ ^ Q Q ! ~ %.%.|.,X;X}._.Z.V.M.m.p.m.p.m.m.m.V.Z._.}.=X;X>X2X$XP.@.~.~.~.~.O.o.{ { ^ ^ ^ Q Q ~ ~ &.&.>.<.r.p.m.V._.}.-X;X:X2X2X2X<X%XoXHXW.Y.BXuXpX8XkXm H L E Y Y D V t 0 2 O .     . o 1 7 iXoXoXoX@X@X@X@X%X%X%X<X%X<X<X2X<X2X2X2X2X>X>X;X-X).w.` ~ ` Q ! Q Q Q ^ ^ ) ) { { o.o.O.~.~.~.~.~.~.O.O.o.} { { ) ) ^ ^ ^ ^ Q Q ! ~ ~ &.>.B.`.}.=X;X;X>X>X2X2X2X2X2X<X<X<X$X%X%X@X%XoX@XoXoXoXoXg 2 O .     . O 4 q y C D Y W R J M kXrXqXtXyXY.W.!.+X&X<X2X2X>X>X-X}._.Z.m.p.r.w.>.&.&.~ ~ Q Q ^ ^ ) { o.O.~.~.~.~.O.o.[ [ ) ^ ^ Q ! ~ %.&.>.E.@X<X<X2X2X2X2X>X2X2X2X2X2X2X2X2X<X&XoXoXR.Y.uX8XkXH R Y j ;.%.` ~ ~ ! ! ! Q / ^ ",
"m.p.r.w.>.>.&.~ ~ ! Q Q ^ ^ ) { X.#X2X2X-X'.V.m.y.q.,.*.&.&.%.%.%.%.&.&.&.>.<.` &.` ! ! Q / ^ ^ ) ) { } o.O.~.~.~.~.~.~.O.O.} { [ ) ^ ^ ^ Q Q ~ ~ ~ %.% 3 w V I Y J vX9XtXyXY.T.!.oX@X@X@X$X%X%X@X+XR.R.oXoX&X<X2X2X2X>X;X-X}.).Z.m.g.t.w.>.>.&.` ~ ! Q Q ^ ^ ^ { } o.O.~.~.~.^.~.O.} [ ) ^ ^ Q Q ! ~ &.%.>.>.<.r.p.M.Z.+X$X<X2X2X2X2X2X2X2X2X2X2X<X<X@XoXW.Y.uXqXlXJ 9.%.%.` ! ! ! / ^ ^ ) ^ { { o.o.O.~.~.~.~.O.~.O.o.o.{ [ ) ^ ^ ^ / Q Q ~ ~ %.%.].;X=X_._.V.m.m.m.p.p.p.p.g.g.M.Z._.}.-X,X>X2X&X`.~.~.~.O.~.O.} { ) ^ ^ Q Q ~ ~ &.&.>.<.w.p.m.V.Z.'.}.-X:X>X2X2X<X&X+XoXW.Y.Y.uXpXqXhXlXM K R W Y I Z y q 7 < X .   . X 1 7 w eX!.+X!.@X@X@X%X%X%X%X<X<X<X<X2X2X2X2X>X>X:X;X-X}.}.w.&.` ~ ~ Q ! Q ^ ^ ^ ^ ) { { } o.O.~.~.~.~.~.~.~.O.o.o.{ [ ) ) ^ ^ ^ / Q Q ! ~ ~ &.&.M.}.=X-X>X>X>X2X2X2X2X<X<X<X$X&X%X%X%XoX%XoXoXoXoXoXoX4X1 .     . O 1 7 r V D Y Y E K H vXhXqXtXyXY.T.W.@X+X<X<X2X2X>X-X-X_.).V.g.t.w.<.&.&.` ~ ! Q ^ ^ ) { } o.~.~.~.~.O.o.} [ ) ^ ^ Q Q ~ %.%.>.<.g.@X$X<X<X2X2X2X2X2X2X2X2X2X2X<X<X&X&X+XW.T.BXuXrXkXJ E U B > &.%.` ~ ! ! ! ! / ",
"M.m.p.r.<.>.&.&.~ ~ ! Q / ^ ) ) } s.#X2X>X-X'.V.g.i.w.>.*.&.&.&.%.%.&.&.*.>.>.w.` ` ` ! ! Q / / ^ ) ) { } o.O.~.~.~.~.~.O.O.o.{ [ [ ) ^ ^ ^ / Q ! ~ %.&.$ 3 w Z Y Y J kXqXtXBXY.W.!.XX@X&X@X$X%X@X@XoXR.W.+X+X&X<X2X2X2X:X-X*X'.).V.m.t.r.w.>.&.&.` ~ ! Q / ^ ) ) { o.O.~.~.~.~.O.O.o.[ [ ) ^ ^ Q Q ! ~ &.&.>.<.r.t.m.V.P.+X$X$X<X2X2X2X2X2X2X2X<X2X<X&X@XHXW.BXuXeXm K 9.%.%.! ! ! ! / ^ ^ ) ) { { o.o.O.~.~.~.~.~.O.O.o.} { [ ) ) ^ ^ ^ Q Q ! ~ %.&.r.;X}._.Z.M.m.p.p.p.t.p.p.p.g.m.M._.'.=X;X>X2X<X`.~.~.~.O.O.} { ) ^ ^ ^ Q Q ~ ` &.>.>.w.r.p.M.Z._.}.-X-X>X2X2X2X&X%XoXW.R.Y.yXuXpX0XkXm J L Y T Y S B e 7 2 O .     . < 3 0 y n W.+X@X@X@X%X@X%X&X#X<X<X2X<X2X2X2X2X>X>X:X-X-X'._.w.` &.~ ~ Q Q Q Q ^ ^ ) ) { { } o.O.O.~.~.~.~.~.O.~.O.o.} [ ) ) ) ^ ^ ^ / Q ! ~ ~ ` &.5.=X;X;X>X>X2X2X2X2X2X<X<X$X$X%X%X@X%XoX+XoXoXoXoXoXoXG.o .     . 1 4 w i Z Y T E L J m hXwXpXuXBXY.W.!.+X$X<X2X2X>X:X-X}.).V.m.p.r.<.>.&.` ~ Q ! Q ^ ) { { o.O.~.~.~.~.o.o.[ [ ) ^ Q Q ! ~ &.>.>.<.g.Q.@X<X<X<X2X2X2X2X2X2X2X2X2X2X<X&X@XoXW.R.Y.tX8XlXJ Y Y i 6 $.` %.` ! ! ! ! ",
"V.m.p.r.w.>.&.&.&.~ Q Q / ^ ^ ) ) } h.<X2X>X=X'.V.g.y.w.,.>.&.&.&.&.&.&.&.>.>.<.w.&.` ` ! ! / / ^ ^ ) ) { } o.O.~.~.~.~.~.^.O.o.} { ) ) ^ ^ / Q Q ~ ~ ~ &.# 3 r A Y L H hXtXtXY.T.W.!.@X@X&X%X%X%X$X@XoXW.!.@X&X<X2X2X>X:X;X*X}.).V.m.p.t.w.>.>.&.` ~ ! Q / ^ ^ ) { } O.O.~.~.~.~.@.o.} [ ) ^ ^ Q Q ! ~ &.&.>.<.<.p.p.m.Z.].@X&X<X<X2X2X2X2X2X2X2X2X<X&X%X+XW.R.yXpX0XM R 9.%.%.` ! ! Q / ^ ^ ^ ) { { o.o.O.~.~.~.~.~.~.O.O.} { [ ) ^ ^ ^ / Q Q ~ ~ ~ &.r.-X_._.M.m.p.p.t.t.r.r.t.p.p.M.M.Z._.=X;X>X2X<X`.~.~.~.O.o.} ) ) ^ / Q ! ~ ~ &.&.>.<.r.p.m.V.).'.-X:X:X2X2X2X<X%X+XoXW.Y.BXuXpXqXhXm H K E W Y D C y 0 3 O .     . o 1 7 r N M !.@X@X@X@X%X%X%X<X<X<X<X2X2X2X2X2X>X>X;X-X*X'.'.Z.m.&.` ` ` ! ! Q Q ^ ^ ^ ) ) { } o.o.~.~.~.~.~.~.~.O.O.o.} { [ ) ^ ^ ^ ^ / Q ! ~ ~ ~ &.w.;X;X>X>X2X2X2X2X<X<X$X$X&X%X%X%XoX+XoXoXoXoXoX!.!.!.G.=     . O 3 0 t Z D Y W R K M lXhXqXtXyXY.T.!.oX&X<X2X2X>X:X;X}._.Z.V.p.t.<.<.&.&.` ~ Q Q ^ ^ ) { } O.~.~.~.^.~.o.} [ ^ ^ ^ Q ! ~ %.&.>.<.r.p.P.@X#X<X<X<X2X2X2X2X2X2X2X<X<X<X&X+XoXW.Y.BXpX0XlXJ E U i 4 : %.%.` ` ( ! ",
"Z.M.p.r.r.<.>.&.` ~ ~ Q Q / ^ ^ { } o.Z.1X2X>X=X_.V.g.i.w.,.,.&.*.&.&.&.*.&.>.w.w.<.` ` ` ! ! Q / ^ ^ ) ) { } o.O.~.~.~.~.~.O.O.o.{ [ ) ) ^ ^ ^ Q Q ~ ~ %.&.# 3 y D Y K M 9XtXyXY.T.!.XX@X@X&X&X%X%X%X@XoX!.oX$X$X<X2X2X>X:X-X*X_.Z.M.g.t.w.<.>.&.` ` ! Q Q / ^ ^ { { o.O.~.~.~.~.O.O.} [ [ ) ^ ^ Q Q ~ ~ &.*.>.<.r.p.m.V.).].+X&X$X<X2X2X2X2X2X2X<X2X<X&X@XoXW.Y.uXpXlXH R 9.%.%.` ! ! ! / / ^ ^ ) { { o.o.O.~.~.~.~.O.~.O.O.} { [ ) ) ^ ^ ^ Q Q ! ~ ~ &.r.}._.Z.M.g.p.t.r.r.r.r.r.t.t.g.M.V._.}.;X>X2X<X#X/.~.O.O.} { ) ) ^ / Q ! ~ &.&.>.<.w.p.p.V.Z.`.}.-X:X>X2X2X2X&X@XoXW.R.Y.yXuXqX9XlXM K L Y T I Z i w 7 1 X .     X 1 4 0 y Z H FX+X@X@X%X@X%X%X<X<X<X2X2X2X2X2X>X>X:X-X-X}._.).V.g.&.` ` ` Q ! Q Q ^ ^ ^ ) ) { { o.o.O.~.~.~.~.~.~.O.O.O.} } [ ) ) ^ ^ ^ ^ / Q ~ ~ ~ &.&.`.>X>X2X2X2X<X2X<X<X$X%X$X@X@X+XoXoXoX!.!.!.!.!.!.!.!.=     o 1 7 e i D U T E K H n rXqXpXyXBXT.W.oX+X$X<X2X2X>X;X-X'.).V.m.p.r.>.>.&.` ~ Q Q Q ^ ^ { } o.~.~.~.~.O.O.} [ ) ^ ^ ^ Q ! ~ &.>.>.r.p.m.Z.XX%X&X<X<X2X2X2X2X2X2X2X<X<X$X&X@XHXW.Y.BXpXeXlXP E I i 9 $ #.` ` ` ` ",
"Z.B.g.p.r.<.>.&.&.` ~ Q / / ^ ) ) { } O.`.1X2X>X=X_.V.g.i.w.q.,.*.*.*.&.&.>.>.>.w.r.>.&.` ` ! Q / / ^ ^ ) { { } O.O.~.~.~.~.^.^.O.o.{ { ) ) ^ ^ / Q Q ~ ~ %.&.# 7 u I Y J lXwXtXyXT.W.W.+X@X&X%X&X&X%X#X@XoX@X@X$X<X2X2X>X:X-X}.'.).V.m.p.r.w.>.&.&.~ ~ ! / / ^ ) ) { } O.O.~.~.~.~.O.o.} [ ^ ^ ^ Q Q ~ ~ ~ &.>.<.w.p.m.V.Z._.|.@X$X<X<X<X2X2X2X2X2X2X<X<X$X@XoXR.BXuXqXlXP Y 9.%.` ` ! ! Q / ^ ^ ^ ) { { } o.~.O.~.~.~.~.~.O.O.} } ) ) ^ ^ ^ ^ Q Q ~ ~ ~ %.5.'._.M.m.g.r.r.r.w.w.w.r.t.t.g.M.M._.}.-X>X>X<X#Xf.~.O.o.{ ) ^ ^ / Q ! ~ ~ &.&.>.w.r.p.m.V._.'.-X:X>X2X2X<X<X&X+XW.R.Y.yXuXpX0XhXM H L E T Y D V r 8 2 O .     . o 2 0 r V D Y fX@X@X@X%X%X&X&X<X<X<X2X2X2X2X>X>X;X;X-X}.'.).Z.h.t.>.` ` ` ! Q ! Q / ^ ^ ) ) { } } O.O.O.~.~.~.~.~.~.O.o.} { { ) ) ^ ^ ^ / Q Q ! ~ ~ ~ &.].2X2X2X2X2X<X<X$X&X$X@X%X+XoXoXoX!.oX!.!.!.!.!.!.!.!.G.  . O 7 q u Z U Y E R J M lX0XtXuXBXY.W.!.+X$X<X2X2X>X:X-X}.).Z.m.p.r.<.>.&.` ~ ! Q / ^ ) ) } o.O.O.~.~.~.O.o.[ ) ^ ^ / Q ~ ~ %.&.>.<.r.p.m.Z.{.+X#X<X<X<X<X2X2X2X<X2X<X<X$X@X+X!.R.Y.BXpXrXn P E Y i 9 < : &.` ` ",
"_.V.M.p.r.w.<.&.&.` ` ! ! Q ^ ^ ) ) } o.O._.2X2X>X}._.B.g.i.w.w.>.>.*.*.*.*.>.<.w.r.p.>.&.` ` ! ! / / ^ ^ ) { { } O.O.~.~.~.~.~.O.O.o.[ [ ) ) ^ ^ ^ Q Q ~ ~ &.&.$ 8 V Y R H hXqXyXBXT.!.!.+X@X&X&X%X&X&X%X@X@X@X&X<X<X2X2X>X:X-X}.).Z.m.p.t.w.>.>.&.&.~ ! ! / ^ ^ ) { } o.O.~.~.~.~.O.o.} [ ) ) ^ ^ Q Q ~ &.&.*.>.5.r.p.m.Z._.}.}.@X&X$X<X2X2X2X2X2X<X<X<X<X@XoXW.R.BXpXeXm L Y 9.%.%.! ~ ! ! / / ^ ^ ) { { } O.O.~.~.~.~.O.~.O.O.} } [ ) ) ) ^ ^ Q Q ! ~ %.%.5._.Z.m.p.p.r.w.w.<.<.<.5.w.t.t.m.M.).'.-X:X2X<X#X/.@.o.} { ) ^ ^ / Q ~ ~ &.&.>.<.r.p.g.V.).'.}.-X:X2X2X2X<X&X@XoXW.R.BXuXpXqX0XlXH K R Y T I C u w 3 1 . .     o 1 7 w i S I Y GX!.@X@X%X%X&X$X<X<X2X2X2X2X2X>X:X;X-X-X'._.).V.m.p.>.` ` ` ` Q ! Q / ^ ^ ) ) ) { } o.O.~.~.~.~.~.~.O.~.O.o.} [ [ ) ^ ^ ^ ^ / Q Q ~ ~ &.&.r.2X2X<X2X<X<X$X$X%X%X+XoX+XoX!.!.W.!.W.!.W.!.!.!.W.!.G.= O 1 0 r V D Y T R K M lXhXqXtXyXY.T.W.+X$X$X<X2X2X:X;X}.'.Z.M.p.r.w.>.>.&.` ~ Q Q / ^ ) { } O.~.~.~.~.O.o.} [ ) ^ ^ Q Q ~ &.&.>.<.5.p.m.V._.].#X+X$X<X<X<X2X2X2X<X2X<X<X&X@XoXHXR.Y.uXpX0Xn J Y U B q 2 % $.%.",
"_.Z.h.g.t.r.>.>.&.&.~ ~ Q Q / ^ ) [ { o.O.O.OX<X>X>X}._.V.g.i.w.w.>.>.>.>.>.>.>.<.w.t.p.q.` ` ` ! ! / / ^ ^ ) { } } O.O.~.~.~.~.~.O.O.o.} [ ) ^ ^ ^ / Q Q ~ ~ %.#.< q A Y R M rXqXyXY.T.W.@X@X%X%X<X&X&X%X&X@X@X+X<X<X2X2X>X:X-X}.'.Z.V.m.t.r.<.>.&.` ` ~ Q Q / ^ ) ) { o.O.~.~.~.~.~.O.o.[ [ ^ ^ ^ Q ! ~ ~ &.&.>.<.r.p.m.V.)._.-XOX+X$X<X<X<X2X2X2X2X2X<X<X&X+XoXW.Y.yXpX0XM R Y k ` %.~ ~ ! Q / / ^ ^ ) { { } O.O.~.~.~.~.~.~.O.O.o.[ [ ) ^ ^ ^ ^ Q Q ~ ~ ~ %.<._.M.m.t.r.r.<.<.<.<.>.w.5.r.t.g.m.Z._.-X;X2X2X#Xf.O.} { ) ^ ^ Q Q ! ~ ` &.>.>.w.t.g.m.Z._.}.-X:X>X2X2X<X&X+XoXW.T.Y.uXuXpX0XlXm J R E T I S i w 7 1 O .   . . < 3 0 y Z D Y T NX@X+X@X%X%X&X<X<X<X2X2X2X2X>X>X:X-X*X}._.).V.m.p.t.>.&.` ` ~ Q ! Q Q ^ ^ ^ ) { { } o.O.O.~.~.~.~.~.~.O.O.o.} { [ ) ) ^ ^ ^ / Q ! ~ ~ ~ &.r.].2X<X<X$X$X%X%X@XoX+X!.!.!.!.Q.W.!.W.Q.W.!.W.!.!.!.!.= 1 7 w i S Y T E L J m kX9XpXyXyXT.W.!.@X$X<X2X2X>X;X-X}._.V.m.p.r.<.>.&.` ~ ! Q / ^ ) ) { o.~.O.~.~.~.O.o.[ ) ^ ^ Q Q ~ ~ ~ >.>.r.r.g.V.Z.'.}.#X@X%X#X<X<X<X<X<X<X<X<X$X%X+XoXW.R.Y.uXpX0Xm K E U C e 9 3 & ",
"_.).V.m.p.r.w.>.&.&.` ~ Q Q Q ^ ^ { { } O.~./.OX2X2X>X}._.B.g.i.r.w.,.,.>.>.>.>.w.w.r.p.m.>.` ` ( ! ! / / ^ ^ ) { { o.O.O.~.~.~.~.~.O.O.} { [ ) ) ^ ^ ^ Q Q ~ ~ &.#.1 r D Y P n wXtXyXT.W.!.+X@X&X&X<X$X&X%X%X@X@X&X<X<X2X2X:X;X*X'.).V.m.p.r.w.>.*.&.~ ~ ~ Q Q ^ ^ { { } O.~.O.~.~.~.o.O.} [ ) ^ ^ ^ Q ! ~ &.&.>.>.r.r.m.m.Z._.}.-XOX@X&X$X<X<X2X<X2X<X<X<X$X%X@XoXR.Y.uXrXkXH U U j %.` ~ ~ ! ! / / ^ ^ ) { { } o.O.~.~.~.~.~.O.O.O.o.} ) [ ) ^ ^ ^ Q Q Q ~ ~ &.<.C.m.g.r.r.<.<.>.>.>.>.>.5.5.t.p.m.V._.=X;X2X<X$Xf.o.{ ) ) ^ ^ Q ! ! ~ &.&.>.<.r.p.m.V.).}.=X;X:X2X2X2X<X&XoXoXR.Y.BXuXpXqXkXm H K E T Y D V y 0 2 O X     . o 1 0 e i D I T E LX!.@X@X%X$X$X<X<X2X<X2X2X2X>X:X;X-X}.'.).V.M.g.t.r.>.&.` ` ` Q ! Q Q / ^ ^ ) ) { { o.O.O.~.~.~.~.~.~.O.O.o.} } ) ) ) ^ ^ ^ ^ / Q ! ~ ~ &.&.[.<X<X$X&X%X@X+XoXoX!.W.!.W.!.W.W.W.W.W.W.W.W.!.!.!.!.G.3 0 y C D Y W R J M lXrXqXtXG.BXW.!.+X%X<X2X2X2X:X-X}._.Z.M.p.r.w.>.>.` ` Q ! Q ^ ^ { { } O.~.~.~.~.O.o.} ) ) ^ ^ Q ! ~ &.&.>.<.r.p.m.Z._.}.-X;X#X#X%X<X$X<X<X<X<X<X$X&X%XoXoXR.R.BXuXpX0Xm K Y Y S y e 0 ",
"}._.Z.m.p.t.w.>.>.&.` ~ ~ Q Q ^ ^ ^ [ } o.O.~./.OX2X>X;X*X_.B.g.i.t.w.q.,.>.>.<.>.w.r.t.g.B.&.%.` ! ! ! Q ^ ^ ^ ) { } } O.O.~.~.~.~.~.O.O.} } [ ) ^ ^ ^ / Q ! ~ ~ &.$.2 u I Y J kXqXuXBXT.W.!.@X#X%X&X<X$X$X&X&X@X@X<X2X2X2X:X:X-X}._.Z.m.g.t.r.>.>.&.&.~ ! Q / ^ ^ ^ [ } o.O.~.~.~.^.~.O.} [ ) ^ ^ / Q ! ~ ~ &.>.>.<.r.p.m.V._.'.-X;X;X@X&X$X<X<X2X<X2X2X<X<X&X$XoXW.R.BXuX8XlXK Y I f %.%.~ ! ! ! / / ^ ^ ) ) } } o.O.~.~.~.~.~.~.O.O.} } [ [ ^ ^ ^ ^ Q Q ~ ~ ~ %.<.g.g.t.r.w.>.>.>.>.>.>.>.>.<.r.p.m.V._.}.;X2X2X$Xh.} { ) ^ ^ Q Q ! ~ &.&.>.<.w.p.m.M.)._.}.;X:X>X2X2X<X&X+XoXW.T.Y.yXtXqX0XlXM K R T Y I S y w 7 1 X .   . X < 4 q i Z I Y Y R nX@X@X%X@X&X$X<X<X2X2X2X2X>X:X;X-X*X}._.).V.m.p.r.w.>.&.` ` ~ ~ Q Q / / ^ ^ ) ) { } } O.O.O.~.~.~.~.~.~.O.O.} } { ) ) ^ ^ ^ / Q Q ! ~ ~ %.&.5.$X&X%X@X+XoX!.!.!.!.W.W.W.W.T.W.W.T.W.W.W.W.W.!.!.!.G.g e B D Y T R L H lXhXqXtXuXY.T.W.oX%X$X<X2X2X:X-X-X'.).M.g.p.w.>.&.&.` ~ ! Q ^ ^ ^ { } o.~.~.~.~.O.O.} [ ) ^ ^ Q ! ~ ~ %.>.>.r.p.m.V.).}.-X;X>X#X#X@X&X$X<X<X<X<X<X$X%X%XoXoXW.R.BXuXpX0Xm K E Y D C i ",
"}._.).M.m.t.r.<.>.&.&.~ ~ ! Q / ^ ) ) { } O.O.~./.,X2X>X;X=X_.B.g.i.t.w.w.,.,.,.<.w.w.t.p.m.g.*.` ` ~ ! Q Q ^ ^ ^ ) { } o.O.~.~.~.~.O.~.O.O.} [ [ ) ^ ^ ^ ^ Q ! ~ ~ &.=.7 C Y R H hXqXyXY.W.!.@X@X$X&X<X<X<X#X&X%X@X@X<X2X2X2X:X-X}.'.).B.m.p.r.<.>.&.&.` ~ ! Q / ^ ) ) { } O.~.~.~.~.^.o.o.} [ ) ^ ^ ^ Q ! ~ &.&.>.<.5.p.m.M.Z.'.}.-X:X;X@X&X&X<X<X<X<X<X2X<X<X@X+XoXW.Y.BXpX0Xm L Y A s ` %.~ ~ ! ! / / ^ ^ ) ) { } o.O.~.~.~.~.~.~.O.O.o.[ [ [ ) ^ ^ ^ ^ Q Q ~ ~ &.&.t.g.r.<.<.>.>.&.*.*.*.>.>.<.5.t.p.M.).}.;X>X2X$XP.{ _ ) ^ / Q ! ! ` &.>.>.<.r.p.m.Z._.}.}.:X:X>X2X2X&X&XoXW.W.Y.yXuXpX9XkXM H L E T Y S V r 7 2 O .     . < 3 0 e C D Y T E L H AX@X%X%X%X<X<X<X2X2X2X2X2X:X;X-X}._.).V.m.g.t.w.>.>.&.&.` ~ ~ Q ! Q ^ ^ ^ ) ) ) { } o.O.~.~.~.~.~.~.~.O.o.o.} [ ) ) ^ ^ ^ ^ / / Q ~ ~ ~ &.5.+X%X@XoX!.!.W.W.W.W.W.T.W.T.T.T.T.T.T.W.T.W.W.!.!.!.!.h u Z U T E L J M kXqXpXuXBXY.W.!.+X&X$X2X2X2X:X-X}.).Z.m.p.r.w.>.&.` ~ ! Q Q ^ ) ) } o.O.~.~.~.~.O.o.[ ) ) ^ ^ Q ! ~ &.>.>.<.r.p.V.Z._.}.;X>X2X<X#X+X&X&X$X$X$X$X&X&X%X@XoXHXW.R.BXuXpX0XM K U T Y D ",
"*X'.).V.m.p.r.w.>.>.&.~ ~ Q Q Q ^ ^ [ ) } o.~.~.~./.1X2X>X;X}._.V.m.i.t.w.w.w.w.,.w.r.r.t.m.V.m.&.` ~ ! ! Q Q ^ ^ ) ) { } o.O.O.~.~.~.~.~.O.o.o.[ [ ) ^ ^ ^ Q Q ! ~ ~ &.=.q S Y K M rXtXyXBXW.!.@X%X&X$X<X<X<X<X&X&X@X%X2X2X2X>X-X-X}._.Z.m.p.r.w.<.&.&.` ~ ! Q / ^ ^ ) { } o.O.~.~.~.O.~.O.} [ ) ^ ^ / Q ~ ~ ~ &.>.>.r.r.p.m.Z._.'.-X:X:X<X@X+X&X<X<X<X2X<X<X<X$X%X+XHXW.Y.uXpXhXM R Y B a %.%.~ ! ! ! / / ^ ^ ) { { } o.O.O.~.~.~.~.~.O.O.o.} { ) ) ^ ^ ^ / Q ~ ~ ~ %.&.r.t.w.<.>.>.>.*.%.*.&.>.>.>.<.r.p.m.Z.}.-X>X2X<XP.) ) ^ ^ Q ! ~ ~ &.&.>.<.r.p.m.V.).'.-X-X:X2X2X2X<X&X+X!.W.Y.Y.uXpXqXhXlXH K R T Y I V y w 3 O X     . X 1 7 r i S Y T Y L J M KX@X@X%X&X<X<X2X2X2X2X>X:X:X-X*X}._.Z.V.m.p.r.w.>.&.&.&.` ~ ~ ! ! Q Q ^ ^ ^ ) { { } o.O.O.~.~.~.~.~.~.~.O.o.} } [ ) ) ^ ^ ^ / Q Q ! ~ ~ &.&.K.oX!.!.!.W.W.W.T.T.T.Y.T.Y.T.Y.Y.T.T.T.T.W.W.!.!.!.!.CXV D Y T R P M lX0XqXuXyXY.R.W.+X&X<X2X2X>X>X-X}.'.Z.h.g.t.w.>.&.&.` ~ Q / ^ ^ ) { } O.~.~.~.~.O.o.} [ ^ ^ / Q ! ~ %.%.>.<.r.p.m.V._.}.-X;X>X2X2X$X@X@X%X&X$X$X$X$X%X%X+XoXW.R.R.yXuXqX0Xm K R T Y ",
"-X}.).Z.m.g.t.w.>.>.&.&.~ ~ Q Q / ^ ) [ } o.O.O.~.~.Z.1X2X>X;X*X_.B.m.g.r.w.w.w.w.w.w.t.t.p.m.V.V.&.` ` ! ! Q Q ^ ^ ^ ) { } o.O.~.~.~.~.O.~.O.o.o.[ [ ) ^ ^ ^ ^ Q ! ~ ~ &.=.r I Y J n qXiXG.T.W.XX@X%X$X<X<X<X<X<X&X%X@X<X2X2X>X:X-X}.`.Z.V.g.t.r.<.>.&.&.~ ~ Q Q / ^ ^ { { o.O.~.~.~.~.O.O.} [ [ ^ ^ ^ Q Q ~ ~ &.&.>.<.r.p.m.V.Z.}.}.-X:X>X2X@X+X&X<X<X<X<X<X<X<X&X%XoXW.R.Y.uXpXlXH E Y u 5 %.%.~ ! ! ! / / ^ ^ ) ) } } o.O.~.~.~.~.~.~.O.O.o.{ { ) ) ^ ^ ^ ^ Q Q ~ ~ %.&.r.r.<.<.>.&.&.*.%.*.%.>.>.>.<.<.p.m.Z.].-X>X2X<XP.) ^ ^ Q Q ! ~ ` &.>.<.w.r.m.m.Z.`.}.-X:X:X2X2X2X$X@X@XW.R.Y.yXuXqX0XlXM J R E T I S i w 7 1 X .     X 1 3 0 y Z D Y T R K M lXCX+X@X%X&X<X<X<X2X2X2X>X>X:X-X}.'._.V.m.p.t.w.>.>.&.` &.&.~ ~ ! ! Q Q ^ ^ ^ ) ) { } } o.~.O.~.~.~.~.~.O.O.O.} { { ) ) ^ ^ ^ ^ / Q ! ! ~ &.&.b.HXW.W.W.T.T.T.Y.Y.T.Y.BXBXT.Y.BXBXY.T.T.T.W.!.!.!.!.oXH I T E L H n kXqXpXuXY.T.W.!.+X$X<X2X2X>X;X-X'.).V.m.t.w.<.>.&.` ~ ! Q / ^ ^ { } o.O.~.~.~.^.O.} [ ) ) ^ ^ Q ~ ~ &.>.<.5.p.p.V.).}.=X;X>X2X2X<X#X@X+X%X%X$X$X$X%X%X%X@XoXW.W.Y.BXuXqX0Xm J L E ",
"-X}._.).V.m.p.r.<.>.&.&.` ~ Q Q / ^ ^ [ [ } o.~.~.~.^.`.1X2X>X;X'.`.V.m.g.t.t.w.w.r.w.r.t.p.m.V.).V.&.` ` ! ! Q Q ^ ^ ) ) { } o.O.~.~.~.~.~.~.O.o.} [ ) ) ^ ^ ^ Q Q ! ~ ~ &.;.i Y R H kX5XiXY.T.!.@X%X&X$X<X<X<X<X<X&X&X@X<X2X2X:X;X}.'.).V.m.p.r.<.<.&.&.` ~ ! Q / ^ ) ) { } o.~.~.~.~.~.O.o.} ) ) ^ ^ Q Q ! ~ &.&.>.<.r.p.g.M.Z._.}.-X:X>X2X<X@X&X$X$X<X<X<X<X$X&X%X+XoXW.R.BXpXqXlXJ Y I t * %.%.` ! ! ! Q ^ ^ ^ ) ) { } o.O.O.~.~.~.~.~.O.O.o.{ { ) ) ^ ^ ^ / Q Q ~ ~ %.%.5.5.>.>.&.*.%.%.%.%.&.&.&.>.<.5.t.g.Z.`.-X>X2X$X`.^ ^ ^ Q ! ~ ` &.&.>.<.r.p.m.V.).'.-X:X>X2X2X<X<X&X+XW.R.Y.yXuXtXrXhXm H L E T Y D V t 0 3 O .     . o 1 0 r i D Y T E L J M hXaX@X@X%X%X<X<X2X2X2X2X>X:X-X-X}._.Z.V.m.p.r.w.>.&.&.` &.` ` ~ ! ! Q Q / ^ ^ ) ) { { o.o.O.~.~.~.~.~.~.~.O.o.o.} { ) ) ^ ^ ^ / / / ! ~ ~ ` &.<.R.T.T.Y.Y.BXY.Y.yXBXBXG.yXBXBXG.Y.Y.Y.T.T.W.W.!.!.oXoXNXE Y R J M lXeXpXuXyXY.R.!.+X$X<X2X2X>X:X-X}._.V.m.p.r.w.>.&.&.~ ! Q / ^ ) ) { o.O.~.~.~.~.O.o.} [ ^ ^ / Q ~ ~ %.%.>.<.r.p.m.Z._.}.-X>X>X2X2X<X$X@XoX%X%X%X%X%X%X%X@X@XoXW.R.Y.BXuXqXrXn H K ",
";X-X'.).V.m.p.t.w.>.*.&.~ ` ! Q Q / ^ [ [ } o.O.~.~.~.~.).<X2X>X;X'.'.B.m.g.i.t.t.w.r.r.t.p.g.m.V.`.Z.&.` ` ! ! Q Q ^ ^ ) ) { } o.O.~.~.~.~.~.O.O.o.} [ [ ) ^ ^ ^ Q Q ! ~ ` &.> C Y R M 0XtXyXT.W.!.@X&X$X<X<X<X2X<X<X&X%X@X<X2X>X;X-X}._.Z.m.g.t.w.>.>.&.~ ~ ~ Q Q / ^ ) [ } o.O.~.~.~.~.O.O.} [ ) ) ^ ^ Q ! ~ ~ &.>.>.<.r.p.m.Z.).}.-X-X:X>X2X<X@X@X<X$X$X<X<X<X$X&X%XoXHXW.Y.BXpX9Xm K T D e % &.%.` ! ! ! Q / ^ ^ ) ) { } o.o.~.~.~.~.~.~.O.~.o.} { ) ) ^ ^ ^ ^ Q Q ~ ~ %.%.<.<.>.*.%.&.%.%.%.%.&.&.&.&.>.<.r.g.Z.`.;X>X2X<X#X*.^ / Q ! ~ &.&.>.<.r.t.m.V.Z.'.}.-X:X>X2X2X<X$X@XoXW.T.Y.uX5XqX0XlXM P R W Y I S y w 4 1 X .     X 1 4 w i Z I Y T R J M kXhXiXXX@X%X&X<X<X2X2X2X2X>X:X-X*X'._.V.m.g.t.w.>.>.&.~ ` &.` ` ` ! ! Q Q ^ ^ ^ ) ) { { } o.O.O.~.~.~.~.~.~.O.O.o.} { [ ) ) ^ ^ ^ / / Q ! ~ ~ &.&.S.Y.Y.Y.G.yXyXBXyXyXyXyXyXyXyXyXyXY.Y.Y.T.W.W.!.!.XXoXfXE E K H lXkXrXuXuXY.T.W.oX%X$X2X2X2X>X:X*X'.).V.g.t.w.<.*.&.~ ~ ! Q / ^ ) { } O.~.O.~.~.O.O.} [ ) ^ ^ / Q ~ ~ >.>.>.r.p.m.V._.}.-X;X>X2X2X<X&X@XoXoX+X%X%X%X%X%X@X@X@XoXR.R.Y.yXuXrX0XlXM ",
";X-X}.'.V.V.g.t.r.<.>.&.&.~ ~ ! Q ^ ^ ^ [ { o.O.~.~.~.^.^.`.1X2X>X;X'._.V.B.g.i.i.r.t.r.t.i.g.g.V.).}.w.&.` ` ! ! Q / ^ ^ ) ) { } o.O.~.~.~.~.~.~.O.o.} [ ) ) ^ ^ / Q Q ! ~ ~ &.s A T P vXwXtXyXT.W.XX@X&X<X<X<X<X2X<X<X<X%X%X<X>X:X-X}.`.).V.m.p.r.<.>.&.&.` ~ ! Q ^ ^ ^ [ { o.O.O.~.~.~.~.O.o.} [ ^ ^ ^ Q Q ~ ~ %.&.>.<.r.p.m.M.)._.}.-X:X>X2X2X&X@X@X&X$X$X<X<X<X&X%X+X+XW.R.Y.uXpXhXM L Y C q % %.%.` ~ ! Q / / ^ ^ ) ) { } o.O.O.~.~.~.~.~.O.O.o.} { ) ) ^ ^ ^ / Q Q ~ ~ %.&.>.>.*.&.%.%.~ %.~ ~ ` ` &.&.>.<.r.p.V._.-X>X2X<X#X>./ ! ! ~ ` ` >.>.w.t.p.m.Z.).}.*X:X>X2X2X<X<X@X+XW.T.Y.yXuXpX0XlXm J L E T Y S i r 8 1 O .     . < 3 0 y V D Y T R L H vXhXqXiX!.@X#X$X<X<X2X2X2X>X:X:X-X}.'.).V.m.p.r.w.>.&.&.~ Q &.&.` ` ! ! Q / Q ^ ^ ^ ) ) { } o.O.~.O.~.~.~.~.~.O.O.o.} } ) ) ) ^ ^ ^ / / Q ! ~ ~ &.` v.BXyXyXyXuXuXuXuXuXuXuXuXuXyXyXyXyXY.Y.T.W.W.!.!.oXoXoXPXR H m kX8XpXuXBXY.W.oX@X$X<X2X2X>X;X-X}.).V.m.p.r.>.>.&.` ~ Q Q / ^ ) ) } o.O.~.~.~.~.O.} } ) ^ ^ / Q ~ %.%.%.<.<.r.g.M.Z._.}.;X:X2X2X<X<X+XoXW.W.oX+X%X%X@X&X@X@XoXoXW.R.Y.yXuXpX0XkX",
":X-X*X'.).V.m.p.r.w.>.&.&.~ ~ Q Q Q / ^ ) { } o.~.O.~.~.~.O.OX<X2X>X-X=X_.V.N.m.i.p.i.t.i.p.p.m.B.V._.}.w.` ` ` Q ! Q / ^ ^ ) ) { } o.O.~.~.~.~.~.O.O.o.} [ ) ) ) ^ ^ / Q ! ~ ` &.j D Y J kXqXyXBXT.!.+X%X&X<X<X<X2X<X2X<X<X%X@X2X>X;X-X'.).V.m.p.t.w.>.>.&.~ ` ! Q Q / ^ ) { } o.~.~.~.~.~.O.o.} [ ) ^ ^ ^ Q ! ~ &.&.>.>.5.r.g.M.Z._.}.-X;X>X2X2X2X&X@X&X&X&X$X<X$X&X&X%XoXoXW.R.Y.uXqXlXH R Y B 8 $ &.%.` ! ! ! Q / / ^ ) ) { } o.o.~.~.~.~.~.~.O.O.o.} { { ) ^ ^ ^ ^ Q Q ~ ~ ~ &.>.>.&.%.%.%.~ ~ ~ ~ ~ &.&.&.>.>.r.p.V._.-X,X>X<X$X>.^ ! ! ` &.&.>.<.r.p.m.V.).'.-X-X:X2X2X2X<X&XoXoXR.T.BXuXtXqXhXn M K E E Y I Z r q 3 < X     . o 1 7 w V S U Y T L J M lXwXqXtXW.@X%X$X<X<X2X2X2X>X>X;X-X'._.).m.m.t.r.>.>.&.` ~ Q ` &.` ` ` ! ! Q Q / ^ ^ ) ) { { } o.~.~.~.~.~.~.~.~.O.O.} } [ [ ) ^ ^ ^ ^ / Q ! ! ~ &.&.1.yXuXuXuXuXpXtXtXtXtXtXtXtXuXtXyXyXBXT.T.W.W.!.!.+XoXoXMXK M lX0XpXuXyXY.T.!.+X&X$X2X2X2X:X-X}.'.).m.g.t.w.>.*.&.~ ~ ! / / ^ ) { } O.~.~.~.~.O.o.[ [ ) ^ ^ / Q ~ %.>.>.<.r.p.m.Z._.}.-X:X>X2X2X<X&X@XW.W.R.W.+X@X%X@X@X%XoXoXoXW.R.Y.yXuXpX0X",
">X;X-X'._.V.m.p.t.w.>.>.%.&.~ ~ Q / ^ ^ [ [ [ o.O.~.~.~.~.^.d.%X<X2X>X-X*X).).m.m.p.p.p.i.p.g.g.m.V.).'.-Xr.&.` ~ ~ Q Q / ^ ^ ) { { } O.O.~.~.~.~.~.~.O.o.} [ ) ^ ^ ^ / Q ! ! ~ &.~ k Y R M hXqXyXT.W.!.+X#X&X<X2X<X2X<X2X<X<X%X@X<X;X-X}.`.Z.M.g.p.w.<.>.&.&.~ ~ Q / ^ ^ ) [ } o.O.~.~.~.~.O.O.} [ ) ^ ^ ^ Q ! ~ ~ &.&.>.<.r.p.m.V._.'.-X;X:X>X2X2X<X&X+X@X$X&X$X$X&X$X%X%XoXoXW.Y.BXtXqXlXJ E U u 4 $ &.%.` ! ! ! / / ^ ^ ) ) { { o.O.O.~.~.~.~.~.~.O.O.} { [ ) ^ ^ ^ Q Q Q ~ ~ ~ &.&.*.%.%.~ ~ ~ ~ ~ ~ ~ ~ ~ &.&.>.r.p.M._.-X>X2X<X$X>.! ! ~ ` &.>.,.r.t.g.N.).`.}.-X:X>X2X2X<X&X+XoX!.T.Y.yXtXqX0XlXM K L Y T I Z i w 7 1 X .   . . 1 3 w y Z I Y T R P H lXhXqXtXyXW.+X@X$X<X<X2X2X2X>X:X-X-X}.).Z.m.p.r.w.>.&.&.` ! Q ( &.` ` ` ~ Q Q / / ^ ^ ) ) { { o.o.O.O.~.~.~.~.~.O.O.O.o.} [ [ ) ^ ^ ^ ^ / / ! ~ ~ ~ ` 1.4XtXpXqXpXpXqXqXqXqXpXqXqXtXtXtXyXyXY.T.W.!.!.!.+XoXoXDXxXm hXqXtXuXY.T.W.oX+X$X<X2X>X>X;X-X'.).V.m.t.r.>.&.&.&.~ Q Q ^ ^ ) ) } o.~.~.~.~.~.O.o.[ ) ^ ^ Q Q ~ %.%.&.<.<.p.m.M.).'.-X:X>X2X2X<X&X+XoXW.Y.yXR.+X@X@X%X@X+XoXoX!.W.R.Y.yXuXtX",
">X:X-X*X'.).V.g.t.r.<.>.>.~ ~ ~ ~ Q / ^ ^ { { } O.~.O.~.~.~.O.+.%X2X2X>X-X|.).Z.B.m.p.p.p.p.p.g.m.V.V._.}.-Xr.` ` ~ ~ ! Q / ^ ^ ) { { } o.O.~.~.~.~.~.O.O.o.} [ ) ) ^ ^ ^ / Q ! ~ &.` x Y L vXrXpXyXT.!.!.#X$X<X<X2X<X2X<X2X<X<X%X@X,X-X}.'.).V.m.p.r.w.>.&.&.~ ` ! Q / ^ ^ ) { } O.O.~.~.~.~.O.o.} [ ) ^ ^ / Q ! ~ ~ >.>.>.r.p.g.B.Z._.}.-X:X>X2X2X2X&X@X@X@X$X%X&X&X&X&X%X@XoXHXW.Y.yXtX0Xn P E D y 4 $ &.%.` ` ! ! Q / / ^ ) ) { } o.o.O.~.~.~.~.~.O.O.o.} { [ ) ) ^ ^ ^ Q Q ~ ~ ~ &.*.&.%.~ ~ ~ ! ! ! ! ! ~ ~ &.>.>.<.g.M._.-X;X2X<X&XK.! ~ ` &.&.>.<.r.p.m.V.).}.-X;X:X2X2X2X<X&XoXHXW.T.yXuXpX8XkXm H L E T Y D V r 0 2 O .     . o 3 7 r V S Y Y E L H n hXrXpXuXyXT.+X@X$X<X<X2X2X2X>X:X-X*X'.).V.m.p.r.w.*.&.` ` Q Q ( ` ` ` ` ~ ! ! Q ^ ^ ^ ) ) { { } o.O.O.~.~.~.~.~.~.O.O.o.} { [ ) ) ^ ^ ^ / / Q ! ~ ~ &.&.4XqX8XrX0XqXrX0XwXwXwXqXqXqXtXtXyXBXBXT.W.!.!.!.+XoX@XoXzXkX0XpXuXBXY.R.!.+X&X<X<X2X2X:X-X}.).V.m.p.r.w.>.&.` ~ ~ ! Q ^ ^ { { o.O.~.~.~.O.O.o.[ [ ^ ^ ^ Q ! ~ %.>.>.<.r.p.M.Z.`.}.-X:X>X2X2X<X@XoXHXR.Y.uXyXW.oXoX@X@X@XoX!.W.W.R.Y.yXyX",
">X:X-X*X'.).V.m.p.r.w.<.] &.&.~ Q Q / ^ ) ^ { } o.O.~.~.~.~.O.O.s.%X<X2X>X-X}.`.Z.V.m.m.g.p.p.m.m.M.Z.).}.-X;Xr.&.~ ~ ! ! / / ^ ^ ) { { o.o.~.~.~.~.~.~.~.o.o.{ { ) ^ ^ ^ / / ! ! ~ &.` c Y P lXqXuXY.T.!.@X&X<X<X<X2X2X<X<X<X2X<X%X@X,X-X}._.Z.m.p.t.w.>.>.&.` ~ ! Q / ^ ^ ) ) } o.O.~.~.~.^.~.O.} [ ) ^ ^ / Q ! ~ &.&.&.<.<.r.p.m.V._.'.-X:X:X2X2X2X<X&X@XoX%X%X%X&X&X&X%X%X+XoXW.T.Y.uXpX0XM L Y S t 4 # #.%.` ! ! ! / / ^ ^ ) ) { { o.O.O.~.~.~.~.~.~.O.o.} } [ ) ^ ^ ^ ^ Q Q ~ ~ ~ %.&.%.~ ~ ! ! ! ! ! ! ! ~ ~ ~ &.>.<.p.M._.=X>X2X2X&XK.! ~ %.&.>.<.r.p.g.V.).'.}.-X:X>X2X2X<X&X+XoXW.Y.Y.yXtXqXhXlXH K R E Y I Z y q 4 < X     . X 1 7 w i S I T T L J M lX9XqXtXyXY.T.+X+X$X<X<X2X2X2X>X:X-X}._.).V.g.t.w.<.&.&.` ~ Q Q ^ &.` ` ~ ~ Q ! Q Q ^ ^ ^ ) ) { } o.O.O.~.~.~.~.~.~.~.O.o.} } [ ) ) ^ ^ ^ / / Q ! ~ ` ~ &.:.0X0XhXhXkXhXhXhXhXhX0X0XwXqXtXtXBXBXR.W.!.!.oXoX@X@X@XJX0XqXpXyXY.W.W.oX&X<X2X2X>X:X-X}.'.).V.g.t.w.<.&.&.` ~ Q Q ^ ^ ) { } o.~.~.~.~.~.o.} [ ) ^ ^ Q Q ~ %.&.&.<.r.p.m.V.).}.-X:X>X2X2X<X&X+X!.W.Y.uXuXpXSX+X@X@X@X@XoX!.!.W.R.T.yX",
"2X>X:X-X}.).V.V.g.t.w.>.>.&.` ` ~ Q Q / ^ ) [ { o.O.~.~.~.~.O.O.o.X.1X>X2X:X-X}.`.Z.V.B.m.g.m.p.m.m.V.Z._.}.-X>Xr.` ~ ~ ! ! Q / ^ ^ ) { { } o.O.~.~.~.~.~.~.O.o.{ { ) ) ^ ^ / / Q ! ~ &.&.F U H hXqXyXY.W.oX+X&X<X<X2X2X2X<X2X<X2X<X%X@XOX}.`.Z.V.m.t.r.<.>.&.&.~ ~ ! Q / ^ ) { { o.O.~.~.~.~.O.O.o.[ [ ) ^ ^ Q Q ~ ~ &.>.>.<.r.t.m.V.Z.'.}.-X:X>X2X2X2X&X@XoXoX%X%X%X&X%X&X%X@X@XHX!.T.BXuXqXhXH R Y S t 4 < #.%.` ` ! ! ! / / ^ ^ ) { { o.o.O.~.~.~.~.O.~.O.O.} { [ ) ) ^ ^ ^ / Q ! ~ ~ &.%.%.~ ~ ! Q ! Q Q Q Q ! ~ ~ >.>.<.g.M._.=X;X2X2X&XK.` ` &.>.>.w.r.g.m.Z.`.}.-X;X>X2X2X2X&X@XoXW.R.Y.yXuXpX0XlXm J R Y T Y S i e 7 2 O .     . < 3 0 y C D Y T E K H vXhXqXtXyXBXT.W.!.+X$X$X<X2X2X2X>X:X-X}._.Z.V.g.t.w.>.&.&.~ ! Q ^ ^ ' ` &.~ ` Q ! Q Q / ^ ^ ) ) { { o.o.O.~.~.~.~.~.~.O.~.O.o.} [ [ ) ) ^ ^ ^ / / ! ! ~ ` &.:.8XlXn lXlXm lXlXlXkXhXhX0XqXtXiXBXG.T.W.!.!.+XoX@X@X@XJXiXiXuXBXY.W.!.+X&X<X2X2X2X:X-X'.).V.m.p.w.<.>.&.~ ~ ! Q Q ^ ) ) } o.O.~.~.~.~.O.} [ ) ^ ^ ^ Q ~ ~ &.>.>.<.r.g.M.Z.].}.;X>X2X2X<X<X@XoXW.R.BXuXpX8XkXJX@X@XoXoXoX!.W.W.R.T.",
"2X>X:X-X}.'.).V.m.t.r.w.>.&.&.` ~ Q Q / ^ ^ [ { } O.O.~.~.~.~.~.o.o.p.1X<X2X:X;X}.`.Z.V.V.m.m.m.m.M.M.Z._.'.-X;X}.&.` ` ! ! Q / ^ ^ ^ ) { { o.O.O.~.~.~.~.~.O.o.o.{ { ) ^ ^ ^ / Q ! ~ ~ ` &.F L M 0XtXBXT.W.+X@X<X<X<X2X2X2X2X2X<X2X<X&X@X X}._.V.m.p.r.w.<.&.&.` ~ ! Q / ^ ^ ) [ } O.O.~.~.~.~.O.o.o.[ ) ^ ^ Q Q ~ ~ ~ &.>.>.r.t.g.m.Z._.}.-X:X>X2X2X<X<X&X+XW.oX+X%X%X&X%X%X%X@X+XW.W.Y.BXtXqXlXH E Y Z t 7 1 $.%.` ~ ! ! ! / ^ ^ ) ) { { o.o.O.~.~.~.~.~.~.O.o.o.{ { ) ) ^ ^ ^ / Q ! ~ ~ &.&.~ ~ Q ! Q Q / Q Q Q Q ~ ~ &.>.<.p.M._.-X;X2X2X$XU.~ &.&.>.<.r.p.m.V.).'.-X;X>X>X2X2X&X&X+X!.W.T.yXuXpXqXhXm H K R T Y D C y 0 3 O X     . o 1 0 w N S Y T Y L J M kXwXpXtXyXY.T.!.oX@X&X$X<X2X2X2X>X;X-X}._.Z.m.p.r.w.>.&.` ~ ! Q ^ ) _ &.` ` ` ! ! Q / ^ ^ ^ ^ ) { { } o.o.~.~.~.~.~.~.~.O.O.o.} { ) ) ) ^ ^ ^ / Q Q ! ~ ~ ` &.9XM M H M M M M M m lXlXhXrX5XtXBXY.W.W.!.!.+X@X@X@X@X+XVXuXyXY.R.!.+X&X<X2X2X>X:X-X*X_.Z.m.p.t.w.>.&.&.` ~ Q Q ^ ^ ) { o.O.O.~.~.~.O.o.} [ ) ^ / Q ! ~ %.&.>.<.r.p.m.Z._.}.-X:X>X2X2X<X%X+XW.R.Y.uXuXqX0Xn xX!.@X@XXX!.!.!.W.T.",
"2X2X:X;X-X'.).Z.m.p.t.w.>.>.&.` ~ ~ Q Q / ^ ) [ } o.O.~.~.~.~.O.O.} { V.1X2X2X;X-X}.`.).V.V.m.m.M.M.B.Z.Z._.}.-X:X}.&.~ &.~ ! ! / / ^ ) ) { { o.o.~.O.~.~.~.~.~.o.o.{ [ ) ) ^ ^ ^ Q Q ~ ~ &.&.F K vXqXtXY.T.!.@X$X$X<X2X2X2X2X2X2X2X2X<X%X@X[.`.Z.m.m.t.w.<.>.&.%.~ ~ ! / / ^ ^ { } o.O.~.~.~.~.O.O.{ { ) ) ^ ^ / Q ~ %.&.&.>.<.r.p.m.V._.'.-X-X:X>X2X2X<X&X@XoXW.oXoX%X%X&X%X@X$X@XoXW.R.Y.yXtX0XlXJ Y Y C t 9 2 =.%.` ~ ! ! ! / ^ ^ ^ ) { { o.o.O.~.~.~.~.O.~.O.o.o.{ [ ) ) ^ ^ ^ / Q ! ~ ~ &.&.~ ~ Q Q Q / / / ^ Q Q Q ~ &.>.<.g.M._.=X;X2X2X&X@Xr.&.>.<.r.r.m.m.Z.`.}.-X:X>X2X2X2X&X@XoXW.R.Y.yXtXqX9XlXM K R E Y I Z i w 4 1 X .     X 1 3 w y Z D Y T R K M vXhXqXtXyXY.T.W.!.+X@X&X$X<X2X2X2X>X;X-X}.).V.m.p.w.<.*.&.` ! Q Q ^ ) { ] ` ` ` ( ! ! Q / ^ ^ ) ) { { } o.o.O.~.~.~.~.~.~.O.O.O.} } ) [ ) ^ ^ ^ ^ / / ! ! ~ &.&.8.K J J K J J H J H M n hXrXqXtXBXY.T.!.!.!.+X@X@X@X@X@XHXyXY.T.W.oX+X$X<X2X2X:X;X*X'.).V.m.t.w.<.>.&.~ ~ ! Q / ^ ) { } o.~.~.~.^.O.O.} [ ) ^ ^ / Q ~ ~ &.>.<.r.p.m.M.).}.-X;X>X2X2X2X$X+XoXR.T.BXuXpX0XlXnXJ GX@X@X!.@X!.W.W.",
"2X2X>X;X-X}.'.V.V.m.t.w.<.>.&.&.` Q ! Q / ^ ^ [ { } O.~.~.~.~.~.O.o.{ [ L.&X2X2X>X-X}.`.).Z.V.M.M.M.V.V.Z._.}.-X;X>X=X&.~ ~ ~ ! Q / ^ ^ ^ ) { } o.o.~.~.~.~.~.O.~.o.o.[ [ ) ^ ^ ^ / Q Q ~ ~ %.&.G H kXqXyXY.W.+X@X&X<X2X2X2X2X2X2X2X2X2X<X&X@X].).V.m.p.r.<.,.&.&.~ ~ Q / / ^ ) ) { } O.O.~.~.~.~.O.o.} [ ) ^ ^ Q Q ~ ~ ~ &.>.<.r.p.m.B.Z.`.}.-X:X>X2X2X<X<X@X+XW.R.oX+X%X+X$X$X@X@X@XoXW.T.Y.uXpX0Xm K Y Y S t q 7 =.` %.~ ! ! Q / ^ ^ ^ ) { { } o.O.~.~.~.~.~.~.^.O.} } { ) ) ^ ^ ^ / Q Q ~ ~ ` &.~ Q Q / / Q ^ Q ^ Q Q ~ ~ &.>.<.p.M._.=X;X2X2X<X@X5.&.>.<.r.p.m.Z._.`.-X:X>X2X2X<X<X&X+XW.R.Y.yXuXpX0XhXm H L E T Y D V r 8 2 O .     . o 3 0 r V D Y T E L H vXhXrX5XyXyXT.W.!.@X%XoX&X$X<X2X2X>X>X;X-X'._.V.m.p.w.<.&.&.` ! Q ^ ^ ) } ' &.` ` ` Q ! Q Q ^ ^ ^ ) ) { { o.O.O.~.~.~.~.~.~.~.O.O.} } [ [ ) ^ ^ ^ / / Q ! ~ ~ ~ &.7.b R L R L L K K J H M kXwXpXuXBXT.T.!.!.!.@X@X&X@X@XoX+XVXY.R.oX@X&X<X2X2X>X:X-X}._.V.m.p.r.<.>.&.&.~ ! Q / ^ ) ) { o.O.~.~.~.~.O.o.{ [ ^ ^ / Q ~ ~ %.&.>.<.r.p.M.).`.}.-X:X2X2X<X<X$XoXW.T.Y.uXpXqXhXn H L UX!.@X!.!.!.!.",
"2X2X2X:X;X*X'.).V.m.p.t.w.>.&.&.` ` Q Q Q / ^ ) [ } o.O.~.~.~.~.O.O.} [ [ V.1X2X2X>X;X}.`._.Z.Z.M.M.V.V.Z.).'.}.-X;X>X=X&.~ ` ~ ! ! Q ^ ^ ) ) { { o.O.O.~.~.~.~.O.~.o.o.[ [ ) ) ^ ^ ^ / Q ~ ~ &.&.c M hXtXyXT.W.+X&X$X<X2X2X2X2X2X2X2X2X2X2X&X@XE.Z.M.p.r.r.>.>.&.` ~ ~ ! / / ^ ) { } o.O.~.~.~.~.O.O.{ { ) ^ ^ ^ / Q ~ &.&.>.>.<.r.p.m.Z.).}.-X;X:X>X2X2X<X&X@X!.W.Y.W.+X%X@X%X$X@X@XoXoXW.R.BXuXpXhXM L Y Y S u e 0 -.%.%.! ~ ! ! / / ^ ^ ) { { } o.O.~.~.~.~.~.~.O.O.o.{ [ [ ) ^ ^ ^ ^ Q Q ~ ~ %.%.~ Q Q / ^ ^ ^ ^ ^ Q Q Q %.&.>.r.p.M._.=X;X>X2X<X%Xy.>.<.r.p.m.B.Z.}.}.-X:X>X2X2X<X&X@XoXW.T.Y.uXtXqXhXlXH K R W Y I C u q 4 < X .     o 1 7 w i S I Y T L P M lXrXqXtXyXBXT.W.+X+X&X+X&X$X<X<X2X2X>X;X-X_.).V.p.p.w.>.*.` ` ! Q ^ ) { } +.` ` ` ` Q ! Q Q Q ^ ^ ) ) { { } o.O.~.O.~.~.~.~.O.O.O.o.} [ [ ) ) ^ ^ ^ ^ / Q ! ~ ~ &.&.F T T Y E E R R L J M lXwXqXuXBXT.T.!.!.+X@X@X&X@X$X@X@XoXR.W.@X%X<X2X2X2X>X-X*X'.Z.V.p.t.w.<.&.&.` ~ Q Q / ^ ) { } o.~.~.~.^.O.o.{ [ ) ^ ^ / Q ~ %.&.>.<.r.r.m.V.`.}.-X;X>X2X2X<X$X@XoXW.Y.BXuXpX0XlXH P R W NX!.@X!.!.",
"2X2X2X>X;X-X}._.V.m.g.t.w.<.>.&.` ~ ~ Q / ^ ^ [ [ { o.O.~.~.~.~.~.O.o.[ ) ) L.<X2X2X;X-X=X_._.Z.Z.Z.V.V.Z.)._.'.-X;X>X2X}.&.` ~ ! ! Q / ^ ^ ^ ) { } o.O.O.~.~.~.~.~.O.O.} } ) ) ^ ^ ^ / Q Q ~ ~ ` 9.L n rXtXBXR.!.@X$X<X2X2X2X2X2X2X2X2X2X2X<X&X+XP.M.g.p.r.<.>.&.` ~ ~ Q / / ^ ) ) { o.O.~.^.~.^.~.O.o.{ ) ) ^ / / ! ~ ~ &.&.>.<.r.p.m.V.).'.*X-X:X2X2X2X<X&X+XoXW.R.Y.!.@X@X$X@X&X@X+XoXW.W.Y.BXtXqXhXH L E Y S V y r ;.&.%.~ ! ! ! / / ^ ^ ) { { } o.O.~.~.~.~.~.~.^.o.o.} { ) ) ^ ^ ^ / Q Q ~ ~ %.&.~ Q ^ ^ ^ ^ ^ ^ ^ ^ Q Q ~ &.>.w.p.V._.=X;X2X2X<X#XA.<.w.r.p.M.Z.).}.-X:X>X2X2X<X$X@X+XW.R.Y.yXuXqX9XxXm J L Y T Y S i e 7 2 X     . . < 3 0 y Z D Y T E P H lXhXqXtXiXG.T.W.!.@X$X<X@X@X&X<X2X2X>X>X;X=X'.).V.g.t.w.>.&.` ( ! Q ^ ) { o.+.&.` ` ` ~ ! Q Q ^ ^ ^ ) ) { { } o.o.~.~.~.~.~.~.~.~.O.o.} } [ ) ) ^ ^ ^ / / Q ! ~ ~ ` &.9.Y Y T T T T Y R K M n rXpXyXBXT.W.!.!.+X%X@X&X@X&X+X@X!.W.oX+X$X<X2X2X:X:X-X}.).V.m.p.r.>.>.&.` ~ Q Q / ^ ) { } O.O.^.~.~.~.O.o.{ ) ^ ^ / Q ~ ~ %.>.<.<.p.p.V.Z.`.}.;X>X2X2X<X&X+XoXW.Y.BXuXpXwXkXm H R Y T LXFXoX!.",
"<X2X2X>X:X-X}.'.).V.m.t.t.>.>.>.&.~ ~ ! Q / ^ ^ { { } o.~.O.~.~.~.O.o.} [ ) ^ Z.<X2X2X>X;X}.'._.).Z.Z.Z.Z.)._.'.}.-X:X>X2X[.&.` ` ! ! ! / / ^ ) ) { } o.O.~.~.~.~.~.O.O.O.} } [ ) ^ ^ ^ ^ Q Q ~ ~ &.9.J lXqXyXY.W.+X@X$X<X2X2X2X2X2X2X2X2X2X2X2X&XoXL.m.p.t.<.>.>.&.~ ~ ~ Q / / ^ ) { } o.~.~.~.~.^.O.o.{ [ ) ^ ^ ^ / ! ~ &.&.>.>.r.r.g.M.Z._.}.-X;X>X2X2X2X<X%X@XW.W.Y.yX!.+X@X&X@X@X@X@XoXR.R.Y.yXuXeXkXH R Y Y U C B y 6.%.%.~ ! ! ! / / ^ ^ ) { { } o.O.~.O.~.~.~.~.~.O.o.} [ ) ) ^ ^ ^ ^ Q Q ~ ~ ~ &.&.Q ^ ^ ) ^ ) ^ ^ ^ Q Q ~ &.<.<.p.V._.=X;X>X2X<X#XU.<.r.p.m.V._.}.}.;X>X>X2X2X<X&XoXoXR.Y.yXyXpXqXz m H L R T Y D C t 0 3 < X       o 2 8 e i D I T E L J n lXwXqXuXyXY.W.!.+X#X$X2X$X+X&X<X<X2X>X>X:X}.'.).M.g.r.w.*.&.` ( ! ^ ^ { } o.~.' ` ` ` ~ ! Q Q Q ^ ^ ^ ) ) { } o.o.O.~.~.~.~.~.O.~.O.O.} } [ [ ) ^ ^ ^ ^ / / ! ! ~ ` &.&.F Y I Y Y T T E L H lXwXpXyXBXT.W.!.!.@X+X&X%X%X%X@X$XoXoX@X#X<X<X2X2X:X;X*X_.Z.m.p.t.w.>.&.&.~ ~ Q Q ^ ^ ) { } O.~.~.~.^.O.o.{ [ ) ^ ^ / ! ~ %.&.>.<.r.p.m.Z.`.}.-X;X2X2X2X<X&XoXHXW.Y.uXuXqX0Xn H L E Y Y S sX!.",
"<X2X2X>X:X;X*X}.).V.m.p.r.r.>.&.&.` ~ ! Q Q ^ ^ ^ [ } o.O.~.~.~.~.~.o.o.[ [ ^ *.+X<X2X2X;X;X=X'._._.Z.).Z.).)._.}.*X;X:X2X2XB.&.` ~ ! ! / / ^ ^ ) ) { } o.O.O.~.~.~.~.~.O.O.} { [ ) ^ ^ ^ / Q ! ~ ~ %.9.H hXtXyXY.W.+X&X<X2X2X2X2X2X2X2X2X2X2X2X<X&X@XH.g.r.r.<.>.&.&.~ ! Q / ^ ^ ) { } o.O.^.~.~.^.^.O.} { [ ^ ^ / Q ! ~ ~ %.>.>.<.r.p.m.V.).'.-X;X:X>X2X2X<X&X@XoXW.T.Y.yXW.@X@X@X&X@X@XoXoXW.R.Y.uXtX0XlXH R E Y U D S V 8.%.%.~ ~ ! ! / ^ ^ ^ ) ) { } o.o.~.~.~.~.~.~.O.O.o.} } ) ) ^ ^ ^ / Q Q ~ ~ ~ &.` ^ ) ^ ) ^ ) ) ^ ^ Q ~ ~ &.>.r.p.V._.=X;X2X2X<X#XE.r.p.g.M.Z._.-X-X:X>X2X2X<X&X+XoXW.T.Y.yXtXqXrXlXM J R E T I Z i w 4 1 X .   . X 1 3 w u Z I T Y R P H lXhXqXtXyXY.T.W.oX@X<X<X2X<X+X#X<X<X2X>X>X;X-X_.).m.g.r.w.>.&.` ! Q ^ ^ { } O.~.] &.~ ` ~ ! ! Q Q Q ^ ^ ) ) { } } o.O.O.~.~.~.~.~.~.O.O.o.} { [ ) ) ^ ^ / / Q Q ! ~ ~ &.&.d S D D I I Y Y L H n rXpXyXBXW.W.!.+X@X%X%X&X%X$X@X#X@X@X%X&X2X2X2X:X-X*X'.).M.m.t.r.>.>.&.` ~ Q Q ^ ^ ^ { } o.~.^.~.^.^.O.} [ ) ^ / / Q ~ %.%.>.>.r.p.m.V.).'.-X:X>X2X2X<X&X+XoXW.Y.BXuXpX0XlXM J R W Y I V t ",
"<X<X2X2X>X:X-X}.'.V.V.g.t.w.w.>.&.&.~ ~ ! Q / ^ ) [ { o.O.~.~.~.~.O.O.o.{ [ ) ) &.#X<X2X2X:X;X=X}._._._.).).).'.'.*X-X:X>X2X2Xy.&.` ~ ! ! ! / / ^ ) ) { } o.O.~.O.~.~.~.O.O.o.} [ [ ) ^ ^ ^ ^ Q Q ! ` &.7.M 0XtXY.T.!.+X$X<X2X2X2X2X2X>X2X2X2X2X2X2X&X@XB.u.r.<.>.&.&.~ ~ ! Q / ^ ^ ) { } O.^.~.~.~.^.O.o.{ [ ) ^ ^ / Q ! ~ &.&.>.<.r.p.m.m.)._.}.-X:X>X2X2X2X&X@X@XW.R.Y.yXuXW.@X@X@X&X@X@XoXW.W.R.Y.uXpX0XcXJ L Y T Y U D S k &.%.~ ! ! ! / / ^ ^ ) ) { } o.o.~.O.~.~.~.~.O.O.o.} { [ ) ) ^ ^ ^ Q Q ! ~ ~ &.&.^ ) ) [ ) ) ) ^ ^ ^ Q %.&.>.r.p.V._.=X;X2X2X2X$XE.r.g.M.Z._._.-X:X>X2X2X2X<X%X@XW.W.Y.yXuXpX9XkXm J L E Y Y D B r 8 2 O .     . o 3 0 r V D Y T E K H vXhXrXtXtXBXY.W.!.+X@X<X2X2X2X#X#X<X<X2X2X>X;X-X'.Z.m.g.r.>.>.` ` ! Q ^ ^ { } O.~.+.&.` ~ ~ ~ ! Q Q ^ ^ ^ ) ) ) } } o.o.~.~.~.~.~.~.~.O.O.o.} { [ [ ) ^ ^ ^ ^ / Q ! ~ ~ ~ &.7.i B V S D Y T R H lXrXtXyXBXT.W.!.+X@X%X$X&X&X&X%X%X@X@X&X<X2X2X2X:X-X}._.Z.m.p.r.<.>.&.` ~ ~ Q Q ^ ) ) } o.O.~.^.~.^.O.o.[ [ ^ ^ / / ! ~ %.&.>.<.r.p.M.Z.`.}.-X>X>X2X2X<X@X+XW.R.Y.uXpXqXhXm H L E T I S y ",
"<X<X2X2X>X:X;X}.'.).V.m.p.r.<.<.&.&.` ~ Q Q / ^ ^ [ { } o.O.~.~.~.~.~.O.} [ ) ^ ^ &.+X<X2X2X>X;X=X}._._._._._._.'.}.-X-X>X2X2X<Xy.%.%.~ ! ! / / ^ ^ ) ) { } o.O.~.~.~.~.~.~.O.o.o.[ [ ) ^ ^ ^ Q Q ! ! ~ &.7.lXqXuXY.W.oX%X<X<X2X2X2X>X2X>X>X2X2X2X2X<X&X@XB.r.w.>.>.&.~ ~ ! Q / ^ ^ ) { } o.O.^.~.~.^.O.O.{ [ ) ^ ^ / Q ! ~ %.%.>.>.w.t.p.m.V._.'.-X:X>X2X2X<X<X&X+X!.W.T.BXyXpXW.@X@X@X@X+XoXoXW.W.Y.BXuXqX0Xn J R E W Y Y Y I x %.%.` ! ! ! Q / ^ ^ ) ) { } o.o.~.~.~.~.~.~.~.O.o.} } [ ) ^ ^ ^ ^ Q Q ~ ~ ~ &.` ^ _ [ { { ) ) ^ Q Q Q &.&.>.r.p.V._.}.:X>X2X<X&X+XA.g.M.Z.}.}.-X>X>X2X2X<X&X@XoXW.T.BXuXtXqX0Xn M K R W Y I Z y q 3 1 . .   . o 1 7 w i S I Y Y R J M lX9XqXtXyXY.T.W.oX&X$X<X2X2X>X#X+X<X<X2X2X>X;X}.'.).m.p.r.>.>.` ` Q / ^ ) } } O.@.@.' &.` ~ ~ ! Q Q Q ^ ^ ^ ) ) { } o.O.O.~.~.~.~.~.~.~.O.o.o.} [ ) ) ) ^ ^ / / Q Q ~ ~ ~ &.~ s r y i S I Y R H z qXtXyXY.W.W.!.+X$X@X&X<X$X&X&X&X%X@X@X<X2X2X:X;X}.'.Z.M.m.r.w.<.&.&.` ~ Q / ^ ^ ) { } O.~.~.~.~.O.o.} [ ) ^ / Q Q ~ %.&.>.<.r.p.m.V._.}.-X;X>X2X2X<X$X+XHXW.Y.yXuXpXhXlXM K E W Y S V ",
"%X<X2X2X2X>X;X-X'._.V.m.g.t.w.>.>.&.` ~ ~ Q Q / ^ ) [ { o.O.~.~.~.~.O.O.o.[ [ ) ^ ^ &.+X$X2X>X>X;X=X}.'._._._.'.'.}.*X-X;X>X2X2X<X5.%.~ ~ ~ ! / / / ^ ) ) } } o.O.~.~.~.~.O.~.O.o.} { ) ) ^ ^ ^ ^ Q ! ! ~ &.:.hXqXyXT.W.+X$X<X2X2X2X2X>X2X>X>X2X2X2X2X2X&XQ.p.r.<.>.&.&.~ ~ ! Q / ^ ) ) } o.O.^.~.~.~.^.O.o.[ [ ^ ^ ^ / Q ~ ~ &.&.>.<.r.p.m.V.).'.}.-X:X>X2X2X<X&X@XoXW.R.Y.yXuXqXCX@X@X@X@X@XoXoXW.R.Y.yXuXqXhXm H L U W T T T Y c %.%.~ ! ! ! Q / ^ ^ ) ) { } o.o.O.~.~.~.~.~.O.O.O.} } ) ) ^ ) ^ ^ / Q ! ~ ~ &.&.^ { { { { { ) ) ^ Q Q &.&.<.r.g.V._.}.;X2X2X2X<X+XB.M.Z._.}.-X;X>X>X2X2X&X@X@XW.R.Y.yXuXqX0XlXnXJ U E T I S i r 7 1 o .     . 1 3 0 y C I Y T R K H vX0XqXtXyXBXT.W.!.+X&X<X<X2X>X>X+X+X$X<X2X2X>X:X*X_.).m.p.w.>.>.` ` Q Q ^ ) } } o.O.O.| &.~ ` ! Q ! Q Q ^ ^ ^ ) ) { } } O.O.~.~.~.~.~.~.~.O.O.o.} [ [ ) ) ^ ^ ^ ^ Q Q ! ~ ~ &.&.: 8 0 t V I Y R H kXwXtXyXY.W.!.!.@X$X&X&X$X<X<X&X&X%X%X@X<X2X>X;X-X'.).V.m.p.r.>.>.&.~ ~ ! Q / ^ ) ) } o.O.~.~.~.^.O.} [ ) ) ^ / Q ~ ~ %.>.>.<.t.p.V.Z.`.=X;X:X2X2X<X<X@XoXW.R.BXuXpXqXhXM J L Y T I C ",
"#X<X<X2X2X>X:X-X}._.).V.m.p.r.<.>.&.&.` ~ Q Q ^ ^ ^ [ { } O.O.~.~.~.~.O.o.} [ ) ^ ^ Q >.%X<X2X>X>X;X-X}.}.'.'.'.'.'.}.-X;X>X>X2X<X%Xy.%.` ! ! ! Q ^ ^ ^ ) ) { } o.O.~.~.~.~.~.~.O.O.{ } ) ) ^ ^ ^ Q Q ! ~ ~ &.:.0XuXyXR.oX@X<X<X2X2X2X>X>X>X>X>X>X2X2X2X<X&XE.r.w.>.&.&.&.~ ! Q / ^ ^ ) { } O.^.~.~.~.^.O.o.} [ ) ^ / / Q ~ ~ &.&.>.>.r.r.m.m.).).}.-X:X>X2X2X2X$X&X+XW.R.Y.yXuXtX8XaXoX@X@X@XoXoX!.W.R.Y.yXtXqXhXm H L L R E E Y T F &.%.` ~ ! ! Q / ^ ^ ) ) { { o.O.O.~.~.~.~.~.~.O.O.} { { [ ^ ^ ^ ^ / Q ! ~ ~ ~ &._ } { } } { ) ^ Q Q ~ &.&.<.r.g.V._.=X;X>X2X<X<X+XC.V.).}.-X;X>X2X2X<X<X&X+XW.W.T.yXuXpXqXhXn H K R T Y D C t 0 2 < .     . o 1 7 e V S Y T Y L J vXlXwXpXuXyXY.W.W.+X&X<X2X2X2X:X;X X@X$X<X2X>X>X;X-X'.Z.m.p.r.>.*.` ` Q ^ ^ ) { o.o.o.o.| &.` ` ~ ! ! Q Q / ^ ^ ) ) { { } o.O.O.~.~.~.~.~.~.O.O.o.o.[ [ [ ) ^ ^ ^ ^ Q Q Q ~ ~ ~ &.=.* 4 w i D Y R H kXqXtXBXY.W.W.+X@X&X&X<X<X<X<X<X<X&X%X@X1X2X>X-X}.`.Z.M.p.r.w.>.&.&.~ ~ Q / ^ ^ ) { } O.~.~.~.~.O.o.} [ ^ ^ / Q ! ~ %.&.>.<.r.p.m.Z._.}.-X:X>X2X2X<X%X+XW.R.Y.yXuXqXhXlXH K E T Y S ",
"@X$X<X2X2X2X:X;X-X'.).V.m.p.t.w.>.>.&.` ~ ! ! Q / ^ [ [ } o.O.~.~.~.~.O.O.} { ) ) ^ ^ Q *.%X<X>X>X>X;X-X}.}.'.'.'.}.}.-X-X;X>X>X2X<X@Xy.` ` ` ! ! Q Q ^ ^ ) { { } o.O.~.~.~.~.O.~.O.o.{ { [ ) ^ ^ ^ ^ Q ! ! ~ &.:.rXuXY.R.+X%X<X<X2X2X2X>X>X>X>X>X>X2X2X2X2X&XE.r.,.>.&.` ~ ~ ! / / ^ ) ) } o.O.~.~.~.~.O.O.{ { ) ) ^ ^ / Q ~ ~ &.>.>.<.r.p.m.V._.}.}.;X:X>X2X2X<X&X@XoXW.R.Y.uXuXqX0XdXoX+X@X@XoXoXW.W.R.Y.uXtXqXhXm M K L R U E E T G &.%.` ~ ! ! Q / ^ ^ ) ) { { o.O.O.~.~.~.~.~.O.O.O.o.{ { ) ) ^ ^ ^ ^ Q Q ~ ~ &.&._ o.o.} } { ) ) ^ Q ~ &.&.<.r.m.V._.}.:X>X2X<X<X#X!.Z._.}.-X:X>X2X2X<X&X@XoXW.R.Y.yXuXqX0XlXM K R E T I Z i w 7 < X .     X 1 7 w y Z I Y T R K M lXhXqXtXyXBXT.W.!.+X$X<X2X2X2X:X-X}.@X$X<X<X2X>X:X*X'.).m.p.w.>.*.` ` ! ^ ^ { { } o.} } { &.&.` ` ! ! Q Q / ^ ^ ^ ) { { } o.O.O.~.~.~.~.~.~.O.O.O.o.[ { ) ) ) ^ ^ ^ ^ Q Q ! ~ ~ &.&.# 1 8 y D Y L M hXqXtXBXT.W.!.+X@X&X$X<X<X<X<X<X<X<X%X@X%X,X-X-X`.).B.m.p.w.>.>.&.` ~ ! Q / ^ ) { } o.O.~.~.~.O.O.} [ ) ^ ^ / Q ~ %.&.>.>.r.p.g.V._.}.=X;X>X2X2X2X$X@XoXW.Y.yXuXpX0XlXM J R T Y I ",
"@X&X<X2X2X2X>X;X-X}._.Z.m.g.t.r.>.>.&.&.~ ~ Q Q ^ ^ ^ [ { o.O.~.~.~.~.~.O.o.[ ) ) ^ ^ Q Q a.$X<X2X>X>X;X-X*X}.}.'.'.*X}.-X;X>X2X2X2X&X!.3.&.` ~ ! Q Q ^ ^ ^ ) ) } } O.O.~.~.~.~.~.^.O.o.} [ [ ) ^ ^ ^ Q Q ! ~ ~ &.;.iXyXR.W.+X<X<X2X2X2X>X>X>X:X>X>X>X>X2X2X<X&XE.<.>.&.&.~ ~ ! / / ^ ) ) { } O.O.~.~.^.^.O.o.} [ ) ^ / Q Q ! ~ &.&.>.<.r.p.m.V.Z._.}.-X:X>X2X2X<X&X%X+XW.T.Y.yXuXpX0XhXzXoX@XoX@XoXoXW.W.Y.Y.uXpXqXhXm M H J K L R R E b &.%.~ ~ ! ! Q Q ^ ^ ^ ) { { } O.O.~.~.~.~.~.~.O.O.o.{ { ) ) ^ ^ ^ / Q ! ~ ~ ~ &.| } o.o.} { ) ^ Q Q ~ &.>.<.r.m.V.`.}.;X>X2X2X<X@X{.).}.-X;X>X2X2X2X$X&X+XW.R.Y.yXuXpX0XhXm J L E Y Y D V r 7 3 o .     X o 2 0 r V D Y T E K H n hXrXtXuXBXT.W.!.@X&X<X2X2X>X:X;X*X_.XX#X<X<X2X>X:X-X_.).m.p.w.,.&.%.! Q ^ ^ ) { { } } { { ` &.` ~ ~ ! ! Q Q ^ ^ ^ ) ) { } } O.O.~.~.~.~.~.~.~.O.O.o.{ } [ ) ) ^ ^ ^ / Q Q ! ~ ~ ~ &.#.< 4 t D Y R M hXqXyXyXT.W.oX@X+X&X<X<X2X<X<X<X<X<X<X%X@X#X-X}._.Z.m.p.r.<.>.&.~ ~ ! Q / ^ ) ) } o.O.~.~.~.~.O.} } { ^ ^ / Q ~ ~ ~ >.>.<.r.g.M.Z.`.}.;X>X>X2X<X<X$XoXW.R.Y.yXpXqXhXm H L E T I ",
"oX@X<X<X2X2X>X:X;X}.'.).V.m.p.r.w.>.&.&.` ~ ! Q Q / ^ ) { } o.~.O.~.~.~.O.O.} [ ) ) ^ ^ Q Q D.$X<X>X>X>X;X-X-X}.*X}.}.*X*X;X;X>X>X2X<X%X!.3.` ` ` ! Q Q / ^ ^ ) ) { } O.O.~.~.~.~.~.O.~.o.{ [ [ ) ^ ^ ^ / Q ! ! ` &.;.tXBXR.!.+X$X2X2X2X>X>X:X>X;X>X>X>X>X2X2X2X&XE.>.>.&.~ ~ ! ! / / ^ ) { } o.^.~.~.~.^.O.O.{ [ ) ^ ^ / / ! ~ ~ &.>.>.<.r.p.m.Z._.}.-X;X:X>X2X2X<X@X@XoXW.Y.BXuXtXqX0XlXxX@X+XoXoXoX!.W.W.Y.Y.uXpXqXhXlXm M H J K K L U R 8.&.~ ~ ~ ! Q Q ^ ^ ) ) { { } O.O.~.~.~.~.~.~.O.O.o.} [ ) ) ^ ^ ^ ^ Q Q ~ ~ %.&.] +.o.o.} { ) ^ ^ Q ~ &.>.<.r.m.V._.-X-X>X2X2X<X$X!._.-X-X>X>X2X2X<X&X@XoXW.T.BXuXpXqXhXlXH K R T Y I C y q 3 1 X       o 1 7 w i S I Y T R J M kX9XqXtXyXY.T.W.+X+X&X<X2X2X>X:X-X}._.E.+X<X<X2X2X:X-X'.Z.m.p.w.>.&.%.! ! ^ ^ ) { { { { { ) ^ &.` ~ ~ ~ ! Q Q / ^ ^ ) ) { { } o.O.O.~.~.~.~.~.~.O.O.O.} { [ [ ) ^ ^ ^ ^ Q Q Q ~ ~ ~ &.#.# 4 t D Y L M hXpXyXBXT.W.+X@X&X$X<X<X2X<X2X2X<X<X<X&X@X%X|.'.Z.B.p.p.<.>.>.&.~ ~ ! / / ^ ) { } O.~.~.~.~.~.o.[ [ ) ^ ^ / Q ~ %.&.>.<.r.r.m.V._.}.=X;X>X2X2X<X$X@XoXR.Y.yXuXpX0XlXM K R T Y ",
"oX+X$X<X2X2X2X:X-X-X}.).V.m.p.t.w.>.>.&.` ~ ! Q / ^ ^ [ [ { o.O.~.~.~.~.~.O.o.[ ) ) ^ ^ Q Q ~ D.<X<X2X>X>X:X-X-X*X}.*X}.-X-X;X>X2X2X2X<X@XW.3.%.` ~ ! ! / / ^ ^ ) { { } O.O.~.~.~.~.~.O.O.o.} [ ) ) ^ ^ ^ Q Q ! ~ ~ &.1.tXY.W.oX&X<X2X2X2X>X>X;X>X;X:X>X>X>X2X2X<X&XE.>.&.&.~ ~ ! / / ^ ) { { o.O.O.~.~.~.^.O.} } ) ) ^ / / ! ~ %.%.&.>.<.r.p.m.V.).'.*X-X:X2X2X2X<X&X$XoXW.R.Y.yXuXpX0XlXm bX!.@X@XoX!.!.W.R.Y.yXuXpX8X0XlXlXm M M H J J K L 7.&.~ ~ ~ Q Q Q ^ ^ ^ ) { { } o.O.O.~.~.~.~.~.O.O.o.} { ) ) ^ ^ ^ / Q Q ~ ~ ~ &.] @.@.o.} { ^ ^ Q ~ ~ &.>.<.p.m.Z._.=X;X>X>X2X<X$X+X{.-X;X2X2X2X<X&X+XoXW.T.Y.uXuXqXrXlXM J L T T I S i r 7 1 X .   . . < 3 w y C D Y T R K H vXhXqXtXyXyXT.W.!.@X$X<X2X2X>X:X-X}._.Z.Z.@X<X<X2X2X;X-X}.).m.p.r.>.&.` ! Q ^ ^ ) { ) { ) ^ ) ^ &.&.` ~ ~ ! Q Q ^ ^ ^ ^ ) { { } o.O.O.~.~.~.~.~.~.~.O.O.o.} [ [ ) ) ^ ^ ^ / Q Q ! ~ ~ &.&.+ 3 r D T K nXhXqXyXY.W.W.@X+X$X<X<X<X2X2X<X2X<X2X<X<X%X@X[.`.V.m.p.r.<.>.&.~ ~ ! / / ^ ) ) { O.O.~.~.~.O.O.o.[ ) ^ ^ / Q ~ ~ %.>.>.<.p.p.M.).`.=X;X>X2X2X<X&X+XoXW.T.Y.uXpXqXkXM J L E T ",
"!.oX$X$X<X2X2X2X:X-X}.'.).V.g.t.r.<.>.&.&.` ~ ! Q / ^ ^ { { } O.~.O.~.~.O.O.o.} [ ) ) ^ ^ Q ! ~ D.<X<X>X2X>X:X-X-X-X}.*X-X=X;X;X>X2X2X2X%X@XF.&.` ` ~ ! ! / / ^ ^ ) { { } O.O.~.~.~.~.~.O.O.o.} [ [ ) ^ ^ ^ Q Q ! ~ ~ &.1.yXR.W.+X&X<X2X2X2X:X:X:X;X;X;X>X:X>X2X2X2X<XU.&.&.` ~ ~ Q / / ^ ) { } O.^.~.~.~.^.O.o.{ [ ) ^ ^ / Q ! ~ &.&.>.<.w.r.m.m.Z._.}.-X-X>X2X2X2X<X@X@XW.W.Y.yXuXtXqXhXn H nX!.+XoXoX!.!.W.R.Y.BXuXpXqX0X0XlXlXcXm M M H H J 8.%.~ ~ ~ Q Q Q Q ^ ^ ) { { } o.O.~.~.~.~.~.~.O.O.o.} { ) ) ) ^ ^ ^ Q Q ! ~ ~ &.] @.@.o.} { ^ ^ Q ~ ~ >.>.<.p.m.Z.`.-X-X>X>X2X<X$X+X X;X;X2X2X2X<X&X@X!.W.Y.BXuXpX8XkXm H L R W Y D V t 0 3 O X     . o 1 7 e V S Y T E L H M hXrXqXtXBXY.W.!.+X&X$X<X2X2X>X;X*X'.).V.Z.Q.&X<X2X2X:X-X}.Z.m.p.w.>.&.` ! ! / ^ ) ) ) ) ) ^ ^ ^ ` &.~ ~ ~ ! ! Q Q ^ ^ ^ ) ) { { o.o.O.~.~.~.~.~.~.O.O.O.o.} [ [ ) ) ^ ^ ^ ^ / Q ! ~ ~ ~ &.$.2 y D W K n rXpXyXY.W.!.@X@X$X<X2X2X<X2X2X2X2X2X2X<X&X@XXXZ.m.p.r.w.>.&.&.~ ! ! / / ^ { { } O.~.~.~.~.O.o.} ) ^ ^ ^ Q ! ~ %.&.>.<.r.p.m.V._.}.-X:X>X2X2X<X&X@XW.R.Y.yXuXqX0XlXH L R W ",
"W.+X@X<X<X2X2X>X:X;X*X'.).V.m.p.r.w.>.>.&.` ~ ! Q / ^ ) ^ { } o.O.~.~.~.~.~.o.o.[ ) ^ ^ Q Q Q ~ %.J.$X<X2X>X>X:X;X-X-X-X-X-X;X;X>X>X2X2X<X@X!.S.&.%.~ ! ! ! / ^ ^ ^ ) { } } O.~.O.~.~.~.~.~.O.o.} [ ) ) ^ ^ ^ / Q ! ~ ~ &.1.yXR.oX+X<X2X2X>X>X>X;X;X;X;X;X:X:X>X>X2X<X&XE.&.` ~ ! Q / / ^ ) ) } o.O.^.~.~.^.^.O.} } ) ^ ^ / Q ! ~ ~ %.>.>.<.r.p.m.V.).'.-X:X:X>X2X2X<X&X+XoXW.T.Y.yXtXqX0XlXM J LX!.+XoXoX!.W.W.T.Y.uXuXtXqX0X0X0XlXlXlXcXm M m M :.&.~ ~ ~ ! Q / / ^ ^ ) { { } o.O.O.~.~.~.~.~.~.O.o.} } ) ) ^ ^ ^ ^ Q Q ~ ~ ~ &.' +.@.o.} ) ^ ^ Q ~ ` &.<.w.p.m.Z._.=X;X>X2X2X<X$X@X;X:X2X2X2X<X$X+XoXW.T.Y.yXtXqXrXlXM J R Y T I Z i w 7 1 . .   . . 1 7 0 i Z I Y Y R K M lXhXqXtXyXBXT.W.oX@X$X<X2X2X>X:X-X}._.Z.m.p.E.#X<X2X2X>X-X}.).M.p.w.>.&.` ! ! ^ ^ ^ ) ^ ) ^ ^ ^ Q ` &.` ~ ~ ! ! Q / / ^ ^ ) ) { } } o.o.~.~.~.~.~.~.~.~.O.o.o.{ [ ) ) ) ^ ^ ^ Q Q Q ! ~ ~ &.&.* y D E P vX0XtXyXY.W.!.@X&X<X<X<X2X2X2X2X2X2X2X2X2X<X&X+XL.g.p.r.>.>.&.~ ~ ! / ^ ^ ^ { } o.~.~.~.~.~.O.} { ) ^ / / ! ~ ~ &.>.<.w.p.m.V.).}.-X;X>X2X2X<X&X+XoXW.T.yXuXtX9XlXM J R Y ",
"W.!.+X@X<X2X2X2X>X;X-X}._.Z.m.m.t.r.<.>.&.&.~ ~ Q Q / ^ ) [ { o.O.~.~.~.~.O.O.o.[ [ ) ) ^ Q Q ! ~ %.E.$X<X2X2X>X:X;X;X-X-X-X;X;X;X>X>X2X2X<X@XW.v.&.%.~ ~ ! ! Q / ^ ^ ) { { } o.~.~.~.~.~.~.O.o.o.} [ ) ) ^ ^ ^ / Q ! ~ ~ &.1.Y.W.+X$X<X2X2X2X:X;X;X;X-X-X;X:X:X>X>X2X2X&XE.&.~ ~ ! / / / ) ) { } O.~.~.~.~.O.O.o.[ [ ) ^ ^ / Q ~ ~ %.&.>.<.r.p.m.M.)._.}.-X:X:X2X2X<X<X@X@XW.R.Y.yXuXpX8XkXm H L PX!.@XoXoX!.W.W.T.Y.yXuXtXpX8XeX0X0XhXkXlXlXcXcXcX2.&.~ ~ ~ Q ! Q Q ^ ^ ) ) { } o.o.~.O.~.~.~.~.O.O.O.} } ) ) ) ^ ^ ^ / Q ! ~ ~ &.&.+.@.o.} ) ^ ^ Q ~ &.&.>.r.p.m.Z.'.-X;X>X>X2X<X<X@X#X;X2X2X<X<X#XoXW.W.Y.yXuXpX9XkXm J L E T Y D B r 7 3 O .     . o 3 0 r V D Y T E K H n hXqXtXtXBXY.W.!.+X&X<X2X2X>X>X;X}.'.).V.g.t.H.@X<X<X2X>X;X}._.V.p.w.>.*.` ! ! / ^ ^ ^ ^ ^ ^ ^ / / ! &.&.~ ~ ~ Q ! Q ^ ^ ^ ) ) ) { } o.o.O.~.~.~.~.~.~.O.O.O.o.} [ [ ) ) ^ ^ ^ ^ Q Q ! ~ ~ %.&.-.u D E K lX0XtXyXT.W.+X@X&X<X<X2X2X2X2X2X2X2X2X2X2X<X&X@XQ.p.t.<.>.&.&.~ ! ! / / ) ) { o.O.~.~.~.O.O.o.{ { ^ ^ / / ! ~ &.&.>.<.r.p.m.Z._.}.-X:X>X2X2X<X@X@XW.R.Y.yXpXqX0Xn H L E ",
"T.!.oX&X$X<X2X2X>X:X-X*X_.).V.m.p.r.<.>.&.&.~ ~ ! Q / ^ ^ [ { } O.O.~.~.~.~.~.o.} [ ) ^ ^ Q Q ! ~ ( %.E.$X2X2X2X>X:X;X;X-X-X-X;X>X>X2X2X2X<X%X!.W.v.%.%.` ! ! Q Q ^ ^ ^ ) { { o.o.O.~.~.~.~.~.~.O.o.} [ ) ) ^ ^ ^ Q Q ! ~ ~ &.1.R.HX+X&X2X2X>X>X:X;X-X-X-X-X-X;X:X>X2X2X2X&XU.` ~ ! ! / ^ ^ ) { } o.O.~.~.~.~.~.o.} { ) ^ ^ / Q ! ~ %.&.>.<.w.t.p.m.V._.'.-X:X>X2X2X2X&X$X@XoXW.T.BXyXpXqXhXlXH J R T GXoXXX!.!.W.W.Y.Y.yXuXtXpXpXpXeXeX0X0X0XhXhXlXkXj.&.%.~ ~ ! Q Q ^ ^ ^ ) ) { } o.o.~.~.~.~.~.~.~.O.o.} } [ ) ) ^ ^ ^ Q Q ! ~ ~ &.&.+.@.} { ^ ^ Q ! ~ ` >.<.r.p.M.Z.].}.;X>X2X2X<X<X@X#X2X2X2X<X$X@XoXW.T.BXyXtXqXhXlXH K R W Y I C y w 3 1 . .   . o 1 7 w i Z Y Y Y R J M lX0XqXtXyXY.T.W.oX&X$X<X2X2X>X;X-X}._.V.m.p.r.p.+X<X2X2X>X;X}.).V.p.r.>.&.` ! / / / ^ / ^ / / / Q Q ` ` &.` ~ ~ ! ! Q Q ^ ^ ^ ) ) { } } O.O.O.~.~.~.~.~.~.O.O.o.o.[ [ ) ) ^ ^ ^ ^ Q Q Q ~ ~ ~ &.@ j I E K lXqXtXBXR.W.oX+X$X<X2X2X2X2X2X2X2X2X2X2X2X2X<X&X@Xn.<.<.&.&.` ~ Q / ^ ^ ) { } o.~.~.~.~.~.o.} ) ) ^ / Q ! ~ ~ &.>.<.w.p.m.V.).}.-X:X>X2X2X<X&X+X!.W.Y.yXuXpX0XlXM K R ",
"T.W.!.+X&X<X2X2X2X:X;X-X}._.Z.m.p.r.w.>.>.&.&.! ! ! Q / ^ ^ { { o.O.~.~.~.~.O.O.o.[ [ ) ^ ^ Q Q ! #.%.%.oX$X<X2X2X>X>X:X;X;X-X;X;X>X>X>X2X2X<X%XW.T.v.%.` ` ! ! Q Q ^ ^ ^ ) { { o.o.~.~.~.~.~.~.O.o.o.} [ ) ) ^ ^ ^ Q Q ! ~ ~ &.1.W.oX%X$X2X2X>X>X;X-X-X-X*X-X-X;X:X:X>X2X2X&XU.` ! ! Q / ^ ) ) } o.O.~.~.~.~.O.O.o.[ ) ) ^ ^ / Q ~ ~ &.&.>.<.r.p.m.V.).'.}.-X:X>X2X2X2X&X@XoXW.R.Y.yXuXqXrXlXm J L E T GX!.@X!.!.W.W.Y.Y.yXyXuXpXpXpXpX8XrXeXeXeXeXhXeX5X&.~ %.~ ! Q Q Q ^ ^ ) ) { } o.o.O.~.~.~.~.O.~.O.O.} } ) ) ) ^ ^ ^ ^ Q Q ~ ~ &.&.+.@.} { ^ ^ Q ! ` &.>.<.r.g.M.Z.}.=X;X>X>X2X2X<X%X@X2X2X2X<X+XoXHXR.Y.yXuXqX0XlXm J L T T I S B w 7 1 O .     . 1 3 q y Z D Y T R K H lXhXqXtXyXBXT.W.!.+X&X<X<X2X>X>X-X}._.).V.g.t.w.>.E.#X<X2X2X;X=X_.V.p.r.>.*.` ` ! / / / / / / / Q ! ! ~ &.&.~ ` ~ ! ! Q Q ^ ^ ^ ) ) { { } o.o.~.~.~.~.~.~.~.O.O.O.o.{ { [ ) ) ^ ^ ^ ^ Q Q ! ~ ~ &.&.d I E J lXqXtXBXT.!.@X&X$X<X2X2X2X2X2X2X2X>X2X2X2X2X<X<X@XE.<.>.&.~ ~ ! ! / ^ ) { { o.O.~.~.~.~.O.} { ) ) ^ / Q ! ~ &.&.>.w.r.m.M.Z._.=X-X>X2X2X2X&X@XoXW.R.Y.uXpXqXhXm J L ",
"T.W.!.+X&X<X<X2X2X>X:X-X}._.Z.M.g.p.r.<.>.&.` ` ~ ! Q / ^ ) ) { } O.~.~.~.~.~.O.o.} ) ) ^ ^ Q Q ! ~ ~ &.u.+X$X2X2X2X>X:X:X;X;X:X-X>X>X2X2X2X2X%X@XW.Y.v.&.` ` ~ ! Q Q ^ ^ ^ ) { { o.O.O.~.~.~.~.~.~.o.o.} [ [ ^ ^ ^ ^ Q Q ~ ~ ~ &.1.W.+X<X<X2X2X:X:X;X-X*X-X}.-X-X-X:X>X>X2X2X<XK.<.! / / ^ ^ ) { } O.O.~.~.~.~.O.o.} { ) ^ / / Q ~ ~ %.&.>.>.r.r.m.m.Z._.}.-X:X>X2X2X<X&X&X+XW.R.Y.yXuXtX9XrXn H K R W Y GX@X!.!.W.W.R.Y.Y.yXuXuXuXuXpXpXpXqXpX8XrX8XeXeX4X&.~ ~ ~ ! Q Q / ^ ^ ) ) { { o.o.O.~.~.~.~.~.~.O.O.} } { ) ) ^ ^ ^ / Q Q ~ ~ ~ &.] o.} ) ^ Q Q ~ ~ &.>.<.t.g.M._._.=X;X>X2X2X<X&X&X@X<X<X$X&X+XW.W.T.yXtXtXqXhXn H L R T Y D V y 0 3 O X     . o 2 7 r i S Y T E L J nXlX9XtXtXyXY.W.W.+X&X<X2X2X2X:X:X*X}.).V.m.p.r.<.>.K.$X<X2X2X;X-X`.V.g.r.>.*.` ( ! ! Q / Q Q ! Q Q ! ~ ~ ` &.` ` ` ! ! Q Q / ^ ^ ^ ) ) { } o.O.O.O.~.~.~.~.~.~.O.O.o.{ { [ ) ) ^ ^ ^ / / Q ! ~ ~ ` &.7.F E H lXqXyXBXR.!.+X&X<X2X2X2X2X>X2X>X2X>X>X2X2X2X2X<X$X@Xu.&.&.` ~ Q / ^ ^ ) { o.O.~.~.~.O.~.o.} ) ^ ^ / Q ! ~ &.&.>.<.r.p.m.V._.}.-X>X>X2X2X<X&X+XW.T.Y.uXuXpXhXlXH K ",
"Y.T.W.oX+X&X<X2X2X2X:X;X*X'.).V.m.p.r.w.>.>.&.` ~ ! Q Q ^ ^ ) [ } o.O.~.~.~.~.O.O.} { ) ) ^ ^ Q Q ~ ~ &.&.u.oX$X<X2X2X>X>X:X:X;X:X-X>X>X2X2X2X<X%X!.HXyXk.&.` ` ! ! Q Q ^ ^ ) ) { { } O.O.~.~.~.~.~.^.O.o.[ [ [ ) ^ ^ ^ Q Q ! ~ ~ &.1.W.@X$X2X2X2X:X;X-X-X}.}.}.}.-X-X;X:X>X2X2X<X@X<.! / / ^ ) ) } o.O.~.~.~.~.O.O.} [ ) ^ ^ ^ / Q ~ ~ &.>.>.<.r.p.m.V._.'.-X-X:X2X2X2X<X&X@XoXW.R.Y.uXtXqX0XlXM J R Y T Y FX@X!.!.!.R.R.Y.Y.BXuXyXuXuXtXtXtXpXpXpXpXpXpX8Xx.&.&.~ ~ ! ! Q / ^ ^ ^ ) { { o.o.O.~.~.~.~.~.~.O.O.o.{ { ) ) ^ ^ ^ ^ / Q ~ ~ ~ &.] } { ) ^ Q Q ~ &.&.>.<.t.g.B._.}.=X;X>X>X2X2X<X%X@X<X<X$X@XoXW.R.Y.yXtXqX0XlXM K R E T I Z i w 7 < X .   . . 1 4 q u Z I Y T R J M lXhXqXtXyXBXT.W.!.+X$X<X2X2X>X:X-X}._.V.m.p.t.w.>.>.5.+X<X2X2X:X-X'.V.m.r.>.>.` ` ! ! ! Q Q Q ! ! ! ~ ~ &.&.&.` ` ` ! ! ! Q Q / ^ ^ ) ) { { o.o.O.~.~.~.~.~.~.~.O.O.O.{ } [ [ ) ^ ^ ^ ^ / / Q ! ~ ~ &.&.F U H hXqXyXBXW.!.@X$X<X2X2X2X2X>X>X>X>X>X>X>X>X2X2X<X<X#XK.&.` ~ ! ! / ^ ^ { } o.~.~.~.~.O.O.} { ) ^ ^ Q ! ~ ~ &.>.>.r.t.m.V.).'.-X-X>X2X2X<X<X+XoXW.T.BXuXpX8XkXm J ",
"BXT.W.!.+X#X<X2X2X2X:X;X-X}.).Z.M.g.t.r.>.>.&.&.~ ! Q / / ^ ) [ { o.O.O.~.~.~.~.O.o.[ ) ) ^ ^ Q ! ! ~ &.&.>.u.%X$X<X2X2X2X:X>X:X:X>X>X>X2X2X2X2X&X@XW.Y.yXc.&.` ` ~ ! Q Q ^ ^ ^ ) { } o.O.O.~.~.~.~.~.O.O.o.} [ ) ) ^ ^ ^ Q Q ~ ~ ~ &.5.oX&X<X2X2X>X:X-X-X}.}.}.}.}.}.-X;X:X2X2X<X<X@X,./ / ^ ) ) { } O.~.~.~.~.~.O.o.} ) ) ^ / Q Q ~ ~ %.&.>.<.r.p.m.V.Z.`.}.-X:X>X2X2X<X&X@X+XW.R.Y.yXuXtX9XhXm H L R T Y D SXoXoXW.oXW.W.G.Y.BXyXyXuXuXuXuXuXuXtXuXtXpXuXpXx.&.` ` ~ ! ! Q Q ^ ^ ) ) { { } O.O.~.~.~.~.~.~.~.O.o.} { ) ) ^ ^ ^ / Q Q ~ ~ ~ &.' } { ) ^ Q ! ~ ~ >.>.r.t.m.V.).'.-X;X>X2X2X2X<X&X@X&X<X%X+XW.W.Y.yXuXqXwXlXm H L E Y Y D V r 7 3 O .     . o 3 0 r V D Y T E L J n hXwXtXyXyXT.W.!.+X$X<X2X2X>X>X-X}.'.).V.m.t.r.>.>.&.<.U.$X2X2X:X-X}.V.m.t.>.>.` ` ` ! ! ! ! ! ~ ! ~ ` ~ &.&.&.&.` ` ~ ! ! Q Q ^ ^ ^ ^ ) { { } o.O.O.~.~.~.~.~.~.~.O.o.o.} [ [ ) ) ^ ^ ^ / Q Q ! ~ ~ ~ &.9.R H hXpXyXY.W.+X+X<X<X2X2X2X2X>X>X:X:X>X>X>X>X2X2X2X<X$XE.<.~ ! / / / ) ) { o.O.O.~.~.~.O.o.} ) ^ ^ Q Q ! ~ &.&.>.<.r.p.m.Z._.}.-X:X2X2X2X$X$XoX!.T.Y.yXpXqX0XvXH ",
"BXY.W.!.oX$X$X<X2X2X2X:X-X*X'.).M.g.p.r.w.>.&.&.` ` ! Q / ^ ^ { { } o.~.~.~.~.O.O.O.} [ ) ) ^ ^ Q Q ~ ~ &.>.>.u.%X$X<X2X2X2X>X>X>X>X>X>X>X2X2X2X2X%X@XHXY.tX4X&.` ` ! ! Q Q ^ ^ ^ ) { { o.o.~.~.~.~.~.~.O.o.o.} [ ) ) ^ ^ ^ Q Q ! ~ ~ &.5.oX$X<X2X2X:X;X-X*X}.'.}.'.}.}.-X-X;X>X2X2X$X@X,.^ ^ ^ ) { } o.O.~.~.~.~.O.O.} { ) ^ ^ / / Q ~ %.&.>.>.<.r.p.m.Z.).}.-X;X:X>X2X2X<X&X@XoXW.Y.Y.uXpXqX0XlXM K R E Y U S CXoX!.W.W.W.R.T.Y.Y.BXyXBXuXuXuXuXuXuXuXuXuXuXuXx.1.` ~ ~ ~ Q Q Q ^ ^ ^ ) { { } o.O.~.~.~.~.~.~.O.O.o.} { { ^ ) ^ ^ ^ / Q ! ~ ~ &.>._ ) ^ ^ Q ~ ~ &.>.>.r.p.m.Z._.}.-X;X>X>X2X2X<X&X@X+X&X@XoXW.T.BXyXtXqXhXlXH K R T T I C y w 3 1 X .     X 2 7 w i Z I T E L J M kX0XqXtXyXBXT.!.!.#X$X<X2X2X>X:X-X'.).Z.m.p.r.w.>.&.&.` J.#X<X2X>X-X}.).m.t.<.>.&.` ` ~ ! ~ ! ! ~ ~ ~ ` &.&.>.>.&.` ` ` ! ! Q Q / ^ ^ ^ ) ) { } } O.O.~.~.~.~.~.~.O.~.o.o.} [ [ [ ) ^ ^ ^ ^ / Q Q ~ ~ ~ &.&.x M hXtXyXY.W.+X$X<X<X2X2X>X>X>X:X>X;X>X>X>X>X>X2X2X<X<X#Xn.~ ! / / ^ ) { } O.~.~.~.~.O.O.} { ) ^ ^ Q ! ~ ` &.>.<.r.r.m.V._.}.-X;X>X2X2X2X&X%XHXW.Y.BXuXpX0XlXM ",
"BXY.T.W.oX@X&X<X2X2X>X:X;X*X}.).Z.h.p.t.w.>.>.&.` ~ ! Q / ^ ^ ^ [ } o.O.O.~.~.~.~.O.} [ ) ^ ^ ^ Q ! ~ ~ &.&.>.<.g.%X$X2X2X2X2X>X>X>X>X>X>X2X2X2X2X<X@X!.W.yXtX4X` ` ` ! ! Q / ^ ^ ) ) { } o.O.O.~.~.~.~.~.~.O.} } [ ) ) ^ ^ ^ Q Q ~ ~ ~ &.5.%X$X2X2X>X:X-X}.}.}.'.'.}.'.}.=X;X;X>X2X2X<X@X*./ ^ ^ { { o.O.O.^.~.^.~.O.} } ) ) ^ / Q ! ~ ~ &.&.>.<.r.p.m.V.).'.}.-X:X2X2X2X<X&X@X+XW.R.Y.yXuXpX0XlXm J L E T Y D V qXoX!.oXW.W.R.R.G.Y.BXBXBXBXuXBXuXuXuXuXyXyXyXuXBX1.&.~ ~ ~ ! Q Q ^ ^ ^ ) { { } o.O.O.~.~.~.~.~.~.O.o.} { { ) ^ ^ ^ ^ Q Q ! ~ ~ ~ &._ _ ^ Q Q ~ ~ &.>.<.r.p.m.Z._.}.-X:X>X2X2X2X<X<X@X#X@X+XW.T.Y.yXtXpX9XlXM J L E T I S V w 7 1 o .     o o 3 0 t Z D Y Y E P H vXhXwXtXyXG.T.W.!.@X$X<X2X2X>X:X-X}.'.Z.V.g.t.w.>.>.&.` ! b.#X<X2X2X;X}.).m.p.w.>.&.%.` ` ~ ` ~ ~ ~ ` ~ &.&.*.>.>.>.&.` ~ ~ ! ! Q / / ^ ^ ) ) { } } o.O.O.~.~.~.~.~.~.~.O.o.o.} [ [ ) ^ ^ ^ ^ / Q Q ! ~ ~ %.&.8.m 0XpXBXR.W.+X$X<X2X2X2X>X>X>X;X;X;X;X;X:X>X>X2X2X2X<X$XK.,./ / ^ ) ) } o.O.~.~.~.~.O.} { ) ^ ^ Q Q ~ ~ %.&.<.<.p.p.B.Z.`.}.;X:X2X2X<X<X+XoXW.T.Y.yXpXqXhXm ",
"@XyXT.W.!.+X&X$X2X2X2X2X:X-X}._.).m.m.t.r.<.>.*.%.` ! ! Q / ^ ) ) { } O.~.~.~.~.O.~.o.} [ ) ) ^ ^ Q ! ~ ~ *.&.1.w.g.$X$X<X2X2X2X>X>X>X2X>X>X2X2X2X2X&X@XHXT.yXqX5X&.` ` ! ! ! / ^ ^ ^ ) { { o.O.O.~.~.~.~.~.O.O.o.[ [ ) ) ^ ^ ^ Q Q ! ~ ~ &.5.$X<X2X2X>X;X-X}.'.'._._.'.'.}.}.-X;X>X2X2X<X+X,.^ ^ ) { } O.~.~.~.~.O.O.O.{ { ) ^ ^ / Q ! ~ &.&.>.<.r.r.g.m.Z.`.}.-X;X>X>X2X2X<X@X@XW.W.Y.yXyXpXqXhXn M L R T Y I Z u h !.oX!.W.W.W.R.G.Y.Y.Y.Y.BXBXBXBXBXBXyXBXyXY.yXY.1.&.~ ~ ~ ! Q Q / ^ ^ ) ) { } o.o.~.O.~.~.~.~.O.O.O.} { { ) ^ ^ ^ ^ / Q Q ~ ~ &.&.^ _ ^ / Q ~ &.&.>.<.t.g.M.Z.`.}.-X:X>X>X2X2X<X$X@X@X@X!.W.Y.BXyXpXqXhXn H L R T Y D C y 0 2 O o     . o 1 8 e N S Y T Y L J m lXwXqXtXyXY.T.!.+X@X<X<X2X2X>X;X-X'.).V.m.p.r.w.>.&.` ` ! ,.@X$X2X2X:X}._.V.p.w.<.>.&.&.%.` ` ` ~ ` &.` &.*.>.w.w.>.&.` ` ~ ! ! ! Q ^ ^ ^ ) ) ) { } o.o.O.~.~.~.~.~.~.O.^.O.o.{ { [ [ ) ^ ^ ^ ^ / Q ! ! ~ ~ &.7.8X0XuXBXT.!.+X$X<X2X2X>X>X:X;X;X-X-X-X-X;X;X>X>X>X2X2X<X#Xn./ ^ ^ ) { } O.~.~.~.~.~.o.} ) ) ^ ^ Q Q ~ &.&.&.<.r.p.m.V.`.}.-X;X>X2X2X<X$X@XoXR.Y.yXuXqX0XlX",
"@X!.Y.R.W.oX@X$X<X2X2X>X:X-X*X'.).V.m.p.r.w.>.&.&.` ~ ! Q / ^ ^ ) { } o.O.~.~.~.~.@.O.} [ ) ^ ^ ^ Q ! ~ %.~ >.>.<.r.A.#X&X2X2X2X2X2X>X>X>X2X2X2X2X2X<X%X@XW.BXyXrX4.` ` ~ ! ! Q / / ^ ) ) { } o.o.~.~.~.~.~.~.O.O.o.} [ ) ) ^ ^ ^ Q Q ~ ~ ~ &.y.&X2X2X>X;X;X}.}.'._._._._._.}.}.-X;X>X2X2X<X#X>.) ^ { } o.O.^.~.~.~.~.o.o.{ ) ^ ^ / Q ! ~ ~ &.&.>.<.r.p.m.V.).'.-X;X:X2X2X2X<X&X+XoXW.T.Y.yXtXqXrXlXM J L E Y Y S B r g +XW.oXW.W.R.R.R.R.Y.Y.G.Y.Y.BXY.BXY.BXY.Y.Y.Y.Y.<.&.` ~ ~ ! Q / ^ ^ ^ ) ) { } o.o.~.~.~.~.~.~.~.O.o.o.{ { ) ) ^ ^ ^ / Q ! ~ ~ ~ &.` ^ / Q ~ ~ &.>.>.5.t.g.M.Z.'.}.-X:X>X2X2X2X<X<X@X@XoXW.T.BXyXtXqXhXlXM J R E T I Z i w 7 1 . .   . . 1 4 w y Z I Y T R P H lXhXqXtXyXY.T.W.oX+X$X<X2X2X>X:X-X}._.).m.p.t.w.>.&.&.` ~ ! Q P.&X2X2X:X-X_.M.m.r.<.>.*.&.%.&.` &.` ` &.&.&.>.>.w.r.r.&.` ` ~ ! ! Q Q / ^ ^ ^ ) ) { { o.O.O.~.~.~.~.~.~.^.O.O.o.o.{ [ [ ) ^ ^ ^ ^ / Q Q ! ~ ~ &.&.j.eXuXY.T.!.#X$X2X2X2X>X>X;X-X-X-X-X-X-X-X;X;X>X>X2X2X<X$XP.>.^ ) { } o.O.~.~.~.O.O.} { ) ^ / Q ! ~ ~ &.>.>.w.t.g.V.Z.'.}.;X>X2X2X<X&X+XoXW.T.BXyXtX9XhX",
"%X@X!.T.W.oX+X%X<X2X2X2X>X:X-X}.).Z.m.g.t.w.<.>.&.` ` ! ! Q / ^ ) [ { o.O.~.~.~.~.O.O.o.[ [ ) ) ^ ^ Q ! ~ &.&.*.>.r.t.J.#X&X<X2X2X2X2X>X>X>X2X2X2X2X2X&X@XoXR.yXtX0X:.&.` ` ! ! ! / / ^ ) ) { { o.O.O.~.~.~.~.~.O.O.o.[ [ ) ) ^ ^ ^ Q Q ! ~ ~ &.5.<X2X2X>X;X-X}._._._.Z._.)._.'.}.=X;X:X2X2X<X@X>.) ) { } O.~.^.~.~.^.O.o.{ ) ) ^ ^ / Q ~ ~ &.&.>.<.r.p.g.V.Z.'.}.-X;X>X2X2X2X<X@X@XW.W.Y.yXuXpX8XkXm H K E T Y I C y w a oXW.!.W.W.W.R.Y.R.Y.T.G.R.Y.Y.Y.G.R.G.R.G.R.R.R.5.&.~ ~ ~ ! ! Q / ^ ^ ) ) { } o.o.O.~.~.~.~.~.O.O.O.o.{ { ) ) ^ ^ ^ / / Q ~ ~ ~ &.&./ / Q ~ ~ &.>.<.r.p.m.V.).`.-X-X:X>X2X2X2X<X<X%X@XoXR.BXyXyXqXqXhXm J L E Y Y D V r 0 3 O .     . o 2 8 r V S Y T E K H m hXrXtXuXyXT.W.!.oX$X<X2X2X2X:X;X*X_.).V.m.t.w.w.>.&.` ` Q ! Q p.%X<X2X>X-X}.V.m.p.w.,.>.*.&.&.&.&.&.&.&.*.>.>.w.r.p.m.<.&.` ` ! ! ! Q Q / ^ ^ ) ) { { } o.O.O.~.~.~.~.~.~.O.O.O.o.{ [ [ ) ) ^ ^ ^ ^ Q Q ! ~ ~ ~ &.:.4XyXY.W.oX$X<X2X2X>X>X:X;X-X}.=X}.}.=X=X-X;X;X>X2X2X2X<X$Xu.^ _ { o.O.~.~.~.~.O.o.{ ) ) ^ / Q ! ~ &.&.>.<.r.p.m.Z.`.}.-X;X2X2X2X<X&XoXW.R.Y.yXtXqX0X",
"%X#X@X!.W.W.oX&X$X<X2X2X>X:X-X}.'.).V.m.p.r.<.>.&.&.` ~ ! Q / ^ ^ [ { } O.O.~.~.~.~.~.o.} [ ) ^ ^ Q Q ! ~ %.%.>.<.<.r.p.E.&X<X2X2X2X2X2X2X2X2X2X2X2X2X<X&X@XW.T.yXpXkX8.%.%.~ ! ! / / ^ ^ ^ ) { } o.O.O.~.~.~.~.~.O.O.o.} [ ) ) ^ ^ ^ Q Q ~ ~ ~ &.r.<X2X>X;X-X}.}._.).).Z.Z.Z._._.}.}.;X:X2X2X<X#Xq.) ) } O.O.~.~.~.~.O.o.} { ) ^ ^ / Q ! ~ ` &.>.>.w.r.p.m.V.).'.-X:X:X2X2X<X<X&X+X!.W.T.BXyXpXqXhXlXM K R E T I S i w 7 p oX!.!.W.W.HXE.R.R.R.R.R.R.G.R.T.T.T.T.T.R.W.W.W.D.&.` ` ~ ! ! / / ^ ^ ) ) { { o.o.O.~.~.~.~.~.~.O.o.o.} { ) ) ^ ^ ^ / / Q ~ ~ ~ %.&.Q Q ! ~ %.&.>.<.r.p.M.V._.'.-X-X:X2X2X2X2X<X&X%X@XoXT.BXyXtXqXhXlXH P R T Y I Z y w 3 1 X .   . o 1 7 w i S I Y Y R J M lX9XqXtXyXY.T.W.+X@X<X<X2X2X>X;X-X}._.V.m.p.r.w.>.*.` ` ~ ! Q ^ >.%X<X2X>X-X}.).h.p.r.w.,.>.*.*.&.&.&.&.*.>.>.<.w.t.g.h.t.&.` ` ` ! ! Q / / ^ ^ ) ) ) { { o.O.O.~.O.~.~.~.~.~.O.O.o.o.[ [ [ ) ^ ^ ^ ^ Q Q Q ! ~ ~ &.~ 4XyXY.W.+X$X<X2X2X>X:X;X-X-X}.}.}.}.}.}.}.-X;X;X>X2X2X<X<XP.q.{ } +.@.@.~.~.@.o.} { ) ^ ^ Q ! ~ ~ &.>.<.w.p.m.V.).'.-X:X>X2X2X<X$X@XoXW.T.yXuXpXwX",
"%X%X@X@XoXW.oX+X&X<X<X2X2X>X-X-X'.).Z.m.p.r.w.,.>.&.` ~ ! ! Q / ^ ) { { o.O.~.~.~.~.O.O.o.[ [ ) ^ ^ Q Q ! ~ &.&.>.<.5.p.g.E.@X<X<X2X2X2X2X2X2X2X2X2X2X<X<X@X@XW.Y.yXqXlX8.%.%.! ~ ! ! / / ^ ) ) { { o.O.~.~.~.~.~.~.O.O.o.[ [ ) ) ^ ^ ^ Q Q ! ~ %.&.y.<X>X>X;X=X}._._.Z.Z.Z.Z.Z.Z._.}.}.-X:X>X2X<X#Xq.{ { } O.~.~.~.^.^.O.o.{ ) ) ^ / / ! ~ ~ &.&.>.<.r.p.m.V.).`.=X-X:X>X2X2X<X&X@X@XW.R.Y.yXuXqXrXlXM H L Y W Y D V y 0 3 ; oX!.!.W.W.W.W.W.R.R.R.R.R.R.R.R.R.W.W.W.W.W.!.W.K.&.~ ~ ~ ! ! ! / ^ ^ ^ ) { { o.o.O.~.~.~.~.~.~.O.O.o.} { ) ) ) ^ ^ / / Q ! ~ ~ &.&.! Q ~ ~ &.>.>.5.r.p.M.Z._.}.-X-X:X>X2X2X2X<X<X%X@XoXBXyXuXqXrXlXm J L E T Y S V w 8 1 O .     . < 3 0 t Z D Y T R L H vXhXwXtXyXyXT.W.!.+X&X<X<X2X2X:X-X*X'.).m.m.t.w.>.>.&.` ~ Q Q Q ^  .P.<X<X>X:X}.).V.m.i.r.w.,.>.>.>.>.*.>.>.>.w.w.r.p.m.V.V.` ` ` ` ! ! ! Q / / ^ ^ ) ) { } } o.O.~.~.~.~.~.~.~.O.O.O.o.[ [ [ ) ) ^ ^ ^ ^ Q Q ! ~ ~ &.&.2.uXY.W.+X$X<X>X>X>X;X;X}.}.}._.'.'.'.}.}.=X=X-X;X>X2X2X<X$XP.{ o.@.~.~.~.@.@.} { ) ^ ^ ^ Q ! ~ &.&.>.w.r.p.m.).`.}.-X:X>X2X2X<X&XoXW.R.Y.yXpXqX",
"&X&X%X#X@X!.!.oX&X<X2X2X2X:X:X-X*X_.Z.M.g.p.r.<.>.&.%.` ~ Q Q / ^ ^ [ { } O.~.~.~.~.~.O.o.} ) ) ^ ^ Q Q ! ~ %.&.>.>.r.r.p.m.{.@X<X<X2X2X2X2X2X2X2X2X2X2X<X<X@X!.W.yXtX0Xm 8.%.%.~ ! ! / / / ^ ) ) { } o.O.O.~.~.~.~.~.O.o.o.} [ ) ) ^ ^ ^ Q Q ! ~ ~ &.r.2X2X;X;X}._._.Z.Z.V.V.V.Z.Z.).}.}.-X:X>X2X<X#Xq.{ } O.O.~.~.~.~.O.o.} { ) ^ ^ / Q ! ~ ` &.>.<.w.p.p.m.Z._.'.-X:X>X2X2X2X<X&X+XW.W.T.yXuXtX8XhXlXH K R W T I Z u w 7 < 5 G.W.oX!.W.W.W.W.W.R.W.W.R.W.W.W.W.W.!.W.!.W.oXoXK.&.&.` ~ ! ! ! / ^ ^ ) ) { { } O.O.O.~.~.~.~.~.~.O.o.} { [ ) ^ ^ ^ / Q Q ~ ~ ~ ~ &.~ ! ~ %.%.>.>.r.p.g.V.).`.}.-X;X>X>X2X2X2X<X<X%X@X@XY.iXtXqXhXn H K E T Y D V y 0 3 o .     . o 1 7 e i S Y T E L J M hXwXqXtXyXY.W.W.@X%X<X2X2X2X:X;X*X}.).V.m.p.r.<.>.&.&.~ ~ Q Q ^ ^ ) L.<X<X2X:X-X'.V.N.p.i.w.w.<.<.>.>.>.>.>.>.w.r.t.g.m.Z.'.w.&.` ` ~ ! ! Q / / / ^ ) ) ) } } o.O.O.~.~.~.~.~.~.~.O.O.o.} { [ ) ) ^ ^ ^ ^ Q Q Q ~ ~ ~ ` &.F.T.oX+X<X<X2X>X:X;X-X}.}.'._._._._._._.}.=X=X;X>X>X2X<X<X+Xs.@.@.~.~.~.@.o.} { ) ^ / Q ! ~ ` &.>.<.r.p.m.V.).}.-X:X>X2X2X<X&X+X!.W.Y.yXuXqX",
"%X%X&X%X%X@X!.oX+X&X<X2X2X2X:X-X*X'.).V.m.p.r.w.>.>.&.` ` ! Q Q / ^ ^ { } o.O.~.~.~.~.O.O.} } ) ^ ^ ^ Q Q ~ ~ &.&.>.<.r.p.m.V.{.+X<X<X2X2X2X2X2X2X2X2X2X<X<X%X@XW.R.yXtXhXH 8.%.%.! ! ! ! / / ^ ) ) { { o.O.~.~.~.~.~.~.^.O.{ } [ ) ) ^ ^ ^ Q Q ! ~ ~ &.u.2X>X;X=X}._.).V.V.V.B.V.V.Z.Z._.}.-X;X>X2X<X#Xe.} o.O.~.~.~.^.O.O.} { ) ^ ^ / / ! ~ ` &.&.>.<.r.p.m.V.).}.}.;X:X2X2X2X<X&X@XoXW.R.Y.yXuXqXrXlXM J L Y W Y S V r 8 3 O . G.W.oXW.oXW.W.W.W.W.W.W.W.W.!.W.!.W.oX!.!.@X@X@XE.&.` ` ! ! ! ! Q ^ ^ ^ ) { { } o.O.~.~.~.~.~.O.~.O.o.} } ) ) ) ^ ^ ^ / Q Q ~ ~ &.&.! ! ~ %.>.>.<.r.p.m.V.).'.}.-X;X:X>X2X2X2X<X<X%X@X@XBXtXqX0XlXM K L E T I S i w 7 1 o .     . 1 4 q u C D Y W R P M vXhXqXtXyXBXT.W.!.+X&X<X2X2X2X:X-X}._.Z.m.g.t.w.>.>.&.~ ~ ! Q / ^ ) ) X.#X<X2X>X-X}.).V.g.p.i.w.w.<.<.>.<.<.w.w.r.t.p.m.V.).}.m.&.` ` ~ ~ ! ! / / / ^ ^ ) ) { } } O.O.~.~.~.~.~.~.~.O.~.o.} { [ [ ) ) ^ ^ ^ ^ Q Q ! ! ~ &.&.1.T.oX$X<X2X2X>X;X-X}.}._._.).Z.Z.).Z._._.}.}.=X;X>X>X2X<X$XP.@.~.~.~.@.@.} { ) ^ ^ / Q ~ ~ &.&.>.w.r.m.m.).`.}.;X>X2X2X2X&X@X@XW.R.Y.yXtX",
"%X<X%X&X$X@X@XoX@X&X<X2X2X2X:X:X-X}._.Z.m.g.r.w.,.>.&.` ~ ~ Q Q ^ ^ [ [ { o.O.O.~.~.~.~.O.o.[ [ ) ^ ^ Q Q ! ~ &.&.>.>.r.p.p.M.Z.XX%X<X<X2X2X2X2X2X2X2X2X2X<X<X@XoXW.Y.uXqXlXJ 9.%.` ` ! ! / / ^ ^ ) ) { } o.O.O.~.~.~.~.~.O.O.} } [ ) ) ^ ^ ^ Q Q ~ ~ ~ &.r.2X;X;X=X_.Z.Z.V.M.M.m.M.M.Z.Z._.}.-X;X>X2X<X#Xe.} O.O.~.~.~.^.O.o.} ) ) ^ ^ Q Q ~ ~ ` &.>.<.w.p.g.B.Z.`.}.-X:X>X2X2X<X<X@X+XW.R.Y.yXuXtX9XhXn H K E W Y D C u 0 4 1 . . G.W.oXW.W.!.W.!.W.!.W.oXW.W.oXW.!.!.oXoX@X@X@X%X%Xy.%.%.~ ! ! Q / / ^ ^ ) ) { } o.O.O.~.~.~.~.~.~.O.O.} { { ) ) ^ ^ ^ / Q ! ~ ~ ~ &.&.~ %.%.>.<.<.p.p.m.Z._.}.-X-X:X>X2X2X2X2X<X<X%X%X@XAXqXqXhXm H K E T Y D V y 8 3 O .   . . o 3 8 r N D Y Y E L J m hXwXtXuXBXY.W.!.@X&X<X2X2X>X:X;X*X'.).V.m.p.w.<.>.&.&.~ ! Q / ^ ^ ) { s._.<X2X2X;X=X_.).N.m.p.r.r.w.w.w.w.w.w.r.r.p.g.V.Z._.}._.r.&.` ~ ! ! ! / / / ^ ^ ) ) ) } } o.O.O.~.~.~.~.~.~.O.^.o.o.} { [ ) ) ^ ^ ^ / Q Q ! ~ ~ ~ &.&.D.oX$X<X2X>X>X;X=X}._._.Z.Z.Z.V.Z.Z.Z.)._.}.}.-X;X>X2X2X<X#X/.~.~.~.@.o.{ { ^ ^ / Q ! ~ &.&.>.<.r.p.M.V._.}.-X:X>X2X2X<X&X+XW.W.Y.yXtX",
"%X%X<X%X%X%X%X@XoX#X&X<X2X2X>X:X-X*X'.).V.m.p.r.<.>.&.&.` ~ ! Q / / ^ ) { } O.~.~.~.~.~.O.o.} [ ) ) ^ ^ Q ! ~ ~ &.>.>.<.r.p.m.V._.XX%X<X<X2X2X2X2X2X2X2X<X2X<X&X@XoXR.Y.uXrXn K 9.%.` ` ! ! ! / / ^ ) ) { { o.O.~.~.~.~.~.~.^.O.o.[ [ ) ) ^ ^ ^ Q Q ! ~ ~ &.r.2X;X=X}._.Z.V.M.m.m.m.m.m.V.Z._.'.-X;X>X2X<X#Xs.o.@.~.~.~.~.O.O.} { ) ^ ^ ^ Q ! ~ ` &.>.>.w.r.p.m.V.).}.-X-X>X>X2X2X<X&X@XoXW.T.BXuXpXpX0XlXM K L Y W Y S i r 7 2 O .   G.W.oXoXW.!.W.!.W.!.W.oX!.W.oXoX!.@X@X@X+X%X&X&X&Xy.&.%.! ! ! ! / / ^ ^ ) [ { } o.o.~.~.~.~.~.~.O.O.O.o.{ [ ) ) ^ ^ ^ / / Q ~ ~ ~ &.&.~ %.&.>.<.r.p.m.M.Z._.}.-X;X:X>X>X2X2X2X<X<X&X@X@XW.rX0XlXM K R Y T I Z y w 7 O o .     X 1 4 w u Z I T Y R J M lX0XqXtXyXBXT.W.XX@X&X<X2X2X>X:X-X}.).V.m.p.t.w.>.&.&.` ~ Q Q / ^ ) { } o.).#X2X2X>X-X'._.V.N.g.p.t.w.t.w.w.w.t.t.p.g.m.V.).}.*X;Xr.&.~ %.! ~ ! ! / / / ^ ) ) ) { } } O.O.~.O.~.~.~.~.O.^.O.o.} { [ [ ) ) ^ ^ ^ ^ Q Q ! ~ ~ &.&.3.oX$X<X2X>X;X-X}._._.).Z.M.M.B.M.M.V.Z.Z._.'.}.-X;X>X>X<X$X`.~.~.@.o.} { ) ^ / / ! ! ~ &.>.>.w.p.p.V.).}.}.;X:X>X2X<X$X@XoXW.R.yXyX",
"#X&X&X&X<X&X%X#X@X@X&X<X2X2X2X>X-X-X'._.V.m.p.t.w.>.>.&.` ~ ! Q / ^ ^ [ [ { o.O.O.~.~.~.O.O.o.[ ) ^ ^ ^ Q Q ~ ~ %.&.>.<.r.p.m.B.Z._.XX#X<X<X<X2X2X2X2X2X2X2X<X<X&X@XW.R.yXpX0XM R 9.%.` ! ! ! / / ^ ^ ) ) { } o.O.O.~.~.~.~.~.O.O.} } [ ) ) ^ ^ ^ Q Q ! ~ ~ &.r.>X;X=X_.).V.M.m.m.g.m.m.m.M.V._._.}.;X>X2X<X$Xs.o.@.~.~.^.^.O.o.{ ) ) ^ / Q ! ~ ~ &.&.>.<.r.p.m.V.).'.}.-X:X>X2X2X<X&X+XoXW.T.Y.yXuXpX0XhXm H L E W Y D V y 0 3 < . .   G.oXW.oX!.!.!.!.!.!.!.HXoXoX!.@X@X@X%X%X&X%X&X<X2Xy.%.%.~ ! ! ! Q ^ ^ ^ ) ) { { o.O.O.~.~.~.~.~.~.O.O.o.} { ) ) ^ ^ ^ / Q Q ~ ~ ~ &.%.&.%.>.<.w.t.p.m.V._._.}.-X;X>X>X2X2X2X2X<X&X&X@X#XJXaXkXm J L E T Y D i r 7 2 o .     X o 3 0 y V D Y T E L H n hXwXtXtXG.T.W.!.@X&X<X2X2X>X:X-X*X'.).V.g.p.w.>.>.&.` ~ ! Q / ^ ) ) { } O./.OX1X2X>X;X}.`._.h.m.g.g.t.t.t.t.t.t.p.p.m.V.)._.}.;X:X}.&.%.` ~ ~ ! ! / / / ^ ^ ) ) { } } o.O.~.~.~.~.~.~.~.~.O.o.o.} [ [ ) ) ^ ^ ^ / Q Q Q ~ ~ ~ &.%.E.<X2X>X:X;X=X}._.Z.V.M.M.m.m.m.m.M.M.Z.Z._.}.=X;X,X>X2X<X#X/.@.@.o.{ ) ) ^ Q Q ! ~ &.&.>.w.r.p.m.V._.}.-X:X2X2X2X<X$X@XW.T.Y.yX",
"@X$X&X&X$X$X<X%X%X@X#X<X<X2X2X>X:X-X*X).).M.m.i.r.<.>.&.&.~ ~ ! Q / ^ ^ { { } O.~.~.~.~.~.O.o.} ) ) ^ ^ ^ Q ! ~ &.&.>.>.5.r.p.m.Z._.}.XX$X<X<X2X2X2X2X2X2X2X<X<X&X@XoXW.Y.yXpXlXH R 9.%.%.! ~ ! ! / / ^ ) ) { } } O.~.O.~.~.~.~.^.O.o.[ [ ) ) ^ ^ ^ Q Q ! ~ ~ &.r.;X X}._.Z.M.m.g.g.p.p.m.m.m.V.)._.}.;X>X2X<X#Xf.@.~.~.~.^.O.O.} { ) ^ ^ / Q ! ~ &.&.>.>.w.r.g.m.Z._.}.-X;X>X2X2X2X<X&XoXoXW.Y.BXuXtXqXhXlXH K R Y T I Z i w 7 1 X .     j.oXW.oX!.oX!.!.!.oXoXoXoX@X@X@X%X@X$X%X<X<X<X<X2Xi.%.%.` ! ! ! Q ^ ^ ^ ) ) { { o.o.O.~.~.~.~.~.~.O.O.o.} { ) ) ) ^ ^ ^ / Q ! ~ ~ &.&.&.&.>.<.5.p.m.M.Z._.}.=X-X;X>X>X2X2X2X2X<X&X&X@X@X@XdXcXH P R W Y I C y w 3 < . .     X 1 7 e i S I T Y L J M lXwXqXtXyXY.T.!.XX&X$X<X2X2X>X;X-X'.).V.m.p.r.w.>.*.&.` Q ! Q / ^ ) { } o.~./.`.,X2X>X>X-X'.'.V.V.m.m.p.p.t.p.p.p.g.m.m.V.).}.}.;X>X=Xr.&.~ ~ ~ ! ! ! / / / ^ ) ) { { } o.o.O.~.~.~.~.~.~.~.O.O.o.} [ [ [ ) ^ ^ ^ ^ ^ Q Q ! ! ~ &.&.5.<X2X2X>X;X}._.).Z.M.m.g.g.p.g.p.g.m.M.M.Z._.}.=X;X>X2X<X<X`.f.o.} { ^ ^ ^ Q ! ~ ` &.>.<.w.p.m.V.).}.-X;X>X2X2X<X<X+XoXW.T.yX",
"@X@X%X&X<X<X$X&X$X@X@X&X2X2X2X2X:X-X}.}.).V.m.p.r.w.>.>.&.` ~ ! Q / ^ ) ^ { } o.O.~.~.~.~.~.o.} } ) ^ ^ ^ Q ! ~ ~ &.&.>.<.r.p.m.B.)._.}.+X#X<X<X<X2X2X2X2X2X2X<X<X&X+X!.R.Y.tXqXlXP E 9.%.` ~ ! ! / / ^ ^ ) ) { } o.O.~.~.~.~.~.~.O.O.} } ) ) ) ^ ^ ^ Q Q ~ ~ ~ &.r.;X=X_.Z.V.m.m.p.p.p.p.p.m.m.M.Z._.}.-X:X2X2X$Xf.@.~.~.^.^.O.} { ) ^ ^ / Q ! ~ ~ &.&.>.w.r.p.m.V.)._.-X-X>X>X2X2X<X&X+XoXW.T.Y.yXtXpX0XlXm J L E T Y D V r 8 3 O .       5 oXoX!.!.!.!.oXoXoXoX@X@X@X@X%X%X%X&X&X<X2X<X2X2X=X&.` ` ~ ! Q Q / ^ ^ ^ ) { { } O.O.~.~.~.~.~.~.O.O.o.} { [ ) ^ ^ ^ / / Q ! ~ ~ ~ &.&.>.>.r.r.p.m.V._._.'.-X;X:X>X2X2X2X2X2X<X&X&X%X@X@XdXM J R Y T I S i w 7 1 o .   . . 1 3 q y Z D Y T R K H lXhXqXtXyXBXT.W.!.+X$X<X2X2X>X:X-X}._.Z.V.g.t.w.>.&.&.` ~ ! Q / ^ ) ) } o.O.O.~._.#X2X2X>X;X*X'.).V.m.m.g.m.p.p.g.p.m.V.V.)._.}.-X>X>X2XB.&.%.~ ~ ! ! ! / / ^ ^ ^ ) ) { { o.o.O.~.~.~.~.~.~.~.~.O.o.o.} [ [ ) ) ^ ^ ^ / / Q ! ~ ~ ~ %.&.[.2X>X;X=X}._.Z.M.M.g.p.p.p.p.p.p.g.g.M.M.Z._.}.-X;X>X2X<X#Xh.} { ) ) ^ / ! ! ~ &.&.>.w.r.p.M.Z.`.}.-X>X>X2X2X<X@X+XW.T.BX",
"oX@X$X&X$X<X<X$X$X&X@X@X<X<X2X2X>X:X-X'._.Z.m.p.i.w.<.*.&.%.~ ~ ! Q / ^ ) [ { o.O.O.~.~.~.O.O.o.[ [ ) ^ ^ ^ Q ! ~ ~ >.&.<.w.t.g.M.Z._.}.=X+X#X$X<X2X2X<X2X2X<X2X<X<X@X@XW.R.BXuX0Xn L Y 9.` ` ~ ! ! Q / / ^ ) ) { } } O.~.O.~.~.~.~.^.O.o.} ) [ ) ^ ^ ^ Q Q ! ~ ~ &.r.=X}._.Z.M.g.p.p.p.r.p.p.p.m.M.Z.).}.=X>X2X<X$X/.~.~.~.^.O.o.} { ) ^ ^ / Q ! ~ &.&.&.<.r.t.m.m.).`.}.-X;X>X2X2X<X<X%XoXW.W.Y.yXuXpXqXhXm H K E Y Y D Z y w 4 < X .     . 6 oXoXoXoXoXoXoXoXoX+X@X%X@X%X%X&X&X<X<X<X2X<X2X2X*X%.` ` ~ ~ Q ! Q ^ ^ ) ) { { } o.O.~.~.~.~.~.~.O.O.O.} } ) ) ) ^ ^ ^ / Q Q ~ ~ &.&.&.>.<.r.p.g.M.Z._.}.}.-X;X:X>X>X2X2X2X2X<X&X&X%X@X@XDXH L R W Y D C r 0 3 o X .   . o 1 8 e V S Y Y E L J m kXwXqXyXyXY.W.!.!.$X<X<X2X2X>X;X-X'.).V.m.p.w.w.>.&.` ` ! Q Q / ^ ) { } O.~.~.~./.OX,X2X2X:X-X*X'.).V.V.m.m.m.m.m.m.m.V.Z.).}.}.-X:X>X2X[.&.&.` ` ! ! ! ! / / ^ ^ ) ) { { } o.O.O.~.~.~.~.~.~.O.^.o.o.} [ [ [ ) ^ ^ ^ ^ / / Q ! ~ ~ &.&.r.2X>X;X=X_.Z.V.m.g.p.p.r.r.r.r.t.t.p.g.m.M.Z._.}.;X;X2X<X<X`.e.{ ^ ^ ^ Q ! ~ ` &.>.<.r.p.m.V._.}.-X;X>X2X2X<X$X@X!.W.Y.",
"W.+X@X&X$X$X<X<X<X&X&X%X@X2X2X2X>X:X-X*X`.).V.m.p.r.<.,.&.&.` ~ Q Q / ^ ^ [ { } o.~.O.~.~.~.~.O.} [ ) ^ ^ / Q ! ~ &.~ >.>.5.r.p.m.V.).].=X-X#X$X$X<X<X2X2X2X2X2X<X<X&X+XoXW.Y.uXpXhXM R U 9.%.%.! ! ! / / ^ ^ ) ) { } o.o.~.~.~.~.~.~.O.O.} } [ ) ) ^ ^ Q Q Q ~ ~ ~ &.r.-X_.Z.M.m.g.p.r.p.r.r.p.p.g.m.Z.Z.}.-X;X2X2X&X(.~.~.~.O.O.} { ) ^ ^ / Q ! ~ ` &.>.>.w.r.p.m.V.).'.-X;X:X2X2X2X<X&X+XoXW.T.Y.uXtXqX0XlXM K L E T Y S i r 8 2 O .     . O 6 oXoXoXoXoXoXoX@X@X@X@X%X%X%X&X&X<X<X2X2X2X2X2X2X*X&.&.~ ~ ! ! Q Q ^ ^ ^ ) ) } } o.O.O.~.~.~.~.~.~.O.O.} { { ) ) ^ ^ ^ / Q Q ~ ~ ~ &.&.<.r.t.p.m.V.)._.}.-X-X:X>X2X2X2X2X2X<X<X&X&X@X%X+XDXP R Y T I Z u w 4 1 . .     o < 4 w u Z I T E R K M lXhXqXtXyXY.T.W.+X@X$X<X2X2X>X:X-X}._.V.m.p.t.w.<.&.&.` ~ ! Q ^ ^ ) ) } o.O.~.~.^./.`.1X2X2X:X;X*X}._.).V.V.V.m.M.m.V.V.Z.)._.}.-X:X>X2X2X&X5.&.` ` ~ ! ! ! / / ^ ^ ^ ) ) { } } O.O.O.~.~.~.~.~.^.^.O.o.o.} [ [ ) ) ^ ^ ^ / / / ! ~ ~ ~ %.&.].;X-X]._.Z.M.g.p.r.r.r.w.r.w.r.r.r.p.p.m.M._._.=X;X>X2X<X#Xg.) ^ / / ! ~ ` ` >.>.w.t.g.M.)._.=X;X:X2X2X<X<X#XoXW.T.",
"W.!.+X%X&X<X<X<X<X<X&X%X@X%X<X2X2X>X;X*X}.).V.M.p.t.w.,.*.&.` ~ ~ ! / / ^ ^ { { o.O.~.~.~.~.O.O.o.[ ) ) ^ ^ Q Q ! ~ &.&.>.>.r.p.g.M.Z._.}.-XOX@X&X$X<X<X2X<X2X2X<X<X<X$X@XoXR.Y.uXqXlXH E U 6.%.` ` ! ! Q / / ^ ) ) { } o.o.~.O.~.~.~.~.^.O.} [ [ [ ) ) ^ ^ Q Q ! ~ ~ &.5.}.).V.M.g.p.t.r.r.r.r.r.p.p.m.M.).`.-X;X2X2X&X`.~.~.^.O.o.{ ) ) ^ / / ! ~ ~ &.&.>.<.r.t.m.V.Z.'.}.-X:X>X2X2X2X&X@XoXW.R.Y.G.tXpX0XhXm H L E Y Y D C t q 3 1 X       o 1 a oXoXoXoXoX+XoX@X%X@X#X%X%X<X$X<X<X<X2X2X2X2X2X>X*Xe.&.~ ` Q ! Q Q Q ^ ^ ) ) { } o.O.~.~.~.~.~.~.O.O.O.o.{ [ ) ) ^ ^ ^ ^ / Q ! ~ ~ &.&.<.r.p.m.M.Z._.}.}.-X;X:X>X>X2X2X2X2X<X<X&X%X@X@X@XoXLXE T Y S V r 8 3 O .     . O 3 8 t V D Y T E K H n hXrXtXtXBXY.W.!.+X&X<X2X2X2X:X-X*X'.).V.m.t.r.>.>.&.` ~ ! Q Q ^ ^ { { } O.~.~.~.~.O.Z.,X1X2X2X:X-X*X'._.).Z.V.V.V.V.V.Z.)._.'.*X-X;X>X2X2X&XU.&.%.` ~ ! ! ! / / / ^ ^ ) ) { } } o.O.~.O.~.~.~.~.~.O.^.o.o.{ { [ [ ) ^ ^ ^ ^ / / Q ! ~ ~ &.&.r.;X=X_.Z.M.m.p.p.r.<.w.<.<.<.5.w.5.r.t.p.g.M._.'.-X;X2X2X<XP.q.^ Q Q ! ~ &.&.>.<.r.p.m.Z._.}.-X:X>X2X2X<X$X@X!.W.",
"T.W.!.@X$X$X<X<X<X<X<X<X%X@X%X2X2X:X:X-X}._.Z.B.g.i.r.<.>.&.&.` ~ Q Q / ^ ) ) { o.o.~.~.~.~.~.O.o.} [ ) ^ ^ Q Q ! ~ %.&.>.<.<.r.p.m.Z.).}.=X;X;X@X%X<X<X<X2X2X<X2X<X<X$X+XoXW.R.BXuXeXlXK Y D 6.%.` ! ! ! / / ^ ^ ) ) { } o.o.~.~.~.~.~.~.O.O.o.} [ ) ^ ^ ^ ^ Q Q ! ~ ~ &.w.]._.M.g.p.t.r.r.w.r.r.r.r.p.g.M.Z._.-X;X2X2X&X`.~.~.O.o.} { ) ^ ^ Q Q ! ~ ` &.>.>.w.t.p.m.Z.).}.-X:X>X2X2X<X<X$X@X!.W.Y.BXyXpXqXhXlXM K R T T I S i w 7 1 X .   . . O 3 8 iXoXoXoXoX@X@X@X%X@X%X&X%X<X<X<X2X<X2X2X2X2X>X:X;Xt.&.` ` ! ! Q Q ^ ^ ^ ) ) { { o.O.O.~.~.~.~.~.~.O.O.o.} [ [ ) ^ ^ ^ / Q Q ! ~ ~ &.&.<.t.g.M.V._._.}.-X-X:X>X>X2X2X2X2X<X<X<X&X$X@X%XoX@XPXT Y D Z y q 3 1 . .     O 1 7 w i S I T Y R J nXlXwXqXtXyXY.T.W.oX&X$X<X2X2X:X:X-X}._.V.m.p.r.w.>.&.&.` ~ Q Q ^ ^ ^ { } O.O.~.~.~.~.O.d.%X1X2X2X:X-X-X}._.)._.Z.Z.Z.Z.Z.)._.'.}.-X;X>X2X2X<X@XK.3.` %.~ ~ ! ! ! / / ^ ^ ) ) ) { } o.o.~.O.~.~.~.~.~.^.^.O.o.o.{ [ [ ) ) ^ ^ ^ / / Q ! ~ ~ ~ %.&._.}._.Z.M.p.r.r.r.<.>.>.>.>.>.>.<.w.5.t.p.m.Z._.}.;X>X2X<X$XJ.^ ! ! ~ ~ &.>.>.w.i.m.B.).`.-X;X:X2X2X<X&X+XoXW.",
"BXT.!.+X@X$X<X<X<X2X<X<X<X%X%X@X2X2X:X;X*X'.).V.M.p.r.w.>.>.&.` ~ ! ! Q ^ ^ ) { { o.O.~.~.~.~.O.O.} [ ) ^ ^ ^ Q Q ~ ~ &.&.>.<.r.p.m.V.Z.'.}.-X:X;X@X#X$X<X<X<X2X2X<X<X<X$X@XoXR.R.yXtX0Xm L Y A 6.%.` ` ! ! Q / / ^ ) ) { } o.o.~.O.~.~.~.~.O.O.o.[ [ [ ) ^ ^ ^ Q Q ! ~ ~ &.<._.M.M.p.t.r.w.w.<.<.w.r.r.p.g.M.V._.}.;X2X2X$X`.@.@.O.} { ) ) ^ / / ! ! ` &.&.>.w.r.p.g.V.).'.}.-X:X>X2X2X<X$X#XoXW.R.Y.uXuXpX0XlXm H L E W Y D V t 0 2 < X       o 1 7 w iXoXoX+XoX@X@X@X#X%X%X&X<X<X<X2X2X2X2X2X2X>X>X>X-Xe.&.` ` ! ! Q Q Q ^ ^ ) ) { { } O.O.~.~.~.~.~.~.O.O.o.} [ [ ) ^ ^ ^ ^ / Q ! ~ ~ &.&.5.p.M.B.Z._.}.}.-X;X:X>X>X2X2X2X2X<X<X&X&X&X@X%XoXoXGXT Y S N e 7 1 O .     . O 4 q t C D Y T R P H vXhXqXpXyXBXT.W.!.+X&X$X2X2X2X:X-X*X_.).M.g.t.w.>.>.&.` ` Q Q Q ^ ) ) { o.O.~.~.~.~.O.o.X._.1X2X2X2X:X;X-X}._._.).).).).)._.'.'.-X-X;X>X>X2X<X@X!.A.%.%.~ ~ ! ! ! Q / ^ ^ ^ ) ) { { } o.O.~.~.~.~.~.~.~.O.^.O.o.{ [ [ [ ) ^ ^ ^ ^ / / Q ! ~ ~ &.&.5.'.Z.M.m.p.r.w.<.<.>.>.*.*.*.>.>.>.<.5.r.p.M.Z.}.-X;X2X2X<X+X>.! ! ~ &.&.>.<.r.p.N.Z.`.}.-X:X>X2X2X<X%X@XW.",
"yXT.W.!.@X&X$X<X<X<X2X<X<X<X%X@X1X2X>X-X-X}.`.Z.h.g.i.w.>.>.&.&.~ ~ Q Q / ^ ) [ { o.O.~.~.~.~.~.O.o.} [ ) ^ ^ Q Q ~ ~ ~ &.>.>.r.t.p.m.Z._.'.-X:X:X2X@X%X$X<X<X<X<X2X<X<X$X%X+XoXW.Y.uXpXhXM R E B -.%.` ! ! Q / / ^ ^ ) ) { } o.o.~.~.~.~.~.~.O.O.o.} [ ) ) ^ ^ ^ / Q ~ ~ ~ &.<._.M.g.p.r.r.w.<.<.<.5.<.r.r.p.m.V._.}.-X>X2X&X`.~.O.o.} { ) ^ / Q Q ~ ~ ` &.>.>.w.t.m.m.Z._.}.-X:X>X2X2X2X<X@X+X!.T.Y.BXuXpX8XdXn H K R Y Y I Z y w 7 1 X .   . . < 3 0 y SXoXoX@X@X@X%X%X%X%X<X$X<X<X<X2X2X2X2X>X>X>X;X-X*Xg.&.` ` ! ~ Q Q / ^ ^ ^ ) { } } O.O.~.~.~.~.~.~.~.O.o.} } ) ) ^ ^ ^ ^ / Q ! ~ ~ %.&.>.g.B.Z.).'.}.-X;X:X>X2X2X2X2X2X<X<X<X&X&X+X%X@X@X@XFXY D C t 0 3 O .     . O 1 7 e V S Y T E L J n kXrX5XiXyXY.W.W.+X&X<X2X2X2X>X-X-X}.).V.m.p.r.<.>.&.` ~ ~ Q / ^ ^ ) { } o.~.~.~.~.~.o.o.[ p.#X<X2X2X>X:X-X}.}.}._._._._._.'.}.}.-X;X>X2X2X2X<X@XW.F.&.%.%.~ ! ! ! Q / / ^ ^ ) ) { { } o.o.O.~.~.~.~.~.~.^.O.O.o.o.{ [ [ ) ^ ^ ^ ^ / / Q ! ~ ~ ~ %.&.M.Z.m.p.r.5.<.>.>.&.*.*.*.&.&.>.>.>.<.r.r.g.V._.=X;X>X2X<X$XK.,.! ` &.>.<.w.p.m.V.).'.-X:X>X2X2X<X$X@X!.",
"tXyXT.W.+X+X&X$X<X2X<X<X2X<X<X%X@X<X2X:X-X*X'.).V.m.p.r.w.>.&.&.` ~ ! Q Q / ^ ) { } o.~.O.~.~.~.O.o.} [ ) ) ^ ^ Q Q ~ &.&.>.>.<.r.p.m.V.Z.}.}.-X:X>X2X+X%X$X<X<X<X<X<X<X<X$X@XoXW.W.BXuXqXlXJ U U u -.%.` ` ! Q Q / / ^ ) ) { } o.O.O.~.~.~.~.~.O.O.o.[ [ [ ) ^ ^ ^ / Q ! ~ ~ &.<.V.M.p.r.r.<.<.<.<.>.<.<.5.r.p.m.M._.}.-X>X2X<X`.O.o.} { ) ) ^ Q Q ! ~ ` &.>.>.<.r.p.m.V.).}.*X-X:X>X2X2X<X&X@XoXW.T.Y.uXuXpX9XlXM J R E T Y S B r 8 2 O .     . o 1 0 w i FX!.+X@X@X@X%X%X%X%X<X<X<X2X<X2X2X2X2X>X>X;X;X-X}.Z.` ` ` ^ ~ Q Q / ^ ^ ) ) ) { } o.O.O.~.~.~.~.~.O.O.O.} } { ) ) ^ ^ ^ ^ / Q ~ ~ ` &.>.m.Z._._.}.=X-X:X:X>X>X2X2X2X2X<X<X&X&X&X@X%X@XoXoX+XJ S u w 7 1 o .     . 1 3 q y Z I Y T R P H lXhXqXtXyXBXT.W.!.+X&X<X2X2X>X:X-X}._.Z.m.p.t.w.>.>.&.~ ~ ! Q / ^ ^ { { o.O.~.~.~.~.~.o.} [ | #X,X<X2X2X>X;X-X}.}.}._._.'._.}.}.-X-X;X>X2X2X2X&X@XW.BX3.%.` ~ ` ! ! ! / / ^ ^ ^ ) ) { { o.o.O.O.~.~.~.~.~.~.O.^.O.o.{ [ [ [ ) ^ ^ ^ ^ / / Q ! ~ ~ &.&.<.M.m.t.r.<.>.>.>.%.%.%.&.%.&.&.>.&.>.<.r.p.m.Z.}.-X:X2X2X<X#Xb.` &.&.>.w.r.p.M.Z.`.}.-X>X>X2X2X<X%X@X",
"qXuXY.R.W.oX&X$X<X<X<X2X<X<X2X<X%X%X,X>X-X-X'._.V.m.p.t.w.>.>.&.` ~ ! Q / ^ ^ ) { } o.O.~.~.~.~.~.O.o.[ [ ^ ^ ^ Q ! ~ ~ ~ &.>.<.r.p.g.M.)._.}.-X:X>X2X<X@X#X$X<X<X<X<X<X<X$X&X+XoXW.R.BXtXqXlXK Y D r =.%.` ` ! ! / / ^ ^ ) ) { } o.O.O.~.~.~.~.~.O.O.o.} [ ) ) ^ ^ ^ / Q ! ~ ~ %.<.M.g.p.r.<.<.<.>.>.>.>.<.<.r.r.m.M.).}.-X:X2X<X`.O.o.} ) ) ^ ^ Q ! ! ` ` &.>.<.w.p.m.B.)._.}.-X:X>X2X2X<X<X+XoX!.R.Y.BXuXpX0XhXm H K E W Y I C y 0 4 < X     . X 1 3 w y C H !.!.@X@X@X%X#X&X&X<X<X<X2X2X2X2X2X>X>X:X-X-X}.'.V.&.` ` ` ! ! Q Q ^ ^ ^ ) { { } o.O.~.~.~.~.~.~.~.O.o.o.{ { ) ) ^ ^ ^ / Q Q ! ~ ~ &.<.g.Z._.}.=X-X;X:X>X2X2X2X2X2X2X<X<X&X%X&X%XoX%X+XHXoXM C e 8 3 O .     . O 2 8 r V S Y T E L H M hXrX5XuXBXY.R.!.+X&X<X2X2X2X:X;X}.}.).M.m.p.r.<.>.&.&.~ ! Q / ^ ) ) { } O.~.~.~.~.O.O.} [ ) ^ H.<X<X2X>X>X;X;X-X}.}.}.}.}.}.=X}.-X;X>X>X2X2X<X%X!.W.BXc.&.%.` ` ! ! ! / / / ^ ^ ) ) { { } o.O.O.~.~.~.~.~.~.^.O.O.o.o.{ [ [ ) ) ^ ^ ^ / / / ! ~ ~ ~ &.&.u.p.r.w.>.>.%.&.%.&.%.&.~ %.%.&.&.>.>.<.r.m.Z._.-X;X>X2X<X&XK.<.&.>.<.r.p.m.V._.}.-X;X>X2X2X<X$X@X",
"hXqXyXT.W.!.+X&X$X<X<X2X2X<X<X<X<X%X%X1X>X=X}.`.).V.g.i.r.<.>.&.&.` ~ ! Q / ^ ^ ) { } o.~.O.~.~.~.O.o.} [ ) ^ ^ ^ Q ! ~ &.&.>.>.<.r.p.m.V.).}.-X-X:X>X2X<X@X#X&X$X<X<X<X<X$X&X%X@XHXW.Y.yXpX0Xm L Y A q =.` ` ` ! ! Q / / ^ ) ) { { o.O.~.~.~.~.~.~.O.O.o.[ [ [ ) ^ ^ ^ / Q ! ~ ~ &.<.g.p.r.w.<.>.>.>.>.>.>.>.<.5.r.p.m.).'.;X>X2X<X`.o.} { ) ^ ^ Q Q ! ~ &.&.>.>.r.r.p.m.V._.}.-X-X>X2X2X2X<X&X@XHXW.T.BXyXpXqX0XlXM K L Y T I S i e 7 2 O .     . o 2 7 r V S J !.@X@X@X%X@X$X&X$X<X<X2X2X2X2X2X>X>X:X;X-X}.'.'.m.&.` ` ` Q ! Q Q / ^ ^ ) ) { } o.o.O.~.~.~.~.~.~.O.O.o.{ { ) ) ^ ^ ^ ^ / Q ! ~ ~ &.&.m._.].=X-X;X:X>X>X2X2X2X2X<X<X<X<X&X+X%X%XoX@X%XoXoXSXu q 4 1 . .     o 1 4 w u S I T Y R J M lXhXqXtXyXY.T.W.oX+X$X<X2X2X>X:X-X'._.Z.m.p.r.w.>.&.&.` ~ ! Q / ^ ) { } o.O.~.~.~.~.O.o.} ) ) ^ y.$X<X<X2X2X>X:X;X-X=X}.}.}.}.-X=X;X;X>X>X2X2X<X@X!.AXBXtX1.` ` ` ! ~ ! ! / / ^ ^ ^ ) ) { } } o.O.~.~.~.~.~.~.^.^.O.O.o.{ { [ [ ) ^ ^ ^ ^ / / Q ! ~ ~ &.&.>.r.5.<.>.>.%.%.~ ~ ~ ~ ~ ~ ~ ~ &.&.>.>.r.p.M._.}.-X>X2X2X<X#XK.>.>.w.r.g.M.Z.`.=X;X>X2X2X<X<X#X",
"m 0XtXyXT.W.+X@X$X<X<X2X2X<X<X2X<X<X%X@X,X-X=X}.).V.m.p.r.w.>.>.&.` ~ ! Q / ^ ^ ) [ } o.O.~.~.~.~.O.o.o.[ ) ^ ^ ^ Q ! ~ ~ &.&.>.<.r.p.m.V.).'.}.-X:X>X2X2X<X@X@X&X<X$X<X<X<X$X$X@X+XW.R.Y.uXqXhXM R Y C 7 =.` ` ~ ! ! / / / ^ ) ) { } o.O.O.~.~.~.~.~.~.o.o.} [ [ ^ ^ ^ ^ Q Q ! ~ ~ %.<.g.t.r.<.<.>.&.>.*.>.>.>.>.<.r.p.m.Z._.-X>X2X<X`.} { ) ) ^ ^ Q ! ~ ~ &.&.>.<.w.p.m.V.).'.}.-X:X>X2X2X<X$X@X+XW.R.Y.uXuXpX8XlXM H L E T Y D V y 0 3 O X     . o 1 7 w u C I UX@X@X@X@X&X@X&X$X<X<X<X2X2X2X2X2X>X:X;X-X-X'._.).V.w.` ` ` ! ! Q / / ^ ^ ) ) { { o.O.O.~.~.~.~.~.~.O.O.o.} } ) ) ^ ^ ^ / / Q ! ~ ~ ~ &.M.}.}.-X;X:X>X2X2X2X2X<X2X<X<X$X$X%X%X@X%X@XoX+XoXoXCXr 7 1 O .   . . O 3 0 y V D Y T E P H vXhXqXtXuXBXT.W.!.@X$X<X2X2X>X:X-X-X_.Z.V.g.p.w.>.>.&.` ~ ! Q / ^ ^ ) { } O.~.~.~.~.O.o.} [ ) ^ ^ &.J.$X<X2X>X>X>X;X;X-X-X-X-X-X-X;X;X>X>X2X2X2X<X@X!.T.yXtXj.&.` %.~ ! ! ! / / / ^ ^ ) ) { } } o.O.O.~.~.~.~.~.~.O.^.O.o.o.{ [ [ ) ^ ^ ^ ^ / / / ! ~ ~ ~ &.&.<.<.>.&.%.&.~ ~ ~ ~ ! ! ~ ~ ~ ~ ~ >.>.<.p.m.Z.}.-X:X>X2X<X$X@Xy.<.r.p.m.V._.}.-X;X>X2X2X<X%X",
"P lXrXuXY.T.!.+X&X$X<X2X<X2X2X<X2X<X<X%X@X,X=X'.`.V.V.g.i.w.<.>.&.` ` ~ ! Q / ^ ) [ { o.O.~.~.~.~.^.O.o.} [ ) ^ ^ ^ Q ! ~ ~ >.&.<.5.r.p.M.V._.'.-X;X:X2X2X2X<X@X&X$X$X<X<X<X$X&X%X@XoXW.R.BXuXqXlXJ E U u 4 $.` ` ~ ! ! ! / / ^ ) ) { { o.O.~.~.~.~.~.~.~.O.o.[ [ [ ) ^ ^ ^ Q Q Q ~ ~ &.>.p.r.r.>.>.>.&.&.&.*.*.>.>.<.r.t.m.V._.-X:X2X<X`.e.) ) ^ ^ / Q ! ~ ` &.>.>.r.r.p.M.Z._.}.-X;X>X2X2X2X<X&XoXW.W.T.BXuXpXqX0XlXH K R W Y I S u w 4 1 X .     . 1 2 0 y V D Y P GX@X@X@X&X%X&X$X<X<X2X2X2X2X2X2X>X-X-X*X}.'.).Z.m.>.&.` ` ! ! ! Q ^ ^ ^ ) ) { { o.o.O.~.~.~.~.~.~.O.O.o.} } ) ) ) ^ ^ ^ / / Q ! ~ &.&.<.}.-X;X;X>X>X2X2X2X2X<X2X<X<X&X&X%X%X@X%XoXoXoXoXoXoXh 3 < o       O 1 7 r i S I T Y R J M lXrXqXtXyXG.W.W.+X%X$X<X2X2X>X;X-X}.).V.m.p.r.w.>.&.&.` ! ! Q / ^ ) { } o.O.~.~.~.~.o.o.[ ) ) ^ ^ Q H.%X<X<X>X2X>X>X;X;X-X-X-X-X;X;X:X>X>X2X2X2X%X@XW.R.yXqX3X:.%.` ~ ~ ! ! ! / / ^ ^ ^ ) ) { } } o.O.~.~.~.~.~.~.^.O.O.O.o.{ [ [ [ ) ^ ^ ^ ^ / / Q ! ~ ~ &.&.&.>.>.&.~ &.~ ~ ! ! ! Q ! Q ~ ~ ~ &.>.<.r.m.V._.=X;X:X2X2X<X#XE.g.u.m.V.).`.-X;X>X>X2X<X<X",
"E H hXqXyXT.W.oX@X&X<X<X2X2X2X2X<X<X2X<X%X%XOX=X'.).V.m.p.r.w.>.&.&.` ~ ! Q / ^ ^ ) { } o.O.~.~.~.^.~.o.} [ ) ^ ^ / Q ! ~ &.~ >.>.<.r.p.m.V.Z.}.}.-X:X>X2X2X<X$X@X@X&X$X$X<X$X&X$X%X@XoXR.Y.BXpXrXlXJ Y U r 2 $.%.` ! ! ! / / ^ ^ ) ) { } o.O.O.~.~.~.~.~.O.O.o.} [ ) ) ^ ^ ^ / Q ~ ~ ~ %.>.r.<.<.>.&.&.&.&.&.&.&.>.>.<.w.r.g.V._.-X:X2X<X#Xe.) ^ ^ / Q ! ~ ` &.&.>.<.r.p.m.V.).'.-X-X:X>X2X2X<X$X+XoXW.T.Y.uXuXpX0XlXM J L Y T Y S V r 0 2 < .     . o 1 7 w i S I Y Y GX@X@X@X#X&X&X<X<X<X2X2X2X2X>X>X:X-X-X*X'.).V.V.m.>.&.` ` ~ Q Q Q Q ^ ^ ) ) { { } O.O.O.~.~.~.~.~.~.O.o.} } [ ) ) ^ ^ ^ / / ! ~ ~ ~ &.5.=X;X:X>X>X2X2X2X2X2X<X<X<X&X$X%X@X%XoX%X+XoXoXoXoXoXa 1 . .   . . O 4 0 y C I Y T R P H lXhXqXtXyXY.T.W.!.@X$X<X2X2X>X:X-X*X_.Z.M.g.t.w.>.*.&.` ~ Q Q / ^ ) [ { o.O.~.~.~.~.~.O.} [ ) ^ ^ Q ! <.+X<X<X2X>X>X>X:X:X;X;X;X;X;X:X>X>X2X2X2X<X%X@XW.BXyXqXlXl.&.` ` ` ! ! ! Q / ^ ^ ^ ) ) ) } } o.O.O.~.~.~.~.~.~.~.O.O.o.o.{ [ [ ) ^ ^ ^ ^ / / Q Q ~ ~ ~ &.&.&.&.&.~ ~ ! ! Q Q Q Q Q Q Q Q ~ &.&.>.r.p.M._.}.-X:X2X2X<X<X@XH.p.m.V._.}.-X;X2X2X2X<X",
"F R M 0XpXyXT.W.+X%X$X<X2X<X2X2X2X2X<X<X<X%X@X-X'.`.V.m.g.r.w.>.>.&.` ~ ! ! Q / ^ ) { { o.O.~.~.~.~.^.O.o.[ [ ) ^ ^ / Q ! ~ &.&.>.>.r.p.p.V.Z._.}.-X;X>X2X2X2X<X#X@X%X$X&X$X<X&X&X%X@XoXoXR.Y.yXpX0Xm K Y D e < $.%.` ! ! ! ! / / ^ ) ) { { o.o.~.~.~.~.~.~.O.O.o.} [ [ ) ^ ^ ^ ^ Q ! ~ ~ %.>.<.<.>.>.&.&.&.` &.&.&.&.>.1.<.r.p.M._.=X;X2X<X#Xq.) ^ ^ / Q ! ~ &.&.>.<.w.p.p.V.Z._.}.-X:X>X2X2X<X<X%X@XW.W.Y.BXuXpXqXhXm H K R T T I Z y w 4 < X .   . . 1 3 w y V D Y T E GXXX@X@X$X%X$X<X<X2X2X2X2X2X>X>X:X-X*X'.'.Z.V.m.g.w.&.` ` ` ! Q Q Q ^ ^ ^ ) { { } o.O.~.~.~.~.~.~.O.O.O.} } [ ) ) ^ ^ ^ ^ / Q ! ~ ~ &.&.`.;X2X>X2X2X2X2X<X<X<X<X$X&X%X%X%XoXoX+XoXoXoXoXoXoXY.O .       O 1 0 e V S Y T E L J n lXwXqXuXyXY.W.!.+X&X$X2X2X2X>X;X*X'.).V.m.p.w.w.>.&.` ` ~ Q Q ^ ^ ) { } O.~.O.~.~.O.O.} [ ) ^ ^ ^ Q ! 1.J.$X<X<X2X2X>X>X>X:X:X:X:X:X>X>X2X2X2X2X<X@X@XR.Y.yXqXlXjX&.` ` ` ! ! ! ! / / / ^ ) ) ) { } } O.O.~.~.~.~.~.~.~.O.O.O.o.} [ [ [ ) ^ ^ ^ ^ / / Q ! ~ ~ &.&.&.&.~ ~ ~ ! Q Q / / / ^ Q Q Q ~ ` >.>.r.p.m.Z.}.-X;X>X2X2X<X$XE.H.V.).}.=X;X>X>X2X<X",
"&.F L lXrXtXBXR.!.+X&X<X<X2X2X2X2X2X2X2X2X<X%X+X|.'.Z.V.g.p.r.<.>.&.&.` ~ ! Q / ^ ^ ) { } O.O.~.~.~.O.~.o.} [ ) ^ ^ / Q ! ~ ` &.>.<.<.r.p.m.V.).'.-X;X:X>X2X2X<X$X@X@X@X$X&X&X&X&X%X%X+XoXW.R.BXuXpXkXM R E C q < $.%.~ ` ! ! / / ^ ^ ) ) { } o.O.O.~.~.~.~.~.~.O.o.} [ ) ) ^ ^ ^ Q Q ! ~ %.~ &.1.>.>.*.&.&.&.` ` &.&.&.&.>.<.r.p.M._.=X:X2X<X#Xe.^ ^ / ! ! ~ ~ &.>.>.w.r.p.m.V._.'.-X;X:X2X2X2X<X&X@XoXW.Y.Y.uXpXqXhXlXM J R E T I S i r 8 2 O .     . o 1 7 e V S Y T Y L GX@X@X@X$X&X<X<X<X2X2X2X2X>X>X:X-X*X}.'._.V.m.g.t.w.*.` ` ! ! ! Q Q ^ ^ ^ ) ) { } o.O.O.~.~.~.~.~.~.O.O.o.} [ [ ) ^ ^ ^ / Q Q ! ~ ~ ` &.`.:X2X2X2X2X2X2X<X<X$X&X%X%X%XoX%X+XoXoXoXoXoX+X!.oXG.-     . . 1 3 w y Z I Y E R J H lXhXqXtXyXY.T.W.oX@X$X<X2X2X>X:X-X}._.Z.m.p.t.w.<.&.&.` ~ ! / / ^ ) { } o.O.~.~.~.~.O.o.} [ ) ^ ^ Q Q ~ ~ A.%X<X<X2X>X2X>X>X>X:X:X>X>X>X>X2X2X2X<X<X@X!.R.BXtXqXlXJ 9.&.` %.! ! ! ! / / ^ ^ ^ ) ) { } } o.O.O.~.~.~.~.~.~.~.O.O.o.o.{ [ [ ) ^ ^ ^ ^ / / Q Q ~ ~ ~ &.&.&.~ ! ! Q / / ^ ^ ^ ^ ^ Q Q ~ ~ &.>.<.p.m.Z._.}.;X>X2X2X<X<X+XXXZ._.}.;X>X2X2X2X",
"` &.b J hXqXyXY.W.oX+X$X<X2X<X2X2X2X2X2X2X2X<X%X+X'._.V.m.p.t.w.>.>.&.` ~ ! Q Q / ^ ) { } o.O.~.~.~.~.O.O.} [ [ ^ ^ ^ Q Q ~ ~ &.&.>.<.5.p.m.V.Z.`.}.-X:X>X2X2X<X<X%X@X@X@X&X%X&X&X&X$X@X@XoXR.R.BXuX8XkXH U Y B 9 O $.%.( ! ! ! ! / / ^ ) ) { } o.o.~.O.~.~.~.~.O.O.o.} [ ) ) ^ ^ ^ ^ Q Q ~ ~ &.&.>.>.&.&.&.~ &.~ ` &.` &.>.>.>.r.t.M._.}.>X2X<X#Xq.^ ^ Q ! ! ` &.&.>.<.r.p.m.V.Z.'.}.-X:X>X2X2X<X<X@XoXW.R.Y.BXuXpX8XkXm H L E W Y D C t q 3 < X .     X 1 7 0 y Z D Y T R K fX@X@X@X$X$X$X<X<X2X2X2X2X>X:X:X-X}.'._.Z.V.m.p.t.>.*.&.` ` ! ! Q Q ^ ^ ^ ) ) { { o.O.O.~.~.~.~.~.~.O.O.o.} [ [ ) ^ ^ ^ ^ / / Q ~ ~ &.&.r.2X2X2X2X2X<X<X<X$X$X%X%X@X%XoXoXoXoXoX!.!.!.!.!.!.!.=     . O 3 0 r V D Y T E L H vXhXrXtXuXyXT.R.!.@X&X$X2X2X2X:X;X*X_.).V.m.t.r.>.>.&.` ~ ! ! Q / ^ ) { } O.~.~.~.~.O.O.} [ ) ) ^ ^ Q ! ~ %.5.oX$X<X<X2X2X>X>X>X>X>X>X>X2X2X2X2X2X<X&X@X!.R.BXtXrXn P G &.%.%.( ! ! ! ! / / ^ ^ ^ ) ) { } } O.O.~.~.~.~.~.~.~.O.O.O.o.} [ [ [ ) ^ ^ ^ ^ ^ / Q ! ~ ~ ~ &.&.~ ! Q Q / / ^ ^ ^ ^ ^ ^ Q Q ~ &.>.>.t.g.V._.}.=X;X2X2X2X<X$X@X[.}.=X;X>X2X2X",
"` ` &.b H hXtXyXT.W.oX&X<X<X2X2X2X2X2X2X2X2X2X<X%XXX`.V.V.g.t.r.<.>.&.&.` ~ ! / / ^ ) ) { } O.~.~.~.~.~.O.o.} [ ) ^ ^ Q Q ! ~ ~ &.>.<.r.r.p.m.V.).}.-X;X>X>X2X2X<X&X+XoXoX%X%X&X&X$X@X&X+XoX!.W.Y.yXuXeXlXJ E U u 9 O $.%.%.~ ! ! ! / ^ ^ ) ) { { o.O.~.~.~.~.~.~.~.O.} } { ) ) ^ ^ ^ / Q ! ~ ~ &.&.>.>.&.` &.` ` ` ~ ` ~ &.%.>.>.r.p.M._.}.:X2X<X#X>.^ / ! ! ~ ` &.>.>.w.t.p.m.V.).}.-X:X:X2X2X2X&X%X+X!.W.T.BXuXtXeX0XlXM K R Y T I S u e 7 2 X .     X o 2 0 r V S Y T E L J xX@X@X%X@X&X<X<X2X2X2X2X2X>X:X-X-X}._.).V.m.p.r.r.<.&.&.` ~ ! ! Q Q / ^ ^ ) ) { } } o.O.~.~.~.~.~.~.~.O.o.} } [ ) ) ^ ^ ^ / Q ! ~ ~ ~ &.r.2X2X2X2X2X<X<X&X&X%X@X%X+XoXoXoXoX!.!.!.!.!.!.!.!.!.j.  . X 1 7 w i S I T W L P M lX9XqXtXyXBXR.W.+X+X<X<X2X2X>X;X-X}._.V.m.p.r.w.>.&.&.` ~ Q Q ^ ^ ) { } o.O.~.~.~.~.O.o.[ [ ^ ^ ^ Q Q ~ %.%.>.K.$X<X<X2X2X2X2X>X>X>X2X>X2X2X2X2X<X<X%X@XW.T.yXtXrXvXP T 9.%.%.` ~ ! ! ! / / ^ ^ ^ ) ) { } } o.O.O.~.~.~.~.~.~.~.O.O.o.o.{ { [ ) ^ ^ ^ ^ / / Q Q ~ ~ ~ &.&.~ Q Q / ^ ) ^ ) ) ^ ^ ^ Q Q ~ &.>.<.r.p.M.Z.}.=X;X>X2X2X<X<X%XXX X;X>X2X2X",
"! ~ &.&.jXn rXtXY.T.!.+X$X<X2X2X2X2X2X2X2X2X2X2X2X%X@XZ.V.m.p.r.w.>.&.&.~ ~ ! ! Q / ^ ) { } o.O.~.~.~.^.^.o.{ [ ) ) ^ ^ Q ! ~ ~ &.&.>.<.r.p.m.V.).`.}.-X:X>X2X2X<X<X@X@X!.+X%X%X%X&X&X$X@X@XoXW.R.Y.uXpX0Xm K Y D u 9 o $.%.` ! ! ! ! / / ^ ^ ) { } } O.~.O.~.~.~.~.O.~.o.} { ) ) ^ ^ ^ ^ Q Q ~ ~ ` &.&.&.&.~ ~ ~ ~ ~ ~ ~ ~ &.&.&.>.<.p.m._.}.;X2X2X$X>./ Q ! ! ` &.&.>.<.r.p.m.V.).`.}.;X:X>X2X2X2X&X@XoXW.R.Y.uXuXpX0XlXm H L E T Y D V r 0 2 < X     . o 1 7 w i S I Y T R P M mX@X+X%X&X$X<X<X2X2X2X2X>X:X:X-X*X}._.Z.M.m.p.w.w.>.&.&.` ~ ~ ! Q Q / ^ ^ ^ ) { } } o.O.~.~.~.~.~.~.O.O.O.} [ [ [ ) ^ ^ ^ / / Q ~ ~ ~ &.r.].2X<X<X<X$X$X%X%X%XoX+XoXoXoX!.!.W.!.W.!.!.!.!.!.!.G.  . O 3 0 t Z D Y T E P H vXhXqXpXyXG.T.W.!.+X$X<X<X2X>X>X-X}.'.Z.V.p.t.w.<.>.&.` ~ ~ Q / ^ ^ ) { o.O.~.~.~.~.~.o.} [ ) ^ ^ ^ Q ! ~ %.>.>.t.@X$X<X<X2X2X2X2X2X>X2X2X2X2X2X2X<X<X%XoXW.R.yXtX0Xn P E c %.%.` ! ! ! ! ! / / ^ ^ ) ) ) { } } O.O.~.~.~.~.~.~.~.O.O.O.o.{ { [ [ ) ^ ^ ^ ^ ^ Q Q ! ~ ~ ~ &.>.Q / ^ ^ ) ) ) ) ) ^ ^ ^ Q ~ &.&.<.r.p.m.Z.`.=X;X;X2X2X2X<X&X@X+X;X>X2X",
"! ~ ~ ` &.K lXqXyXY.W.+X@X$X<X2X2X2X2X2X2X2X2X2X2X<X%XXXZ.m.p.i.w.,.>.&.&.~ ~ Q / ^ ^ ) { { o.O.~.~.~.~.O.O.o.} [ ) ^ / Q Q ! ~ &.&.&.<.r.r.m.m.Z._.}.-X;X>X2X2X2X&X$X@XoXW.+X@X&X%X$X@X$X@XoXoXW.T.Y.uXpXhXM R E D t 9 < $.&.~ ` ! ! / / ^ ^ ) ) { } } o.~.~.~.~.~.~.O.O.o.} { ) ) ^ ^ ^ / Q ! ! ` ` &.&.&.&.~ ~ ~ ~ ! ~ ~ ~ ~ &.&.>.<.p.m._.}.:X2X<X&Xp.! Q ~ ~ ` &.>.,.r.r.m.m.Z._.}.-X:X>X2X2X<X<X&X+XW.R.Y.BXuXpX8XdXn H K R T Y I Z u w 7 1 X .     . < 3 0 y V D Y T E L J m dXJX@X@X&X$X<X<X2X2X2X2X>X:X-X-X}._.).V.m.p.t.r.>.>.&.&.` ` ~ ! ! Q / ^ ^ ) ) ) } } o.O.O.~.~.~.~.~.~.O.o.o.} [ ) ) ^ ^ ^ / Q Q ! ~ ~ ~ &.[.<X<X$X&X%X%X%X+X+XoXoXoX.XW.!.!.W.Q.!.!.W.!.W.!.!.G.; X 1 7 r i S I T E L J m lXwXpXtXyXY.T.!.!.&X&X2X2X2X:X;X-X}.).V.m.p.r.<.>.&.` ` ! Q Q ^ ^ ) { } O.O.~.~.~.O.O.o.[ ) ^ ^ / Q ! ~ %.&.*.1.g.E.$X<X<X2X2X2X2X2X2X2X2X2X2X2X<X<X&X+X!.W.Y.yXtX0Xm L Y D 6.%.%.%.~ ! ! ! / / ^ ^ ^ ) ) { } } o.O.O.~.~.~.~.~.~.~.O.O.O.} } [ [ ) ) ^ ^ ^ ^ / Q Q ! ~ ~ ~ &.&.^ ^ ) ) { { { ) ^ ^ Q Q ~ &.&.>.r.p.m.Z.`.}.-X;X>X2X2X2X&X%X+X#X2X",
"! ! ~ ~ &.8.H hXpXyXT.W.+X&X<X2X2X2X2X2X2X2X2X2X2X2X<X%XXXB.m.i.r.<.>.&.&.` ~ ! ! / / ^ ) { } O.~.~.~.~.^.O.O.{ [ ) ) ^ ^ Q Q ~ ` &.>.>.<.r.p.m.V.).'.}.;X:X>X2X2X2X&X@XoXW.W.+X@X&X%X$X%X%X@XoXoXW.Y.BXuXqXkXM U Y S t 9 < $.&.~ ! ~ ! ! / ^ ^ ) ) { } o.o.O.~.~.~.~.~.O.O.o.} { ) ) ^ ^ ^ / Q Q ! ~ &.&.&.~ &.~ ~ ! ! ! ! ! ~ ~ &.&.>.<.t.M._.}.;X2X2X$XH.! ! ~ ` &.&.>.w.r.p.m.V.).}.}.;X:X>X2X2X<X&X@XoXW.R.Y.yXuXqX9XlXM J L E T Y S B r 8 3 O .     . o 1 7 e i S I Y T R J M lXhXW.@X%X&X$X<X<X2X2X2X2X>X:X-X*X}._.Z.M.m.p.w.w.>.&.&.&.` ` ~ ! ! Q Q ^ ^ ^ ) ) { } o.O.O.~.~.~.~.~.~.O.O.o.} [ ) ) ) ^ ^ ^ / Q ! ~ ~ &.&.B.<X$X&X%X%X@XoXoXoX!.!.!.!.W.!.W.W.W.W.Q.W.!.!.W.!.XX; O 3 w y Z D Y Y R P H lXhXqXtXyXY.T.W.!.+X$X<X2X2X2X:X-X}._.Z.V.p.t.w.>.>.&.~ ` ! Q / ^ ) ) } o.O.~.~.~.~.O.o.} [ ) ^ ^ / Q ~ ~ &.>.>.<.t.J.+X$X<X<X2X2X2X2X2X2X2X2X2X2X<X<X&X@X!.R.Y.uXtX0XM L Y D s %.%.` ! ! ! ! ! / / ^ ^ ^ ) ) { } } O.O.~.~.~.~.~.~.~.~.O.o.o.} { [ [ ) ^ ^ ^ ^ ^ Q Q ! ! ~ ~ &.&.^ _ { { } { { { ) ^ ^ Q ~ &.&.>.r.r.m.V._.}.-X;X:X2X2X2X<X<X+X%X",
"Q Q ! ~ ~ &.8.m 0XuXY.R.!.+X$X<X2X2X2X2X>X2X2X2X2X2X2X<X@XXXN.p.r.w.>.>.&.~ ~ ! Q / ^ ^ ) ) } o.O.O.~.~.~.^.O.} } [ ^ ^ / Q ! ~ ~ %.&.>.<.r.p.m.M.Z._.}.-X:X>X2X2X<X<X#X@X!.W.R.+X@X$X@X$X@X%X+XoXW.R.Y.BXpX8XlXJ R Y S y 9 2 $.%.%.! ! ! Q / ^ ^ ^ ) { { o.O.O.~.~.~.~.~.~.O.o.} } ) ) ^ ^ ^ / Q ! ~ ~ %.&.&.~ ~ ~ ! ! ! ! ! ! ~ ~ ~ &.>.<.r.m._.}.:X2X<X$XK.Q ~ ~ %.&.>.<.w.i.m.B.)._.}.-X:X>X2X2X<X<X@X+XW.R.Y.yXuXtX0XhXm H K E W Y I Z y q 3 1 . .   . . 1 3 0 y C D Y W E L H vXhX0XW.@X@X#X$X<X2X2X2X2X>X:X:X-X}.'.).Z.m.p.t.r.>.>.&.&.&.` ` ~ ! ! Q / / ^ ^ ) ) { { o.o.O.~.~.~.~.~.~.O.O.o.} } ) ) ^ ^ ^ ^ / Q ! ~ ~ ~ &.5.&X&X%X+XoXoX+X!.W.!.W.W.W.W.W.W.W.W.W.W.W.W.!.W.!.!.Y.1 8 r V S Y T E L J m lXqXpXuXyXY.T.!.+X$X<X2X2X>X:X-X-X'.).V.m.p.r.<.>.&.&.~ ! Q Q ^ ^ ) { } o.~.~.~.~.~.O.o.[ ) ^ ^ Q Q ! ~ %.&.>.<.r.p.B.@X&X<X<X<X2X2X2X2X2X2X2X2X<X<X&X&X@XoXR.Y.uXpX0XM L Y D s =.%.%.` ~ ! ! ! / / ^ ^ ^ ) ) { } } o.O.O.~.~.~.~.~.O.~.~.O.O.} } [ [ ) ) ^ ^ ^ ^ / Q Q ! ~ ~ %.&.` _ { } o.} } { ) ^ Q Q ~ %.&.>.r.t.g.M._.`.-X;X:X2X2X2X<X<X%X",
"^ Q Q ! ~ ~ &.8.lXrXuXY.W.oX$X$X<X2X2X2X2X2X>X2X2X2X2X2X<X@XQ.m.i.r.<.>.&.&.~ ~ ! Q / ^ ) ) { } O.~.~.~.~.^.O.o.[ [ ) ) ^ / Q ! ~ &.&.>.>.<.r.p.m.Z._.}.=X;X:X>X2X2X<X&X@XoXW.R.R.oX@X&X@X$X@X@X@XoXW.R.Y.BXpX0XlXK Y Y S y q 4 =.%.%.! ! ! ! / ^ ^ ) ) { { o.o.~.~.~.~.~.~.O.O.o.} { ) ) ) ^ ^ ^ Q Q ! ~ ~ &.&.~ ~ ! ! Q ! Q Q Q ! ~ ~ &.>.<.t.m._.}.;X2X2X$XK.! ~ %.&.>.>.w.r.p.m.V._.}.-X-X>X2X2X2X<X&X@XoXW.Y.Y.uXpXpX0XlXM K L Y T I S i r 7 2 O .     . o 3 7 e V S Y Y Y R J M lXrXqXW.@X@X$X$X<X<X2X2X2X>X:X;X-X'._.).M.m.p.w.w.>.&.&.` &.` ` ` ! ! ! Q ^ ^ ^ ) ) { { o.o.O.~.~.~.~.~.~.O.O.o.} } { ) ) ^ ^ ^ ^ / Q ! ~ ` &.5.K.@X@XoXoXW.!.!.W.W.W.W.T.W.W.T.W.W.T.W.W.W.Q.W.!.!.Y.a w i Z I T W R J M lXhXqXtXyXBXT.W.!.+X$X<X2X2X2X:X-X}._.V.m.p.t.w.>.*.&.` ~ ! Q / ^ ) { { o.O.~.~.~.~.O.o.} [ ) ^ ^ Q Q ~ ~ &.>.>.5.r.m.M.{.+X$X<X<X2X2X2X2X2X2X2X2X<X<X&X@X@XoXR.Y.uXqXhXM R Y D e : &.%.` ! ~ ! ! ! / / ^ ^ ) ) ) { } } o.O.~.~.~.~.~.~.O.~.O.O.o.} [ [ [ ) ) ^ ^ ^ ^ / / ! ! ~ ~ &.&.' } o.O.o.} { ) ^ ^ Q ~ &.&.>.<.p.g.B.Z.`.=X-X:X:X2X2X2X<X",
"^ / Q Q ! ~ ~ &.:.hXpXyXR.W.+X$X<X2X2X2X2X>X>X2X2X2X2X2X2X<X%XC.p.r.<.>.>.&.~ ~ ! Q / ^ ^ ) { } o.O.^.~.~.^.^.o.o.[ ) ^ ^ / / ! ~ ~ &.&.>.<.r.p.m.V.Z._.}.-X:X>X2X2X<X&X&X+XW.R.Y.Y.@X@X%X%X&X@X@XoX!.W.T.BXuXpX0Xm L E Y S u q 9 -.%.%.~ ! ! Q / ^ ^ ^ ) { { o.O.O.~.O.~.~.~.~.O.o.} } ) ) ^ ^ ^ / Q Q ~ ~ &.&.~ ! ! ! ! Q Q Q Q Q Q ~ ~ %.>.<.p.m._.=X;X2X2X$XK.~ ~ &.&.>.,.r.p.m.V.)._.}.-X:X>X2X2X<X&X+XoXW.R.Y.yXuXpX0XkXM H K E W Y D Z t q 3 < . .   . o 1 7 w y Z I Y W E P M n hXrXtXBX@X@X#X<X<X2X2X2X2X>X:X-X-X}.).).m.g.p.w.>.>.&.` ~ &.&.` ~ ~ ! Q Q / ^ ^ ) ) { { } o.O.O.~.~.~.~.~.~.O.o.o.{ { ) ) ^ ^ ^ / / Q ! ~ ~ ` &.K.oXoX!.!.W.W.W.W.W.T.T.T.T.T.T.T.T.W.T.W.W.W.W.!.!.oXg r V D Y Y E L H m hXqXpXuXBXY.W.!.@X$X<X2X2X>X>X-X*X_.).V.m.t.r.>.>.&.` ~ ! Q / ^ ^ ) { } O.~.~.~.~.O.O.} [ ) ^ ^ Q Q ~ ~ %.&.>.<.r.p.m.V.].@X#X<X<X<X2X2X2X2X2X<X2X<X<X&X+XoXW.R.yXyXqXhXM L Y D e & $.%.%.` ~ ! ! ! / / ^ ^ ^ ) ) { } } o.O.O.~.~.~.~.~.~.~.~.O.o.o.} { [ ) ) ^ ^ ^ / / Q Q ! ~ ~ ~ &.&...O.O.o.} { _ ^ ^ Q ~ ` &.<.<.r.g.M.Z.`.}.-X:X>X2X2X2X",
"^ ^ ^ / Q ! ~ ~ &.:.0XuXBXR.!.+X$X<X2X2X2X2X>X>X2X>X2X2X2X2X<X@XB.p.w.<.>.&.&.~ ~ Q Q / ^ ) ) { o.O.~.~.~.~.^.O.o.{ [ ) ^ ^ / Q ! ~ &.&.>.>.5.t.p.M.Z._.}.=X;X>X2X2X2X<X&X@XoXW.R.Y.Y.+X@X@X&X@X%X@XoXHXW.R.BXuXqXhXM L Y Y S B t q -.%.%.! ~ ! ! / / ^ ) ) { { } o.~.~.~.~.~.O.~.O.o.} } ) ) ) ^ ^ ^ / Q ! ~ ~ &.&.! ! Q Q Q / / / Q Q ~ ~ &.&.<.p.M._.}.;X2X2X$XU.~ %.&.>.,.<.t.p.m.Z._.}.-X;X>X>X2X2X<X&X@X!.W.Y.BXuXpXqX0XlXH K R Y T I Z i w 7 1 X .     . o 3 0 r V S Y Y W L J M kX9XqXtXY.@X@X#X$X<X<X2X2X2X>X:X-X}.'.).V.m.p.t.w.>.*.&.` ! ` &.` ` ! ~ ! Q Q ^ ^ ^ ) { { } o.O.~.~.~.~.~.~.~.O.o.o.} [ [ ) ^ ^ ^ ^ / / ! ~ ~ &.&.b.W.W.W.W.T.T.T.T.T.T.Y.Y.Y.T.Y.T.Y.T.T.T.W.W.!.!.!.!.pXi Z I T Y R J M lX0XpXuXyXY.T.W.+X@X$X<X2X2X>X:X-X}.).Z.m.p.r.w.>.&.&.~ ~ ! Q / ^ ) { } o.O.~.~.~.~.O.o.[ [ ) ^ ^ Q Q ~ %.&.>.>.r.t.g.V.Z._.+X@X$X<X<X<X2X2X2X2X<X2X<X&X&X@XoXW.R.yXuXqXkXM L Y D e 2 @ %.%.` ~ ! ! ! ! / / ^ ^ ^ ) ) { } } o.O.~.~.~.~.~.~.~.O.~.o.o.} { [ [ ) ) ^ ^ ^ ^ / / Q ! ~ ~ &.&.&.O.@.O.} { ) ^ ^ Q ~ ` &.>.<.r.g.B.Z._.}.-X;X:X>X2X",
") ^ ^ / / Q ~ ~ ~ &.:.qXuXY.W.oX#X<X2X2X2X>X>X2X>X>X>X2X2X2X2X<X#XA.r.<.>.&.&.` ~ ! Q / ^ ^ ) { } O.O.~.~.~.^.^.o.} [ ) ^ ^ / Q ! ~ ~ %.>.>.<.r.p.m.V._.`.=X-X>X>X2X2X<X&X@X+XW.W.Y.yXyX+X@X@X&X@X@X+XoXW.R.Y.yXuXqXlXM R Y Y D V u t ;.%.%.~ ! ! Q / ^ ^ ^ ) { { o.o.O.~.~.~.~.~.~.O.o.} { [ ) ^ ^ ^ / Q Q ~ ~ ~ &.&.! Q Q / / Q / Q Q Q Q ~ &.>.<.p.M._.=X;X2X2X$XU.<.&.&.>.w.r.p.m.V.).'.*X-X:X2X2X2X<X$X+XoXW.T.Y.yXuXpX0XkXM J L E T Y D V t 0 3 O X     . o 1 7 w u S I T Y R K H lXhXqXtXuXY.@X@X&X$X<X2X2X2X>X>X;X-X}._.).V.m.t.r.w.>.&.` ` ! ~ &.` ` ~ ! ! Q Q ^ ^ ^ ) ) { } o.O.O.~.~.~.~.~.~.~.O.o.} { [ ) ) ^ ^ / / Q Q ~ ~ ~ &.5.R.W.T.T.T.Y.Y.BXY.Y.Y.Y.Y.BXY.Y.Y.Y.T.T.W.W.W.!.!.!.CXC D Y T R L M n 0XqXpXuXBXT.W.!.+X$X<X2X2X>X:X;X}._.Z.V.g.t.w.>.>.&.` ~ Q Q / ^ ) ) { o.O.~.~.~.~.O.o.} [ ) ^ ^ Q Q ~ ~ &.&.>.<.r.p.m.V._.}. X@X#X$X<X<X<X2X<X2X<X<X<X$X$X@XoXW.T.BXuXqXkXH R Y S r 4 # #.` %.~ ~ ! ! ! / / ^ ^ ^ ) ) { } } o.O.O.~.~.~.~.~.~.~.~.O.o.o.} [ [ [ ) ^ ^ ^ ^ / / Q ! ~ ~ ~ &.&.+.~.@.} { ^ ^ ^ ! ! &.&.>.<.r.g.m.Z._.'.-X:X:X2X",
") ) ^ ^ ^ / Q ! ~ ` &.:.pXyXT.!.+X$X<X2X2X2X>X>X>X>X>X>X>X2X2X2X<X@XB.<.<.>.&.~ ~ ~ ! / / ^ ) { { o.O.~.~.~.~.O.O.o.[ [ ) ^ ^ / Q ! ~ &.&.>.>.r.p.p.M.Z._.}.-X;X>X2X2X2X<X%X@XW.W.T.BXuXyX+X@X@X%X@X@XoXoXW.R.Y.yXtXeXlXH R Y Y U Z V i ;.&.` ~ ~ ! ! / / ^ ) ) { { o.o.O.~.~.~.~.O.~.O.O.} } ) ) ) ^ ^ ^ / Q ~ ~ ~ &.%.Q Q Q / ^ Q ^ Q Q Q Q ~ &.&.<.p.M._.=X;X>X2X<X+X5.&.>.>.w.t.g.M.Z._.}.-X:X:X2X2X<X<X%X@XW.W.T.yXuXtX8XkXlXH K E E Y I Z y w 7 1 X .     . 1 3 0 y V D Y T E L H m kXwXqXuXyXG.!.+X&X$X<X2X2X2X>X>X:X-X'._.).m.m.t.w.>.>.&.~ ~ Q ~ &.&.~ ~ ~ ! Q Q ^ ^ ^ ) ) { { } o.~.O.~.~.~.~.~.O.O.O.} [ [ ) ) ^ ^ ^ / / Q ! ~ ~ &.&.F.Y.Y.Y.Y.BXG.yXY.BXyXyXBXBXY.Y.BXBXZXT.T.W.!.!.!.+XoXH Y T E L J M lX0XpXuXyXY.T.!.oX$X$X2X2X2X>X;X-X}.).V.m.p.r.w.>.&.&.` ! ! Q / ^ ) { } o.~.~.~.~.~.O.o.[ [ ^ ^ ^ Q ! ~ %.&.>.<.w.p.m.V.).'.=X X#X#X%X$X<X<X<X<X2X<X<X$X&X@X@XoXR.Y.yXyXqXhXH R Y S t 7 < : %.%.` ~ ~ ! ! ! / / ^ ^ ^ ) ) { } } o.O.~.~.O.~.~.~.~.~.O.O.o.} { { [ ) ) ^ ^ ^ ^ / Q Q ! ~ ~ &.&.` +.@.} { ^ ^ Q ! ~ &.>.>.<.r.g.M.Z._.}.}.;X:X",
"{ ) ) ^ ^ / Q Q ~ ~ ~ &.4XtXY.T.!.#X<X2X2X2X2X>X>X>X>X>X>X>X2X2X<X<X@Xn.<.>.&.&.` ~ ! / / ^ ^ ) { } O.O.~.~.~.^.^.o.} [ ) ^ ^ / Q ~ ~ ~ %.>.<.<.r.p.m.V.).'.-X-X:X>X2X2X<X&X@X+XW.T.Y.yXuXiX+X@X@X%X@XoXoX!.W.T.BXuXpX0XlXJ R Y Y U D S C 7.` %.~ ! ! ! / ^ ^ ^ ) { { } O.O.~.~.~.~.~.~.O.O.} } ) ) ^ ^ ^ / Q Q ~ ~ ~ &.%.Q Q ^ ^ ^ ^ ^ ^ ^ Q Q ~ &.>.<.p.M.).-X;X>X2X<X@X<.>.>.w.r.p.m.V._.'.-X;X:X>X2X2X<X&X+XoXW.Y.Y.yXtXqXrXlXM J L Y T Y S B r 8 2 O .     . o 1 0 w i S I T Y L P M lXhXqXtXyXY.T.!.+X&X$X<X2X2X2X>X>X-X-X'._.V.m.p.r.w.>.&.&.~ ! ! ^ ` &.~ ~ ~ ! Q Q / ^ ^ ) ) { { o.o.O.~.~.~.~.~.~.~.O.o.o.{ { ) ) ^ ^ ^ / Q Q ! ~ ` ` &.F.BXY.yXBXyXBXyXyXyXyXG.yXyXyXyXBXG.BXZXW.W.W.!.!.!.oXMXY W R K H lX0XqXtXuXY.T.W.oX@X$X<X2X2X>X:X-X}._.).m.g.t.w.>.&.&.` ~ Q Q / ^ ^ { } o.O.O.~.~.O.~.o.} ) ) ^ ^ Q Q ~ ~ %.>.>.5.r.p.m.Z._.}.-X:X#X+X#X&X$X<X<X<X<X<X<X$X$X@XoXoXR.T.yXtXrXhXH R Y D u 0 3 % $.&.` ` ~ ! ! ! Q / ^ ^ ^ ) ) { } } o.o.O.~.~.~.~.~.~.~.~.O.O.O.{ { [ [ ) ^ ^ ^ ^ / Q Q Q ~ ~ ~ &.&...o.} { ^ ^ Q ! ~ ~ >.>.w.r.p.m.Z.).}.=X;X",
"} { ) ^ ^ ^ ^ / Q ! ~ ~ &.4XuXY.W.!.$X<X2X2X2X>X>X:X>X:X>X>X>X2X2X2X&X@Xg.<.&.&.~ ~ ! ! / / ^ ) { } o.O.~.~.~.~.O.O.o.[ ) ) ^ ^ / Q ~ ~ &.&.>.<.r.p.m.M.).`.}.-X:X>X>X2X2X<X%XoX!.W.Y.BXuXpXtX+X@X@X%X@XoXoXW.W.R.BXuXpX0Xm J R Y T Y U D S 9.` ~ ` ! ! ! / / ^ ^ ) { { } O.O.~.~.~.~.O.~.O.O.} } [ ) ) ^ ^ ^ / Q ! ~ ~ &.%.Q / ^ ^ ^ ) ^ ^ ^ Q ~ ~ &.>.w.p.M.).=X:X>X2X<X#Xy.>.<.r.p.g.B.Z.`.}.-X:X>X2X2X<X<X@X@XW.W.Y.yXuXpX8XkXm H L R T Y I C y q 4 < X .     X 1 3 w y Z D Y T E L H vXhXrXpXuXyXY.W.!.+X#X$X<X<X2X>X>X>X;X*X'.).V.m.p.r.<.>.&.` ~ Q Q Q ` ] ~ ~ ~ ! ! Q / ^ ^ ) ) { { } o.O.O.~.~.~.~.~.O.~.O.o.{ [ ) ) ) ^ ^ ^ / Q Q ! ~ &.&.1.yXyXyXuXuXuXuXuXuXuXuXuXuXyXyXyXBXG.BXW.W.W.!.!.!.+XFXT Y L H m lXrXpXuXyXY.T.!.+X%X$X<X2X2X>X;X*X'.).V.m.p.w.w.>.&.` ` ! Q Q / ^ ) { } O.~.~.~.~.O.O.o.[ ) ) ^ ^ Q ! ~ &.&.>.<.5.p.m.V._.}.}.;X>X2X#X+X&X$X$X<X<X<X<X<X&X%X@XoXoXR.Y.yXuXrXhXH R Y U V r 8 4 : &.` ` ~ ~ ! ! ! / / ^ ^ ^ ) ) { { o.o.O.O.~.~.~.~.~.~.~.O.O.O.{ } [ [ ) ) ^ ^ ^ ^ / / Q ! ~ ~ ~ &.>.| } ) ^ ^ Q ! ~ &.&.>.r.r.g.M.Z._.}.=X",
"o.{ { ) ) ^ ^ / / Q ~ ~ %.~ 4XBXY.!.+X$X<X2X2X>X>X>X;X>X;X>X>X>X2X2X2X<X@Xu.>.&.&.~ ~ ! Q / ^ ) ) { } O.~.~.~.~.~.O.o.{ [ ) ^ ^ / Q ~ ~ %.&.>.>.w.t.p.m.V.).}.-X;X:X2X2X2X<X%X#X!.W.T.Y.uXuXpXaX@X@X@X@X@XoXoXW.R.Y.BXuXqXhXm J L E W T Y Y D 9.&.` ~ ! ! ! / ^ ^ ^ ) { { } O.O.~.~.~.~.~.~.O.O.o.[ [ ) ) ^ ^ ^ Q Q ! ~ ~ &.` Q ^ ^ ) ^ ) ^ ^ ^ ^ Q ~ &.>.w.p.V._.}.:X2X2X<X%Xy.<.w.r.p.m.Z.).}.-X;X>X2X2X2X<X&X#XW.W.T.BXyXpXqXhXlXM J R E T I S i r 7 2 O .     . o 3 7 r i D I T Y L J M lX9XqXtXyXY.T.W.!.@X$X$X<X2X2X2X>X:X-X*X'.Z.V.p.p.w.>.>.&.` ~ ! ^ ^ ` &.` ~ ~ ! Q Q Q ^ ^ ^ ) ) { } o.O.O.~.~.~.~.~.~.O.O.o.} } ) ) ) ^ ^ ^ / / ! ~ ~ ~ &.1.uXuXpXuXtXtXpXtXpXtXtXuXuXtXyXyXyXY.BXT.W.W.!.!.oXoXoXPXR K M lX0X8XuXyXY.T.W.oX+X$X<X2X2X>X:X-X}._.Z.m.p.t.w.>.>.&.` ~ ! Q ^ ^ ) ) } o.O.~.~.~.~.O.o.} [ ^ ^ ^ Q Q ~ ~ %.>.>.r.r.g.M.Z._.}.-X:X2X2X%X@X%X&X$X$X<X$X$X&X&X@X+XoXW.R.Y.yXuXrXlXM R Y Y C u r q a ;.&.` ` ~ ! ! ! Q / ^ ^ ^ ) ) { { } o.O.O.~.~.~.~.~.~.~.^.O.O.o.} { [ ) ) ) ^ ^ ^ / / Q Q ~ ~ ~ ~ &.&.{ ) ^ / ! ! ~ &.>.>.5.r.g.M.Z._.}.",
"O.o.} { ) ^ ) ^ / / Q ! ~ &.&.4XY.T.!.$X<X2X2X2X>X>X:X;X:X;X>X>X>X>X2X2X&X@Xu.>.&.~ ~ ~ Q / ^ ^ ) { } o.O.~.~.~.~.^.o.} [ ) ^ ^ ^ / Q ~ ~ &.&.>.<.r.p.m.V.Z.`.}.-X:X>X2X2X<X<X@X@X!.W.Y.BXuXpX8XsXoX@X@X@X@XoXoXW.R.Y.yXuXqXhXm J L U W E T Y Y 9.%.%.! ~ ! ! / / ^ ^ ) { { } O.O.~.~.~.~.~.O.O.O.o.[ [ ) ) ^ ^ ^ / Q ! ~ ~ &.%.Q ^ ^ ) ^ ) ^ ^ ^ Q Q ~ &.>.r.p.V._.}.;X>X2X<X%XA.w.r.p.m.V.Z.`.}.-X:X>X2X2X<X&X@X+XR.R.Y.yXuXpX0XhXM J L E Y Y D V y 0 3 < X     . X 1 7 w y Z I Y T R K H vXhXqXtXuXBXY.W.!.!.@X%X$X<X<X2X2X>X:X-X}.'.).V.p.p.w.>.&.&.~ ! Q ^ ^ _ &.&.~ ~ ~ ! Q Q ^ ^ ^ ) ) { { o.o.O.~.~.~.~.~.~.O.O.o.} } ) ) ) ^ ^ ^ / / Q ! ~ ~ &.&.c.uXpXpXpXpXpXpXqXtXqXtXtXtXtXuXyXG.Y.T.W.!.!.!.XXoXoXPXL H m hXqXpXuXBXY.W.!.+X&X<X2X2X>X>X;X*X_.).V.m.t.r.>.>.&.` ` ! ! Q / ^ ) { } O.~.~.~.~.O.O.} [ ) ) ^ Q Q ! ~ &.&.>.<.r.p.m.V._.}.-X;X>X>X2X<X@X#X&X&X&X$X$X&X&X&X@X@XoXW.R.Y.yXuX8XkXH L Y Y D C B u y , &.` ` ~ ! ! ! Q / / ^ ^ ^ ) ) { { } o.O.O.~.~.~.~.~.~.~.O.^.o.} } [ [ ) ) ) ^ ^ ^ ^ / Q ! ~ ~ ~ &.&.` ) ^ / ! ! ~ &.>.<.r.t.g.B.Z.`.",
"O.O.o.{ { [ ^ ^ ^ / / ! ~ ~ ` &.x.Y.W.+X$X<X2X2X>X>X:X:X;X;X;X;X>X>X2X2X2X<X@Xy.&.&.~ ! Q / / ^ ) { { o.O.~.~.~.~.O.O.o.} [ ) ^ / Q Q ~ ~ &.&.>.<.r.r.g.m.Z._.}.-X:X>X2X2X2X<X&X@X!.W.Y.Y.uXuXqXrXdXoX+X@X@XoXoXW.W.T.Y.yXpXqXhXm H L L E E T T T 7X%.%.~ ! ! ! / / ^ ^ ) { { } o.O.~.~.~.~.~.~.O.O.o.} [ [ ^ ^ ^ ^ Q Q ~ ~ ~ %.&.^ _ ^ [ [ ) ) ^ ^ ^ Q ` &.>.r.p.V._.-X;X>X2X<X&XU.w.r.p.m.Z._.}.-X;X>X2X2X2X&X$XoXoXW.Y.BXuXpXqXhXlXM K R W T I Z i w 7 1 X .     X o 3 0 r V S Y T E L J m lXwXqXtXyXY.T.W.+X@X+X@X$X<X2X2X2X>X:X-X}._.V.V.p.r.w.>.&.` ~ ! Q ^ ^ _ &.` ` ~ ~ ! Q Q Q ^ ^ ) ) { } o.O.O.O.~.~.~.~.~.~.O.O.} } [ ) ) ^ ^ ^ / / Q ! ~ ~ ~ &.j.qXrX8XrXeXrXqX9XqXqXqXqXqXtXuXyXyXY.T.W.W.!.!.oXoXoXGXJ M lX0XrXtXyXY.R.W.oX#X$X<X2X2X>X;X-X}._.V.m.p.r.w.>.&.&.` ! ! Q ^ ^ ) { } o.O.~.~.~.~.O.} } [ ^ ^ ^ Q ! ~ ~ %.>.>.w.p.p.V.Z.'.}.;X:X2X2X2X<X@X@X+X$X&X&X&X&X%X$X@XoXoXW.R.Y.yXtXrXkXH L Y T I D S S S k 9.` %.` ~ ! ! ! Q Q / ^ ^ ) ) { { { o.O.O.O.~.~.~.~.~.~.O.^.O.o.o.{ { ) ) ^ ^ ^ ^ / / Q Q ! ~ ` ~ &.` ( Q Q ! ~ &.&.>.<.r.p.m.V.).",
"~.O.O.o.{ [ ) ) ^ ^ / / Q ! ~ ` &.x.Y.W.+X$X<X2X2X>X:X:X;X;X;X;X;X:X>X>X2X2X<X@Xy.&.~ ~ ! ! / ^ ^ ) { } o.~.O.~.~.~.O.O.{ [ ) ) ^ ^ / Q ~ ~ &.>.>.<.r.p.m.V.Z.}.}.-X:X>X2X2X<X&X@XoXW.W.Y.yXuXpX8XkXmXoX+XoX@XoXoXW.W.R.BXuXpXqXhXm H K L U R Y W E F &.` ~ ~ ! ! / / ^ ^ ) { { } o.O.~.~.~.~.~.~.O.O.o.[ [ [ ) ^ ^ ^ ^ Q Q ~ ~ &.&.^ _ [ [ { ) ) ^ ^ Q Q ` &.<.r.p.V._.-X-X>X2X<X$XE.r.p.g.V.).}.}.;X:X>X2X2X2X&X@XoXW.R.Y.yXuXqX0XkXm J L Y W Y D V r 0 2 < X     . o 1 7 w i S I Y T R P H lXhXwXpXyXyXT.T.!.+X&X+X%X&X<X<X2X2X>X:X-X'._.V.m.p.r.<.>.&.` ~ Q Q ^ ) { ] ` ` ~ ~ ! Q Q ^ ^ ^ ) ) ) { } o.O.~.~.~.~.~.O.~.O.o.o.} [ [ ) ) ^ ^ ^ / Q Q ! ~ ` &.:.0X0XhX0XhX0XrX0XrX9XrXqXqXqXtXyXyXY.T.W.!.!.!.oX+XoXDXxXm 0X8XtXuXY.Y.W.!.+X$X$X2X2X2X:X-X*X_.).m.m.t.w.>.>.&.` ` ! Q Q ^ ^ ) { o.O.~.~.~.~.O.O.} [ ) ) ^ ^ Q ! ~ &.>.>.<.r.p.m.V._.}.-X;X>X2X2X<X$X@X@X@X&X$X%X$X&X$X@X%XoXoXR.R.Y.yXuX8XkXM L R T T Y Y I Y I 7X&.%.~ ~ ~ ! ! Q Q / ^ ^ ^ ) { { { } o.O.O.~.~.~.~.~.~.O.~.O.O.o.{ } ) [ ) ^ ^ ^ ^ ^ / / Q ! ~ ~ &.&.~ Q Q ! ~ &.&.>.<.r.p.m.V.",
"~.~.O.O.o.{ [ ) ^ ^ ^ / Q ! ~ ~ &.&.F.R.oX$X<X2X2X>X>X:X;X;X;X-X-X:X:X>X2X2X2X&X@X<.&.~ ~ Q Q ^ ^ ^ { } o.O.~.~.~.~.~.O.} } ) ^ ^ / / ! ~ ~ %.&.>.<.r.p.m.M.)._.}.-X:X>X2X2X2X<X&X+X!.W.Y.BXyXpXqX0XlXxXoX@XoX+XoXoXW.R.T.BXuXpX0XhXm M J J L R R E E F &.%.~ ~ ! ! / / ^ ^ ) ) { } o.O.O.~.~.~.~.~.O.o.o.} { ) ) ^ ^ ^ / Q Q ~ ~ &.&.^ [ { { { { ) ^ ^ Q ~ ` &.>.r.p.V._.-X;X>X2X<X$XE.p.m.M.Z._.}.-X:X>X2X2X<X$X&X+XW.R.Y.yXuXpXqX0Xn H K R E Y I Z y w 7 1 X .     . < 3 0 y V D Y T E P J m kXrXtXuXyXY.W.W.oX#X$X@X+X&X<X2X2X2X>X;X-X}.).V.m.p.r.>.>.&.~ ! Q ^ ^ ) { ' &.` ` ~ ! Q Q Q ^ ^ ^ ) { { } o.O.O.~.~.~.~.~.~.~.O.o.} [ [ ) ^ ^ ^ ^ / / ! ~ ~ ~ &.;.6XlXlXlXlXlXlXhXhXhX0X0XqXpXtXiXyXY.T.W.!.!.+XoX@X@XoXzXkX0XpXuXyXY.R.W.oX$X<X<X2X2X>X;X-X}.).V.m.p.r.w.>.&.` ` ~ Q / / ^ ) { } o.O.~.~.~.~.O.o.[ ) ^ ^ / Q ! ~ %.%.>.>.r.p.m.V.).'.}.;X:X2X2X2X&X&X@XoX+X@X$X@X$X@X&X+X@XoXoXW.R.Y.yXtXqXlXm K R E Y W T T T T T 9.&.` ` ~ ~ ! Q Q / / ^ ^ ^ ) { { { o.O.O.O.~.~.~.~.~.~.~.O.O.O.} } { ) ) ) ^ ^ ^ / / / Q ! ~ ~ ~ &.&.~ ~ ~ ~ &.>.>.r.r.p.B.",
"~.~.~.O.O.} } [ ) ) ^ ^ ^ Q Q ~ ~ &.&.F.W.oX$X<X2X2X>X:X:X-X-X-X-X-X;X:X>X>X2X2X<X@X<.%.! ! Q Q ^ ) ) { } O.~.O.~.~.~.O.o.} [ ) ^ ^ / / ! ~ %.&.>.>.<.r.p.m.V._.}.-X-X:X>X2X2X<X&X@XoXW.R.Y.yXuXpX9XkXm bXoXoXoXoXoX!.W.R.Y.BXuXpXeXkXlXm H H K K U R R b &.` ~ ~ ! ! Q Q ^ ^ ) { { } o.O.~.~.~.~.~.~.~.O.o.[ [ [ ) ^ ^ ^ ^ Q Q ~ ~ &.&._ { { } } { ) ^ ^ Q ~ &.&.<.r.p.V._.-X-X>X2X2X$XE.p.m.V._.}.}.;X:X>X2X2X<X&X@XoXW.T.BXuXuXqX0XlXM J R Y W Y S B r 8 2 O .     . O 1 0 w i Z Y Y Y R P M lXhXqXtXyXY.Y.W.!.@X$X<X#X+X&X<X<X2X2X>X:X-X'.).V.m.t.r.>.&.&.` ! Q ^ ^ { } +.` ` ` ~ ! ! Q Q ^ ^ ^ ) ) { { o.o.O.~.~.~.~.~.~.O.~.o.} } ) [ ) ^ ^ ^ / / Q ! ~ ~ &.&.8Xm m M m m m vXlXlXlXhX0XqXtXuXyXY.T.W.!.!.+XoX@X@X@XJX0XrXtXuXY.T.W.!.+X$X<X2X2X>X:X-X*X_.).m.g.t.w.>.*.&.~ ~ ! Q / ^ ) ) } o.O.~.~.~.~.O.o.} [ ) ^ ^ ^ Q ~ ~ &.>.>.<.r.p.m.Z._.}.-X;X>X2X2X2X&X@XoXW.+X@X$X%X&X@X%X@X@XoXHXW.R.BXuXuXqXlXm H L R U E E Y E Y E G &.%.~ ~ ~ ~ Q ! Q / ^ ^ ^ ) ) { { } o.O.O.~.~.~.~.~.~.~.~.O.O.o.} { [ ) ) ) ^ ^ ^ / / / Q ! ! ~ &.&.~ ~ ~ ~ >.>.<.r.p.p.",
"~.~.~.~.O.O.o.[ [ ) ^ ^ ^ / Q Q ~ ~ %.&.T.!.+X$X2X2X>X>X;X;X-X-X-X-X-X-X:X>X2X2X<X<XU.` ` ! Q Q ^ ^ ^ { } o.O.~.~.~.~.O.O.} [ { ^ ^ / Q ! ~ ~ &.&.>.<.r.p.m.V.Z._.}.-X:X>X2X2X<X<X%X+XW.W.Y.BXuXpXqXhXlXM nXoX+XoXoX!.!.W.R.Y.yXuXpX8XkXlXm M M J J K K R b &.` ~ ~ ! Q Q Q ^ ^ ) ) { } o.O.O.~.~.~.~.~.O.O.o.} { ) ) ^ ^ ^ / Q ! ~ ~ ~ &._ } } } { { [ ^ ^ Q Q &.&.<.r.m.V._.-X:X>X2X<X$X@XC.M.Z._.}.-X:X>X2X2X<X<X@X+XW.R.Y.G.uXpX0XhXm H K E W Y D C y q 4 < X     . X 1 3 0 y Z D Y T E L H vXhX9XpXyXyXY.W.W.+X%X<X<X<X+X#X<X<X2X2X>X;X-X}.).M.m.r.r.>.*.` ~ ! Q ^ ) { } +.&.` ` ~ ~ ! Q Q / ^ ^ ) ) { } o.O.O.~.~.~.~.~.~.O.~.o.} } [ ) ) ^ ^ ^ / / / ! ~ ~ %.&.8.J H H H H M M M m lXkXhXqXqXyXyXT.T.W.W.!.+X@X@X@X@XJXiXqXyXyXY.R.!.oX&X<X2X2X2X:X;X*X'.).V.m.p.r.<.>.&.&.~ ! Q Q ^ ^ ) { } O.O.~.~.~.~.O.o.[ ) ^ ^ / Q ! ~ &.%.>.<.r.p.m.V.).'.-X;X:X2X2X<X<X@X+XW.R.oX@X@X+X&X@X&X@X+XoXW.W.R.Y.uXtXqX0Xm M J L L L L L L R L L 7.&.%.~ ~ ~ Q ! Q Q / ^ ^ ) ) ) { } } o.o.~.~.~.~.~.~.~.O.~.O.o.o.} } ) ) ) ^ ^ ^ ^ / / / ! ~ ~ ~ %.&.&.&.~ >.>.<.r.p.",
"~.~.~.~.~.O.o.o.[ [ ) ) ^ ^ ^ / Q ~ ~ &.1.W.oX$X<X<X2X>X:X;X-X-X*X-X-X-X-X:X:X>X2X2X<XK.` ! ! Q ^ ^ ) ) { o.O.~.~.~.~.~.O.o.} ) ) ^ ^ / Q ! ~ %.&.>.>.w.r.p.m.Z._.}.-X-X>X>X2X2X<X&X@XoXW.R.BXuXuXpX0XkXM H LX!.+XoXoX!.W.W.R.Y.uXuXpX8X0XlXlXm m M H J J S v ` &.~ ~ ! Q Q Q ^ ^ ) ) { } o.o.~.~.~.~.~.~.O.O.o.} [ [ ) ^ ^ ^ ^ Q Q ! ~ %.&.| } o.o.} { ) ^ ^ Q ~ &.>.<.t.m.V._.-X;X>X2X2X&X@XL.Z._.}.-X;X>X>X2X2X<X&X@X!.W.T.Y.uXpXpX0XlXM K L Y T U S B w 8 2 X X     . o 3 0 e N S Y Y Y L J M lXrXqXtXyXY.T.W.!.+X<X<X<X<X@X%X<X<X2X2X>X;X-X'.).V.g.r.w.>.&.` ~ Q Q ^ ) } o.+.' &.` ~ ~ ! Q Q ^ ^ ^ ) ) ) { } o.O.~.~.~.~.~.~.O.~.O.o.} [ [ ) ) ^ ^ ^ / / ! ! ~ ~ &.8.L K P K J P J H H M lXhXrXqXyXyXT.T.!.!.!.+X@X@X@X@X@XiXtXyXY.T.W.oX+X$X<X2X2X2X:X-X}._.Z.m.p.t.w.>.>.&.` ~ ! Q ^ ^ ) ) } o.O.~.~.~.~.O.o.} [ ) ^ ^ / Q ! ~ &.>.>.<.t.p.V.Z._.}.-X:X>X2X2X<X&X@XoXW.Y.R.@X@X@X&X@X&X@XoXoXW.W.R.Y.uXtXqX0XlXm M H J J J J H J J H gX&.%.~ %.~ ! Q Q Q / ^ ^ ^ ) ) { { } o.o.O.~.~.~.~.~.~.~.O.O.O.o.} } [ ) ) ) ^ ^ ^ / / / Q ! ~ ~ ~ &.&.&.&.>.<.r.p.",
"O.~.~.~.~.O.~.o.o.[ [ ) ^ ^ ^ / Q Q ~ ~ ` 1.W.+X$X2X2X>X>X;X-X-X*X}.}.}.-X-X;X>X>X2X<X<XK.~ ! Q Q ^ ^ ) { } o.O.~.~.~.O.~.o.} { ) ^ ^ / Q ! ~ ~ &.&.>.<.r.p.m.V.).'.}.-X:X>X2X2X<X<X@X@XW.R.Y.BXuXpXrX0Xn M K PXoXoXoXoXoXW.W.Y.Y.yXuXpXqX0X0XkXlXcXm M M H J hX%.%.~ ~ ~ Q Q ^ ^ ^ ) ) { } o.O.~.~.~.~.~.~.~.O.o.} { [ ) ^ ^ ^ / Q Q ~ ~ ~ &.] o.o.o.} { ) ^ Q ~ ~ &.>.<.r.m.Z._.-X:X>X2X2X&X@XZ._._.}.-X:X>X2X2X<X$X+XoX!.T.Y.yXuXpXeXlXm J L E W Y D V y 0 3 < X     . X 2 3 w y S D Y E E K M vXhX9XtXyXyXT.W.!.+X@X<X2X2X2X#X#X<X<X2X2X>X;X-X'.).M.g.r.<.>.&.` ! Q ^ ^ ) } o.~.] &.~ ~ ~ ! ! Q Q ^ ^ ^ ) { { } o.O.O.~.~.~.~.~.~.O.O.o.} { [ ) ) ^ ^ / / / Q ! ~ ~ &.&.b U R R L L L P J H m hX9XqXyXyXT.T.W.!.!.@X@X%X@X@X@XW.uXyXY.R.oX@X&X<X2X2X>X:X-X-X_.).V.m.i.r.<.>.&.` ~ ~ Q Q ^ ^ ) { o.o.~.~.~.~.O.O.} [ ) ^ ^ Q Q ~ ~ %.&.>.<.r.p.m.V.).}.-X:X>X2X2X2X<X@X+XW.R.Y.BXW.+X+X@X@X@X@XoXoXW.W.T.Y.yXtXpX9XlXlXm m M M m M M m m m lX:.&.~ ~ ~ ~ ! Q Q / / ^ ^ ^ ) ) { } } o.O.O.~.O.~.~.~.~.~.~.O.O.o.} { [ ) ) ) ^ ^ ^ / / Q Q ! ~ ~ ~ &.%.>.>.w.r.",
"O.~.~.~.~.~.O.O.O.} [ [ ) ^ ^ ^ ^ Q Q ~ ~ &.1.W.#X$X2X2X>X:X;X-X-X}.}.}.}.}.-X;X:X>X2X2X<XK.~ Q Q ^ ^ ) ) } o.O.~.~.~.~.O.O.o.{ ) ) ^ ^ / Q ~ ~ &.&.>.<.r.r.m.m.Z._.}.-X;X:X>X2X2X<X&X@XoXW.T.Y.uXuXqX0XlXM J L UXXXoXoX!.!.W.W.T.BXuXuXpXpX0X0X0XkXlXcXcXm m M hX%.%.~ ~ ~ Q Q Q ^ ^ ) ) { } } O.O.~.~.~.~.~.O.O.o.} { ) ) ) ^ ^ ^ Q Q ~ ~ ~ &.] +.o.o.} { ^ ^ ^ Q ~ &.>.<.p.m.Z._.-X;X>X2X2X&X%XP._.}.-X;X>X>X2X2X<X$XoXHXW.Y.BXuXpXqX0XlXM K R Y T I Z i e 7 1 X .     . o 3 0 e V D Y Y Y L J M kXrXqXtXyXBXT.W.!.#X&X<X2X2X>X#X#X<X<X2X2X>X;X-X_.).M.g.r.w.>.&.` ! Q ^ ^ [ } O.~...&.~ ~ ~ ! ! Q Q ^ ^ ^ ) ) { } } O.O.~.~.~.~.~.~.O.~.o.} { [ [ ) ^ ^ ^ / / / ! ~ ~ ` &.7XT T Y E R E L L J M lXrXqXyXyXT.W.W.!.+XoX@X%X%X@X@X@XVXY.T.W.oX+X$X<X2X2X2X:X-X}._.V.m.p.r.w.>.&.&.` ~ ! Q ^ ^ ) ) } o.O.~.~.~.~.O.o.} [ ^ ^ ^ Q Q ~ %.&.>.>.5.r.g.M.Z.`.}.-X:X>X2X2X<X&X@XHXW.Y.BXuXVXoX+X@X@X@X@XoXoXW.W.T.Y.uXtXpXqX0XkXkXkXlXcXlXlXlXkXlXkX0X5X2.%.~ ~ ~ ~ ! ! Q / / ^ ^ ) ) ) { } } O.O.~.~.~.~.~.~.~.~.O.O.O.o.} [ [ ) ) ^ ^ ^ ^ / / / ! ! ~ ~ &.&.&.<.r.",
"o.O.~.O.~.~.~.~.O.o.o.[ [ ) ^ ^ ^ Q Q ! ~ ~ &.5.!.$X<X2X2X>X:X-X}.}.}.}.}.}.-X-X-X:X>X2X<X<XJ.! Q / ^ ^ ) { } O.O.~.~.~.~.~.o.} { ) ^ ^ / Q ! ~ ~ &.>.>.<.r.p.m.V.).'.-X-X:X2X2X2X<X&X+XoXW.R.Y.yXuXpX9XhXm H L R UX!.+X!.oXW.!.T.Y.Y.yXuXpXpX8XeX0X0XhXlXlXlXcXcX8X%.%.~ ~ Q Q Q Q ^ ^ ) ) { } o.O.O.~.~.~.~.~.~.O.o.} } ) ) ^ ^ ^ / Q Q ~ ~ ~ &.] @.@.o.} { ) ^ Q ~ ~ &.<.<.p.m.Z._.-X;X2X2X2X&X+X[.'.}.;X:X2X2X2X<X$X%XoXW.T.Y.yXtXpX9XlXnXJ L E T Y D V r 0 3 O X     . o 1 7 w y S I Y T R K H lXhXqXtXtXG.T.W.!.+X#X<X2X2X2X>XOX@X$X<X2X>X>X;X-X'.).m.m.r.<.&.&.` ! Q Q ) { } o.@.@.&.&.` ~ ! ! Q Q Q ^ ^ ) ) { } } O.O.O.~.~.~.~.~.O.~.o.} } [ [ ) ) ^ ^ / / / ! ~ ~ ` &.9.Y Y T T Y W Y L K H lXwXqXyXBXY.W.W.!.@X@X%X@X%X@X@X@XR.R.R.oX@X&X<X2X2X>X>X-X}.'.Z.V.m.p.w.>.>.&.` ~ Q Q Q ^ ^ ) { o.O.~.~.~.~.~.O.} [ ) ^ ^ Q Q ~ ~ %.&.>.<.r.p.M.V.).}.-X:X>X2X2X<X&X@X+XW.R.Y.uXuXiXJXoX@X@X@XoXoXoXW.W.T.Y.yXuXtXqX8X0X0X0XhX0X0X0X0X0X0XeXrX8X0.&.&.~ ~ ~ ! ! Q / / ^ ^ ^ ) ) { } } o.O.O.~.~.~.~.~.~.~.~.O.O.o.} } [ [ ) ) ^ ^ ^ / / / Q ! ~ ~ ~ %.&.>.",
"} o.O.~.~.~.~.O.~.O.o.} { [ ) ^ ^ ^ ^ Q ! ~ ~ &.5.@X<X<X2X>X:X;X-X}.}.'.'.}.'.}.-X-X:X>X2X2X<XK.Q Q ^ ^ ) ) } o.O.~.~.~.~.O.O.} { { ^ ^ ^ / Q ~ ~ &.&.>.<.r.p.g.M.Z._.}.-X:X:X>X2X2X<X%X@X!.W.T.BXuXtXqX0XlXM J R E UX!.!.XXoXW.W.W.Y.BXuXuXtXpXpX8XeXeX0X0XkXlXlXlX6X%.%.~ ~ ~ Q Q Q ^ ^ ) ) { { o.O.O.~.~.~.~.~.~.O.o.} } ) ) ) ^ ^ ^ Q Q ~ ~ ~ &.] @.@.o.} [ ^ ^ Q ~ ~ &.<.<.p.m.Z.].-X;X>X2X2X&X&X!.}.-X;X>X2X2X<X<X+X%XW.W.Y.BXuXpXqXhXn M K R W Y I Z u w 7 1 X .     . 1 3 0 y V D Y Y E L H m kXwXqXuXyXBXT.!.!.#X$X<X2X2X2X:X-X+X&X<X<X2X>X:X*X'.).m.p.r.w.*.` ` ! ^ ^ ) { } O.O.@.| &.` ~ ~ ! Q Q ^ ^ ^ ) ) ) { } o.O.~.~.~.~.~.~.O.~.o.o.} [ [ ) ) ^ ^ ^ / / Q ! ~ ~ &.&.F Y Y Y Y T Y R L H lXrXqXyXBXT.W.W.XX@X@X%X%X%X#X@X@XoXR.W.@X#X$X<X2X2X>X:X-X'.).V.m.p.r.w.>.&.&.~ ~ Q Q / ^ ) ) } o.O.~.~.~.~.O.o.[ [ ) ^ ^ Q Q ~ %.*.>.>.r.p.p.V.)._.-X-X:X>X2X2X<X&XoXW.W.Y.yXuXpX8XSXoX+X@XoXoXoX!.W.W.T.Y.yXuXtXpXpX8XrX8XrXeXeX8XpXpXpXpXpXpXk.1.&.~ ~ ~ ~ ! ! / / / / ^ ) ) ) { } } o.O.O.~.~.~.~.~.~.~.O.O.O.o.} { [ ) ) ) ^ ^ ^ / / / Q ! ~ ~ %.&.",
"{ } o.O.~.~.~.~.~.~.O.O.{ } [ ) ^ ^ ^ / Q ! ~ ~ &.5.@X<X2X2X>X;X-X}.}.'.}._.'.}.}.-X;X:X>X2X<X<XJ.Q / ^ ) ) } } O.~.^.~.~.~.O.o.} ) ) ^ ^ / Q ~ ~ ~ &.>.>.w.r.p.m.V._.'.-X;X:X2X2X2X<X&X#XoXW.T.Y.yXtXpX0XhXm H L E T UX@X!.!.!.!.W.T.Y.BXyXuXuXpXpXpXpX8XeXeX0XeXhXhX5X&.&.` ~ ~ Q Q / ^ ^ ^ ) { } } O.O.~.~.~.~.O.~.O.o.} } [ ) ^ ^ ^ ^ Q Q ! ~ ~ &.] @.@.o.} ) ^ ^ Q ~ &.&.<.w.p.M.)._.=X;X>X2X2X$X&XXX X;X>X>X2X2X<X&X+XoXW.T.Y.yXuXqX0XlXM J L Y T Y S V r 8 2 O .     . o 1 7 e i S Y T Y R K M lXhXqXtXiXG.T.W.!.@X&X<X2X2X>X:X;X X+X&X<X2X2X>X:X-X_.).M.p.r.>.*.` ` Q Q ^ ) } } O.O.O.' &.` ~ ! ! Q Q Q ^ ^ ^ ) { { } o.o.O.~.~.~.~.~.~.~.O.o.} } [ ) ) ^ ^ ^ / / Q ! ~ ~ &.&.k D I D Y Y T E L H n wXpXyXBXT.W.!.!.+X%X@X$X@X&X+X@X@XW.oX@X&X<X2X2X>X:X-X}.'.Z.M.g.t.r.>.>.&.` ~ ! Q / ^ ) [ { o.O.~.~.~.~.O.o.} [ ) ^ ^ Q Q ~ ~ %.&.>.<.r.p.m.V.).}.-X:X>X2X2X<X&X+XoXW.T.Y.yXpXrXhXdXDXoX+X@X@X!.!.W.W.T.Y.BXuXuXtXpXpXpXpXpXpXpXpXpXpXtXuXuXuXuX0.&.&.~ ~ ~ ! ! ! / / ^ ^ ^ ) ) { { } o.O.O.O.~.~.~.~.~.~.~.O.O.O.} } { ) ) ) ^ ^ ^ ^ / / / ! ~ ~ ~ ",
") } } o.O.~.~.~.~.O.~.O.o.{ { [ ) ^ ^ ^ / Q ! ~ ~ &.5.$X<X2X2X:X;X-X}.'._.'._._.}.}.}.-X:X>X2X2X&XJ.Q ^ ^ ) ) } o.O.~.~.~.^.^.O.} { ) ) ^ ^ / Q ~ ~ &.>.>.<.r.t.m.V.Z.'.}.-X;X>X2X2X<X<X@X@XW.W.Y.yXyXpXqXhXlXH J R E T J GX!.!.!.W.W.R.Y.BXuXuXuXuXpXtXpXpX8XrXeXrXeXeX0X2.~ ~ ~ ~ ! Q Q ^ ^ ) ) { { o.o.O.~.~.~.~.~.O.~.o.} } [ ) ) ^ ^ ^ / Q ! ~ ~ &.&.+.@.} } ) ^ ^ Q ~ &.&.<.r.p.M.).}.-X;X>X2X2X<X&XXX;X;X2X2X2X<X<X+X@XW.W.Y.yXuXpXqXkXm H K R T Y D Z y q 4 < X .     X 1 3 w y V D Y T R L H n hXwXqXyXyXY.W.W.+X%X&X<X2X2X>X:X-X}.{.$X<X<X2X2X:X-X'.).m.p.r.>.*.` ` Q Q ^ _ } } o.O.o.| &.` ` ~ ! ! Q Q / ^ ^ ) ) { { o.o.O.~.~.~.~.~.~.O.O.O.} { [ [ ) ^ ^ ^ / / / ! ! ~ &.&.7.V Z Z D I Y Y R H vXqXpXyXBXT.W.!.!.@X#X@X$X%X&X@X+X@XoX@X#X<X<X2X2X:X:X*X'._.V.m.p.r.<.>.&.&.~ ! Q Q / ^ ) { } o.~.O.~.~.~.O.o.[ ) ) ^ ^ Q ! ~ ~ >.>.<.r.t.m.V.).'.}.;X:X>X2X2X<X%X@XW.R.Y.yXuXpX0XlXm MX!.XXoX!.@X!.W.W.T.Y.Y.yXuXuXuXuXtXuXuXuXuXuXuXuXuXyXBXBXY.F.<.&.~ ~ ~ ~ ! ! / / / / ^ ^ ) ) { } } o.o.~.O.~.~.~.~.~.~.O.O.O.o.} } [ ) ) ) ^ ^ ^ / / / Q ! ! ",
") ) } } o.O.~.~.~.~.~.^.O.o.} [ ) ) ^ ^ ^ / Q ! ~ ~ &.y.&X2X2X>X;X-X}.'.'._._._._._.}.=X-X:X>X2X2X$XJ.^ ^ ) { { o.O.~.^.~.^.~.O.o.} ) ) ^ / / Q ~ ~ &.&.&.<.w.p.p.m.V.).}.-X:X:X2X2X2X<X&X+XoXW.T.Y.yXuXpX0XlXm J L E T Y D SXoX!.!.W.R.R.Y.BXBXuXuXuXtXuXpXpXpXpX8XpXeXpX8X2.&.~ ~ ! ! Q Q ^ ^ ^ ) { { } O.O.~.~.~.~.~.O.~.O.} } [ ) ) ^ ^ ^ Q Q ! ~ ~ &.&.+.@.o.{ ^ ^ Q ! ~ &.>.<.r.g.M.).].=X;X>X2X2X<X&X+XOX>X>X2X2X<X$X@X!.W.Y.Y.yXpXqX0XlXM K L T Y Y S i e 7 2 O .     . o 2 7 e V D I T Y R J M kX0XqXtXyXY.T.W.!.+X#X<X2X2X>X:X;X}.'.XX@X&X2X2X2X;X-X'.).M.p.r.>.*.` ! ! ^ ^ ) } } } o.o.{ &.&.` ! ! ! Q / ^ ^ ^ ) ) { { o.o.O.~.~.~.~.~.~.^.O.O.o.} [ [ ) ^ ^ ^ ^ / Q ! ~ ~ ~ &.;.s u i C S Y T R H n wXtXyXY.T.W.!.+X@X&X%X&X%X&X%X#X@X@X@X&X<X2X2X2X:X-X}._.Z.B.p.r.w.>.>.&.` ~ ! Q / ^ ^ { { o.O.~.~.~.~.O.o.} [ ) ^ / Q Q ~ %.%.&.>.<.t.p.m.Z._.}.-X:X>X2X2X<X&X+XoXW.T.BXuXpX8XhXm H LXGX@X@X!.!.!.!.W.T.Y.BXBXyXuXuXyXuXuXuXyXuXuXBXyXBXBXY.Y.T.R.D.&.&.` ~ ~ ! ! ! / / ^ ^ ^ ) ) ) { } o.o.O.~.~.~.~.~.~.~.~.~.O.o.o.} { { ) ) ) ^ ^ / / / Q ! ",
"^ ) ) { } O.O.~.~.~.~.~.O.O.o.} [ [ ) ^ ^ ^ / Q ! ~ ` &.y.<X2X2X>X;X=X}._._._.).)._._.'.}.-X;X2X2X2X$XK./ ^ ) { } o.O.~.~.~.^.O.o.} { ) ^ ^ ^ Q Q ~ ~ &.>.>.<.r.p.m.V.).`.}.-X:X>X2X2X<X<X@X@XW.W.Y.yXuXpXqXhXn M K R T Y I S CX!.oX!.W.W.R.Y.Y.BXuXyXuXuXuXuXuXtXtXpXpXpXpXpX2.%.~ ~ ~ Q ! Q ^ ^ ) ) { { } O.O.~.~.~.~.~.O.O.O.} } ) ) ) ^ ^ ^ ^ Q Q ~ ~ &.&.+.+.} { ^ ^ Q ! ` &.>.<.r.g.M._.}.=X;X>X2X2X<X$X+X,X>X2X2X<X<X+XoXW.R.Y.yXuXpX9XkXm H L R T Y D C y 0 3 1 . .     X 1 7 0 y Z I Y T R K H vXhXwXtXtXBXY.W.!.!.$X<X<X2X2X>X:X-X'._.`.@X$X2X2X2X:X-X'.Z.M.p.r.>.&.&.! Q ^ ^ ) { } } } } { ` ` &.` Q ! ! Q / ^ ^ ) ) { { } o.O.~.O.~.~.~.~.~.O.O.o.} { [ ) ) ^ ^ ^ ^ / Q ! ~ ~ &.&.6 w r i Z I Y R H lXrXtXyXY.T.!.!.+X@X%X$X&X&X&X%X%X@X@X&X<X<X2X2X:X;X-X`.).V.m.p.r.>.>.&.&.~ ! Q Q ^ ^ ) { } O.~.O.~.~.^.O.} [ ) ) ^ ^ Q ~ ~ %.>.>.<.5.p.m.V.).'.-X-X:X>X2X2X<X@X@XW.R.Y.yXuXqX0XlXM J R NX!.@X!.!.!.W.W.R.T.Y.BXBXyXyXBXyXyXyXBXBXBXY.Y.Y.T.T.R.W.W.!.5.&.` ` ~ ! ! ! ! / / ^ ^ ^ ) ) { { } o.o.O.~.~.~.~.~.~.~.~.O.O.o.o.{ { [ ) ) ) ^ ^ / / Q ",
"^ ^ ) { { } O.O.~.~.~.~.^.~.O.o.} [ ) ) ^ ^ ^ / Q ~ ~ ~ &.r.<X2X>X;X-X}.}._.).).).Z.)._.'.}.-X;X>X2X2X$XP.^ ) ) } o.O.^.^.~.^.~.O.o.{ ) ) ^ / / Q ~ ~ ` &.&.<.r.r.m.m.Z._.}.-X:X>X2X2X2X<X&X@XoXW.Y.Y.yXtXqXrXlXM J L E T Y D V CX!.!.!.W.W.R.Y.Y.BXyXBXuXuXuXuXtXtXtXuXtXtXtXuX1.~ &.~ ~ Q Q Q ^ ^ ^ ) { { } o.O.~.~.~.~.~.~.O.O.o.} { ) ) ^ ^ ^ / Q ! ~ ~ ~ %.+.o.} _ ^ ^ Q ~ ~ &.>.<.t.g.V.).}.-X:X>X2X2X<X$X+X<X2X2X<X<X$X@X!.W.Y.BXyXpXqX0Xn M K R E T I S u e 7 1 O .     X o 2 0 r V S Y T Y L J M lXwXqXtXyXY.T.W.oX+X$X<X2X2X>X:X-X-X_.Z._.@X$X<X2X2X;X-X}.).M.p.w.<.&.` ~ Q ^ ^ ) { } } { { { &.` ` ` ~ ! ! Q / ^ ^ ^ ) ) { } } O.~.O.~.~.~.~.~.~.O.O.} } [ [ ) ^ ^ ^ / / Q ! ~ ~ ~ &.@ 4 0 r B I Y R H z wXtXyXT.T.W.!.@X&X@X&X&X&X&X&X&X%X@X@X2X2X2X>X:X-X}.`.V.M.p.r.w.<.&.&.~ ~ ! Q / ^ ) { { o.O.~.~.~.~.O.o.} { ^ ^ ^ Q Q ~ ~ %.>.>.r.r.g.m.Z._.}.-X>X>X2X2X<X$X@XoXW.Y.BXuXpXrXkXm J L E UXGXXX!.!.!.W.W.R.T.Y.Y.Y.BXBXY.Y.Y.BXY.Y.Y.G.R.R.W.W.W.!.oX@XU.5.&.` %.( ! ! ! Q Q ^ ^ ^ ) ) ) { } } o.O.O.~.~.~.~.~.~.~.~.O.O.o.} } [ [ ^ ) ^ ^ ^ ^ ",
"^ ^ ^ ) { { } O.O.~.~.~.~.~.O.O.o.} [ ) ) ^ ^ ^ / Q ! ~ ~ &.5.2X2X>X;X=X}._._.Z.Z.Z.Z.).)._.}.}.;X>X2X2X$XJ.^ ) { } O.~.^.~.~.^.O.O.} { ^ ) ^ / / ! ~ &.&.>.>.<.r.p.m.V.).'.}.;X:X>X2X2X<X<X@XoXW.R.Y.yXuXpX8XkXm H L R W Y I Z u VX!.!.W.W.W.R.Y.Y.Y.BXBXyXuXuXBXuXuXuXuXuXtXuXuX1.~ ~ ~ ~ Q ~ Q ^ ^ ^ ) { { } o.O.~.~.~.~.~.~.O.O.o.{ { ) ) ^ ^ ^ ^ / Q ! ~ &.&...o.{ ) ^ Q Q ` ` >.>.<.t.g.V._.}.-X;X>X2X2X<X$X+X<X2X2X<X$X+XoXW.R.Y.uXuXpX0XhXM H R Y W Y D V r 0 3 O X .   . o 1 7 w i Z I Y T R K H lXhXqXtXyXyXT.W.!.oX$X<X<X2X2X>X;X-X}.).V.Z.E.&X<X2X2X:X-X}.Z.M.p.w.>.&.` ~ ! ^ ^ ) ) { { { ) [ ` &.` ` ~ ! ! ! / / ^ ^ ) ) { } } O.O.~.~.~.~.~.~.O.O.O.o.} [ [ ) ) ^ ^ ^ / / Q ~ ~ ` &.=.% 4 q i D Y R M kXwXtXyXT.W.W.XX@X&X&X&X<X$X<X$X&X%X@X@X<X2X2X>X-X}.'.).B.m.t.r.>.>.&.&.~ ! Q Q ^ ^ ) { } O.~.~.~.~.O.O.} [ ) ) ^ ^ Q ~ ~ %.&.>.<.r.p.m.V._.}.-X-X>X2X2X<X<X+XoXW.R.Y.yXuXqX0XlXM K R W Y J @X!.!.!.!.W.W.R.T.G.R.Y.G.Y.G.R.Y.T.R.R.R.W.W.!.!.!.+X@X%X%XB.&.%.%.( ( ! ! Q Q / ^ ^ ^ ) ) { { } } O.O.~.O.~.~.~.~.~.~.O.~.o.o.} { { ) ) ^ ^ ^ ",
"/ / ^ ^ ) { } } O.O.~.~.~.~.~.~.O.o.[ } ) ) ^ ^ / Q Q ~ ~ ~ &.r.2X>X;X;X}._._.Z.Z.Z.V.V.).)._.}.=X;X:X2X2X$XP.) ) } o.O.^.~.~.^.~.O.} { { ^ ^ / / ! ~ ~ ~ &.>.<.r.p.m.M.)._.}.-X:X>X2X2X2X&X%X+XoXW.Y.BXyXpXqX0XlXM J R Y T Y S V r BX!.!.!.W.R.R.R.G.Y.BXBXBXBXyXBXuXyXuXuXBXuXuXBX1.&.&.~ ~ Q Q Q / ^ ^ ) { { o.o.O.O.~.~.~.~.~.O.O.o.} { ) ) ^ ^ ^ / / ! ~ ~ ~ &.] } { ) ^ Q ! ~ ~ >.>.r.p.m.V._.}.-X>X>X2X2X<X$X#X@X2X<X<X&X+XW.W.Y.BXuXpXqXhXlXH K R W T I Z u w 7 1 X .     . < 3 0 r V D Y T E L H M lXwXqXtXyXY.T.W.+X@X$X<X2X2X>X:X-X}._.).m.m.E.#X<X2X2X>X-X}.).M.p.w.<.&.` ! Q ^ ^ ) ) { ) ) ) ) ^ &.` ` ~ ! ! Q / / ^ ^ ) ) { { } o.O.~.~.~.~.~.~.~.O.O.o.} [ [ ) ^ ^ ^ ^ / Q Q ! ~ ~ ` &.$ 1 8 y D Y R H kXqXtXBXY.W.W.+X@X&X&X$X<X<X<X<X&X&X%X@X<X2X>X;X-X}._.Z.m.p.r.w.<.&.&.~ ! ! Q / ^ ) { } O.O.~.~.~.^.O.o.{ { ^ ^ / Q Q ~ %.%.>.>.<.r.m.B.Z.`.}.-X:X>X2X2X<X$X@XoXW.T.yXuXpX8XkXm J L Y T U S CX@X!.!.!.W.W.R.R.T.T.T.T.T.T.R.R.R.W.W.W.W.!.!.@X@X%X%X<X<X[.i.` ` ` ` ~ Q ! Q Q ^ ^ ^ ^ ) ) { } } o.o.~.O.~.~.~.~.~.~.O.~.O.O.} } } ) ) ) ^ ",
"! / / ^ ^ ) { { } O.O.~.~.~.~.~.O.O.o.[ [ [ ) ^ ^ ^ / Q ! ~ &.&.].2X>X;X=X}._.).Z.M.C.V.V.V.).).}.}.;X:X2X2X$XP.) { } O.^.^.~.~.^.O.o.} ) ) ^ ^ / Q ! ~ &.&.>.>.<.r.p.m.V._.}.}.;X:X>X2X2X2X&X@XoXW.R.Y.uXuXpX0XhXm H L R W Y I C u q BX!.!.W.W.W.R.T.G.R.G.Y.Y.BXBXBXBXBXBXyXBXBXyXBX3.&.` ~ ~ Q Q Q / ^ ^ ) ) { } o.O.~.~.~.~.~.~.O.O.o.} { ) ) ^ ^ ^ / / Q ~ ~ ` &.` } ) ^ ^ Q ~ ~ &.>.>.r.p.M.V._.}.-X:X>X2X2X<X<X+X$X<X<X$X@XoXW.R.Y.yXtXqX0XlXm J L Y T Y S V r 8 3 O X       o 1 7 w i S I Y T R P M lXhXqXtXyXBXT.W.!.+X&X<X2X2X2X>X;X*X}.).V.m.p.H.#X<X<X>X>X;X}.).M.p.w.>.&.` ~ Q / ^ ) ) ) ) ^ ) ^ ^ ` &.` ~ ! ! ! Q / ^ ^ ^ ) { { } } O.O.~.~.~.~.~.~.O.O.O.} } ) [ ) ^ ^ ^ ^ Q Q ! ~ ~ ` &.#.< 4 y S Y R M hXqXtXBXT.W.!.+X@X&X$X<X<X<X<X<X<X&X%X@X%X2X>X-X}.`.Z.V.m.t.w.>.>.&.&.~ Q Q Q ^ ^ ) { } O.~.~.~.~.O.O.} [ ) ^ ^ ^ Q ~ ~ %.>.>.<.r.p.m.V._.}.-X;X>X2X2X<X<X+XoXW.R.Y.yXtXqX0XlXH K R T Y D V l !.!.!.W.!.W.W.W.R.R.R.R.R.W.W.W.W.W.!.!.!.oX@X@X%X%X<X<X2X2X X*.` ` ` ~ Q Q ! Q Q / ^ ^ ^ ) ) { { } o.O.O.~.~.~.~.~.~.~.O.O.O.o.} } { ) ) ",
"! ! / ^ ^ ^ ) { } } O.~.~.~.~.~.~.~.O.o.} [ [ ^ ^ ^ / Q Q ~ ~ ~ &.|.>X,X;X}._.Z.Z.Z.h.V.B.V.V.Z.).'.=X;X:X2X2X$XI.{ } o.O.^.~.^.^.^.O.} { { ^ ^ / Q ! ~ ~ &.&.>.<.r.p.m.V.Z.`.}.-X:X>X2X2X<X$X&X+XW.R.Y.BXuXpXqXhXlXM K R Y T I S i r 7 BXoXW.oXW.W.R.R.T.T.Y.Y.Y.Y.Y.BXBXBXY.BXY.Y.Y.Y.0.&.~ ~ ~ ! Q / / ^ ^ ) ) { } o.O.O.~.~.~.~.~.~.O.o.} { [ ) ^ ^ ^ / Q Q ~ ~ ~ &.' { _ ^ Q ! ~ ~ &.>.<.t.p.M.Z._.}.-X:X2X2X2X<X<X@X%X<X$X&X+XW.R.Y.yXuXpXqXhXm H L R E Y I Z y w 4 < X     . . 1 3 0 y C D Y T E L H M hXqXqXuXyXY.T.W.+X%X$X<X2X2X>X:X-X}._.Z.M.g.p.p.@X<X<X2X>X;X}.).V.p.r.>.&.` ~ Q ^ ^ ^ ) ^ ) ^ ^ / ^ ` &.` ` ~ ! ! Q Q ^ ^ ^ ) ) { } } O.O.~.~.~.~.~.~.~.O.O.} } [ [ ) ^ ^ ^ ^ / Q Q ~ ~ ~ &.#.$ 3 r D Y L H hXqXuXBXT.W.oX@X@X&X<X<X<X<X<X<X<X<X%X%X@X,X-X-X}._.V.m.p.r.w.>.&.` ` ~ Q Q ^ ^ ) { } o.~.~.~.~.~.O.o.{ ) ) ^ / Q Q ~ %.%.>.<.r.r.m.M.).'.*X-X:X2X2X2X<X&X+XW.W.Y.yXuXpX9XlXM J L E T U S i w BXoXoXW.!.W.W.W.W.W.W.W.W.W.W.W.!.W.!.oX@X@X%X%X<X<X<X2X2X2X2Xt.` &.` ` ` Q ! Q / Q ^ ^ ^ ) ) { { } o.o.O.~.~.~.~.~.~.~.~.~.O.o.o.} { { ",
"! ! ! Q / ^ ^ ) { { } O.O.~.~.~.~.~.O.O.o.[ [ [ ) ^ ^ ^ / Q ! ~ ~ &.|.>X;X-X}._.Z.V.V.m.N.m.B.V.V.).`.}.;X:X2X2X&XL.{ o.O.^.^.~.~.^.O.o.} ) ) ^ ^ / Q ~ ~ %.&.>.>.w.r.p.m.Z._.}.-X-X>X2X2X2X<X&X@XoXW.R.Y.yXuXqX0XkXM H L E T Y D C y q 4 G.oXW.oXR.W.W.R.R.T.G.R.G.Y.R.Y.Y.Y.Y.G.R.G.R.G.D.&.` ` ~ ! Q Q / ^ ^ ) ) { } } O.~.~.~.~.~.O.~.O.o.} { [ ) ) ^ ^ ^ / Q ! ~ ~ &.` { ^ ^ ^ ! ~ %.&.>.<.r.g.M.Z.}.}.-X:X>X2X2X<X<X%X@X&X&X@XoXW.R.Y.yXtXqX9XlXM J R Y T I D i r 8 2 O .     . o 1 0 w V S I Y T L P M lXhXpXtXyXY.T.W.!.+X&X<X2X2X>X>X;X*X'.).V.m.p.t.p.@X<X<X2X2X;X=X).V.p.r.>.&.` ~ Q Q ^ ^ ^ ^ ^ ^ ^ / / ! &.` ` ` ! ! Q Q ^ ^ ^ ) ) { } } o.O.~.~.~.~.~.~.O.O.O.o.} [ [ ) ) ^ ^ ^ ^ Q Q ! ~ ~ &.&.# 2 t D Y L M hXqXyXyXT.W.XX@X&X$X$X<X2X<X2X<X2X<X<X%X@X#X-X}.`.Z.B.p.p.w.>.>.&.~ ~ ! Q / ^ ^ ) } } O.~.~.~.~.^.o.} [ ) ^ ^ / Q ~ ~ &.&.>.<.r.p.m.V._.}.-X;X>X2X2X<X$X@XoXW.R.Y.uXpXpX0XlXH L E Y Y D V r 8 a oX!.W.!.W.!.W.W.W.!.W.W.!.W.!.oX!.+X@X@X#X<X%X<X<X2X2X2X2X>X*Xe.&.` ` ` Q ! ! Q Q ^ ^ ^ ^ ) ) { } } o.o.O.~.~.~.~.~.~.~.O.~.O.o.o.} ",
"` ~ ! Q / ^ ^ ^ ) { } } o.~.~.~.~.~.~.~.o.o.} [ ) ) ^ ^ / / Q ! ~ %.%.].>X;X}._.).V.B.m.m.m.m.m.V.V.).`.}.-X;X2X2X<XI.} o.^.^.~.~.^.O.o.} { ) ^ ^ Q Q ! ~ %.~ >.>.<.r.p.m.V.).'.}.-X:X>X2X2X<X$X@X+XW.W.Y.yXuXtX8XhXlXH K R T T I S u e 7 2 G.oXW.oXW.W.W.R.R.R.T.R.R.G.R.R.G.T.T.T.T.R.R.R.D.&.` ` ! ! Q / / ^ ^ ) ) { } o.o.~.O.~.~.~.~.~.O.o.o.[ [ ) ^ ^ ^ / / Q ! ~ ~ &.&.^ ^ Q Q ! ~ &.&.>.5.t.g.M.Z.].}.;X:X2X2X2X<X&X&X@X@X&X+XW.T.Y.yXtXpXrXhXm H K E W Y I C y q 3 1 . .   . X 1 3 w y Z D Y W E P H vXhX9XpXuXyXY.T.!.+X%X<X<X2X2X>X;X-X}._.Z.m.p.t.w.>.U.$X<X2X>X;X-X_.V.p.r.>.&.` ! Q Q Q ^ ^ ^ ^ / / Q Q ~ &.` ~ ~ ~ ! Q Q / ^ ^ ) ) ) } } o.O.O.~.~.~.~.~.~.~.O.o.} } [ ) ) ^ ^ ^ / / Q ! ~ ~ ~ &.=.2 t D Y L M 0XqXyXBXW.W.+X@X&X<X<X<X2X<X2X<X2X<X<X&X%X@X X'.).V.m.p.r.<.>.&.&.~ ~ Q / ^ ^ ) { } O.O.~.~.~.O.O.o.{ ) ^ ^ / Q ! ~ %.&.>.<.r.t.m.V.)._.-X-X:X2X2X2X&X&X+XW.R.Y.yXuXpX0XlXM J L T T I Z i w 4 < G.oX!.oXW.!.W.oXW.W.oXW.oXoX!.@X@X@X%X%X%X<X<X2X2X2X2X>X>X;X-Xm.&.` ` ~ ! ! ! Q Q Q / ^ ^ ) ) ) { } } o.O.O.~.O.~.~.~.~.~.O.~.O.o.",
"` ~ ~ ! ! / / ^ ^ ) { } o.o.~.O.~.~.~.~.^.O.o.{ [ ) ) ^ ^ / / Q ! ~ &.%.].;X-X}._.Z.V.M.m.m.g.m.m.m.V.)._.}.-X;X2X2X<XP.} O.^.~.~.~.^.O.o.{ ) ) ^ ^ Q Q ! ~ &.&.>.<.r.r.m.m.Z._.}.-X;X:X2X2X2X<X&X@X!.W.R.Y.uXuXqX0XlXm J L E T Y D V t 0 4 < G.oXW.!.W.W.W.W.W.R.R.R.R.R.R.R.R.R.R.R.W.W.W.W.D.&.` ` ~ ! ! Q / / ^ ) ) { } o.o.~.~.~.~.~.O.~.O.o.o.[ [ ) ) ^ ^ ^ / / ! ~ ~ &.&.^ ^ Q ! ! ~ &.>.>.r.p.m.V.).}.}.;X:X>X2X2X2X&X&X@X@X@X!.W.T.BXyXtXqX0XlXM K L Y T I S i e 7 2 O .     . o 2 8 e V S Y Y Y R J M lXrXqXtXyXY.T.W.!.+X&X<X<X2X2X:X;X*X'.).V.m.t.r.<.>.K.%X<X2X2X;X-X_.V.g.r.>.&.&.~ Q Q Q ^ / ^ / / / Q ! ! &.&.~ ` ~ ! ! Q Q ^ ^ ^ ) ) { } } O.O.~.~.~.~.~.O.~.O.O.} } [ ) ) ) ^ ^ ^ / / Q ~ ~ ` &.$.* y D Y L nX9XpXyXBXT.!.+X@X&X<X<X<X2X2X<X2X<X2X<X<X%X@X X`.Z.M.p.r.r.>.>.&.` ~ ! Q / ^ ) ) } o.O.~.~.~.~.O.o.} [ ) ^ ^ / Q ! ~ &.&.>.w.r.p.m.Z._.}.-X;X>X2X2X2X$X@XoXW.T.BXuXpXqXhXn H L R W Y D i r 8 1 O & G.W.oXW.!.W.!.oXW.oXW.oX@X@X@X%X%X%X<X1X<X<X2X2X2X2X>X>X;X-X}.w.` &.` ` ^ ~ Q Q Q ^ ^ ^ ^ ) ) { { { o.o.O.~.~.~.~.~.~.~.O.~.O.",
"` &.~ ! ! ! / ^ ^ ) ) { { o.o.~.~.~.~.~.~.O.O.} } [ [ ^ ^ ^ / / ! ! ~ %.%.].;X=X_._.V.m.m.p.g.p.p.m.m.M.Z.).}.-X;X2X2X&X`.o.O.~.~.~.^.O.O.{ { ) ^ ^ Q Q ! ~ %.%.>.>.<.r.p.m.V.).'.-X-X:X>X2X2X<X$X@X+XW.T.Y.yXuXpXqXkXn H K R Y Y I Z i w 7 1 X j.!.!.!.W.!.W.W.W.W.HXR.R.R.W.W.W.W.W.W.W.!.W.!.D.&.&.~ ~ ! ! / / ^ ^ ) ) { { o.o.O.~.~.~.~.~.O.~.o.} } ) ) ) ^ ^ / / / ! ~ ~ &.&.^ ^ Q ! ~ %.%.>.<.r.p.m.V.).}.=X;X>X2X2X2X2X&X&X@X@XoX!.T.Y.yXtXqX9XlXm J L E T Y D V y 0 3 O X     . o 1 7 w y Z I Y T R P M n hXqXtXyXyXT.T.!.+X&X<X2X2X2X>X;X-X}.).V.m.p.t.w.>.&.r.%X<X2X2X:X-X_.V.m.r.<.&.` ~ ! Q Q / / / Q Q Q ! ! ~ &.&.~ ` ~ ! ! Q / / ^ ^ ) ) { } } O.O.O.~.~.~.~.~.~.O.O.o.} } [ ) ) ^ ^ ^ / Q Q ! ~ ~ ` &.: y I Y P vXhXtXyXT.T.!.+X&X&X<X2X<X2X2X2X2X2X2X2X<X<X@XXX).V.m.p.r.<.>.&.~ ~ ~ Q / ^ ^ ) ) o.o.~.~.~.~.~.O.} { ) ^ ^ / Q ~ ~ %.&.>.<.r.p.m.V.).'.-X;X:X2X2X<X<X#X@XW.R.Y.yXuXpX0XlXM J R Y T I S y q 4 < .   j.oXoX!.!.oXW.oX!.oX+X!.@X%X@X%X1X%X<X<X2X2X2X2X>X>X:X;X-X}.'.V.` &.` ` ` ! ! Q Q Q / ^ ^ ^ ) ) { } } o.O.O.O.~.~.~.~.~.~.~.",
"x ` %.~ ! ! ! / ^ ^ ) ) { { o.o.~.O.~.~.~.~.^.O.o.[ [ [ ^ ) ^ / / ! ! ~ &.&.P.;X'._.Z.M.m.m.p.p.p.p.p.m.m.Z._.}.-X;X>X2X<X`.O.^.~.~.~.O.O.o.{ ) ^ ^ ^ Q ! ! ~ &.&.>.<.r.p.p.B.Z._.}.-X;X>X2X2X2X<X&XoX!.R.T.BXuXtXqX0XlXM J R E T Y S V r 0 2 < X = !.!.!.W.!.W.W.W.E.!.W.W.W.W.W.W.!.W.!.W.oX!.oXK.&.&.` ! ~ ! / / / ^ ^ ) { { o.o.O.~.~.~.~.~.O.~.O.} } [ ) ) ^ ^ ^ / / Q ! ~ &.&.! ^ ! ! ~ &.&.>.<.r.g.M.Z._.}.=X-X:X>X2X2X2X&X&X@X@XW.W.T.yXyXtXqXhXlXM K R E T I Z i e 7 1 X .     . o 2 0 r V S Y T Y L J M kX0XqXtXyXY.T.W.!.+X$X<X2X2X2X:X-X*X'.).V.m.t.w.w.>.&.<.@X<X2X2X:X-X'.V.m.r.<.&.` ~ ! ! ! Q Q Q ! Q ! ! ! ` &.&.~ ~ ~ ~ ! ! Q ^ ^ ^ ) ) { { } o.o.~.~.~.~.~.~.~.O.O.o.} [ [ [ ) ^ ^ ^ ^ Q Q ! ~ ~ &.&.=.y I Y P vXrXpXyXT.W.!.+X&X$X<X2X2X2X2X2X2X2X2X2X2X<X%X@XP.M.p.r.w.>.>.&.~ ~ ! ! / ^ ) { { o.O.~.~.~.~.~.o.} ) ) ^ ^ / Q ~ ~ &.&.>.w.r.p.V.Z._.}.-X:X>X2X2X<X$X+XoXW.R.BXuXpXqXhXm H L E Y Y S B e 8 1 O .   & G.oX!.!.oX!.oXoXoX@X@X@X#X%X%X<X<X<X2X<X2X2X2X>X>X;X-X*X'._.).w.` ` ` ` ( ! ! Q Q Q / ^ ^ ) ) ) { } } o.O.O.~.~.~.~.~.~.",
"Y k %.%.~ ! ! ! / ^ ^ ^ ) { } o.o.~.~.~.~.~.~.O.o.o.[ [ [ ^ ^ ^ / / ! ! ~ ~ &.`.=X`.Z.V.m.p.p.p.p.p.p.p.m.M.V.Z.'.=X;X2X2X%X].O.~.~.~.^.O.o.} { ) ^ ^ / Q ~ ~ %.%.>.<.<.r.p.m.V._.'.-X;X>X>X2X2X<X&X+XoX!.T.Y.yXuXpX9XhXM H K E T Y D Z y w 4 1 X   = !.!.!.W.W.oXW.W.W.W.W.W.W.!.!.W.oXW.!.oX@X@X@XU.&.` %.! ! ! / / ^ ^ ) ) { { } O.O.~.~.~.~.~.~.O.o.o.} [ ) ) ^ ^ / / / ! ~ ~ ~ &.~ Q Q ~ ~ &.>.>.5.t.p.B.Z.`.}.-X:X:X2X2X2X2X&X&X@X@XW.T.Y.yXuXqX9XlXnXJ L E T Y D V r 0 3 O X     . o 1 7 w u S I Y T R K H lXhXqXtXyXBXT.W.!.+X&X<X2X2X2X:X;X*X}.).V.m.p.t.w.>.*.&.` J.$X<X2X:X-X}.Z.m.r.<.>.&.` ~ ! ! ! ! Q ! ! ! ` ~ ~ &.&.&.` ~ ! ! Q Q / ^ ^ ^ ) ) { } o.O.O.~.~.~.~.~.~.~.O.o.o.} [ [ ) ^ ^ ^ ^ / Q Q ~ ~ ~ &.%.j I E J n rXtXyXT.W.!.@X&X<X<X2X2X2X2X2X2X2X2X2X2X2X&X@XP.g.p.r.<.>.%.&.~ ! Q / ^ ^ ) { } o.~.~.~.~.O.o.} { ) ^ ^ / Q ~ ~ &.&.>.<.r.p.m.V.).'.-X;X:X2X2X<X<X@X+XW.T.Y.uXuXqX0XlXM K R T Y I C y q 3 O X     . l.!.!.!.oXoX+X!.@X@X@X%X%X1X%X<X<X<X2X2X2X2X>X>X;X-X*X'._.V.V.p.>.&.` ` ` ~ Q ! Q Q ^ ^ ^ ^ ) ) ) { } o.o.O.~.~.~.~.~.",
"E U , &.%.! ! ! ! / / ^ ) ) { { o.o.~.O.~.~.~.~.^.o.o.[ [ ) ) ^ ^ / / ! ! ~ &.&.P.}._.Z.m.m.p.p.r.p.r.p.p.p.m.V.Z.}.=X;X>X2X$X`.@.~.~.~.O.O.} { ) ) ^ / / Q ~ ~ &.&.>.<.r.p.m.B.Z.`.}.-X:X>X2X2X<X<X%X@XW.W.Y.BXuXpXqX0XlXM K L E T Y S B r 8 2 < .   = !.!.!.oXW.oXW.oXW.!.W.oXW.!.!.W.oXoXoX@X@X@X%X%Xy.%.` ( ! ! ! / / ^ ^ ) { { } o.O.~.~.~.~.~.~.~.O.o.} [ [ ) ^ ^ ^ / / Q ~ ~ ` &.&.! ! ~ ~ &.>.>.r.p.g.V.Z.}.}.-X:X:X>X2X2X2X&X&X@X@XW.BXBXtXtXqXhXn H P E E Y I Z u w 4 1 X .     . 1 3 0 y V D Y Y E L H m lXwXqXtXyXBXT.!.!.+X$X<X2X2X2X:X-X*X_.).m.m.t.w.<.>.&.` ` K.#X<X2X2X;X}.Z.m.r.<.>.&.` ` ! ! ! ! ! ! ! ~ ` ` &.&.&.&.~ ` ! ! ! Q Q / ^ ^ ) ) { } } O.O.~.~.~.~.~.~.~.O.O.o.} [ [ ) ) ^ ^ ^ ^ Q Q ! ~ ~ &.&.d I E J lXrXtXyXT.!.+X@X<X<X<X2X2X2X2X2X2X2X2X2X2X2X<X&XQ.A.r.<.>.>.&.~ ~ ! Q / ^ ^ { } o.O.~.~.~.~.O.o.} ) ) ^ ^ Q Q ~ ~ &.>.>.w.r.p.M.Z.`.}.-X:X>X2X2X<X$X@XoXR.T.BXuXpXqXkXm H L E T Y S B e 7 1 X .     X 1 BX!.!.oXoX@X@X@X@X%X%X%X<X<X<X<X2X2X2X2X2X>X:X-X-X}.'.).V.m.p.w.&.` ` ` ` ! ! Q Q Q ^ ^ ^ ^ ) ) { { } o.o.O.~.~.~.",
"P E D 6.%.%.` ! ! / / ^ ^ ) ) { } o.O.~.~.~.~.~.O.^.o.o.{ [ ) ) ^ ^ / / ! ! ~ ` &.Z.}.Z.B.m.p.p.p.r.r.r.r.p.p.m.V.Z._.=X;X>X2X<X`.~.~.~.^.O.o.} ) ) ^ / Q Q ~ ~ %.&.>.>.r.r.p.m.V.).}.-X;X>X>X2X2X<X&X+XoXW.T.Y.yXuXpX0XkXm J L E T Y D C y q 4 < X .   & oXoXW.!.W.oXW.oXW.oXW.!.!.!.oXoX@X@X@X@X%X%X&X%Xy.%.%.~ ! ! ! / ^ ^ ^ ) { { } o.O.~.~.~.~.~.~.O.O.o.} [ [ ) ^ ^ ^ / / Q ~ ~ ~ &.~ ! ~ ~ &.>.>.<.r.g.m.V.Z.}.}.;X:X>X2X2X2X2X&X&X@X@XW.BXyXtXqX0XlXM J L E T Y S V r 8 3 O .     . o 1 7 e i S I T T L K M lXhXqXtXyXG.T.W.!.@X&X<X2X2X>X>X;X*X}.).V.m.p.r.w.>.&.&.` ! ,.%X<X2X>X;X}.).M.t.w.>.&.` ` ` ~ ~ ! ! ` ~ ~ ` ` &.>.>.&.` ` ` ! ! Q / ^ ^ ^ ^ ) { { } o.O.O.~.~.~.~.~.~.O.O.o.} } [ ) ) ^ ^ ^ / Q Q Q ~ ~ ~ &.7.U Y J lXqXiXyXR.W.+X@X<X<X2X2X2X2X2X2X2X2X2X2X2X2X<X$X@XH.r.<.>.&.~ ~ ! Q / ^ ) ) { } O.~.~.~.~.~.O.} { ) ^ ^ / Q ~ ~ &.&.>.<.r.p.m.V.).}.-X:X>X2X2X<X<X#XoXW.T.Y.yXtXqX0XlXM K R W Y D C t q 3 O X     . O 3 g oX!.@XoX@X@X%X@X%X%X$X$X<X<X2X2X2X2X2X>X:X;X-X}.'.).Z.m.g.p.w.>.&.` ` ~ ~ ! ! Q Q Q / ^ ^ ) ) ) { { } o.O.O.~.",
"M L Y A ;.%.%.! ! ! ! / / ^ ) ) { } } O.O.~.~.~.~.O.^.O.} { [ ) ) ^ ^ / / ! ! ~ ` &.C.`.Z.M.p.p.t.r.r.r.w.r.t.p.g.M.Z._.=X;X>X>X<X`.@.~.~.O.O.} { ) ^ ^ / Q Q ~ ~ &.&.>.<.r.p.m.V.)._.}.-X:X>X2X2X<X<X@X@XW.W.Y.yXuXpXqXhXlXH P R E T I S i e 8 1 O .     & oXoXoXoXW.oXW.oX!.oXHXoXoXoX+X@X@X@X%X%X%X&X<X<Xy.%.%.` ! ! ! / / ^ ^ ) { { } o.O.O.~.~.~.~.~.O.O.o.} { ) ) ) ^ ^ / / Q ! ~ ~ &.~ ! ~ ~ &.>.>.5.r.p.M.Z.).}.}.-X:X>X>X2X2X2X<X&X@X@XAXyXyXpXqXhXn H K E W Y D Z y q 7 < X .   . . 1 3 q t Z D Y T E K J n kXwXpXuXyXY.T.!.+X+X&X<X2X2X>X:X-X}._.).m.g.t.w.>.>.&.` ` ! ,.@X<X<X2X:X*X).h.p.w.>.>.&.` ` ~ ` ~ ~ ` ` ` &.&.&.>.<.&.` ` ` ! ! ! Q / ^ ^ ) ) { { } o.O.O.~.~.~.~.~.~.O.O.O.} } [ ) ) ) ^ ^ ^ ^ Q Q ! ~ ~ &.&.F E H lXwXyXBXT.!.+X&X$X<X2X2X2X2X2X>X2X2X2X2X2X2X2X<X#XE.<.>.&.&.~ ~ ! Q / ^ ) { } o.O.~.~.~.~.O.o.{ ) ) ^ ^ / Q ~ ` &.>.>.r.r.m.M.Z.`.}.-X:X2X2X2X<X$X@XoXR.Y.BXuXpXeXkXm J L Y W Y S i w 7 1 X .     X 1 7 w CX!.XX!.@X@X%X@X%X&X$X<X<X<X2X2X2X2X>X>X:X-X-X'.'.Z.V.m.p.r.w.>.&.&.` ` ~ ! Q ! Q Q ^ ^ ^ ^ ) ) { { } } o.O.",
"hXH R Y B ;.%.%.~ ! ! ! / ^ ^ ) ) { } o.O.~.~.~.~.~.~.O.O.o.{ [ ) ^ ^ ^ / / ! ! ` ` &.Z.Z.B.m.g.r.r.r.w.r.r.r.r.p.p.M.Z._.}.;X>X<X<X`.~.~.^.O.o.{ ) ) ^ ^ Q Q ~ ~ &.&.>.<.r.r.m.m.Z._.}.-X:X:X2X2X2X<X&X@XoXW.T.Y.yXuXqX0XlXm J L E T Y D V t 0 4 < X .   . - oXoXW.oX!.!.oXHXoXoXoXoX@X@X@X@X%X%X%X%X<X<X<X<Xi.%.%.! ! ! ! Q ^ ^ ^ ) ) { } o.O.~.O.~.~.~.~.~.O.o.} } [ [ ^ ^ ^ / Q Q ! ~ ~ &.&.~ ~ &.&.>.<.r.p.m.M.)._.}.-X;X:X>X2X2X2X<X<X&X@X@XW.yXtXqXhXlXM K L Y T Y S i r 8 1 O .     . o 1 8 r i S I T E R J M kX0XqXtXyXY.T.W.!.@X&X<X2X2X>X:X;X*X'.).V.m.p.r.w.>.&.&.` ~ ! Q K.<X2X>X:X-X_.V.p.t.>.*.&.&.&.` ~ ` ` ` ` ` &.&.>.>.w.>.` ` ` ~ Q ! Q Q ^ ^ ^ ) ) { } } O.O.~.~.~.~.~.~.^.^.o.o.} } [ ) ) ^ ^ ^ / Q Q ! ~ ~ ~ &.9.Y H hXqXuXY.R.oX+X$X<X2X2X2X2X2X2X>X>X>X>X2X2X2X2X<X$X@Xu.>.&.&.~ ! Q / ^ ^ ) { o.O.~.~.~.~.O.O.} { ) ^ / Q Q ~ ~ &.&.>.<.r.p.m.V._.}.-X;X>X2X2X<X&X+XoXW.T.Y.yXpXpXhXcXM K R W Y D C t 0 3 < .     . O 3 0 t n FX@X@X@X@X%X@X%X$X<X<X<X<X2X2X2X2X>X:X;X-X}.'.).Z.m.p.t.r.>.>.&.&.` ` ` ~ ~ ! ! Q Q ^ ^ ^ ^ ) ) { { } } ",
"qXlXH E U t -.%.%.~ ! ! ! / / ^ ) ) { } o.O.O.~.~.~.~.O.O.O.} { [ ) ) ^ ^ / / ! ! ` ` &.B.Z.m.g.p.r.w.w.<.w.<.r.r.t.p.m.V._.}.;X>X2X<X`.O.~.O.O.} { ) ^ ^ / Q Q ~ ~ &.>.>.<.r.p.m.V.).'.}.-X:X>X2X2X<X<X@X@XW.R.Y.yXuXpXqXhXn H K R W Y U S u w 7 2 X .     . 5 oXoX!.oX!.oXoXoXoXoX@X@X@X@X%X%X%X%X<X&X<X<X2X<Xi.*.%.! ~ ! ! Q ^ ^ ^ ) ) { } o.o.~.~.~.~.~.~.O.O.O.} [ [ ) ) ^ ^ ^ / Q ! ~ ~ &.&.~ ~ &.*.>.<.r.p.m.V.).'.}.-X;X:X>X2X2X2X2X<X&X@X@XHXiXpXrXhXm H L R W Y D C y w 3 1 X .     X 1 3 q u C D Y T E K H vXhXrXpXuXyXT.T.!.XX&X$X<X2X2X>X:X-X}.).Z.m.g.r.w.>.>.&.` ` Q Q Q H.&X<X>X>X-X'.V.g.t.w.>.&.&.&.&.` ` ` %.%.&.&.>.>.w.r.w.` ` ` ` ! ! Q Q / ^ ^ ) ) { { } o.O.O.~.~.~.~.~.O.~.o.o.} [ [ [ ) ^ ^ ^ ^ / Q Q ~ ~ ~ &.9.b M kXqXyXY.W.!.+X$X<X2X2X2X>X>X>X>X>X>X>X>X2X2X2X2X<X#XK.>.~ %.! ! Q / ^ ) { } o.~.O.~.~.~.O.o.{ ) ) ^ ^ Q ! ~ ` &.>.<.w.p.p.V.Z.'.}.;X:X>X2X2X<X&X@X!.W.Y.BXuXpX8XkXM J L Y W U S u w 4 1 X .     X 1 7 e i S bX@X!.@X@X%X%X%X&X<X<X<X2X2X2X2X>X>X:X-X-X'._.).V.m.p.r.<.>.&.&.&.&.` ` ~ ~ ! ! Q Q Q ^ ^ ^ ^ ) ) { } ",
"tXwXn P Y D e =.&.~ ~ ! ! / / ^ ^ ) ) { } o.O.~.~.~.~.~.~.O.o.o.[ [ ) ^ ^ ^ / / ! ! ` ` &.M.C.g.p.r.r.w.<.<.<.<.<.r.r.p.m.V._.].;X>X2X<X].~.~.o.o.{ ) ) ^ / Q ! ~ ~ %.&.&.<.r.p.p.M.Z._.}.-X:X>X2X2X2X&X&X+X!.W.Y.Y.yXtXqX0XlXM J L Y T Y S V t 0 3 O X     . . 5 BXoXoXoXoXoXoXoXoX@X@X@X%X@X%X%X%X<X<X<X2X<X2X2XV.%.%.~ ~ ! Q Q Q ^ ^ ) ) { { o.O.~.O.~.~.~.~.~.O.o.o.[ { ) ) ^ ^ ^ / Q ! ~ ~ ` &.~ %.&.>.>.r.r.m.m.V.).}.}.-X:X:X>X2X2X2X<X<X&X%X@X!.tXqXhXlXM K R Y T I S i w 7 2 o .   . . o 3 8 r V S Y T Y L J M lX9XqXtXyXY.T.W.!.@X$X<X2X2X>X:X-X}.'.).V.m.p.r.w.>.&.` ` ! ! Q ^ >.#X<X2X>X-X}.V.m.p.w.w.>.*.&.&.&.&.%.&.&.&.*.>.<.w.t.t.&.%.` ~ ~ ! Q Q / ^ ^ ^ ) { { } o.O.O.~.~.~.~.~.~.~.O.o.o.} [ [ ) ) ^ ^ ^ / Q Q ! ~ ~ ~ &.c M hXpXyXY.W.oX%X<X<X2X2X2X2X>X>X:X:X>X>X>X>X2X2X2X<X&X@X5.` ~ ! Q / ^ ) ) { o.O.~.~.~.~.O.o.{ { ) ^ / Q Q ~ ~ &.&.>.<.r.p.m.V.).}.-X:X>X2X2X<X&X+XoXW.Y.Y.yXpXeX0XlXH K E T Y D V t 0 2 O .     . < 3 0 y C D P GX@X@X@X@X%X%X&X<X<X2X2X2X2X2X>X:X;X-X*X'.).Z.m.g.t.r.<.>.&.` ~ &.&.` ` ~ ! ! ! Q Q / ^ ^ ^ ) _ ) ",
"yXpX0XM L Y A q =.%.~ ~ ! ! ! / ^ ^ ) ) { } o.O.~.O.~.~.~.O.~.o.o.[ [ ) ) ^ ^ / / Q ! ~ ` &.g.M.p.t.r.<.<.<.>.<.<.<.5.r.t.m.M._.}.-X,X2X<X`.@.@.o.} ) ) ^ ^ / Q ! ~ %.&.>.>.<.r.p.m.V._.'.-X-X:X2X2X2X2X&X@XoX!.T.Y.yXuXpX8XkXm H L R T Y U C u w 4 1 X .     . O 2 BXoXoXoXoXoXoX@X@X@X@X%X%X%X&X<X%X<X<X<X2X2X2X2X*X' ` ` ! ! ! Q ^ ^ ^ ) ) { { } O.~.~.~.~.~.~.O.O.O.o.[ [ ) ) ^ ^ ^ ^ Q Q ! ~ &.&.` &.&.>.<.r.p.m.V.Z._.}.-X-X:X>X>X2X2X2X<X<X&X@X@XHXiXrXlXm J L E T Y D V y 0 3 O X .     X 1 4 w y Z D Y T R K H vXhXqXtXuXyXT.W.!.+X%X<X<X2X2X>X:X-X}.).V.m.p.r.w.>.>.&.` ` Q Q Q ^ q.P.<X<X2X;X}.).m.g.w.w.,.>.*.&.*.&.&.&.&.*.>.,.w.r.p.p.>.&.` ~ ~ ! Q Q Q ^ ^ ^ ) ) { { o.o.O.~.~.~.~.~.~.~.O.O.o.} [ [ ) ) ^ ^ ^ ^ Q Q ! ~ ~ &.&.7.M hXpXyXR.W.+X$X$X2X2X2X>X>X>X:X:X;X>X;X>X>X>X2X2X2X<X%Xn.~ ! ! / / ^ ) { } o.~.O.~.~.~.o.o.{ ) ) ^ / Q ! ~ &.&.>.<.r.p.m.V.).`.=X-X:X2X2X2X<X&XoXW.W.Y.yXuXpX0XkXm J L T Y U S u w 4 < X .   . X 1 7 r i D I T UX@XXX@X%X%X%X$X<X<X<X2X2X2X2X>X:X;X-X}._.).V.m.p.r.w.>.>.&.` ~ ! &.` ` ` ~ ! ! ! Q Q ^ ^ ^ ^ ) ",
"Y.uXqXhXH R Y V 7 $.%.` ~ ! ! Q / ^ ^ ) ) { } o.O.~.~.~.~.~.~.O.o.o.{ ) ) ^ ^ ^ / / ! ~ ` ~ &.p.m.p.r.w.<.<.<.>.>.>.<.<.r.t.g.M.Z.'.;X>X2X<X`.@.o.} { { ^ ^ / Q ! ~ ~ &.&.>.<.r.p.m.B.Z._.}.-X:X>X2X2X<X<X%X+XW.W.Y.Y.uXpXqX0XlXM J R E W U D V r 0 3 O X     . O 1 4 iX+XoXoXoX+X@X@X@X%X%X%X%X%X%X<X<X2X<X2X2X2X2X2X}.*.` ` ~ Q Q Q / ^ ^ ) ) { } } O.O.O.~.~.~.~.~.O.O.o.} { ) ) ^ ^ ^ / / ! ~ ~ ~ &.&.&.>.<.r.r.p.m.V.)._.}.-X;X:X>X2X2X2X2X<X<X&X%X@X@XaXhXlXM K R Y T I Z i w 7 1 o .     X o 3 0 r V D Y T E L J m lXrXqXtXyXY.T.W.oX+X$X<X2X2X>X:X-X}.'.Z.V.m.p.w.<.>.&.` ~ ~ Q Q ^ ^ ^ P.,X2X>X:X-X).V.m.p.w.w.,.>.*.*.*.*.*.>.>.>.<.w.p.p.M.<.&.` ` ~ ! ! Q / / ^ ^ ) ) { { } o.o.~.~.~.~.~.~.^.~.O.o.o.{ [ ) ) ^ ^ ^ ^ / Q Q ~ ~ ~ %.&.8X0XuXyXR.W.+X$X<X2X2X2X>X>X:X;X;X;X;X;X:X>X>X2X2X2X<X&XK.<.! / / ^ ) ) { o.O.~.~.~.^.~.O.} ) ) ^ ^ Q ! ~ ~ &.&.>.w.r.p.m.V._.}.-X:X>X2X2X<X&X+XoXW.T.Y.yXtX8X0XcXH L R W Y D V r 0 2 O .     X O 4 0 y C I Y T R GX@X@X@X%X&X$X<X<X2X2X2X2X2X:X:X-X-X}._.Z.V.m.p.r.<.>.&.` ~ ! Q ` &.&.` ` ~ ! ! ! Q Q ^ ^ ^ ",
"T.Y.tXqXlXH Y U y 4 $.` ` ~ ! ! Q / ^ ^ ) ) } } o.O.~.~.~.~.O.~.O.O.} } ) ) ) ^ ^ / / Q ! ~ &.&.u.p.r.r.<.>.>.>.>.>.>.>.<.5.r.g.M.Z.'.;X;X2X<X`.O.o.} ) ) ^ ^ / Q ! ~ &.&.>.>.w.r.p.m.Z._.}.}.;X:X>X2X2X<X&X%XoXW.T.Y.yXuXpX0XhXm H L U W Y D C u q 4 1 X .     . O 3 0 iX+XoXoXoX@X@X@X@X%X%X%X%X<X<X<X<X2X2X2X2X2X2X>X}.` &.` ` Q ! Q Q ^ ^ ) ) { { } O.O.~.~.~.~.~.~.O.O.o.} [ [ ) ^ ^ ^ ^ / Q ~ ~ ~ &.&.&.>.<.r.p.m.m.Z._.}.}.-X;X:X>X2X2X2X2X<X<X&X@X@X@XsXlXm J L E T Y D V r 0 3 O . .     o 1 7 w i Z I Y T R P H lXhXwXtXyXBXY.W.!.@X$X<X<X2X2X>X;X-X'._.V.m.p.t.w.>.>.&.~ ~ Q Q Q ^ ) ) g.,X<X2X:X-X'.V.m.p.t.w.w.,.>.*.>.>.>.>.<.w.w.r.p.m.V.h.&.` ` ` ! ! Q Q / ^ ^ ) ) { { } o.o.O.~.~.~.~.~.~.O.O.O.o.} [ [ ) ) ^ ^ ^ ^ Q Q ! ~ ~ &.&.j.0XuXyXT.!.+X$X<X2X2X>X>X:X:X;X;X-X;X-X;X:X:X>X>X2X2X<X%Xa.! Q ^ ^ ) { } O.~.O.~.~.O.O.} { ) ^ ^ Q Q ! ~ &.&.&.<.r.p.m.V.).`.=X;X>X>X2X2X<X%X@X!.R.Y.yXuXpXeXkXM J R Y T I C u q 4 < X       O 1 8 r V S Y Y E L bXDX+X@X%X&X$X<X<X<X2X2X2X2X:X:X-X-X'._.Z.m.m.r.r.<.>.&.` ` Q ! ^ ` &.` ` ` ! Q ! Q Q Q ^ ",
"W.Y.yXtXeXm P Y I r 2 $.` %.~ ! ! Q / ^ ^ ) ) { } o.O.~.~.~.~.~.~.O.O.} } ) ) ^ ^ / / Q ! ~ ~ %.%.u.p.r.<.<.>.&.>.*.*.>.>.<.5.r.p.M.Z.`.;X>X2X<X`.o.} { ) ^ ^ / Q ! ~ ~ &.&.>.<.r.p.m.V.Z._.}.-X:X>X2X2X<X<X@X+XW.W.Y.BXuXpXqXhXlXH J R E Y Y S i r 8 2 O .     . o 1 7 q iXoXoX@XoX@X@X%X%X%X%X<X%X<X<X<X2X2X2X2X2X2X>X>X'.] ` ~ ` Q ! Q Q ^ ^ ^ ) { } } O.O.~.~.~.~.~.~.O.O.o.} { [ ) ^ ^ ^ / Q Q ! ~ ~ &.&.>.>.r.t.p.m.V.)._.}.-X-X:X>X>X2X2X2X2X<X&X&X&X@X@XCXm H K R T Y I Z u w 7 1 o .   . . O 3 0 t V D Y T E L J n kXwXqXtXyXY.T.W.+X@X$X<X2X2X>X:X-X}.'.Z.M.m.t.r.>.>.&.&.~ ~ Q Q ^ ^ ^ { e.#X<X2X:X-X}.).V.m.i.t.w.,.w.>.>.>.>.>.<.w.r.t.g.m.Z.V.w.` ` ` ! ! ! Q / ^ ^ ^ ) ) { } } O.O.~.O.~.~.~.~.~.O.O.o.o.{ [ ) ) ^ ^ ^ / Q Q Q ~ ~ ~ %.:.4XuXY.R.oX+X$X2X2X2X>X>X;X;X-X-X-X-X-X-X;X:X>X>X2X2X<X&XK.>./ ^ ) { } o.O.~.~.~.~.O.o.} { ) ^ ^ Q Q ~ ~ &.>.>.w.r.p.m.Z.`.}.-X:X>X2X2X<X&X+X!.W.Y.Y.uXpXeX0Xn H L E W Y D V r 8 1 O .     X < 3 q y Z I T Y R J M FX@X@X+X%X&X<X<X2X2X2X2X2X>X;X-X*X'.).Z.M.g.t.r.>.*.&.~ ~ Q Q ^ _ ` ` ` ` ` ~ Q ! Q Q ",
"!.R.Y.uXpX0Xm L Y A w < #.` ~ ~ ! ! Q / ^ ^ ) ) { } o.O.~.~.~.~.O.~.O.o.} } ) ) ) ^ ^ / / Q ! ~ &.&.r.r.5.<.>.>.&.>.&.*.*.>.>.<.r.t.m.V._.-X:X2X<X`.} { { ) ^ / / Q ! ~ &.&.>.,.w.r.g.m.Z._.}.-X;X>X2X2X2X<X&X@XoXW.T.Y.yXuXqX0XkXm J L Y W Y D C y q 4 < X .     . 1 3 0 y iXoXoX+X@X@X@X%X%X%X%X<X<X<X<X2X2X2X2X2X2X>X>X>X-Xr.' ` ` Q ~ Q Q / ^ ^ ) ) { } o.O.~.~.~.~.~.~.O.O.o.} { [ ) ^ ^ ^ ^ / Q ! ~ ~ &.&.>.<.r.p.m.M.Z._.'.}.-X;X:X>X>X2X2X2X2X<X<X&X@X@X@XJXM J L E T Y S B r 7 3 O . .     o 1 7 e i Z I T Y R J H lXhXqXtXuXBXT.W.!.+X&X<X<X2X2X>X;X*X'._.V.m.p.r.w.>.&.&.~ ~ Q Q Q ^ ) ) { s.).<X2X2X-X*X`.V.N.g.i.t.w.w.<.<.,.w.<.w.r.t.p.m.V.Z.}.w.&.` ` ` ! ! Q / / ^ ^ ) ) { { } o.O.~.~.~.~.~.~.~.O.O.O.{ { { [ ) ) ^ ^ ^ ^ Q Q ! ~ ~ &.&.4XuXY.W.oX#X<X<X2X>X>X:X;X-X-X=X=X=X=X-X-X;X:X>X>X2X2X<X+Xa.Q ^ ) { } O.~.^.~.~.~.o.} { ) ^ ^ / Q ! ~ &.&.>.<.r.p.m.V.).}.}.;X>X2X2X2X<X%X@XW.R.Y.yXuXpX0XlXM J R Y W I C u q 4 < X     . O 1 0 w V D I T E L H n hXHX@X@X%X&X$X<X<X2X2X2X2X>X;X-X*X'.).V.h.p.r.w.>.*.&.` ! Q Q ^ _ | ` &.` ` ~ ! ! ! ",
"!.W.T.Y.uXpXkXH R Y C 0 < #.%.` ~ ! ! / / ^ ^ ) ) } } o.O.~.~.~.~.~.~.O.O.} } ) ) ^ ^ ^ / Q ! ~ ~ ~ &.5.r.<.>.>.>.%.*.&.&.&.>.>.<.r.t.m.Z._.-X:X2X<X`.} { ) ^ ^ / Q ! ~ ~ &.&.>.<.r.p.m.V.).`.}.-X:X>X2X2X<X<X@X+XW.R.Y.yXuXtX8XhXm M K R W T I S i e 7 2 O .     . o 3 7 w i mX!.!.+X@X@X@X%X%X&X%X<X<X<X<X2X2X2X2X>X>X>X;X;X-Xw.` ` ` Q ! Q Q ^ ^ ^ ) { { } o.O.O.~.~.~.~.~.~.O.o.} } [ ) ) ^ ^ ^ / Q ! ~ ~ &.%.>.r.r.p.m.V.Z._.}.-X-X;X>X>X2X2X2X2X2X<X&X%X%X%X@XKXH K E W Y D Z y w 7 1 . .   . . < 4 0 t Z D Y T E L H M hXwXtXuXyXY.T.W.@X#X&X2X2X2X>X:X-X}._.Z.M.g.t.r.>.>.&.&.~ ~ Q Q ^ ^ ) { } o.).#X2X2X:X-X'.).V.m.p.i.t.w.w.w.w.w.w.r.r.p.g.m.Z._.=X).&.` ` ~ ! ! ! / / ^ ^ ^ ) { { } } O.O.~.~.~.~.~.~.~.O.O.o.} { [ ) ) ^ ^ ^ / Q Q ! ~ ~ ~ &.2.uXY.W.oX$X<X2X2X>X>X;X-X=X=X}.}.}.}.}.-X-X;X:X>X2X2X<X&XP.^ ) ) } o.O.~.~.~.@.@.o.} ) ) ^ ^ Q ! ~ ~ &.>.>.w.t.p.m.Z._.}.-X:X>X2X2X<X&X@XoXW.Y.BXuXpXeXhXm H K E Y Y D B r 8 2 X .     . 1 3 w y Z I T Y R J M kX0XiX@X+X@X%X<X<X<X2X2X2X>X:X:X-X*X'.).V.m.g.r.w.>.&.` ` ! Q ^ ^ ) } | &.` ` ~ ~ ! ",
"@X!.W.R.yXuX8XlXJ R Y i 8 O $.` ` ~ ! ! Q / ^ ^ ) ) { } o.O.~.~.~.~.O.~.O.o.} } ) ) ) ^ ^ / / Q ! ~ &.&.<.<.<.>.&.>.%.&.&.&.&.>.>.>.5.t.g.Z._.-X:X2X<X`.{ ) ) ^ ^ / Q ! ~ &.&.>.<.r.r.m.m.)._.}.=X;X>X>X2X2X<X&X@XoXW.T.Y.uXuXqX9XlXnXJ L Y W Y D V y 0 3 1 . .   . . 1 3 w y Z M !.!.@X@X%X%X%X%X&X<X<X<X2X<X2X2X2X2X>X>X>X-X-X-Xw.` ` ` Q ~ Q Q Q ^ ^ ) ) { } o.O.~.~.~.~.~.~.O.O.O.} { { ) ) ^ ^ ^ / / Q ~ ~ &.&.1.r.p.m.M.Z._._.}.-X;X;X>X>X2X2X2X2X<X<X<X%X@X@X@XoXnXL E T Y S i r 8 1 O . .   . O 1 8 e N S I T E R J M lXhXqXtXyXY.T.W.!.@X%X<X<X2X>X>X;X-X'.).V.m.p.r.<.>.&.&.~ ~ ! Q ^ ^ ) ) } o.O./.#X<X2X>X-X|._.V.V.g.p.i.t.r.w.r.w.t.t.p.g.m.h._.`.-X_.r.` ` ` ~ ! ! Q / ^ ^ ^ ) ) { } } o.O.~.~.~.~.~.~.~.O.O.o.} { [ [ ) ) ^ ^ ^ Q Q Q ~ ~ ~ &.&.x.Y.W.+X$X<X2X2X>X;X;X-X}.}.}.}.'.}.}.}.-X-X;X:X2X2X2X<X+Xq._ { } O.~.~.~.~.@.o.} { ) ^ ^ / Q ! ~ &.&.>.<.r.p.m.V.).}.=X;X:X>X2X<X<X%XoXW.R.Y.yXuXpX0XlXM K R Y T D C y q 3 < X     . O 1 0 r V D Y T R L H vXhXqXtXAX@X+X%X$X<X<X2X2X2X2X>X:X-X*X'.).V.m.p.t.w.>.&.` ` Q Q ^ ^ ) } }  .&.` ~ ` ",
"@X+XW.R.Y.yXtX0XlXK Y I u 7 X #.%.~ ! ! ! / / ^ ^ ) [ { } o.O.~.~.~.~.~.~.O.O.} } ) ) ^ ^ ^ / Q ! ~ ~ ` &.<.<.*.>.%.&.%.&.&.&.&.&.>.>.<.r.p.V._.-X:X2X<XP.{ ) ^ / / ! ! ~ ` ` >.>.<.r.p.m.V.Z.}.}.;X:X2X2X2X<X&X+X!.!.T.Y.yXuXqXqXhXn H K R Y Y I Z i w 7 1 O .     . o 2 7 e i S J !.@X@X@X@X#X&X%X$X<X<X<X2X2X2X2X2X>X>X;X;X-X}.}.w.&.` ~ ! ~ Q Q ^ ^ ^ ) ) { } o.O.O.~.~.~.~.~.~.O.o.o.[ { ) ) ^ ^ ^ / Q ! ~ ~ ~ &.>.t.g.M.V.)._.}.-X-X;X>X>X2X2X2X2X2X<X<X&X&X%X@X@X+XIXE W Y D Z y q 3 1 . .   . . < 4 q y C I Y Y E P H vXhX9XtXuXyXY.W.W.+X&X&X2X2X2X>X;X-X}._.Z.M.p.r.w.<.>.&.` ~ ! Q Q ^ ^ ) { } o.~./.OX<X2X>X;X=X'.).V.m.g.p.i.t.r.t.r.t.p.p.g.V.V.).}.-X:Xr.&.` ~ ! ! ! Q / / ^ ^ ) ) ) } } o.O.O.~.~.~.~.~.~.^.O.O.o.{ { [ ) ^ ^ ^ ^ / Q Q ! ~ ~ %.%.0.T.!.+X<X<X2X>X>X;X-X}.}.}._.'._.'._.}.}.=X;X;X>X2X2X<X$XJ.{ } o.@.@.~.~.~.O.o.} ) ) ^ / Q ! ~ ~ &.>.>.w.r.m.m.)._.}.-X:X2X2X2X<X&X+X!.W.Y.BXuXpX9XhXm H K E W Y S B e 7 2 X .     . 1 3 w i Z I Y T L J M kX0XpXuXBX!.@X@X&X<X<X2X2X2X>X>X:X-X}.'.).V.m.p.r.<.>.&.` ` ! Q ^ ) _ } O.+.&.&.` ",
"@X@XoXW.R.Y.uXpX0XM K T D t 7 $ &.%.` ~ ! ! ! / / ^ ) ) { } o.O.~.~.~.~.O.~.O.o.} } ) ) ) ^ ^ / / Q ! ~ &.&.>.1.&.>.%.%.%.~ &.&.&.&.>.>.<.r.p.V._.-X:X2X<XP.) ) ^ / / ! ! ` &.&.>.<.r.i.g.B.Z.`.}.=X;X>X2X2X2X<X&X@X!.W.T.BXuXtXqX0XlXM J R E T Y D B t 0 2 O . .   . . 1 7 q y Z D J !.@X@X@X@X#X&X&X<X<X<X2X<X2X2X2X2X>X>X;X-X=X}.'.p.` &.` Q ! Q Q ^ ^ ^ ) ) { { } O.O.~.~.~.~.~.O.~.O.o.[ [ [ ) ^ ^ ^ ^ Q Q ~ ~ ~ &.>.u.m.V.Z._.'.}.-X-X:X>X>X2X2X2X2X<X<X<X&X%X&X@X@X@XxXW T I S i r 7 2 O . .   . O 2 8 e N S Y T Y R J M lXrXqXtXyXY.T.W.!.+X&X<X<X2X>X>X;X*X_.).V.m.p.r.<.>.&.&.~ ~ ! Q Q ^ ^ { { o.O.~.~.).,X2X2X>X-X}.`.).V.m.g.p.p.i.p.t.p.p.m.m.V.Z.'.}.-X>X}.&.&.` ` ! ! ! / / / ^ ^ ) ) { } o.o.O.~.O.~.~.~.~.^.O.O.o.{ { [ [ ) ^ ^ ^ ^ / Q Q ~ ~ ` &.2.S.W.#X$X2X2X>X>X;X=X}._.'._._.)._._._.}.}.-X-X;X>X2X2X<X+Xe.} O.~.~.~.@.@.o.} { ) ^ ^ / Q ! ~ &.&.>.<.r.p.m.V.).}.-X;X:X>X2X2X&X@X@XW.R.Y.uXuXpX0XlXM K R Y Y U C y q 3 < X     . O 1 0 r V D Y T E K H n rX9XtXyXY.T.XX@X&X$X<X<X2X2X2X>X:X;X-X_.).V.m.p.r.w.*.&.` ! ! Q ^ ) { } O.~...&.",
"#X@X@XoXW.R.BXuXqXhXH L T S r 4 % &.%.` ! ! ! / / ^ ^ ) { { } o.O.~.~.~.~.~.~.O.O.} } ) ) ^ ^ ^ / Q ! ~ ~ ` &.>.>.&.&.%.%.&.~ ~ %.&.&.&.>.<.r.p.V._.-X:X2X<XP._ ^ ^ / ! ! ~ ` &.>.>.w.r.p.m.V.).}.-X;X:X2X2X2X<X&X+X!.W.T.Y.yXuXpX0XhXm H K E W T D S y w 7 1 O .     X o 3 7 e N S Y UX@X!.@X%X@X%X&X$X<X<X<X2X2X2X2X2X>X>X;X-X-X}.'.).m.&.` ` ~ ! Q Q / ^ ^ ^ ) { } } O.O.~.~.~.~.~.~.O.O.o.} { ) ) ^ ^ ^ / Q Q ~ ~ ~ &.>.g.M.V._.'.}.-X;X;X>X>X2X2X2X2X2X<X<X<X&X@X$X@X@X@XGXT Y D V t q 3 < .     . . 1 4 w y Z I Y T R K H vXhX9XtXyXyXT.T.!.+X%X<X2X2X2X>X;X-X}._.Z.m.g.r.<.<.*.&.` ~ Q Q Q ^ ) ) { } O.O.~.~.(.#X2X2X>X-X*X'.).Z.m.m.m.p.p.p.p.p.m.m.V.Z.).'.-X;X>X}.r.%.` ` ! ! ! Q / / ^ ^ ) ) { { o.o.O.~.~.~.~.~.~.^.^.O.o.o.{ [ ) ) ) ^ ^ ^ / Q Q ! ~ ~ &.&.b.!.$X<X2X2X>X;X-X}.}._._.Z.Z.).Z.)._._.'.}.=X;X>X>X2X<X$XP.+.@.~.~.~.~.O.o.} ) ^ ^ / Q ! ~ ` &.>.>.w.t.g.M.).`.}.-X:X2X2X2X<X$X@XoXW.Y.BXuXpXrXkXm J L E T Y S B e 7 2 X .   . X 1 3 w i S I T Y L J m lXwXqXuXyXY.W.!.+X@X$X<X<X2X2X2X>X>X-X-X'._.V.m.p.r.w.>.&.&.! ! ^ ^ ^ { } O.@.~.",
"%X@X@XoXW.W.R.yXuXqXlXJ R Y S e 4 % %.%.` ! ! ! / / / ^ ) ) } } o.O.~.~.~.~.O.~.O.o.} } ) ) ) ^ ^ ^ / Q ! ~ &.&.>.*.&.%.~ ~ &.~ ~ ~ &.&.&.>.>.5.p.V._.-X:X2X<X+Xq.^ ^ ! ! ! ` &.&.>.<.r.p.m.M.Z.`.}.-X;X>X2X2X<X<X%X@X!.W.T.BXuXtXqX0Xn M K L Y W Y S V r 0 2 O X     . o 1 7 w y Z D Y P @X@X@X%X%X%X&X<X<X<X2X2X2X2X2X2X>X>X-X-X}.'._.).p.&.` ` ~ Q ! Q / ^ ^ ) ) { { } O.O.~.~.~.~.~.~.O.O.o.} { [ ) ) ^ ^ ^ Q Q ! ~ ~ &.&.u.Z.Z._.}.}.-X;X;X>X>X2X2X2X2X<X<X<X&X&X@X#X@X@X@XGXT I S i w 7 1 O .     . O 3 8 r V S Y T E L J M kXrXqXtXyXBXT.W.!.+X&X<X2X2X2X:X-X*X'.Z.V.g.p.r.<.>.&.&.~ ~ Q Q / ^ ) { { o.O.~.~.~./.XX<X2X2X:X-X}._.).V.V.m.m.g.m.m.g.m.m.Z.)._.}.-X:X>X2Xt.%.` ` ` ! ! ! / / ^ ^ ) ) { { } o.O.O.~.~.~.~.~.~.O.^.o.o.{ { [ ) ) ^ ^ ^ ^ / Q ! ~ ~ ~ &.1.oX$X<X2X>X>X;X=X}._._.).Z.V.Z.V.V.Z.)._.}.}.=X;X>X2X2X<X+Xf.@.~.~.~.@.o.} { ) ^ / / Q ~ ~ ` >.>.<.r.p.m.V._.}.-X;X>X>X2X<X<X@XoXW.R.Y.uXuX8X0XlXM K R W Y D C t q 2 < .     . O 3 0 r V D Y T E K H lXhXqXtXyXY.T.W.!.+X@X$X$X<X<X2X2X>X>X;X-X'._.V.m.g.r.w.*.&.&.( Q Q ^ ) { } o.O.",
"%X%X@X+XoXW.R.Y.yXtX0XlXJ E Y C r 4 & &.%.` ! ! ! / / ^ ^ ) ) } } o.O.~.~.~.~.~.~.O.O.} } ) ) ^ ^ ^ / Q ! ~ ~ ~ &.*.&.%.%.%.~ ~ ~ ~ ~ ~ &.%.>.>.w.p.V._.-X>X2X<X%X*./ / ! ! ~ ` &.>.,.r.r.p.N.V.).}.-X;X>X2X2X2X<X&X#X!.W.T.Y.yXtXpX0XhXm H L E W Y D C i 0 7 1 X .     X o 3 0 r V S Y T E GX@X@X@X%X&X$X<X<X<X2X2X2X2X>X>X;X;X-X}.'.'.Z.Z.p.&.&.` ` ! ! Q Q ^ ^ ^ ) { { } o.O.O.~.~.~.~.~.~.O.o.} { [ ) ^ ^ ^ ^ / Q ! ~ ~ ~ &.g.Z._.'.}.-X;X:X>X>X2X2X2X2X2X<X<X<X&X%X$X@X@X@XoXoXJ D V t 0 3 O .     . o 1 7 w u Z I Y T R K M vXhX9XtXuXBXZXW.!.@X#X<X<X2X2X>X;X-X}.).Z.m.g.r.<.>.*.&.` ~ Q Q / ^ ^ ) { o.o.~.~.~.^.~._.1X2X2X>X-X-X'._.Z.V.M.M.m.m.m.m.V.V.Z._.'.*X-X>X>X2X[.&.%.~ ~ ! ! Q / / ^ ^ ^ ) ) { } } O.O.O.~.~.~.~.~.^.^.O.o.} } [ ) ) ^ ^ ^ / Q Q Q ~ ~ ~ &.&.K.$X2X2X>X:X;X}._._.Z.Z.V.V.M.V.V.V.).Z._.}.=X;X;X>X2X<X&X`.~.~.~.~.o.o.{ ) ) ^ Q Q ! ~ &.&.>.>.r.p.p.V.Z.'.}.-X:X2X2X2X<X&X+X!.W.Y.BXuXpXrXkXM H L Y T Y S i e 7 1 X     . . 1 3 w i S I T Y L J M lXwXqXyXyXY.W.!.+X@X@X@X$X<X<X2X2X>X>X:X-X}._.).m.g.r.w.>.&.` ` ! ^ ^ ^ { } o.",
"%X%X%X@X@X!.W.R.Y.uXpX0Xn K Y Y C t 8 & %.%.` ~ ! ! / / / ^ ) ) { } o.O.~.~.~.~.O.~.O.o.} } ) ) ^ ^ ^ ^ / Q ! ~ &.&.&.&.~ ~ ~ ~ ~ ~ ~ ~ ~ &.&.>.>.5.p.M._.-X:X2X<X#X>.^ ! ! ~ ` &.&.>.<.r.p.m.V.Z.`.=X-X;X>X2X2X2X&X%X@X!.R.Y.yXyXpXqXhXlXH J R Y T Y S i r 7 3 O .     . o 1 7 w i Z I Y T R GXXX@X%X$X%X$X<X<X2X2X2X2X2X2X>X;X-X-X}.'.).Z.M.t.>.` ` ` ! ! Q Q ^ ^ ^ ) { { } o.O.~.~.~.~.~.~.O.O.O.} } ) ) ) ^ ^ ^ ^ Q Q ~ ~ &.&.t._.].}.-X-X;X>X>X>X2X2X2X2X2X<X<X&X&X@X$X@X%XoXoXoXH Z i w 7 1 O .     . O 3 0 t V S Y T E L J m lXrXqXtXyXG.AX!.!.#X$X<X2X2X>X:X-X}.'.Z.V.g.p.r.<.>.&.` ~ ~ Q Q / ^ ) { { o.O.~.~.~.~.^.Z.,X<X2X>X:X-X}.'.).).V.V.M.V.V.V.V.Z.).'.}.-X;X>X2X2X[.y.&.` ~ ! ! ! Q Q / ^ ^ ) ) { { } o.O.~.~.O.~.~.~.^.O.O.O.} { [ [ ) ) ^ ^ ^ ^ Q Q ! ~ ~ &.&.5.$X<X>X>X;X-X}._.Z.Z.M.M.m.m.m.M.m.V.Z.Z._.}.=X;X>X>X2X<X+X/.~.~.@.o.} { ^ ) ^ Q Q ~ ~ &.&.>.<.r.p.m.V._.}.-X;X>X2X2X<X<X@XoXW.T.Y.uXuX8X0XlXH K R Y Y D C t 0 3 < .     . O 3 0 r V D Y T E K M lXhXqXtXyXY.T.W.!.#X$X#X+X@X<X<X<X2X2X>X:X-X}._.).m.g.t.w.>.*.` ` ! Q ^ ^ { } ",
"%X@X%X@X@XoX!.W.Y.BXuXqXhXH L T I C t 8 5 &.` ` ! ! ! / / ^ ^ ) { { } o.O.~.~.~.~.~.~.O.O.} } ) ) ) ^ ^ / Q ! ~ ~ ~ &.&.%.%.~ ~ ! ~ ! ! ~ ~ ~ %.&.>.5.p.M._.-X>X2X<X+X>./ ! ! ~ ` &.>.>.r.r.p.m.Z.`.`.-X;X>X>X2X2X<X&X@XoXW.T.Y.yXuXpX0XlXm J L E T Y D V y w 4 < X     . . < 3 0 y V D Y T Y L GX@X@X@X%X&X<X<X<X2X2X2X2X>X>X:X;X-X}.'._.Z.M.M.p.>.` ` ` ! ! Q Q ^ ^ ^ ) ) { } o.O.O.~.~.~.~.~.~.O.O.} } [ ) ) ^ ^ ^ Q Q ! ~ ~ ~ &.<._.}.=X-X;X:X>X2X2X2X2X2X<X<X<X$X&X&X%X%XoX%XoXoXoXzXN t 8 3 O . .   . O 1 7 w i S I T Y R P H lXhXqXtXyXBXT.W.!.@X%X<X2X2X2X:X-X-X}._.V.m.p.r.w.>.&.&.&.~ Q Q / ^ ^ ) { o.O.~.~.~.~.O.O.s.%X<X2X2X:X:X}.}._.).Z.Z.V.V.V.V.Z.)._.'.*X-X:X>X2X2X&Xy.&.` ` ` ! ! Q / / ^ ^ ^ ) { { } o.o.O.~.~.~.~.~.~.^.O.O.o.o.{ [ ) ) ^ ^ ^ ^ / Q Q ~ ~ ~ &.&.[.2X2X:X;X=X_._.Z.V.m.m.m.m.p.m.m.m.M.Z.Z._.}.-X;X>X2X<X&X`.@.~.O.} { { ^ ^ Q Q ! ~ ~ &.>.<.w.p.m.M.).'.}.;X:X>X2X2X<X&X+X!.W.Y.BXuXpXrXkXm J L E T Y S i e 7 1 X     . X 1 7 w i S Y T Y L J M kX9XqXuXyXY.R.!.+X$X<X<X#X+X&X<X<X2X2X>X>X-X-X_.).V.m.t.w.>.*.` ` ! Q ^ ) ) ",
"@X%X%X@X%X@XoXW.W.Y.BXuXqXhXH R T I C t e 5 &.` ` ~ ! / / / ^ ^ ) { { } o.O.~.~.~.~.O.~.O.o.} } ) ) ^ ^ ^ ^ / Q ! ~ &.%.&.~ ~ ~ ! ! ! ! ! ! ~ ~ %.>.>.<.p.M.'.-X>X2X<X#X>./ ! ~ %.&.&.>.<.r.p.m.V.Z.}.}.-X:X>X2X2X2X&X@X@XW.W.Y.yXuXpXqXhXn nXK R E T U S i w 7 2 O .     . o 1 7 w i S I Y T R K DX@X@X%X%X&X<X<X<X2X2X2X2X2X>X;X;X-X'.'.).V.M.p.p.>.` ` ` ! ! Q Q ^ ^ ^ ) ) { } o.o.~.~.~.~.~.~.O.O.O.} } [ ) ) ^ ^ ^ ^ Q Q ~ ~ ~ &.<.].=X;X;X:X>X>X2X2X2X2X2X<X<X<X&X&X%X+X%XoXoX%XoXoXSXy q 4 1 . .     . O 4 0 t V D Y T E L H M hX9XqXtXyXG.AX!.!.#X&X<X2X2X2X:X-X}._.).M.g.p.w.<.>.&.` ~ ~ Q Q ^ ^ ) { { o.O.~.~.~.~.O.o.X._.1X<X2X>X:X-X*X'._.).).Z.Z.Z.Z.)._.'.}.-X;X:X>X2X2X%XK.&.%.` ` ! ! ! / / ^ ^ ^ ) ) { { o.o.O.~.~.~.~.~.~.^.O.O.o.} { [ [ ) ) ^ ^ ^ ^ Q Q ! ~ ~ &.&.A.2X2X;X;X}._.Z.M.M.m.p.p.p.p.p.g.p.m.M.Z.Z._.}.;X;X>X2X<X#Xf.@.o.} ) ) ^ ^ Q ! ! ~ &.&.>.<.r.p.m.V._.}.-X:X:X2X2X<X$X@XoXHXR.Y.uXtX8X0XcXM K E Y Y I V t 0 2 < .     . O 3 0 y V D Y T R K M n rXqXtXyXY.T.W.!.#X$X<X2X<X+X#X$X<X<X2X2X>X:X-X}.).V.m.p.w.>.>.` ` ! Q ^ ^ ",
"@X@X@X&X@X@XoXoXW.R.Y.yXpXrXlXH R T I S u r a &.` ` ~ ! ! / / ^ ^ ) ) } } o.O.~.~.~.~.~.~.O.O.} } ) ) ^ ^ ^ / Q Q ~ ~ %.%.%.~ ~ ! ! ! ! Q ! ! ~ ~ ~ &.>.r.p.V._.-X>X2X<X%X,.! ! ~ %.&.>.<.r.p.g.M.Z._.}.-X;X>X2X2X<X<X&X+X!.W.T.Y.uXuXqX0XlXm J L E Y Y D V y q 3 1 X .   . . 1 7 0 y V D Y T E L H DX@X@X%X&X$X<X<X2X2X2X2X>X>X:X-X-X}.'.).Z.h.m.p.r.*.&.` ~ ! ! Q Q Q ^ ^ ) ) { { o.O.O.~.O.~.~.~.~.O.O.o.} [ [ ) ^ ^ ^ / Q Q ! ~ ~ &.<._.=X;X:X>X2X2X2X2X2X<X2X<X<X$X$X%X%X@X%X%XoXoXoXoXCXj 8 3 O . .   . O 1 7 e i S I T Y L K M lXhXqXtXyXBXT.W.!.@X&X<X2X2X>X>X-X-X'.).V.M.p.r.<.<.&.&.` ~ Q Q / ^ ) ) { o.O.~.~.~.~.~.O.o.[ L.,X<X2X2X:X-X-X}.'._._.).).).)._.'.'.*X-X;X>X2X2X<X%X!.3.&.` ` ( ! ! Q / / ^ ^ ) ) { { } o.O.O.~.~.~.~.~.~.^.O.O.o.} { [ ) ) ^ ^ ^ ^ / Q ! ~ ~ ~ &.r.].>X;X=X'._.Z.M.m.p.p.p.r.p.r.p.p.g.g.M.Z._._.=X;X>X2X<X&X`.@.} { { ^ ^ Q Q ! ~ &.&.>.<.w.p.m.V.).'.}.-X>X2X2X2X<X&X+XW.R.Y.yXuXpXrXkXm J L E T I S i w 7 1 X .   . X 1 7 w i S I T Y L J m lXwXpXuXyXY.W.!.@X$X<X2X2X>X#X+X#X<X<X2X2X>X:X-X}._.Z.m.p.r.>.>.` ` ! ! ^ ",
"yX+X@X@X%X@X@XoXoXW.R.Y.uXpX0Xn J R T I S B u s &.` ` ~ ! ! / / ^ ^ ) ) { } o.O.~.~.~.~.O.~.O.o.} } { ) ^ ^ ^ ^ Q Q ! ~ %.%.%.~ ~ ! ! Q Q Q Q Q ~ ~ ~ >.>.<.p.V._.;X>X2X<X#X,.! ` ` &.&.>.<.r.p.m.V._.`.=X-X:X>X2X2X<X$X@XoXW.R.Y.yXuXpXqXhXn H K R T Y U S u w 7 1 O .     . o 1 7 e i S I Y T R K M mX@X@X%X&X$X<X<X2X2X2X2X>X>X:X-X-X'.'.).V.m.p.p.w.>.&.` ` ~ ! ! Q ^ ^ ^ ^ ) { { } O.O.~.~.~.~.~.~.O.O.o.} [ [ ) ) ^ ^ ^ Q Q ! ~ ~ &.&._.;X,X>X>X2X2X2X2X2X<X<X<X$X&X$X%X%XoX%XoX@XoXoXoXoXg 3 1 . .     o < 4 q y C D Y T E L H m hXwXqXuXyXG.W.W.XX%X&X<X2X2X2X:X-X}._.Z.h.g.t.w.>.>.&.` ~ ~ Q Q ^ ^ ) { } o.O.~.~.~.~.O.o.} [  .#X<X2X2X2X:X-X-X}._._._._._._.'.}.}.*X;X;X>X2X2X<X@X!.0.&.` ` ` ! ! ! / / ^ ^ ^ ) ) { } o.o.O.~.~.~.~.~.~.~.O.O.o.} { [ [ ) ^ ^ ^ ^ ^ Q Q ! ~ ~ &.&.B.,X;X}._.Z.M.m.m.p.r.t.r.r.r.r.r.p.p.g.M.Z._.].-X;X>X2X<X#Xs.} ) ) ^ ^ Q ! ! ~ &.&.>.w.r.p.m.Z._.}.-X;X>X2X2X<X&X@XoXW.R.Y.uXuX8XhXlXH K E E Y D V t 0 2 O .     . O 3 0 y V D Y T R K M lXhXqXtXyXY.T.W.+X@X<X<X2X2X>X:X+X+X$X<X2X2X2X>X;X*X'.).m.g.r.w.>.&.` ! ! ",
"tXiX@X@X@X%X@X@XoXW.W.Y.Y.uXpX0Xm K R T Y D C B f &.` ` ! ! ! / / ^ ^ ) { { } o.O.~.~.~.~.~.~.O.O.} { [ ) ^ ^ ^ / Q Q ~ ~ %.&.~ ~ ! Q Q / Q Q Q Q Q ~ ~ &.>.r.p.V.`.-X>X2X<X@X,.! ~ &.&.>.<.r.p.g.B.Z._.}.-X:X>X2X2X2X<X#X@X!.W.T.BXyXtXqX0XlXM J L E T Y S V t 0 3 O X     . . 1 4 0 y C D Y T E L J m dX@X@X%X&X$X<X<X2X2X2X2X>X:X-X-X}.'.).Z.V.m.t.r.w.>.&.` ~ ~ Q ! Q Q ^ ^ ) ) { } } o.~.O.~.~.~.~.~.~.O.o.} { [ ) ) ^ ^ ^ Q Q ! ~ ~ ~ &.`.;X>X>X2X2X2X2X2X<X<X<X$X$X%X%X@X%XoX%XoX+XoXoXoX!.g 1 O .     . O 1 7 e i S Y Y T L P M lXhXqXtXyXY.T.W.!.@X$X<X2X2X>X:X-X-X'.).V.m.p.r.w.>.&.&.` ~ Q Q / ^ ) { { o.O.~.~.~.~.O.O.} { )  .L.<X<X2X2X>X;X-X}.}.'.'._.'.'.'.}.-X-X;X>X2X2X2X<X@XW.S.&.` ` ~ ! ! ! Q / / ^ ^ ) ) { } } o.O.O.~.~.~.~.~.~.~.O.o.o.} [ [ ) ) ^ ^ ^ ^ Q Q ! ~ ~ ~ &.r.`.-X}.).Z.M.p.p.t.r.<.r.r.<.r.r.r.t.p.g.M.Z._.}.;X>X2X<X$XP.{ ) ^ ^ / ! ! ~ %.&.>.<.w.p.m.V.Z.}.}.;X:X2X2X2X&X%X+X!.R.Y.yXuXpX9XlXM J L Y T I S i w 7 1 X     . o 1 7 e i S Y T Y L J m kXwXpXyXyXY.W.!.@X&X<X2X2X>X:X-X=XXX&X$X<X2X2X>X:X-X}._.V.m.t.w.>.&.` ( ",
"uXpXtX@X@X@X@X@XoXoXW.W.Y.BXuXqXhXM K R T Y I S C j %.` ` ! ! ! / / ^ ^ ) { { } o.O.~.~.~.~.O.~.O.O.} } ) ) ) ^ ^ ^ Q Q ! ~ %.%.~ ! ! Q / / / ^ Q Q Q ~ ~ &.>.r.p.Z._.;X:X2X<X#X<.~ %.&.>.>.<.r.p.m.V._.'.=X-X:X>X2X2X<X<X+XoXW.R.Y.yXuXpX8XkXm H L R T Y U Z y w 4 1 X .     . o 3 0 w V S I Y T R J H lXaX@X@X%X&X<X<X<X2X2X2X2X>X:X-X-X}._.).V.m.g.t.w.<.*.&.&.` ~ ! ! Q Q ^ ^ ^ ) ) { } o.O.~.~.~.~.~.~.O.O.O.} [ [ ) ) ^ ^ ^ ^ Q Q ~ ~ &.&.r.>X2X>X2X2X2X<X2X<X<X$X&X%X%X%X%XoX+XoXoXoXoXoXoXoXY.< . .     . 1 4 q y C D Y T E K H vXhXrXpXuXyXY.W.!.XX%X<X<X2X2X>X:X-X}._.Z.m.g.t.w.>.>.&.~ ~ ~ Q Q Q ^ ) { } o.~.~.~.~.~.O.o.[ [ ) ^ V.&X<X2X2X>X:X;X-X=X}.'.}.'.}.}.*X-X-X;X>X>X2X2X&X@XW.BX1.*.` ` ~ ! ! ! / / / ^ ) ) ) { } o.O.O.~.~.~.~.~.~.~.O.O.o.} [ [ ) ) ^ ^ ^ ^ ^ Q Q ! ~ ~ &.&.g.=X].Z.V.m.p.t.r.w.<.<.<.<.<.<.w.r.t.p.g.M.Z.`.-X;X>X2X<X#Xq.) ^ ^ ! ! ! ~ &.>.>.w.r.p.m.Z._.}.-X;X>X2X2X2X&X@XoXW.R.BXuXpXpXhXlXH L R T Y D B r 0 2 O .     . o 3 0 y C D Y T R K H lX0XrXtXyXY.T.W.XX@X<X<X2X2X>X;X-X'.].+X&X<X<X2X2X:X-X}._.Z.m.p.r.>.*.` ",
"yXtXqXaX+X@X@X@X+XoX!.W.R.Y.yXtXqXlXM K R Y T Y D D k &.` ` ~ ! ! / / ^ ^ ) ) } } o.O.~.~.~.~.~.~.O.o.} } [ ) ^ ^ ^ / Q Q ~ ~ %.%.~ Q Q / / / Q ^ Q Q Q Q ` &.>.r.p.Z.`.-X>X2X<X#X<.~ &.&.>.<.r.p.m.V.Z._.}.-X:X>X2X2X<X<X%X+XW.W.T.BXuXpXqX0XlXM J R E Y Y S V r 0 3 O X     . o 1 3 w y C I Y T R L H m lXaX+X@X%X%X<X<X2X2X2X2X>X:X:X-X*X'.).Z.m.m.t.r.w.<.&.&.` ` ~ ! ! Q Q ^ ^ ^ ) { { } o.O.~.~.~.~.~.~.~.O.O.o.[ { ) ) ^ ^ ^ / Q Q ~ ~ ~ &.r.>X2X2X2X2X2X<X<X$X&X%X%X%X%XoX%XoXoXoXoXoXoX+XoXoXG.o .     . O 2 8 r V S Y T E L J M lXwXqXtXyXY.T.W.!.@X$X<X2X2X>X:X;X}.'.).V.m.p.r.<.>.&.&.` ~ ! Q ^ ^ ) ) } o.O.~.~.~.~.O.O.} } ) ^ ^ *.+X<X2X2X2X>X;X-X=X-X}.}.}.}.}.-X;X;X>X2X2X2X<X%X!.W.ZXk.&.%.~ ~ ! ! ! / / ^ ^ ^ ) ) { } } O.O.O.~.~.~.~.~.~.^.O.o.o.{ } [ ) ^ ^ ^ ^ / Q Q ! ~ ` ~ &.r.}._.Z.m.g.t.r.w.<.<.>.>.>.>.<.<.<.r.r.p.m.V.Z.}.;X>X2X<X&XP.^ ^ / ! ! ~ &.&.&.<.w.p.m.V.).'.-X;X>X2X2X<X<X&X+XW.R.Y.yXuXpX0XlXm J R E T I S i w 4 1 X .   . o 1 7 e N Z Y T Y L H m kX8XpXuXBXY.W.!.@X$X<X2X2X>X:X-X}._.Z.{.@X$X<X2X2X2X;X-X}.).V.g.r.<.>.",
"yXuXpXqXdX+XoX@X@X@XoXW.W.R.Y.uXtX8XlXM K R Y W T I I x &.%.! ! ! ! / / ^ ^ ) ) { } o.O.~.~.~.~.~.O.~.o.} } ) ) ) ^ ^ ^ Q Q ~ ~ %.&.~ Q / / ^ ^ Q ^ Q Q Q ~ ~ &.>.r.g.V.}.-X>X2X<X$X<.~ &.>.>.w.r.p.m.Z._.}.=X;X:X>X2X2X<X&X@XoXW.R.Y.yXuXqXrXlXm H K E T Y D C u q 7 1 X .     . < 3 0 r N S Y Y T R J M lXhXaXW.%X%X%X<X<X<X2X2X2X>X:X;X-X}.'.).V.m.g.t.w.>.>.&.&.` ` ` ! ! Q Q / ^ ^ ) ) { } o.o.O.~.~.~.~.~.O.O.O.o.[ [ [ ) ^ ^ ^ ^ / Q ! ~ %.%.r.].2X2X2X2X<X<X<X$X&X%X%XoX%XoX+XoXoXoX!.!.!.!.XX!.!.=       . < 4 q y Z I Y T E K H vXhXrXtXuXyXY.W.!.+X@X<X<X2X2X>X:X-X}._.V.M.p.t.w.>.>.&.~ ~ Q Q Q ^ ^ ) { } O.O.~.~.~.~.O.o.[ [ ) ^ ^ &.J.$X<X2X2X>X>X;X-X-X-X*X*X*X-X-X;X;X>X>X2X2X<X%X!.AXBXc.1.%.` ` ! ! ! / / / ^ ^ ) ) { { } o.o.~.~.O.~.~.~.~.O.^.o.o.{ { [ [ ) ^ ^ ^ ^ Q Q Q ! ~ ~ &.&.C.).V.g.p.r.w.<.<.>.>.>.&.>.>.>.>.<.r.r.g.m.Z._.-X;X>X2X<X#X>.^ ! ! ~ ~ &.>.>.w.r.p.M.Z._.}.-X;X>X2X2X<X&X@XoXW.R.BXuXpXpX0Xn M L E Y Y D B r 0 1 O .     . o 4 0 y Z D Y T R K M vX0XqXtXyXY.T.W.+X@X<X<X2X2X>X;X-X'.).V.B..X&X$X<X2X2X>X-X}._.Z.m.t.w.",
"Y.uXpXqX0XFXoX+X@X@XoX!.!.W.Y.Y.uXpX0XlXH K R Y W T Y I c %.%.` ! ! ! / / ^ ^ ) { { } o.O.~.~.~.~.~.O.~.o.} } [ ) ^ ^ ^ ^ Q Q ~ ~ ~ %.&.Q / ^ ^ ^ ^ ^ ^ Q Q Q ` &.>.r.m.V.}.-X>X2X<X#Xb.&.&.>.<.r.p.m.V.Z._.}.-X:X>X2X2X<X$X$X@XW.R.Y.BXuXtX8XhXlXM K R E Y Y S i r 8 2 O .     . o 1 4 w i Z I Y T R L H n hXqXqXW.@X%X%X<X<X2X2X2X2X>X:X-X*X}._.Z.V.m.t.r.w.>.>.&.&.` ` ~ ! ! ! Q ^ ^ ^ ) ) { { o.O.O.~.~.~.~.~.~.O.O.o.} [ [ ) ^ ^ ^ / Q Q ! ~ ~ &.&.[.2X2X<X<X<X$X%X$X%X@X%X+XoXoXoXoX!.!.!.!.!.!.!.!.!.=     . O 3 0 r B S Y T E L J n lX9XqXtXyXY.T.W.!.@X&X<X2X2X>X:X;X*X_.).V.m.p.w.w.>.&.&.` ~ ! Q / ^ ) { { o.O.~.~.~.~.O.O.} [ ) ^ ^ / / H.#X<X2X2X>X>X:X;X-X-X-X-X-X-X-X>X>X>X2X2X2X<X@X!.R.BXtX1.&.` ` ~ ! ! ! / / ^ ^ ^ ) ) { } o.o.O.~.~.~.~.~.~.^.^.O.o.} } [ ) ) ) ^ ^ ^ / Q Q ! ~ ~ ~ &.<.C.M.g.r.r.<.>.>.>.&.>.&.>.&.>.>.>.<.<.t.g.M.).}.;X>X2X<X&XH.Q ! ! ~ &.&.>.<.r.p.m.V.).'.-X;X:X2X2X2X<X+X@XW.R.Y.yXuXpX0XlXM J L E T I S u w 7 1 . .   . o 1 7 e i S Y T E L J n mX9XpXuXBXZXW.!.@X$X<X2X2X>X:X;X}._.Z.M.p.g.@X&X<X2X2X>X:X-X'.Z.V.p.",
"Y.yXuXpX9XkXJXoX+XoX@XoX!.W.W.T.BXuXpX0XlXH K L Y E T T Y F &.%.` ! ! ! / / ^ ^ ) { { } o.O.~.~.~.~.~.O.~.o.} } ) ) ) ^ ^ ^ Q Q ! ~ ~ &.%./ / ^ ^ ^ ) ^ ^ Q Q ~ ` &.<.r.m.Z.'.-X>X2X<X$XK.&.>.>.r.r.p.M.Z._.}.-X;X>X>X2X2X<X&X+XoXW.R.BXuXuXpX0XkXm J L E T Y D C y q 4 < X .     . < 3 0 r V D U Y W L J nXlX0XqXtXW.@X%X&X<X<X2X2X2X2X>X:X-X*X'.).Z.m.m.t.r.<.>.&.&.&.&.` ~ ! ! ! Q ^ ^ ^ ) ) { { o.o.O.~.~.~.~.~.~.O.O.o.} [ [ ) ) ^ ^ ^ / Q Q ~ ~ &.&.[.<X<X<X<X$X&X@X%X@X+XoX+XoX!.oX!.!.!.W.!.!.!.!.!.!.G.    O 1 4 w i Z D Y W R P H vXhXwXtXuXBXY.W.!.+X&X$X2X2X2X>X;X-X}.).V.m.g.r.w.>.>.&.~ ~ Q Q Q / ^ ) { } O.~.O.~.~.~.o.o.[ [ ) ^ ^ Q Q 1.OX<X<X2X2X>X>X:X;X;X-X-X-X;X;X;X>X>X2X2X2X&X@XW.AXyXtX5X&.` ` ~ ~ ! ! ! / / ^ ^ ) ) { { } o.O.O.~.~.~.~.~.~.O.~.o.o.{ { [ ) ) ^ ^ ^ ^ / / Q ~ ~ ~ &.&.g.g.a.r.r.>.>.>.&.&.&.%.&.&.&.>.>.>.>.r.t.m.Z.].-X;X2X2X<X#Xa.! ! ~ &.>.>.w.r.p.M.Z._.}.-X:X>X>X2X<X<X+XoXW.R.BXuXpXqX0Xm H L E Y Y D V r 8 1 O .     . o 4 0 y Z D Y T R K M n rXqXtXyXG.T.W.+X@X<X<X2X2X>X;X-X'._.V.m.p.w.C.+X$X<X2X2X>X;X}.).V.",
"Y.BXuXpXqX0XlXDXoX@X@XoXoX!.W.T.T.yXuXqX0XlXM J L R E E W T F %.%.~ ! ! ! / / ^ ^ ) ) { } o.O.~.~.~.~.~.O.~.O.} } [ ) ^ ^ ^ ^ Q Q ~ ~ ~ &.&.^ ^ ^ ^ ^ ) ^ ^ ^ Q ~ ` &.<.r.g.Z.}.-X>X2X<X&XK.>.>.<.r.p.m.M._._.}.-X:X>X2X2X<X<X@X+XW.R.Y.BXuXpXqX0Xn M K R E T I S V w 8 2 O .     . o 1 7 w i Z I Y W E P H n hXwXpXyXW.@X%X&X<X<X2X2X2X>X:X;X-X}.'.).V.m.p.r.w.>.&.&.` ` &.` ` ~ ! ! Q Q ^ ^ ^ ) { { } O.O.O.~.~.~.~.~.~.O.o.o.[ [ ) ) ^ ^ ^ / Q ! ~ ~ ~ &.r.<X<X$X&X%X%X%X+XoX+X!.!.!.W.!.!.!.!.!.W.!.!.!.!.!.G.  . O 3 0 r V D Y T E L J M kXwXqXtXyXY.T.W.oX+X$X<X2X2X>X:X-X}.'.).V.g.p.w.<.>.&.&.~ ~ Q Q ^ ^ ) { } o.O.~.~.~.~.~.o.} [ ) ^ ^ Q Q Q 1.K.$X<X2X2X2X>X:X:X:X;X;X;X-X>X>X>X2X2X2X<X%X@XW.ZXyXpXhX8.&.` ~ ~ ! ! ! / / ^ ^ ^ ) { { } o.o.~.O.~.~.~.~.~.O.^.O.O.} } [ ) ) ) ^ ^ ^ / Q Q ! ~ ~ &.&.>.g.t.<.<.>.&.&.%.&.&.~ &.&.&.%.&.>.>.<.t.p.M._.=X;X>X2X<X&XK.<.~ ` &.>.<.r.p.m.V.).'.-X;X>X2X2X<X<X@X+XW.R.Y.uXuXpX0XlXM J L T T I Z y w 7 1 .     . o 2 7 e N S Y T Y L H m hXwXpXuXBXY.W.!.@X$X<X2X2X>X;X;X}._.Z.M.p.t.<.>.E.+X<X<X2X>X:X-X}.",
"T.Y.yXtXqXrXlXm DXoX@X@XoX!.!.W.T.Y.yXuXqX0XlXM H L L U E E W G &.%.~ ~ ! ! Q / ^ ^ ) { { } o.O.~.~.~.~.~.O.O.O.} } [ ) ^ ^ ^ ^ Q Q ! ~ ~ &.&.^ ^ ) ^ ^ ) ^ ^ ^ Q ~ ` >.>.p.m.Z.}.-X:X2X2X$XK.>.<.r.r.p.M.Z._.}.=X;X>X>X2X2X<X&X@XoXW.R.BXyXuXqX0XlXM H L Y W Y D V y q 3 < X .     X 1 3 0 y V D Y Y Y L J M lXrXqXtXyXW.XX@X&X<X<X2X2X2X>X:X:X-X'._.).M.m.p.w.w.>.&.&.~ ` &.` ~ ~ ! ! Q Q ^ ^ ) ) { { } o.O.~.~.~.~.~.~.O.O.O.} } ) ) ) ^ ^ ^ ^ / Q ~ ~ ~ &.r.$X$X&X%X@X@X+XoXoX!.!.!..XW.!.W.!.W.!.W.W.!.!.!.!.G.= . 1 7 w i Z I Y W R P M lXhXqXtXyXyXT.W.!.oX$X<X<X2X2X>X;X-X'.).V.m.p.t.w.>.] &.~ ~ ~ Q / / ^ ) { } O.~.~.~.~.O.O.o.[ ) ) ^ ^ Q Q ~ ~ K.&X<X<X2X2X2X>X:X>X:X:X:X:X>X>X2X2X2X2X<X%XoXW.BXyXqXhXl.&.%.~ ~ ! ! ! / / / ^ ^ ) ) { } } o.O.~.~.~.~.~.~.^.O.O.O.o.{ [ [ ) ) ^ ^ ^ ^ / Q Q ~ ~ ~ &.&.r.r.<.>.>.&.&.%.~ %.~ ~ ~ %.&.&.&.>.>.r.p.m.Z.}.-X:X>X2X<X#Xb.~ &.>.>.w.r.g.M.Z._.}.-X:X>X>X2X<X$X@XoXW.R.BXuXpXqXhXn H L R T Y D V r 7 2 O .     . o 3 0 y Z D Y T R K M lXhXqXtXyXY.T.W.+X%X$X<X2X2X>X;X-X'.).V.m.p.r.<.>.r.K.&X<X<X2X>X;X",
"R.Y.yXuXtX8XhXlXM DX!.@X+X!.!.!.T.T.Y.uXtXqXhXlXM H J K L R E E F &.%.~ ! ! ! Q ^ ^ ^ ) ) } } o.O.~.~.~.~.~.~.O.O.} } ) ) ) ^ ^ ^ Q Q ~ ~ ~ &.&.^ ) ^ [ ) ) ^ ^ ^ Q ~ ~ >.<.r.m.Z.}.;X>X2X<X&XU.>.<.r.p.m.Z.Z.}.=X-X>X>X2X2X<X$X%X+XW.R.Y.yXuXpXrXhXlXH K R W T I S i e 7 2 O .     . o 2 7 w i S I Y T R K M vXhX9XpXyXyXAX@X%X$X<X<X2X2X2X>X:X-X-X'._.Z.m.p.t.w.<.&.&.` ~ ~ &.&.` ~ ! ! Q Q ^ ^ ^ ) ) { } o.O.O.~.~.~.~.~.~.O.O.} } [ ) ) ^ ^ ^ / Q Q ~ ~ ~ &.5.E.+X@X+X+XoX!.!.!.!.!.W.!.W.W.W.W.W.W.Q.W.W.!.!.!.!.- O 3 0 t V D Y Y E L J M lXwXqXtXyXY.T.W.+X@X$X<X2X2X>X:X-X}.'.Z.V.m.t.r.>.>.&.&.~ ! Q / ^ ^ ) { } o.O.~.~.~.~.~.o.} [ ) ^ ^ Q Q ! ~ &.5.@X&X<X2X2X2X2X>X:X>X>X>X>X>X>X2X2X2X2X<X@XoXW.BXyXqXlX9X9.%.` ` ! ! ! / / / ^ ^ ) ) ) } } o.O.O.~.~.~.~.~.~.^.O.O.o.o.{ [ ) ) ^ ^ ^ / / Q Q ! ~ ~ ~ &.>.w.>.>.&.&.~ &.~ ~ ~ ~ ~ ~ ~ ~ &.&.>.<.r.m.Z._.-X:X>X2X<X$XU.5.&.>.<.r.p.m.V.).}.-X;X:X2X2X2X<X#X@XW.T.Y.uXuXpX0XlXM J R E Y I Z u w 4 1 X     . o 1 0 e i S Y T E L H M hXqXpXuXBXY.W.!.@X$X<X2X2X>X:X-X}._.Z.M.p.r.w.>.&.&.<.+X$X<X2X>X",
"W.T.Y.yXuXqX0XkXnXJ DX!.@X@X!.!.!.W.T.Y.uXpXpX0XlXlXM H J K D R R F &.%.~ ! ! ! Q Q ^ ^ ) ) { } o.O.~.O.~.~.~.~.O.O.} } [ ) ) ^ ^ ^ Q Q ! ~ ~ &.` ^ [ [ ) { ) ^ ^ ^ Q ~ ` >.<.p.m.Z.}.;X:X2X2X$XU.<.r.p.p.M.Z._.}.-X;X>X>X2X2X<X@X@XoXW.T.Y.uXuX8X0XlXm J L Y W Y D V t 0 3 < X .     X 1 3 q y Z S Y T E L J m lXrXqXtXyXG.R.@X@X$X<X<X2X2X2X>X:X-X*X'.).V.m.p.r.w.>.&.&.~ ! ~ ` &.~ ` ! ! Q Q ^ ^ ^ ) ) { } o.o.~.~.O.~.~.~.~.O.O.o.} [ [ ) ^ ^ ^ ^ / Q ! ~ ~ &.&.E.oXoXoXoX!.W.!.W.W.W.W.W.W.W.W.W.W.W.W.W.W.!.!.!.!.j.1 7 e i S I T W R J M lXhXqXtXyXBXT.W.!.+X&X<X<X2X2X>X;X-X'._.V.m.p.t.w.>.&.&.~ ` Q ! / ^ ^ ) { o.O.~.O.~.~.O.O.o.[ ) ) ^ ^ Q Q ~ ~ &.5.K.%X$X<X2X2X>X>X>X>X>X>X>X>X2X2X2X2X2X&X@X!.R.BXtXqXlXJ 8.&.~ %.! ! ! ! / / / ^ ^ ) ) { { } o.O.~.~.~.~.~.~.^.O.O.O.} } [ [ ) ) ^ ^ ^ ^ Q Q ! ~ ~ ~ &.&.1.>.&.&.~ ~ ~ ~ ~ ! ! ~ ! ~ ~ ~ &.>.>.r.g.M._.}.-X>X2X2X<X+XA.>.>.<.p.p.M.Z._.}.-X:X>X2X2X<X$X+XoXW.R.BXuXpX8XhXm H K Y T Y D i r 8 1 O .     . < 2 w y C D Y T R K M lXhXqXtXyXY.T.W.+X@X<X<X2X2X>X;X-X'.).V.m.p.r.<.>.&.&.~ n.+X<X<X",
"!.T.Y.yXuXpXqXhXn M K GX@X!.@X!.!.W.T.Y.BXyXpXqX0XlXcXm M H J K L L b &.%.` ~ ! Q Q Q ^ ^ ) { { } o.O.~.~.~.~.~.~.O.O.o.[ ) ) ) ^ ^ ^ Q Q ! ~ ~ &.&.) ) { ) { ) ) ^ Q Q ~ &.>.<.t.M.Z.}.;X>X2X<X$XE.w.r.p.g.Z._._.-X-X:X>X2X2X<X$X$XoXW.T.Y.yXuXpXqXkXn H K R W Y I C i w 7 1 X .     . o 1 0 e i S I T Y R P H lXhXqXtXyXyXT.W.+X@X$X<X<X2X2X>X>X:X-X}._.).V.m.p.w.w.>.&.&.~ ! Q ` &.` ~ ! ! Q / / ^ ^ ) ) { { o.o.O.~.~.~.~.~.~.O.O.o.} { [ ) ^ ^ ^ ^ / Q ! ~ ~ ~ &.K.oXoXoXW.!.W.W.W.W.T.T.W.T.T.T.T.T.W.W.W.W.W.!.W.!.Y.3 0 y V D Y Y E L J m lXwXqXuXyXY.T.W.+X+X$X<X2X2X>X:X-X*X_.Z.V.g.t.w.>.>.&.&.~ ! Q / ^ ^ ) { } o.O.~.~.~.~.~.o.} [ ) ^ ^ Q Q ! ~ &.&.>.E.&X<X<X2X2X2X2X>X>X>X2X>X>X2X2X2X<X<X&X@X!.R.BXuXeXlXK b &.%.` ` ! ! ! / / / ^ ^ ) ) { } } o.O.O.~.~.~.~.~.~.^.O.O.o.} } [ ) ) ^ ^ ^ ^ / Q Q ! ~ ~ %.&.&.>.&.&.~ ~ ! ! ! ! Q Q ! Q ~ ~ ~ >.>.<.p.m.Z.}.;X;X>X2X<X&XU.u.<.r.p.m.V.).}.-X:X>X2X2X<X<X@X+XW.T.Y.uXuXpX0XlXM K R E T D S y w 4 1 .     . o 1 8 e V S Y T Y L H m hXwXtXuXBXY.W.!.@X&X<X2X2X>X:X;X}._.Z.M.p.r.w.>.&.&.` ! ! K.%X",
"!.W.T.BXuXtXqX0XlXM J L GX@X!.!.!.!.W.T.Y.yXuXtXqX0XhXlXcXm M H H K K x &.` ~ ~ ~ Q Q Q ^ ^ ) [ { } o.O.~.O.~.~.~.~.O.O.o.} ) ) ) ^ ^ ^ Q Q ! ~ ~ %.&.[ { { { { ) ) ^ ^ Q ~ &.>.w.p.m.Z.}.;X:X2X2X$XE.r.p.g.B.Z._.}.-X;X>X2X2X2X<X@X@XoXW.Y.Y.uXtXpX0XlXM J R Y W Y D V r 0 2 < X       o 1 3 w y Z D Y T E K J n lXwXqXtXyXBXT.W.+X@X$X<X<X2X2X2X>X:X-X}.).).m.m.t.w.>.>.&.` ! ! / ` &.` ` ~ ! ! Q / ^ ^ ) ) { { o.o.O.~.~.~.~.~.~.O.O.o.} { [ ) ) ^ ^ ^ / / Q ! ~ &.&.3.W.W.W.W.W.T.T.T.W.T.T.T.T.T.T.T.T.T.T.W.W.W.!.!.!.Y.d r i S I T Y R J M lXhXqXtXyXBXT.W.!.+X$X<X2X2X2X:X;X*X'.).V.m.p.t.w.>.&.&.` ~ Q ! / ^ ) ) { o.O.~.~.~.~.O.O.o.[ ) ^ ^ ^ Q Q ~ ~ &.>.>.u.@X$X<X<X2X2X2X2X2X>X2X2X2X2X2X2X2X<X&XoXW.R.yXyXrXlXK E 9.%.%.%.! ! ! ! / / ^ ^ ^ ) ) { } o.o.O.~.~.~.~.~.~.~.O.O.O.} } [ [ ) ) ^ ^ ^ ^ Q Q ! ~ ~ ~ &.&.&.&.~ ~ ~ ! ! Q Q / / Q Q Q ~ ~ &.>.<.p.m.Z._.-X;X>X2X2X<X#XE.<.u.g.M.Z._.}.-X:X>X2X2X<X$X@XoXW.T.BXuXpXqXhXm H L Y T Y S V r 8 1 O .     . < 2 q y Z D Y T R K M lXhXqXtXyXY.T.W.+X%X$X<X2X2X>X;X-X'._.V.m.p.r.<.>.&.` ` ! Q >.",
"!.!.T.Y.yXuXpXqXhXn H K R GX@X@X!.!.!.W.T.Y.BXuXpXpXeX0XkXlXcXm M H H J jX&.&.~ ~ Q Q Q ^ ^ ^ ) ) { } o.O.~.~.~.~.~.O.~.O.} } ) ) ) ^ ^ ^ Q Q ~ ~ ~ &.` { } } { { { ^ ^ Q Q ~ &.>.r.p.M.).}.;X>X2X<X$XE.n.g.g.Z._.'.-X;X>X>X2X2X<X$X#XoXW.R.Y.yXuXpX0XkXm H K E W Y D Z u w 7 1 X .     . o 3 7 r N S I T Y R J H lXhXqXtXiXG.Y.W.!.oX@X$X<X<X2X2X>X>X;X*X}.).Z.M.p.r.w.>.&.` ` ! ! ^ ` &.` ` ~ Q ! Q / ^ ^ ) ) { { } o.O.~.~.~.~.~.~.~.O.o.o.[ [ ) ) ^ ^ ^ / Q ! ~ ~ ~ &.5.W.W.T.T.T.T.T.BXY.Y.Y.Y.Y.Y.Y.Y.T.T.W.T.W.W.!.!.!.!.h y Z D Y T R L H M hXqXqXyXyXY.R.W.oX$X$X<X2X2X>X:X-X}.'.V.V.g.t.w.>.>.&.` ~ ~ Q Q ^ ^ ^ { } o.O.~.~.~.~.O.o.} [ ) ^ ^ Q Q ~ ~ &.&.>.<.r.E.$X<X<X2X2X2X2X2X2X2X2X2X2X2X2X<X&X&X@XW.R.yXtXrXlXP E 7X%.%.` ` ! ! ! ! / ^ ^ ^ ) ) { { } o.o.~.~.~.~.~.~.~.~.O.O.o.} { { ) ) ^ ^ ^ ^ / Q Q ! ~ ~ ~ &.&.&.~ ! ! Q / / / / / / Q Q Q ~ &.&.<.r.p.V._.}.;X>X2X2X<X<X@Xg.p.m.V._.}.-X;X>X2X2X<X<X@X+XW.T.Y.uXuXqX0XlXM J R E T I Z y w 3 1 .     . o 1 0 e i S Y T Y L H m hXwXpXuXBXY.W.!.@X&X<X2X2X>X:X-X}._.Z.M.p.r.w.>.&.&.` ~ ! Q ",
"@XW.W.T.BXuXpXqX0XlXM J L Y GX@X@X!.!.W.W.T.Y.yXuXpXpXeXeX0XkXlXcXm m M H hX&.~ ~ ~ ~ Q Q Q ^ ^ ) ) } } o.O.~.~.~.~.~.~.O.O.o.} [ [ ) ^ ^ ^ ^ Q ! ~ ~ %.&.{ } o.} { { ) ^ Q Q ~ &.>.r.p.M._.}.;X>X2X2X$X@XB.g.B.Z.].*X-X:X>X2X2X2X<X@X@X!.W.Y.BXuXpXqX0XlXM K L Y T Y S B r 0 2 < X     . X 1 7 0 y Z D Y T E L H m kXwXqXtXyXY.T.W.+XoX@X$X$X<X2X2X2X>X:X-X'.).V.m.p.r.w.>.&.` ` ! Q ^ ^ &.` ` ` ! Q Q Q ^ ^ ^ ) { { } o.O.O.~.~.~.~.~.O.O.O.o.} [ ) ) ^ ^ ^ ^ / Q ! ~ ~ &.&.S.T.Y.Y.Y.Y.G.BXY.BXBXY.Y.Y.Y.Y.T.BXT.T.W.W.W.!.!.XXqXi S Y T Y R J M lXhXqXtXyXY.T.W.!.+X$X<X2X2X2X:X;X-X'.).V.m.p.r.w.>.&.&.` ! ! Q ^ ^ ) ) } o.O.~.~.~.~.O.O.} [ ) ) ^ ^ Q Q ~ ` &.>.>.<.t.H.#X&X<X<X2X2X2X2X2X2X2X2X2X2X<X<X&X@XoXW.Y.yXtX0Xn P E c 6.%.%.! ! ! ! ! / / ^ ^ ) ) { { } o.o.O.~.~.~.~.~.~.~.O.O.o.} } [ ) ) ) ^ ^ ^ ^ / Q ! ~ ~ ~ &.&.~ ~ ! ! Q / / / ^ ^ ^ / / Q ~ &.&.<.r.p.M.Z.}.-X;X>X2X<X<X$XE.g.B.Z._.}.;X;X>X2X2X<X$X@XoXR.T.BXuXtXqXhXm H L Y E Y D i r 0 1 O .     . < 2 w y Z D Y T R K M lXrXqXtXyXY.T.W.XX@X<X<X2X2X>X;X-X'._.V.M.p.w.w.>.&.` ` ! ! ",
"+XoXW.T.Y.yXuXpX0XhXm H L R W GX!.@X!.!.!.T.T.BXBXuXpXpX8XeX0X0XhXlXlXcXm n 8X&.&.~ ~ ~ Q Q Q ^ ^ ) ) { } o.O.O.~.~.~.~.~.O.O.} } [ ) ) ^ ^ ^ / Q ~ ~ ~ &.&.o.} o.} } ) ) ^ Q ~ ` &.<.r.p.V._.}.;X>X2X<X$X@XB.m.Z._._.-X;X>X>X2X2X<X&X+XoXW.T.Y.yXuXpX8XlXm H L R T Y I C y q 4 1 X .     X o 3 0 r V S Y T Y L P M lXhXqXtXuXBXT.W.!.@X@X@X$X<X<X2X2X>X:X-X-X'.).V.m.t.r.>.>.&.` ! ! Q ^ ^ &.` ` ~ ! ! Q Q ^ ^ ^ ) ) { } o.O.O.~.~.~.~.~.~.O.O.} } [ [ ) ^ ^ ^ / Q Q ! ~ ~ ` &.F.Y.BXY.BXBXBXBXBXBXBXyXY.yXBXBXBXY.T.T.W.W.!.!.!.!.CXC D Y T R L H n hXqXpXuXyXY.W.W.oX$X$X<X2X2X>X;X-X}._.Z.m.g.t.w.>.>.&.` ~ ! Q Q ^ ^ ) { } o.O.~.~.~.~.O.o.} [ ) ^ ^ Q Q ~ ~ &.&.>.<.r.p.C.+X@X<X<X2X2X2X2X2X2X2X2X2X2X<X<X&X@XoXW.Y.yXpXrXn K Y I 8.&.%.%.( ! ! ! / / ^ ^ ^ ) ) { { } o.O.O.~.~.~.~.~.~.~.O.O.o.} } ) ) ) ^ ^ ^ ^ / Q Q ! ~ ~ ~ &.&.~ Q Q / / ^ ^ ^ ^ ^ / Q Q Q &.&.>.w.p.m.Z._.=X;X>X>X2X<X$X+XP.V.).}.-X;X>X2X2X<X<X@X+XW.T.Y.yXtXqX0XlXM J R E T I Z y q 4 1 .     . o 1 0 e N S Y T E L H m z qXpXyXyXT.W.!.@X&X<X2X2X>X:X;X}._.Z.h.p.t.w.>.*.&.` ! ! ",
"%X@XW.W.Y.yXyXpXqX0XlXM J U E T GX!.!.!.!.W.R.T.Y.uXuXuXpXpX8XrXeX0XhXlXlXlXcX8X&.%.~ ~ Q Q Q Q ^ ^ ) ) { } o.O.~.~.~.~.~.~.~.O.o.[ [ ) ) ^ ^ ^ ^ Q Q ~ ~ %.&.o.o.o.} } ) ^ ^ Q ~ &.&.>.r.p.V._.=X;X>X2X2X<X+XH.V.Z.}.}.-X;X>X2X2X<X<X%X@XW.W.Y.BXuXpXqXhXlXM K R E T I D i r 8 2 < .     . o 1 7 w u Z I Y T Y P H vXhXrXqXuXyXBXT.W.XX@X&X@X$X$X<X2X2X2X>X-X*X'.).V.m.t.w.>.>.&.` ! ! / ^ _ ` &.` ` ! ! Q Q / ^ ^ ) ) { } o.o.O.~.~.~.~.~.~.O.~.o.} [ [ ) ) ^ ^ ^ / / Q ~ ~ &.&.0.BXyXBXyXyXyXyXyXyXyXyXG.yXyXG.BXBXBXT.T.W.W.!.!.+XoXH U T E L J M lX0XqXtXyXY.T.W.!.+X&X<X2X2X2X:X-X*X'.).V.m.p.r.w.>.&.&.` ~ ! Q ^ ^ ) ) } o.O.~.~.~.~.O.O.} [ ) ^ ^ ^ Q Q ~ ~ &.>.>.5.t.p.M.{.+X&X<X<X2X2X2X2X2X2X2X2X<X2X&X&X@XoXW.Y.yXpX0Xm K Y D f &.%.%.( ! ! ! ! / / ^ ^ ) ) { { } o.o.O.~.~.~.~.~.~.~.O.O.o.} } { ) ) ^ ^ ^ ^ ^ / Q ! ~ ~ ~ &.&.~ ! Q ^ ^ ^ ) ^ ^ ) ^ / Q Q ` &.>.<.p.g.Z._.}.-X>X>X2X<X<X#X!._.`.}.;X;X2X2X2X<X$X@XoXR.T.yXyXpXqXkXm H L Y E Y D B r 7 2 O .     . < 2 w y Z I Y T R K M lXhXqXtXyXBXT.!.@X#X$X<X2X2X>X;X-X'.).V.m.p.w.w.>.&.` ` ! ",
"$X@XoXW.T.Y.yXuXpX9XlXm J L R T Y GX@X!.!.!.W.T.Y.Y.yXuXuXpXpXpX8XeXeX0X0XhXlXlX8X%.&.~ ~ ~ Q Q ^ ^ ^ ) ) { } o.O.O.~.~.~.~.~.O.O.o.} [ ) ) ^ ^ ^ Q Q ~ ~ ~ %.&...@.o.} } [ ^ Q Q ~ ` >.<.r.m.V._.}.;X>X2X<X&X+XC.Z._._.-X;X:X2X2X2X<X$X@XoXW.T.Y.yXuXqXrXkXM H L E W Y D C y q 4 < X       X o 3 0 r V S Y T E L J M lX0XqXtXyXG.T.W.!.+X%X$X@X#X<X<X2X2X>X:X;X}.'.).m.g.t.w.>.&.` ~ ! ! ^ ^ ) ' ` ` ~ ! ! ! / / ^ ^ ) ) { { o.O.O.~.~.~.~.~.~.O.O.o.} { [ ) ) ^ ^ ^ / / ! ~ ~ ~ &.1.yXuXuXuXuXuXuXuXuXuXuXyXyXyXyXyXBXG.T.T.W.!.!.!.!.!.H T E E K H m hXqXtXuXyXY.W.W.+X$X<X<X2X2X>X:X-X}._.Z.m.p.t.w.>.>.&.` ~ ! Q Q ^ ^ ) { } O.O.~.~.~.~.O.o.} ) ) ^ ^ Q ! ~ ~ &.>.>.<.r.p.m.V.E.+X&X<X<X<X2X2X2X2X2X2X2X<X<X$X$X@XW.W.Y.uXpX0Xm K Y U t -.%.` %.! ! ! ! / / ^ ^ ^ ) ) { { o.o.O.O.~.~.~.~.~.~.~.O.O.o.} { { ) ) ^ ^ ^ / / Q Q ! ~ ~ ~ &.~ Q ^ ^ ) ^ ) ) ) ) ^ ^ Q ~ ~ &.>.<.r.g.V.Z.}.-X;X>X2X2X<X<X+XE.}.-X;X>X2X2X<X<X@X+XW.R.Y.yXuXqX0XlXM K R E T I Z y w 3 1 .     . o 1 8 e i S Y T Y L H m hXqXtXuXBXZXW.!.@X$X<X2X2X>X:X;X}._.Z.V.p.t.w.>.*.&.` ~ ",
"$X+X@XW.W.Y.yXuXpXqX0XlXM K R E T I FX@X!.!.!.W.R.Y.Y.yXuXuXtXpXpXpX8XrXeXeX0X0XhX5X&.~ %.~ ~ Q Q Q ^ ^ ) ) { } o.O.~.O.~.~.~.~.O.O.o.} [ ) ) ^ ^ ^ ^ Q Q ~ ~ &.&...@.+.} { [ ^ Q Q ~ &.>.<.r.g.Z._.=X;X>X2X2X<X+XP.Z.}.}.-X:X>X>X2X<X&X%XoXW.W.Y.yXuXpX8X0XlXH K R Y T I S B e 8 1 O X       o 1 7 w i Z D Y T E K H n hXqXqXuXyXY.T.!.!.#X$X$X@X$X$X<X2X2X2X:X-X}._.).m.g.t.w.>.&.` ~ ! ^ ^ ^ { ' &.` ` ! ! ! / / / ^ ^ ) { { } o.O.~.~.~.~.~.~.O.O.O.} { [ ) ) ^ ^ ^ / / Q ! ~ ` &.1.x.uXtXtXtXtXtXtXtXtXuXtXuXyXyXyXyXY.Y.T.W.W.!.!.+XoXFXT E L J M lX0XqXuXyXY.T.W.!.+X$X<X2X2X>X:X;X*X'.).V.m.p.w.w.>.&.&.` ! ! Q ^ ^ ) ) } o.O.~.~.~.~.O.O.} [ ) ) ^ ^ Q ! ~ ~ &.>.>.5.t.g.M.Z.].XX%X&X<X<X2X2X<X2X2X2X<X2X<X$X+X@XHXW.Y.uXpX0Xm L Y D t 5 %.%.` ( ! ! ! ! / / ^ ^ ) ) { { } o.O.O.~.~.~.~.~.~.~.O.O.o.o.{ { ) ) ^ ^ ^ ^ ^ / Q Q ~ ~ ~ &.&.! ^ _ ) ) { ) ) ) ^ ^ Q Q ~ &.>.<.r.p.M.Z.'.=X;X>X2X2X<X<X$XoX X;X;X2X2X2X<X$X@XoXR.Y.BXuXtX8XkXm H L Y W Y S V r 7 2 O .     . < 3 w y Z I Y T R K M lXhXqXtXyXG.T.W.@X@X<X<X2X2X>X;X-X'.).V.m.p.w.w.>.&.` ` ",
"<X&X+X!.W.Y.Y.yXtXpX0XlXnXH L E T Y I SXoX!.!.W.W.R.Y.Y.BXuXuXuXtXpXpXpXpX8XpXeXeX0X4X&.%.~ ~ Q Q Q / ^ ^ ) ) { } o.o.~.~.~.~.~.~.~.o.o.} { ) ) ^ ^ ^ / Q ~ ~ ~ %.&...@.o.o.{ ) ^ ^ Q ~ &.>.<.p.g.Z.`.=X;X>X2X<X<X@X`.).}.-X;X>X2X2X2X<X&X+XoXW.Y.Y.yXuXpX0XlXM H L E T Y D C t q 4 < X     . . 1 3 0 y V D Y T Y L J M lX0XqXtXyXY.T.W.!.@X%X<X<X@X$X$X<X2X2X>X>X-X}._.Z.m.p.r.<.>.&.` ! ! Q ^ ) { | &.` ` ~ Q ! / / ^ ^ ) ) ) } } o.O.~.O.~.~.~.~.~.O.O.} } [ [ ) ^ ^ ^ / / Q ! ~ ~ ` &.4XtXpXpXpXpXpXpXpXpXtXtXtXtXuXyXyXY.Y.T.W.W.!.!.!.@XGXY R L M n hXqXpXuXBXY.W.W.+X&X$X2X2X2X>X;X-X}.).Z.m.p.t.w.>.*.&.` ~ ! Q Q ^ ^ ) { } o.~.~.~.~.~.O.o.} [ ^ ^ ^ Q Q ~ ~ &.&.>.<.r.p.m.V.).}.XX+X&X<X<X<X2X2X2X2X2X<X<X<X&X+XoXW.R.Y.uXpX0XM L Y D t 5 $.%.%.` ~ ! ! ! / / ^ ^ ^ ) ) { } } O.O.O.~.~.~.~.~.~.~.O.O.o.} { { ) ) ^ ^ ^ / / Q Q ~ ~ ~ %.&.` ^ [ ) { { { { ) ) ^ Q Q ~ ` >.<.r.p.m.Z._.}.;X;X2X2X2X<X<X+X+X;X>X>X2X<X<X+XoXW.R.Y.yXtXqX0XlXM K R E Y I Z y w 3 1 .     . o 1 7 r i S Y T E L H M hXwXpXuXBXY.W.!.@X$X<X2X2X>X:X-X*X_.Z.V.p.t.w.>.*.&.` ",
"<X$X@X@XW.R.Y.yXuXpXqXhXn H P R E Y I S CX@X!.!.W.W.R.G.Y.BXuXuXuXuXtXtXpXpX8XpX8XpXeX4X' %.~ ~ ~ Q Q / ^ ^ ) ) { { o.o.~.O.~.~.~.~.~.O.o.{ [ [ ) ^ ^ ^ ^ Q Q ~ ~ &.&.+.@.o.} { ^ ^ Q ! ~ &.>.<.p.m.V.`.-X;X>X2X2X<X+X!.}.}.;X:X>X2X2X2X$X@X@XW.W.Y.yXuXpXqXhXlXH K R W Y I S u e 7 2 X X     . o 1 7 e i S I Y T R K M n hXwXtXuXyXY.T.!.XX%X&X<X2X@X$X&X<X2X2X>X:X-X}._.V.m.p.w.<.>.` ` ~ Q / ^ ) } } &.` ` ` ! ! Q / ^ ^ ^ ) ) { } o.o.~.~.~.~.~.~.~.O.O.o.} [ [ ) ) ^ ^ ^ / / ! ~ ~ %.&.j.pX8XrX8XrXqXqXqXqXqXqXtXtXtXyXyXBXY.T.W.!.!.!.oXoXoXPXL J M kX0XqXuXyXY.T.W.!.+X$X<X2X2X2X:X-X*X'.).V.g.p.w.w.>.&.&.` ! ! Q ^ ^ ) ) { o.O.~.~.~.~.O.O.} [ ) ) ^ ^ Q ! ~ %.&.>.>.r.t.g.M.Z.`.}. X+X#X#X<X<X<X2X<X2X<X<X<X$X$X@XoXW.R.BXuXpXhXM L Y D t 4 @ %.%.` ~ ! ! ! / / / ^ ^ ) ) { { } o.o.~.O.~.~.~.~.~.~.O.O.o.o.{ { { ) ^ ^ ^ ^ ^ / Q Q ~ ~ ~ &.&.` { { } } } { ) ) ^ ^ Q ~ ` &.<.w.p.g.Z._.}.-X;X>X>X2X<X<X#X+X#X2X2X2X<X$X@XoXR.T.yXyXpXqXhXm H L Y W Y D B r 7 2 O .     . < 3 w y Z D Y T R K M lXhXqXtXyXY.T.W.+X@X$X<X2X2X>X;X-X'.).V.m.p.r.<.>.&.` ",
"<X<X#X@X!.W.T.Y.yXtXqX0XlXm J L E T Y D C CX!.!.!.W.W.R.Y.BXBXBXyXuXuXuXtXtXtXtXpXpXpXpX4X&.` ` ~ Q ! Q / ^ ^ ) ) { } o.o.~.~.~.~.~.~.O.O.o.} { ) ) ^ ^ ^ / Q Q ~ ~ &.%.+.@.+.} { ^ ^ Q ~ ` &.>.w.p.m.Z.`.-X;X>X2X<X<X%XXX}.-X;X>X2X2X<X<X$X@XoXW.Y.Y.uXuXqX0XlXM J L Y T Y D V t q 3 1 X       X < 7 0 y V D Y T E L J nXlXwXqXtXyXY.T.W.!.@X&X<X2X2X%X+X$X<X2X2X>X:X-X}.).V.m.p.w.>.>.` ~ ! Q ^ ) ) } ..] ` ` ` ! ! Q / / ^ ^ ) ) { { o.O.O.~.~.~.~.~.~.^.O.o.} [ [ ) ^ ^ ^ / / Q Q ~ ~ ~ &.:.0X0X0X0X0X0X0XrXwXqXqXqXpXtXtXyXyXT.T.W.W.!.!.+XoX@XxXK M m 0XqXpXuXyXY.W.!.+X$X<X<X2X2X:X;X-X}.).V.m.p.t.w.>.*.&.` ~ Q Q Q ^ ^ ) { o.o.~.~.~.~.~.O.o.[ [ ^ ^ ^ Q ! ~ ~ %.>.>.<.r.p.m.V._.'.-X-X#X#X#X$X<X<X<X<X2X<X<X<X&X&X+XoXW.R.BXuXpXhXM L Y D y 4 # #.%.%.` ! ! ! ! / / ^ ^ ^ ) ) { { o.o.O.~.~.~.~.~.~.~.O.~.o.o.} { [ ) ) ^ ^ ^ ^ / Q Q ! ~ ~ ~ &.` _ } o.} } } ) ) ^ Q Q ~ &.&.<.w.p.m.V.Z.}.-X;X>X2X2X2X<X<X#X+X<X2X<X<X+XoXW.T.Y.yXtXqXhXlXM K R E Y I Z y w 3 1 .     . o 1 7 r i S Y T Y L H m hXqXpXuXBXZXW.!.@X&X<X2X2X>X:X-X}.'.Z.V.p.t.w.>.*.&.",
"2X<X$X@XoXW.R.Y.yXuXpXqXhXn H K R W T I S i VX!.!.W.W.W.R.R.Y.BXBXuXBXuXuXuXuXtXuXtXtXtXpXc.2.` ` ` Q ! Q / / ^ ) ) { } o.o.~.O.~.~.~.~.O.O.o.} { ) ) ^ ^ ^ ^ / Q ~ ~ &.&.+.@.+.{ [ ^ ^ Q ~ ` >.>.w.p.m.Z.`.-X;X>X2X2X<X%XXX X;X:X2X2X2X<X$X+XoXW.R.Y.yXuXpXqXkXcXH K R T T I Z i w 7 1 X X     . o 1 7 e i S I Y T R P M m hXwXtXtXyXT.T.!.XX%X&X<X2X2X<X+X&X<X<X2X>X:X-X}.).V.m.p.<.>.>.` ` ! / ^ ) { o.O.' ` ` ` ! ! ! Q ^ ^ ^ ) ) { { o.o.O.~.O.~.~.~.~.O.O.O.} [ [ [ ) ^ ^ ^ / / Q ~ ~ ~ &.:.lXlXhXkXhXkXhXhXhXwX0XwXqXtXtXyXyXY.T.W.!.!.!.+XoXoXGXH M lX0XpXuXyXY.T.W.oX+X$X<X2X2X2X:X-X*X'.).V.m.t.w.w.>.&.` ` ~ Q Q / ^ ) { { o.O.~.~.~.~.^.o.o.) ) ) ^ ^ Q ! ~ %.&.>.>.r.t.g.M.Z.`.}.-X:X#X#X#X$X<X<X<X<X<X<X<X$X$X@X@XoXR.R.BXuXpXhXM L Y D y 9 < + %.` ` ~ ~ ! ! ! / / ^ ^ ) ) { { } o.o.O.~.~.~.~.~.~.O.~.O.o.} } [ ) ) ) ^ ^ ^ ^ / Q Q ~ ~ ~ &.&.' } @.o.o.} { ) ^ ^ Q ~ ` &.>.5.r.m.M.).`.-X-X>X>X2X2X<X<X$X+X$X<X<X$X@XoXR.T.yXyXpXqXhXm H L Y W Y S V r 7 2 O .     . < 3 w y Z D Y T R K M lXhXqXtXyXG.T.W.+X@X$X<X2X2X>X:X-X'.).V.m.p.r.<.>.&.",
"2X<X<X%X+X!.W.Y.BXuXtXqX0XlXM J L Y T Y D V y BX!.!.!.W.W.R.G.Y.Y.Y.BXuXBXuXyXuXuXuXtXtXuXuXuX1.` ` ~ ~ Q Q / ^ ^ ) ) { { o.o.~.~.~.~.~.~.~.O.o.} { ) ) ^ ^ ^ / Q Q ~ ~ ~ &.+.@.o.{ ) ^ Q Q ~ ` >.>.r.p.M._._.=X:X2X2X2X&X&XXX-X;X>X>X2X<X<X$XoXoXW.T.BXyXtXqX0XlXM J L E Y Y D V t 0 3 < .     . . 1 7 0 y V D Y T E L J n lXwXqXtXyXY.T.W.!.@X&X<X2X2X>X2X@X#X<X2X2X2X;X-X}.).V.p.p.w.>.&.` ! ! / ^ ) { o.~.' &.` ( ` ! Q Q Q ^ ^ ) ) { { } o.O.~.~.~.~.~.~.~.O.o.o.{ [ [ ) ^ ^ ^ / / Q ! ~ ~ ` &.8Xm cXm n lXlXkXlXhX0X0XwXpXtXuXBXT.T.W.!.!.oXoX@X@XDXxXlX0XqXpXuXBXY.W.!.oX&X<X2X2X2X:X;X-X}.).V.m.p.t.w.>.*.&.` ~ Q Q / ^ ) ) { } O.O.~.~.~.O.~.{ } [ ^ ^ ^ Q Q ~ ~ %.>.>.<.r.p.m.V.).}.-X;X:X<X#X@X$X$X<X<X<X<X<X<X$X$X%XoXoXW.Y.BXtXpXhXM L Y U i 0 2 $ &.%.%.~ ! ! ! ! / / ^ ^ ^ ) ) { { o.O.O.O.~.~.~.~.~.~.O.~.o.o.} } [ ) ) ^ ^ ^ ^ / Q Q ! ~ ~ ~ %.] ..@.@.o.} { ) ^ Q Q ~ &.&.>.w.r.g.M.)._.=X-X:X>X2X2X<X<X<X@X@X<X&X%XoXW.T.Y.yXtXqX0XlXM K R E Y I Z y w 3 1 .     . o 1 7 e N S Y T E L J m kXwXpXuXBXY.W.!.+X&X<X2X2X>X:X-X}.'.Z.V.g.t.w.>.*.",
"2X2X<X&X@XoXW.R.Y.uXuXpX9XkXm H L R T Y I S i r Y.!.!.W.W.W.R.Y.Y.Y.Y.Y.BXBXuXBXuXuXBXuXuXuXuXuX1.` ~ ~ ~ Q Q / / ^ ) ) { } o.o.O.~.~.~.~.~.O.O.o.} { { ) ^ ^ ^ ^ / Q ~ ~ %.&.+.@.} { ) ^ Q Q ~ &.>.<.r.p.M._.}.}.;X2X2X2X<X&X+X;X,X2X2X2X<X$X+XoXW.R.Y.yXuXpX8XkXm H L R W Y I Z u w 7 1 O .     . o 1 0 e V S I Y T R J H lXhXqXtXyXyXT.W.!.XX&X$X<X2X2X>X;X#X&X$X2X2X2X:X-X}.Z.V.g.r.w.>.&.` ~ ! / ^ ) } o.~...&.` ` ( ! ! Q Q ^ ^ ^ ) { { } o.O.O.~.~.~.~.~.O.^.O.o.[ [ ) ) ^ ^ ^ / / / ! ! ~ &.&.gXH M M M M m vXlXlXlXhX9XqXtXtXBXY.T.W.W.+X!.oX@X@XoXzXkX0XpXuXyXY.T.W.oX+X&X<X2X2X>X:X-X}.'.).m.m.t.w.<.>.&.&.~ ~ Q Q / ^ ) { } o.~.~.~.~.~.O.O.{ [ ) ) ^ Q Q ! ~ %.*.>.<.r.t.m.M.Z.`.}.-X:X>X2X#X@X$X$X$X$X<X<X<X$X&X%X@X@XHXW.R.BXtXpX0XM L Y U V e 4 2 $.&.` ` ! ! ! ! Q / ^ ^ ^ ) ) { { } o.o.~.@.~.~.~.~.~.O.~.o.O.} } [ [ ) ) ^ ^ ^ ^ Q Q Q ~ ~ ~ &.%. .~.@.+.} { ^ ^ Q Q ~ &.&.>.<.t.p.M.Z._.}.-X;X>X>X2X2X<X<X%X@X+X%X@XoXR.T.yXyXpXqXhXm H L Y T Y S V r 7 2 O .     . < 3 w t Z D Y T R P M lXhXqXtXyXY.T.W.!.#X&X<X2X2X>X:X-X'._.V.m.p.r.w.>.",
"2X2X<X<X@X+XW.W.Y.BXuXpXqX0XlXM J L E T Y S V r 0 Y.!.!.!.W.W.R.R.G.Y.Y.BXBXBXBXBXBXuXBXyXyXyXBXyX1.&.~ ~ ! ! / / ^ ^ ) ) { { o.O.O.~.~.~.~.~.~.O.o.} { [ ) ^ ^ ^ / Q Q ~ ~ ~ &.] @.} ) ^ / Q ~ ~ &.>.<.t.g.B.Z.}.-X;X2X2X2X<X&X+X;X>X2X2X<X<X$XoXoXW.Y.BXuXpXqX0XlXM J R Y T Y S V r 0 3 O X     . X 1 7 0 y C D Y T E L J M hXwXqXtXyXY.T.W.!.@X$X<X2X2X2X:XOX+X&X&X2X2X>X:X-X}.).V.g.t.w.>.&.~ ! / ^ ^ { } o.~.+.&.` ` ! ! ! Q Q ^ ^ ^ ) ) { } o.O.O.~.~.~.~.~.~.O.O.o.} } [ ) ) ^ ^ / / / ! ~ ~ ~ &.8.J K J H H H M M m lXkX0XqXtXtXBXY.T.!.W.!.+XoX@X@XoXJX0XqXpXuXY.Y.R.oX+X$X<X2X2X2X>X-X-X}.).V.m.p.t.w.<.&.&.` ~ ! Q / ^ ^ ) { } O.O.~.~.~.~.o.o.[ ) ^ ^ ^ Q Q ~ %.%.&.>.w.r.p.m.Z.).}.-X;X>X2X2X<X@X@X$X&X$X$X<X$X&X&X%X+XoXW.W.Y.BXuXeX0XM L Y U Z t 0 4 * &.%.%.~ ~ ! ! ! / / ^ ^ ) ) ) { { o.o.@.O.~.~.~.~.~.~.~.O.O.o.} [ { ) ) ^ ^ ^ ^ / Q Q ! ~ ~ %.%.&.+.@.O.} { [ ^ Q Q ~ &.&.>.<.t.p.m.Z.).}.-X;X>X>X2X2X2X<X$X%X@X+X@XW.T.Y.yXtXqXhXlXM K R E Y I Z y w 3 1 .     . o 1 7 r i S Y T Y L J m hXwXpXyXyXY.W.!.+X#X<X2X2X2X:X-X*X_.Z.V.g.t.w.>.",
"2X2X2X<X&X@XoXW.R.Y.uXuXpX0XhXm H L E Y Y U Z i w 7 BX!.!.W.W.R.HXR.T.G.R.Y.Y.Y.BXY.BXBXBXBXBXyXY.yX5.&.~ ~ ~ ! ! / / ^ ^ ) { { o.O.O.~.~.~.~.O.~.O.o.} { [ ) ^ ^ ^ ^ / Q ~ ~ ~ &.] +.} ) ^ / Q ! ~ &.>.<.t.g.V._.}.=X;X>X2X2X<X&X@X,X>X2X2X<X$X+XoXW.R.Y.yXuXpX9XkXm H L R W T I C y w 4 1 X .     . o 3 0 e V S Y Y T L P M vXhXqXtXyXBXY.W.!.+X&X$X<X2X2X2X:X-X{.&X$X<X2X2X:X-X}.Z.B.p.i.<.>.%.` ! ! ^ ^ { } o.~.+.` &.` ~ ! ! Q Q / ^ ^ ) ) { { o.o.O.~.~.~.~.~.~.O.O.o.} [ [ ) ) ^ ^ ^ / / Q ~ ~ ` &.9.v L L K K P J H H m vXhXwXtXtXBXT.T.!.!.!.+XoX@X@X@XJXrXpXuXyXY.T.W.oX%X$X<X2X2X2X:X-X}.'.).m.m.t.w.>.>.&.` ` ! Q Q / ^ ) { } o.~.O.~.~.~.~.o.} [ ) ) ^ ^ Q ! ~ %.>.&.<.r.p.g.B.Z.'.}.-X:X>X2X2X<X@X%X$X%X&X&X&X&X&X&X@X%XoXW.W.Y.BXuXrX0XM L Y Y S B r w 0 -.&.%.~ ! ! ! ! / / ^ ^ ^ ) ) { { } o.o.@.~.~.~.~.~.~.~.O.O.o.o.[ [ [ ) ) ^ ^ ^ ^ / Q Q ! ~ ~ %.&.] @.+.} { ^ ^ ^ Q ~ &.&.>.<.t.g.m.Z._.}.}.;X:X>X2X2X2X<X<X%X@X@X!.W.Y.BXyXpXqXhXm H L E T Y D i r 0 1 O .     . O 3 q y Z D Y T R K H lXhXqXtXyXY.T.W.!.#X$X<X2X2X>X:X-X}.).V.m.p.t.w.",
"2X2X2X<X<X@X+XW.R.Y.BXuXpXqXhXlXM K L E T U D V r 0 3 G.HXoXW.!.E.R.R.R.Y.R.G.R.Y.Y.Y.Y.Y.Y.Y.Y.Y.Y.G.1.%.~ ~ ! ! Q / ^ ^ ) ) { } } O.O.~.~.~.~.~.~.O.o.} } [ ) ^ ^ ^ / Q Q ~ ~ ~ &.] } { ) ^ Q Q ~ &.&.>.r.t.m.V.).}.-X:X2X2X<X<X$X+X<X2X2X<X$X%X+XW.W.Y.BXuXpXqXhXlXM J R Y T I D B r 8 3 < X     . o 1 4 w y C D Y W E L H m kXwXqXtXyXY.T.W.oX@X&X<X2X2X>X:X-X=X{.$X<X2X2X>X:X-X}.).V.p.t.<.>.%.~ ! ! ^ ) { o.O.O.~.' &.` ~ ! ! Q Q / ^ ^ ) ) { } } O.O.~.~.~.~.~.~.~.O.o.o.[ { ) ) ^ ^ ^ / / Q ! ~ ~ ` &.b Y R R L L K P J M n mXwXpXyXyXT.T.!.W.oX+X@X@X@X@XoXiXtXuXBXR.W.oX+X&X<X2X2X>X>X-X-X'.).V.m.p.r.w.<.&.&.` ~ ! Q / ^ ) ) { } o.~.~.~.~.O.O.o.[ ) ^ ^ / Q Q ~ %.%.>.>.<.r.p.m.V._.}.-X;X>X2X2X2X<X@X@X+X&X%X&X$X&X%X%X+X@XoXW.R.Y.BXuXrXhXM K Y Y I Z i u y s &.%.%.~ ~ ! ! ! / / ^ ^ ) ) ) { { o.o.@.O.~.~.~.~.~.~.O.~.o.o.o.[ { ) ) ) ^ ^ ^ / / Q ! ~ ~ ~ %.&.+.+.{ { ^ ^ Q ! ~ &.&.>.<.r.p.M.V.).}.}.;X:X>X2X2X2X<X<X<X@X@XoXR.BXyXtXqX0XlXM K R Y T D S y 0 7 < .     . o 1 7 r i S Y T E L H M hXwXqXuXyXY.W.!.+X%X<X2X2X2X:X-X}._.Z.V.g.t.w.",
">X2X2X2X<X&X@XoXW.R.Y.yXtXqXrXlXm H L E W Y D Z y w 7 1 G.W.oXW.W.W.W.R.R.R.R.G.R.G.Y.Y.Y.R.G.R.G.R.Y.T.5.&.~ ~ ~ ! ! / ^ ^ ^ ) { { o.o.O.~.~.~.~.O.~.O.o.} } [ ) ) ^ ^ ^ / Q ~ ~ ~ &.] } [ ) ^ Q Q ~ &.&.>.r.t.m.Z._.}.-X;X>X2X2X<X$X@X<X2X2X<X&X@XoXW.R.Y.uXuXpX0XkXm J K E T Y D C u q 4 1 X .     . o 3 0 e V S Y Y Y L P M lXhXqXtXyXBXY.W.!.+X%X&X2X2X2X2X:X-X}.].@X<X<X2X>X:X-X}.Z.B.p.r.<.>.%.~ ! Q ^ ) { } O.O.O.| &.` ` ~ ! Q Q / / ^ ) ) ) { } o.O.O.~.~.~.~.~.O.O.O.o.[ { [ ) ^ ^ ^ / / / ! ! ~ &.&.7XT T Y E R R L K J n lXwXpXyXyXT.T.!.!.!.+X@X@X@X%X@XVXyXyXY.R.W.oX+X<X<X2X2X2X:X-X}.'.).m.m.t.w.>.>.&.` ` ! Q Q / ^ ) { } o.O.~.~.~.~.O.o.} [ ) ^ ^ ^ Q ! ~ &.&.>.<.r.p.m.V.Z.'.}.;X:X>X2X2X<X$X@X@X@X&X&X%X$X&X$X@X%X@XoXW.R.Y.yXuXrX0XM K Y Y Y D S Z C V 8.%.%.! ~ ! ! ! Q / ^ ^ ^ ) ) { { } o.O.@.~.~.~.~.~.~.O.~.O.o.o.[ [ [ ) ) ^ ^ ^ ^ / / Q ~ ~ ~ %.&.] ..{ [ ^ ^ Q ! ~ &.&.>.<.t.p.M.V._.}.}.;X:X>X>X2X2X2X<X<X&X@X@XW.yXiXtXrXhXm H L E T Y S V r 7 3 O .     . O 3 0 y C D Y T R K M n rXqXtXyXY.T.W.!.#X$X<X2X2X>X:X-X}._.V.m.p.r.",
":X2X2X2X<X&X+XoXW.R.Y.yXuXtX8XhXlXH P R E Y Y S V r 7 3 O G.oXW.oXW.W.W.W.R.R.R.R.R.R.R.R.G.R.T.R.T.R.R.R.<.&.%.~ ! ! Q / ^ ^ ^ ) { { } o.O.~.~.~.~.~.O.~.o.} { [ ) ^ ^ ^ ^ Q Q ~ ~ ~ %.' } ) ^ / ! ! ~ &.>.<.r.p.m.Z._.=X-X:X2X2X2X<X&X+X<X2X<X<X+X@X!.R.Y.BXuXpXqXhXlXM K R E Y Y S i r 8 2 O .     . o 1 7 w i Z I Y W E L H m hXwXtXtXyXY.T.W.oX+X$X<X2X2X>X:X;X}.].`.+X<X<X2X2X:X-X}.).V.p.r.<.&.&.! Q / ^ ) } } o.O.O.| &.` ~ ~ ~ Q Q Q ^ ^ ^ ) { { } o.O.~.~.~.~.~.~.~.O.O.o.} [ [ ) ) ^ ^ / / / ! ~ ~ ` &.9.Y T T W W E R L J M lXwXqXuXY.Y.W.W.!.+X@X%X@X@X@X+XHXyXyXR.W.oX@X$X<X2X2X>X:X-X-X'.).V.m.p.r.w.<.&.&.` ~ ! / / ^ ) ) { o.O.~.~.~.~.~.O.o.[ ) ^ ^ ^ Q ! ~ ~ %.>.>.<.r.p.m.V.).}.-X;X>X2X2X2X<X%XoXoX+X@X%X%X$X@X&X+X@XoXoXW.R.Y.yXuXqXhXm J R T Y Y U U D D x &.%.%.~ ! ! ! Q / / ^ ^ ) ) ) { } } o.O.O.~.~.~.~.~.~.~.O.O.o.o.[ [ ) ) ) ^ ^ ^ / Q Q Q ~ ~ ~ %.%.| { ) ^ ^ Q ~ ~ &.&.<.<.t.p.M.V.).}.}.-X:X>X>X2X2X2X<X&X&X%X@X!.BXtXqX0XlXM K R E Y I Z y w 3 1 .     . O 1 7 r i S Y T E L J m lXwXqXyXyXY.T.!.+X&X<X2X2X2X>X-X*X_.Z.V.m.t.",
":X>X2X2X2X<X&X@X!.W.T.Y.uXuXqX0XkXm J L E Y Y I V y w 4 1 O G.!.W.!.W.W.W.W.W.R.R.R.W.R.R.R.R.R.R.W.W.R.W.W.<.&.~ ~ ~ ! ! / ^ ^ ) ) { { o.o.O.~.~.~.~.~.O.~.o.o.[ [ [ ) ^ ^ ^ / Q ! ~ ~ &.` } ) ^ ^ ! ! ` &.>.<.r.p.M.Z._.=X-X:X>X2X2X<X$X+X&X2X<X$X@XoXW.R.Y.yXuXpX0XkXm J L E T Y D C y q 4 < X .     . < 3 0 e V S Y Y Y L J M lXhXqXtXyXBXT.W.!.@X&X$X2X2X2X>X:X-X}._.P.@X$X<X2X2X:X-X}.Z.V.p.r.,.&.%.` ! ^ ^ ) } } o.o.o.} &.` ~ ~ ~ Q ! Q / ^ ^ ) ) { } } O.O.~.~.~.~.~.~.O.O.o.} [ [ ) ) ^ ^ ^ / / Q ~ ~ ~ &.9.c Y Y Y T T Y R P M lXwXtXuXY.Y.W.W.!.+X@X%X%X@X@X@X@XY.Y.R.W.+X@X$X<X2X2X2X:X-X}._.).m.g.t.w.>.>.&.` ~ ~ ! / / ^ ) { } o.O.~.~.~.~.O.o.} [ ) ^ ^ ^ Q ! ~ &.&.>.<.5.p.m.V.).`.}.;X:X>X2X2X<X$X%XoXW.+X@X%X$X&X@X$X@X@X@XoXR.R.Y.yXuXrXhXm J L Y W T Y T Y Y Y 9.%.%.~ ` ! ! ! Q / ^ ^ ^ ) [ { { } o.O.O.~.~.~.~.~.~.~.O.O.O.o.} [ [ ) ) ^ ^ ^ ^ / / Q ~ ~ ~ %.&.&._ ) ^ Q Q ! ~ &.&.>.<.t.p.M.V._.}.}.-X;X>X>X2X2X2X2X<X&X&X@X@XW.tXrXhXm H L Y W Y D V r 7 3 O .     . O 3 0 y Z D Y T R K M lXhXqXtXyXY.T.W.!.+X$X<X2X2X>X:X-X}._.V.m.p.",
";X:X2X2X2X<X&X+XoX!.T.Y.yXuXpXqX0Xn H K R T T I S B r 8 2 O . G.!.oXW.oXW.W.W.W.W.W.R.W.W.W.W.W.W.W.W.W.!.W.!.5.%.%.~ ! ! ! / ^ ^ ^ ) { { } O.O.~.~.~.~.~.O.~.o.o.[ [ ) ^ ^ ^ ^ Q Q ! ~ ~ &.` ) _ ^ Q ! ~ ` &.<.<.t.g.M.)._.=X;X:X2X2X2X<X<X+X@X<X<X@X+XW.R.Y.yXuXpXqXhXn M K R E T I S B e 8 2 O .     . o 1 7 w i Z I Y W E P H n hXwXpXuXyXY.T.W.+X+X$X<X2X2X>X:X;X}.'.Z.Z.XX&X<X2X2X:X-X}.Z.V.p.r.,.*.` ! ! ^ ^ ) { } } o.} _ &.%.~ ~ ~ Q Q / / ^ ^ ) ) { } } O.O.~.~.~.~.~.~.~.O.o.o.[ { ) ) ^ ^ ^ / Q Q ! ~ ~ &.&.x D U I Y T Y E L H lX0XtXuXY.T.W.!.!.+X@X@X$X@X$X@X@XR.Y.W.oX@X$X<X2X2X>X>X-X-X'.).V.m.p.r.w.>.&.&.` ! ! / / ^ ) ) { o.O.~.~.~.~.O.O.o.[ ) ^ ^ / Q ! ~ ~ &.>.>.r.r.p.m.V._.}.-X;X>X2X2X<X<X@X+XW.R.!.@X@X+X&X@X&X@X@XoXoXW.R.Y.yXuXpXhXm H K R Y W E W Y T T G &.%.~ ~ ~ ! Q Q Q ^ ^ ^ ^ ) ) { } } o.O.~.~.~.~.~.~.~.~.O.O.o.} } [ ) ) ) ^ ^ ^ / Q Q Q ~ ~ ~ %.&.` ^ ^ Q ! ~ ~ &.>.<.<.p.p.M.Z.).}.=X-X;X>X>X2X2X2X<X<X&X&X%X@X@XCXrXlXM J R E Y I Z y w 3 1 . .   . o 1 7 e i S I T Y L J M hXwXqXuXyXY.W.W.+X&X<X2X2X2X:X;X}.'.Z.V.m.",
"-X;X>X2X2X<X<X&X@XW.W.R.BXyXtXqX0XlXm J L E T Y D V y q 4 < X . G.oXoXW.!.W.W.W.W.W.W.W.W.W.W.W.W.W.W.oXW.!.!.!.r.&.~ ~ ! ! ! / / ^ ^ ) { { } O.O.~.~.~.~.~.O.O.O.o.{ [ [ ) ^ ^ ^ / Q ! ~ ~ &.&.^ ^ ^ Q ! ~ &.&.<.<.t.g.M._.`.-X-X:X>X2X2X<X<X+X@X<X$X@XoXW.T.Y.yXuXqX0XhXM H L Y W Y D V y q 3 < X       . 1 3 0 y V D Y Y Y R J M lXrXqXtXyXBXT.W.!.+X&X<X<X2X2X>X:X-X}._.Z.m.[.&X<X<X2X>X-X}.Z.V.p.r.>.>.` ~ ! ^ ^ ) { { } } } { | %.%.~ ~ Q ! Q / ^ ^ ^ ) { { } o.O.~.~.~.~.~.~.O.O.O.o.[ { [ ) ) ^ ^ ^ / / ! ~ ~ &.&.d C S D D Y Y Y L H lX9XtXyXBXT.W.!.!.+X@X@X$X@X$X@X@XoXR.!.oX$X$X<X2X2X>X:X-X}._.).m.g.t.w.<.*.&.` ~ ! ! / ^ ^ ) { } o.O.~.~.~.~.O.o.} [ ) ^ ^ ^ Q ~ ~ &.&.>.<.r.p.m.V.).`.}.;X:X>X2X2X<X&X@XoXW.R.T.@X@X@X&X@X&XoX@XoXW.W.R.Y.BXuX8X0XlXM J L L U R E R Y E R 9.%.~ ~ ` ~ ! Q Q Q ^ ^ ^ [ [ [ { } o.o.O.~.~.~.~.~.~.~.O.O.O.o.} [ [ ) ) ^ ^ ^ ^ ^ Q Q ! ~ ~ %.%.&.^ Q Q ! ~ ~ &.>.<.5.t.p.M.Z._.}.=X-X;X>X>X2X2X2X2X<X<X&X@X@X@XJXdXm H L E T Y D V r 0 1 O .     . O 3 0 t Z D Y T R K H lXhXqXtXyXY.T.W.!.+X$X<X2X2X2X:X-X}._.V.m.",
"-X;X>X>X2X2X<X$X@X+XW.T.Y.yXuXqXqXhXn H K R W T I S i e 8 2 O .   , oX!.!.!.!.W.!.W.!.W.W.!.W.W.oXW.oXW.!.oX!.oX@X3.&.` ~ ! ! Q / / ^ ^ ) { { } o.O.~.~.~.~.~.~.~.O.} } [ [ ^ ^ ^ ^ / Q ! ~ ~ &.&.^ ^ Q Q ~ ~ &.&.<.r.p.m.V.).`.-X;X>X2X2X2X<X$X#X@X&X+XoX!.R.Y.yXuXpXqX0XvXH K R W T I S i e 7 2 O .     . o 1 7 w i Z I Y T R K H vXhX9XpXuXyXY.T.W.oX%X$X<X2X2X>X:X;X*X_.).V.m.E.%X<X2X2X>X;X}.Z.V.p.r.>.*.` ! Q ^ ^ ) { { { { { ) &.~ &.~ ~ ! ! Q / ^ ^ ) ) { { } o.O.O.~.~.~.~.~.~.O.O.o.} [ [ ) ^ ^ ^ / / Q ! ~ ~ ~ &.: i N C S I Y Y L H lXrXtXyXY.T.W.!.!.@X&X@X$X@X&X+X@XoXW.oX@X#X<X2X2X>X:X-X*X'.).V.m.p.r.<.>.&.&.` ~ ! / / ^ ) ) { o.O.~.~.~.~.O.o.o.[ [ ^ ^ / Q ! ~ ~ &.>.>.w.t.p.m.V._.}.-X:X>X2X2X2X&X%X+XW.R.Y.Y.W.@X@X%X@X&XoX@XoXoXW.R.Y.yXuXpX0XlXm H J K K K L L L L L 3X&.&.~ ~ ~ ~ ! Q Q ^ ^ ^ ^ ) { { { o.o.O.O.~.~.~.~.~.~.~.O.O.O.} } { ) ) ^ ^ ^ ^ ^ / Q Q ! ~ ~ %.&.~ Q ! ! ~ &.&.>.<.r.p.m.M.Z._.].}.;X;X>X>X2X2X2X2X<X<X&X&X%X@X@XJXM J R E T I Z y w 3 1 . .   . o 1 7 e i S I T E L J M kXwXpXtXyXY.W.W.+X&X&X2X2X>X:X;X}.'.).V.",
"}.-X:X>X>X2X2X<X@X@X!.W.Y.BXuXtXqX0XlXM J L Y W Y D V t q 3 < X .   & oXoXW.!.!.W.!.W.!.!.W.!.!.W.oXW.oXoX!.@X@X@X%Xy.&.%.! ~ ! ! / / ^ ^ ) { { } o.O.~.~.~.~.~.~.O.O.o.[ [ [ ) ^ ^ ^ ^ Q Q ~ ~ &.&.! ^ Q ! ~ ~ >.&.<.r.p.m.Z._.}.}.;X:X2X2X2X<X<X#X@X&X@XW.!.T.Y.uXtXqX0XlXm J L Y W Y D V t q 3 < X .     X 1 3 q t V D Y Y E L J M lXrXqXtXyXY.T.W.!.+X&X<X<X2X2X>X;X-X}.).Z.m.p.H.&X&X2X2X>X;X}.).M.p.w.>.*.` ~ ! / ^ ) ) { ) { ) ) | %.~ ~ ~ ! ! Q Q / ^ ^ ) ) { } o.O.O.~.~.~.~.~.~.O.O.o.} [ [ [ ) ^ ^ ^ ^ / Q ! ~ ~ &.&.s r u V D Y Y R H hX9XtXyXY.T.!.!.XX@X%X&X$X%X%X%X@X@X!.oX&X$X<X2X2X>X:X-X}._.Z.m.g.i.w.,.>.&.` ~ ! ! / ^ ^ ) { } o.~.~.~.~.~.O.o.{ [ ) ^ ^ ^ Q ! ~ &.&.>.<.r.p.m.V.).`.}.;X:X>X2X2X2X%X@XoXW.R.BXyXY.+X@X@X@X&XoXoXoXW.W.R.Y.yXuXpX8XkXlXm H H H H J J J J J gX8.&.~ ~ ~ ~ Q Q Q Q ^ ^ ^ ) ) { { } o.o.O.~.~.~.~.~.~.~.O.O.O.o.} { { ) ) ^ ^ ^ ^ ^ / Q ! ~ ~ ~ &.&.~ ! ~ ~ &.&.>.<.r.p.m.M.Z.'.}.=X-X;X>X>X2X2X2X2X<X<X&X&X@X@X@X@XMXK U W Y D V r 8 2 O . .   . < 3 0 t C D T Y E P H vXhXqXtXyXY.Y.W.!.+X$X<X2X2X2X:X-X}._.Z.",
"}.-X:X:X2X2X2X<X&X@XoXW.T.Y.yXuXpX0XhXm H L R Y T I Z i e 7 2 O .     & oXoX!.!.!.!.!.!.W.!.!.!.oXHXoXoXoX@X@X@X%X@X%XB.%.%.~ ! ! ! / / ^ ^ ) ) { o.o.O.O.~.~.~.~.~.^.O.o.} { ) ) ^ ^ ^ / Q ! ~ ` ~ &.^ Q ! ! ~ ~ >.>.<.r.g.m.Z._.}.-X:X:X2X2X2X<X$X#XoX@X+XW.T.Y.yXuXqXqXhXn H K R W Y I S u e 7 2 O .     . o 1 7 e i S I T T R P H n hXwXtXyXyXY.W.W.+X@X<X<X2X2X>X:X-X}.'.Z.V.m.p.g.@X<X<X2X>X;X}.).V.p.r.>.&.` ! Q ^ ^ ) ) { ) ) ) ^ ^ &.&.` ~ ~ ! Q / / ^ ^ ) ) { } } O.O.~.~.~.~.~.~.~.O.o.o.[ { ) ) ^ ^ ^ / Q Q ! ~ ~ ` &.5 q w i Z Y Y R H kXwXtXyXT.T.W.!.+X@X&X@X%X&X%X%X%X@X@X+X<X<X2X2X2X:X;X}.'.).V.m.i.r.<.>.&.&.` ! ! / / ^ ) ) } o.O.O.~.~.^.~.O.} { [ ^ ^ / Q ! ~ ` &.>.>.w.y.p.N.V._.}.-X:X>X2X2X<X<X%X+XW.T.Y.yXuXiXW.@X@X@X@X+XoXoXW.W.R.Y.BXuXpXqX0XlXlXcXm m m M M M M M m j.&.&.~ ~ ~ ~ Q Q Q ^ ^ ^ ^ ) ) { { o.o.O.O.~.~.~.~.~.~.~.O.O.O.} } { ) ) ) ^ ^ ^ ^ / Q Q ! ~ ~ %.&.~ ~ ~ ~ &.>.>.5.t.p.m.Z.Z._.=X=X;X:X>X2X2X2X2X2X<X<X&X&X%X@X@X@X+XPXT T I Z i w 4 1 . .   . . 1 7 w i S I T W L J M hXwXqXuXyXY.W.W.+X$X$X2X2X>X>X;X}.'.).",
"'.=X-X:X>X2X2X<X<X%X@XW.W.T.BXuXtXqX0XlXM J R E Y Y D V t 0 3 < X .     & oXoX!.!.!.!.!.!.oX!.!.oXoXoXoX@X@X@X%X%X%X&X%X[.&.%.` ! ! ! / / ^ ^ ) ) { } o.O.~.O.~.~.~.~.O.O.o.} [ ) ) ^ ^ ^ ^ Q Q ! ~ &.&.Q Q ! ~ ~ &.>.>.5.r.g.M.Z.`.}.-X:X:X2X2X2X<X<X$XoX@X!.W.T.BXyXtXqX0XlXnXJ L Y W Y D V t 0 3 < X .     X 1 3 w t C D Y Y E L H M hX0XpXtXyXY.T.W.!.+X&X<X2X2X2X>X;X-X}._.V.M.p.r.p.@X$X2X2X>X;X}._.V.p.r.>.*.` ~ Q ^ ^ ^ ) ) ) ^ ) ^ ^ ` &.~ ~ ~ ! ! Q / ^ ^ ) ) { { } o.O.~.~.~.~.~.~.O.~.O.o.[ { [ ) ^ ^ ^ ^ / / ! ! ~ &.&.=.4 0 r C I Y R H hXwXtXyXT.T.!.!.+X+X&X&X&X%X&X%X%X@X@X@X<X<X2X2X>X:X-X}.).Z.m.g.i.w.>.>.&.` ~ ! ! / / ^ ) { } O.~.~.~.~.^.O.o.[ [ ) ^ ^ / Q ~ ~ &.&.>.<.r.p.m.V.).`.=X-X:X>X2X2X<X&X@XoXW.T.Y.uX5XqXVXoX@X@X@X@XoXoXW.W.R.Y.BXuXpXpX0X0XkXkXkXlXlXlXlXlXlXlXkX6X2.&.~ ` ~ ~ Q Q Q Q Q ^ ^ ) ) { { } o.O.O.~.~.~.~.~.~.~.O.O.O.o.} { { ) ) ^ ^ ^ ^ ^ Q Q Q ~ ~ ~ &.&.%.~ %.&.>.>.r.p.p.M.Z._._.=X=X;X;X>X>X2X2X2X2X<X<X<X&X%X@X@X@X@XGXP Y D V r 0 2 O .     . < 3 0 t V D Y T E P H vXhXqXtXyXBXT.W.!.+X$X<X2X2X>X:X-X}._.",
"`.'.-X:X:X2X2X2X<X&X+XoXW.T.Y.yXtXpX0XhXM H K E T Y I Z i w 7 2 X .     . 5 oX!.!.oX!.!.oXHXoXoXoXoX@X@X@X@X%X@X%X%X%X<X<X[.%.%.` ! ! ! Q ^ ^ ^ ) ) { } o.O.~.~.~.~.~.~.~.O.} } { { ^ ^ ^ ^ / Q ! ~ ~ ~ &.~ Q ! ~ ~ &.>.>.r.p.g.V.).'.}.-X:X>X2X2X2X<X$X%X@XoXW.T.Y.yXuXqXwXhXn H K E W Y I Z i w 7 1 o .     . o 1 7 e i S I T Y R K M vXhX8XpXyXyXY.W.W.+X@X<X<X2X2X>X:X-X}._.).M.m.p.r.<.E.#X<X2X2X;X=X_.V.p.r.>.&.` ! ! ^ ^ ^ ) ^ ) ^ ^ / ^ ` &.` ~ ! ! Q Q / ^ ^ ^ ) { { } o.O.O.~.~.~.~.~.~.O.o.o.} [ [ ) ) ^ ^ ^ / Q ! ~ ~ ` ` =.% 7 w i I T L H hXqXuXyXT.T.!.!.@X%X%X&X<X&X&X&X$X@X@X&X<X2X2X2X:X-X}.'.).V.m.p.w.w.>.&.&.` ! ! Q ^ ^ ) ) } o.O.~.~.~.~.O.O.o.[ [ ^ ^ / Q ! ~ ` &.>.,.<.p.p.m.Z._.}.-X:X>X2X2X<X<X@X+X!.T.Y.yXuXpX0XdXJX@XoX@XoXoXoXW.W.T.Y.BXuXtXpXqX8X0X0XhX0X0XkX0XhX0X0X0X0X4X&.` ~ ~ ~ ~ Q Q Q ^ ^ ^ ^ ) ) { { } o.O.O.~.~.~.~.~.~.~.~.O.o.o.} { ) ) ) ^ ^ ^ ^ / / Q ! ~ ~ ~ &.&.%.~ >.>.<.r.p.m.M.Z._.}.}.;X;X>X>X2X2X2X2X2X<X<X&X%X%X#X@X@X@XoXNXI Z i w 4 < o .   . . 1 7 w i S I Y W L J M lXrXqXtXyXY.T.!.oX$X<X<X2X2X>X;X-X'.",
").}.}.;X:X>X2X2X2X&X@X@XW.W.Y.yXyXpXqX0XlXM K L T T Y S V r 0 3 < . .     . 6 oX!.!.oX!.oXoXoXoXoX+XoX@X@X%X@X$X%X&X%X<X<X<X{.%.%.~ ! ! ! Q / ^ ^ ) ) { } } O.~.O.~.~.~.~.O.~.o.} { { ) ^ ^ ^ ^ Q Q ~ ~ ~ &.%.Q ! ~ &.&.>.<.r.p.m.V.).`.=X-X;X>X2X2X2X<X<X%X@X!.W.T.BXyXtXqX0XlXM J L Y W Y S V t 0 3 O X .     o 1 4 q y V D Y T E L H m lXrXqXtXyXBXT.W.!.+X&X<X2X2X2X>X;X-X'.).Z.m.p.t.w.>.E.#X<X2X2X;X=X).V.g.w.>.*.` ~ ! / ^ ^ ^ ^ ^ ^ ^ / / ` &.~ &.! ! ! Q Q ^ ^ ^ ) ) { } o.o.O.~.~.~.~.~.~.~.O.o.} { [ ) ) ^ ^ ^ ^ / Q ! ~ ~ &.&.# 2 0 i D Y L H hXqXuXyXT.W.!.!.+X&X%X&X<X$X$X&X%X%X@X@X2X2X2X:X:X-X}.).V.B.p.i.w.>.>.&.` ~ ! Q Q / ^ ) { } o.O.~.~.~.^.O.o.{ [ ) ^ ^ / Q ~ ~ &.&.>.<.r.p.m.V.).'.=X-X:X>X2X2X<X%X@X!.W.T.Y.uXpXqX0XlXDX+X@X@XoXoXoX!.W.T.T.BXuXuXpXpXqX8XqX8XrX8XrX8XrX8XpXqXpXpX2.&.~ ~ ~ ~ Q Q Q Q / ^ ^ ) ) { { } } O.O.~.~.~.~.~.~.~.O.~.O.o.} } [ ) ) ) ^ ^ ^ ^ / / Q ! ~ ~ %.&.&.&.>.>.5.t.p.M.M._._.}.=X;X;X>X>X>X2X2X2X<X<X<X<X%X&X@X@X@X@XoXoXM V r 0 2 O . .   . O 3 8 t V D Y T E P H n hXqXtXyXBXT.W.!.+X&X<X2X2X>X:X-X}.",
"Z._.}.-X:X>X2X2X<X<X&X@XoXW.T.Y.yXtXpX0XkXm H L R T Y I Z y w 4 1 O .     . O 6 oXoX!.oXoXoXoXoXoX@X@X@X@X%X%X%X&X%X<X<X<X<X2X{.%.%.%.! ! Q Q / ^ ^ ) ) { } o.o.~.~.~.~.~.~.O.O.O.} { [ ) ^ ^ ^ / Q Q ~ ~ ~ &.%.! ~ ~ &.>.>.r.r.p.m.Z._.}.=X;X>X>X2X2X2X<X&X%X@X!.T.Y.yXtXpX0XhXm H K E W Y I Z u w 7 1 o .     . o 1 8 e V Z Y T Y R K H lXhXqXtXuXBXY.W.!.oX#X<X<X2X2X>X:X-X}.'.Z.M.m.t.r.<.>.n.&X<X2X>X:X-X_.V.m.r.>.&.` ! Q / / ^ ^ ^ ^ ^ / / ! ! &.~ &.~ ~ ! Q / / ^ ^ ) ) { { o.O.O.~.~.~.~.~.~.O.~.o.} { [ ) ) ^ ^ ^ / / Q ! ~ ~ &.&.+ < 8 u D T L M hXqXtXBXZXW.!.@X@X&X&X$X<X<X<X<X&X%X%X@X<X2X2X:X-X}.'.).V.m.p.w.<.>.&.&.` ~ ! Q ^ ^ ) ) { o.~.O.~.~.~.O.O.} { ) ^ ^ / Q ! ~ ` &.>.,.<.p.p.m.Z._.}.-X:X>X2X2X<X<X%XoX!.T.Y.yXuXpX9XlXm bX!.oX@XXX!.!.W.W.T.Y.Y.yXuXuXtXpXpXpXpXpXpXpXpXpXpXpXpXtXuXx.&.&.~ ~ ~ ! Q Q / / ^ ^ ^ ) ) { } } o.O.O.~.~.~.~.~.~.~.O.O.O.o.} { [ ) ) ^ ^ ^ ^ / / Q ! ~ ~ ~ &.&.>.>.<.r.p.g.M.Z._.'.}.-X;X>X>X2X2X2X2X2X<X<X&X<X@X$X%X@X@X+XoXoXSXz w 4 1 . .   . . < 7 w i S I Y W L P m lXrXqXtXyXY.T.W.+X+X<X<X2X2X:X;X-X",
"V.).}.}.-X:X>X2X2X2X&X@XoXW.W.Y.yXyXpXqXhXlXH P R E T I D i t 0 3 O . .     o 1 a oXoX!.oXoXoXoX@X@X@X&X@X@X#X%X&X&X<X<X<X2X2X<X-X%.%.` ~ ! ! Q / ^ ^ ) ) { } o.o.O.~.~.~.~.~.O.O.o.} { [ ) ) ^ ^ ^ / Q ! ~ ~ &.%.! ~ ~ &.>.>.r.u.m.m.Z.`.}.-X-X:X>X2X2X2X<X&X%X@XoXBXBXyXtXqX0XlXM K L Y T Y S V r 0 3 O . .     X 1 4 q y C D Y T E K J n lXwXqXtXyXBXT.W.XX@X&X<X2X2X>X>X;X-X'.).Z.m.p.r.w.>.>.<.#X<X<X2X>X-X_.V.m.r.>.*.` ` ! / Q ^ / / / / / / ! ! &.~ ~ ~ ~ ! ! Q / ^ ^ ) ) { { } o.O.~.~.~.~.~.~.O.~.O.o.} [ ) ) ) ^ ^ ^ / Q Q ! ~ ~ &.#.O 7 y D T L M hXqXuXG.ZX!.!.+X%X&X$X$X<X<X<X<X<X%X%X@X<X2X>X:X-X'.`.V.m.p.i.w.>.>.&.` ~ ! Q Q ^ ^ ) { } o.~.~.~.~.^.O.o.{ [ ) ^ ^ / Q ! ` &.&.>.<.r.p.m.V.).'.}.;X:X>X2X2X<X%X@X!.W.T.BXuXtXqX0XlXH K GX!.@X@X!.!.!.W.T.T.Y.BXuXtXuXuXuXpXuXpXuXpXuXuXuXuXuXyXyXBX1.%.%.~ ~ ~ ! ! Q Q / ^ ^ ) ) ) { } } o.O.~.O.~.~.~.~.~.~.O.O.o.o.[ [ [ ) ) ^ ^ ^ ^ / / Q ! ~ ~ ~ &.&.>.5.r.g.M.M._._.}.=X-X;X>X>X>X2X2X2X2X<X<X&X&X@X#X@X@X@X@XoXoXoXVX8 2 O .     . O 2 0 r V D Y Y E P J n hXwXtXuXBXY.W.!.+X$X<X2X2X2X:X-X",
"V.)._.}.-X:X>X2X2X<X<X&X+X!.W.T.BXyXtXpX0XlXm J L E T Y I Z y w 3 1 O .     . o 1 g !.oXoXoXoXoX@X@X@X@X%X%X%X&X%X<X<X<X<X2X<X2X2X=X%.&.~ ~ ! Q Q / ^ ^ ) ) { { o.O.~.~.~.~.~.~.~.O.o.} } [ ) ^ ^ ^ / Q Q ~ ~ ~ &.%.~ ~ &.&.>.<.r.p.m.V.Z.`.}.-X:X:X2X2X2X2X<X<X%X@X!.Y.yXtXqX0XhXM H K E T Y D Z y w 4 1 o .     . o 3 8 r N S I T Y R J H lXhXwXtXuXBXZXW.W.@X#X<X<X2X2X>X:X-X}._.).m.m.p.r.<.>.&.5.+X&X2X>X:X-X'.V.g.t.>.*.` ~ ! Q Q Q / / / / Q Q ! ! &.&.` ~ ~ ! Q Q / ^ ^ ) ) ) } } o.O.O.~.~.~.~.~.~.O.O.o.} } [ ) ^ ^ ^ ^ / Q Q ! ~ ~ &.&.$ 4 t D Y L M 0XpXiXY.T.W.oX@X@X&X<X<X<X<X<X<X<X&X%X%X@X2X:X-X*X'.Z.V.m.p.r.<.>.&.` ` ~ Q Q / ^ ) { } o.O.^.~.~.^.^.O.} [ ) ^ ^ / Q ! ~ ~ &.>.<.<.p.p.m.Z._.}.-X:X>X2X2X<X<X#XoX!.T.Y.yXuXpX9XlXM H L PX@X!.@X!.!.!.W.T.Y.Y.yXG.uXuXuXuXuXuXuXuXuXuXyXyXBXyXyXBXY.S.&.` &.~ ~ ! ! Q / / ^ ^ ^ ) ) { } } o.o.~.O.~.~.~.~.~.~.O.~.o.o.} } [ [ ) ^ ^ ^ ^ ^ / Q Q ~ ~ ~ ~ &.>.r.u.g.M.Z._.}.}.-X;X:X>X2X2X2X2X2X<X<X<X&X&X$X@X%X@XoXoXoXoXoX!.5X1 o     . . 1 3 w u S I T Y R J M lXrXqXtXyXY.T.W.oX%X$X<X2X2X>X;X",
"m.V._.}.-X-X:X>X2X2X<X&X@XoXW.R.Y.yXuXpXqXhXn M P R E T I S i r 0 2 O X       o 1 4 g oXoXoXoX+XoX@X@X@X%X%X%X&X&X$X<X<X<X2X2X2X2X2X*X' %.` ( ! Q ! / ^ ^ ) ) { { } O.O.~.~.~.~.O.~.O.O.} { [ ) ) ^ ^ ^ / Q ! ~ ~ &.~ &.~ &.>.>.<.r.p.M.V.).`.}.-X:X:X>X2X2X2X<X<X%X@X!.yXyXtXqX0XlXM K L T T Y S B r 0 3 O . .   . o 1 4 w y Z D Y T E L H m kXwXqXtXyXG.T.!.!.@X$X<X2X2X>X>X;X-X'.).Z.m.p.r.w.>.>.&.` P.$X<X2X>X-X}.V.m.r.>.>.` ` ! Q Q ! Q Q ! / ! ! ! ~ &.&.~ ` ~ Q ! Q Q ^ ^ ^ ) ) { } o.O.O.~.~.~.~.~.~.O.O.o.} [ [ [ ) ^ ^ ^ ^ Q Q ! ~ ~ &.&.@ 4 t I Y K nX9XtXiXG.HXW.XX@X&X$X$X<X2X<X<X2X<X<X%X%X%X,X,X-X'.`.V.m.p.t.w.>.>.&.~ ~ ! Q Q / ^ ) { } O.~.~.~.~.^.O.o.[ [ ) ^ ^ / ! ! ~ &.&.>.<.r.p.m.V.).}.}.;X:X2X2X2X<X%X@X!.W.T.BXuXpXqX0XlXH K R E GX!.@X!.!.!.W.W.T.Y.Y.BXyXBXuXyXyXyXyXyXyXyXBXyXY.Y.Y.Y.R.R.5.&.~ ~ ` ! ! ! ! / / ^ ^ ) ) ) { } } o.O.~.~.~.~.~.~.~.O.~.O.o.} } [ [ ) ) ^ ^ ^ ^ ^ Q Q ! ~ ~ ~ &.&.<.g.M.Z.Z.'.}.=X;X;X>X>X2X2X2X2X<X<X<X$X%X@X$X@X%XoX+XoXoXoXoXoXoX- .     . O 3 7 r V D Y T E L H n hXrXtXuXBXY.W.!.+X$X<X2X2X2X:X",
"m.C.Z._.}.-X:X>X2X2X2X<X$X@X!.W.T.G.uXuXqX0XlXm J L E W Y D Z y 0 7 1 X .   . . O 2 8 j oXoXoXoX@X@X@X%X@X%X&X%X&X<X<X<X<X2X2X2X2X2X2X*X] ` ` ` ! Q Q Q ^ ^ ^ ) { } } O.O.~.~.~.~.~.~.O.o.o.{ { ) ) ^ ^ ^ / Q ! ~ ~ &.&.~ &.&.>.<.r.p.g.M.Z._.}.=X-X:X>X2X2X2X2X<X&X&X@X@XBXtXqX0XkXM H L R W Y D Z y 0 7 1 X .   . . o 3 8 r N D I T T L K M lXhXqXtXyXBXT.T.!.+X%X<X<X2X2X:X:X-X}._.Z.V.p.p.r.<.>.&.` ` K.#X<X2X>X-X}.Z.m.t.>.>.` ` ~ ! Q ! Q Q ! ! ! ! ` ~ &.&.` ` ` ! ! Q / / ^ ^ ) ) { } } O.O.O.~.~.~.~.~.~.O.o.o.} [ [ ) ^ ^ ^ / / / ! ~ ~ ~ &.$.4 y I T P m gXpXiXG.W.W.+X@X&X<X<X<X<X2X<X<X<X<X<X%X@X,X-X}.'.Z.V.m.p.r.<.>.&.&.` ! ! Q ^ ^ ) ) } o.O.O.~.~.~.O.O.} } ) ^ ^ / Q ! ~ &.&.>.<.<.p.p.M.Z._.}.-X:X>X2X2X<X<X%XoX!.T.Y.yXuXpX0XkXM J L Y T PX!.!.!.!.!.W.W.T.Y.Y.Y.BXBXBXBXBXBXBXBXY.Y.Y.Y.G.R.R.W.W.W.D.&.&.` ~ ~ ! ! ! Q / ^ ^ ^ ) ) { } } o.o.O.O.~.~.~.~.~.~.O.~.O.o.} } [ [ ) ^ ^ ^ ^ ^ / Q Q ! ~ ~ ~ &.>.p.M.Z._.}.=X;X;X>X>X2X2X2X2X2X<X<X$X&X$X@X%XoX+XoXoXoXoXoX!.!.!.G.=   . X O 7 w y Z I Y E R J M lX0X8XuXyXY.T.W.oX%X$X<X2X2X>X",
"p.h.Z._.}.=X;X:X>X2X2X<X&X@X@XW.R.Y.yXuXpXqXhXn M K R Y T U S i r 7 2 < .       o 1 7 0 k oXoXoXoX+X@X@X%X%X%X&X%X<X<X<X2X<X2X2X2X2X2X>X>Xt.` ` ` Q ! Q Q ^ ^ ) ) { { } O.O.~.~.~.~.O.~.O.O.o.[ [ ) ) ^ ^ ^ ^ Q Q ~ ~ &.&.` &.>.>.<.r.p.m.B.Z._.}.-X-X:X>X>X2X2X2X<X&X&X@X@XBXtXwX0XlXM K R Y Y Y S B r 8 3 O . .   . X 2 4 w y Z D Y T E K H m hXrXqXuXyXBXW.W.!.+X&X<X2X2X2X:X;X-X'.).V.m.p.r.w.>.>.&.` ` b.+X<X2X>X;X}.Z.m.p.<.>.%.` ` ! ! ! ! ! ! ! ! ~ ` ` &.&.` ` ` ! ! ! Q ^ ^ ^ ) ) { { } o.O.~.~.~.~.~.~.O.~.o.o.} [ [ ) ) ^ ^ ^ / / Q ~ ~ ` &.$.5 u I Y P vXrXpXiXY.T.!.@X+X&X<X<X<X<X2X2X<X<X<X<X%X%X@X-X'.`.V.m.p.r.w.>.>.&.` ~ ! Q Q / ^ ) { } O.~.~.~.~.~.O.o.[ [ ) ^ ^ / ! ! ~ &.&.>.<.r.p.m.V.).}.}.;X:X>X2X2X<X%X@X!.W.T.BXuXpXqX0XlXH K R T Y I DX!.!.!.!.W.W.W.T.T.Y.Y.Y.Y.Y.Y.Y.Y.G.R.G.R.R.R.W.W.W.oXoX@Xy.&.` ~ ~ ! ! ! ! / / ^ ^ ^ ) ) { { o.o.O.O.~.~.~.~.~.~.O.~.O.O.o.} [ [ [ ) ^ ^ ^ ^ ^ Q Q Q ~ ~ ~ %.&.<.Z._.].}.-X;X>X>X2X2X2X2X<X<X<X<X$X%X%X@X%XoXoXoXoXoX!.oXoX!.!.!.j.    O 1 0 r V S Y T E L H m hXrXpXuXBXY.W.!.+X&X<X2X2X2X",
"p.m.V.)._.}.-X:X>X2X2X<X<X%X@X!.W.T.BXyXpXqX0XlXM J L E T Y D V y q 4 < X .   . . < 3 7 r z !.oX@X@X@X%X@X%X%X%X<X$X<X<X<X2X2X2X2X2X>X>X>X;Xr.&.` ` ! ! Q Q ^ ^ ^ ) { } } o.O.~.~.~.~.~.~.O.O.} } { ) ) ^ ^ ^ / Q ! ~ ~ ~ &.&.&.&.<.r.t.p.M.V._.`.}.-X;X>X>X2X2X2X2X<X&X&X@X@XiXtX0XlXm J K E T Y I C y 0 7 1 . .     X o 3 8 r N D I T E R J M lXhXqXtXtXG.Y.W.!.+X&X<X<X2X2X>X;X-X}._.Z.V.p.p.w.<.>.&.` ~ ! ,.#X<X<X2X;X}.).m.i.<.>.&.` ` ~ ~ ! ! ! ! ! ~ ~ ` ` &.>.` ` ` ! ! Q Q / ^ ^ ^ ) { { } o.O.O.~.~.~.~.~.~.^.O.o.} { [ ) ) ^ ^ ^ / / Q ! ~ ~ &.` 5 u I E P n wXtXyXT.R.!.@X#X$X<X<X2X2X<X2X<X2X<X<X<X%X+X X`.).V.g.p.r.<.>.&.` ` ~ Q Q ^ ^ ) { { o.O.~.~.~.~.O.O.} { ) ^ ^ / Q ! ~ ` &.>.<.w.p.p.M.Z._.}.-X:X>X2X2X<X<X#X!.!.T.Y.yXuXpX0XkXM J L E T Y S n !.!.!.!.W.W.R.T.T.T.R.G.Y.R.G.T.T.T.R.R.W.W.W.W.oXoX@X@X+XE.5.&.%.` ! ! ! ! Q Q ^ ^ ^ ) ) { { { o.O.O.~.~.~.~.~.~.~.~.O.O.O.} } [ [ ) ) ^ ^ ^ ^ / Q Q ! ~ ~ ~ %.&.t._.=X-X;X>X>X>X2X2X2X2X<X<X$X&X$X@X%X+XoXoXoXoXoX!.W..X!.!.!.!.!.k.. < 4 q y Z U Y Y R K M lX0XqXuXuXY.T.W.oX+X$X<X2X2X",
"t.g.m.Z._.}.-X-X>X>X2X2X2X&X@XoXW.R.Y.yXuXpX8XkXm H L R W Y I S u e 7 1 < .     . X 1 7 w y n !.@X!.@X@X%X@X%X%X&X<X$X<X<X2X2X2X2X2X2X>X>X>X;Xe.&.` ` Q ! Q Q ^ ^ ^ ) { } } o.O.~.~.~.~.~.~.O.O.o.{ [ ) ) ^ ^ ^ ^ Q Q ! ~ &.&.&.>.>.<.r.p.g.M.Z._.}.}.-X;X>X>X2X2X2X2X<X&X&X@X@XiXqXhXlXH K R E T I S B e 7 3 O . .     o 1 7 w u Z I Y Y R L H n hXrXqXuXyXY.T.W.!.+X$X<X2X2X>X>X;X*X'.).V.m.p.r.w.>.>.&.~ ` ~ >.J.<X2X2X:X}.).M.p.w.>.&.&.` ~ ~ ` ~ ` ! ` ` ` &.&.&.*.&.` ` ! Q ! Q Q ^ ^ ^ ) ) { } } O.O.~.~.~.~.~.~.O.~.o.} { [ [ ) ^ ^ ^ ^ / / ! ! ~ &.&.;.i I Y J vXwXtXyXT.W.!.@X&X$X<X<X2X2X2X2X2X2X2X<X<X%X@XXX_.V.m.p.r.w.>.>.&.` ~ ! ! Q / ^ ) { } O.O.~.~.~.~.O.o.[ [ ) ^ ^ / ! ! ` &.&.>.<.r.p.m.V._.`.-X;X:X2X2X2X<X&X@X!.W.T.Y.uXtXqXhXlXH K R T Y I Z y CX!.!.!.W.!.R.W.T.T.R.T.T.T.R.R.R.W.W.W.W.!.W.oXoX@X@X&X%X<XB.&.%.%.! ! ! ! Q Q ^ ^ ^ ^ ) { { { } o.o.O.~.~.~.~.~.~.~.O.O.O.o.} { [ ) ) ) ^ ^ ^ ^ / / Q ~ ~ ~ %.&.<.Z.=X;X;X>X2X2X2X2X2X<X<X$X$X@X$X@X+XoXoX!.oXW.!.!.W.!.!.!.W.!.!.!.; 1 0 r N S Y T E L H m kX0XpXuXBXY.T.!.+X%X<X2X2X",
"r.p.m.V.).'.*X-X:X>X2X2X<X<X@X+X!.W.Y.BXyXpXqXhXlXM J L Y T Y D C t q 4 < X       X o 3 0 r V S FX@X@X@X@X%X%X%X%X&X<X<X<X<X2X2X2X2X2X>X>X;X;X-Xw.` ` ` ! ~ Q Q ^ ^ ^ ) ) } } o.O.~.~.~.~.~.~.~.O.o.} { ) ) ^ ^ ^ / Q ! ~ ~ ~ &.&.>.>.r.t.p.M.V.Z._.}.-X-X:X>X>X2X2X2X2X<X&X&X@X@XHXrXlXM H L E W Y D C y w 3 1 X .   . . o 3 0 r V S Y T E R J M lXhXqXtXyXBXT.W.!.+X%X<X2X2X2X>X;X-X}._.Z.M.g.t.r.>.>.&.&.~ Q ! Q P.&X2X2X:X=X).V.p.r.<.&.&.&.%.~ ~ ~ ` ` ` ` ` &.*.>.>.&.` ` ` ! ! Q Q / ^ ^ ) ) { } } O.O.~.~.~.~.~.~.O.^.o.o.} [ [ ) ^ ^ ^ / / / ! ~ ~ ~ &.-.k I E J lXqXtXBXT.W.@X@X&X<X<X2X2X2X2X2X2X2X2X2X2X&X%XXXZ.V.m.p.r.<.>.&.` ` ! Q Q ^ ^ ) { } o.O.~.~.~.~.O.O.} { ) ^ ^ / Q ! ~ ~ &.>.<.w.p.p.M.Z._.}.-X:X>X2X2X<X<X@X@XW.T.Y.yXtXpX9XlXm J L E T Y D B e g !.oX!.W.!.W.W.W.R.W.R.W.W.W.W.W.W.W.oXW.oXoX@X@X%X%X&X<X<X|.y.&.%.` ~ ~ ! ! Q Q ^ ^ ^ ^ ) { { { o.o.o.~.~.~.~.~.~.~.~.O.~.o.o.} { [ ) ) ^ ^ ^ ^ / Q Q Q ~ ~ ~ %.%.5.;X>X>X>X2X2X2X<X<X<X$X%X$X@X+XoXoX!.oXW..X!.W.!.W.!.W.!.!.W.!.!.G.d 0 y Z I Y W R K H lX0XqXtXuXBXT.W.oX+X$X<X2X",
"w.p.p.V.V._.}.-X;X:X2X2X2X<X&X@XoXW.R.Y.yXuXpXrXhXm H K R W T I Z i e 7 2 X X     . o 1 7 w i Z D FX@X@X@X@X%X#X&X&X<X<X<X2X<X2X2X2X2X2X>X>X;X-X-Xw.` ` ` ^ ~ Q Q / ^ ^ ) ) { } o.O.~.~.~.~.~.~.O.O.o.} { [ ) ^ ^ ^ ^ Q Q ! ~ ` &.&.>.<.r.p.g.M.Z._._.}.-X;X:X>X>X2X2X2X2X<X&X&X@X@XJX0XlXH K R Y T I S B w 0 1 O . .   . O 1 7 w i Z I Y T R K H vXhXwXqXuXyXBXT.!.!.#X$X<X2X2X2X:X;X}.'.).V.m.p.r.w.>.&.&.` ` Q Q Q H.#X<X2X>X-X_.V.p.r.<.>.&.&.&.~ ~ ` ` ` ` &.` &.>.>.<.&.` ` ` ! ! Q Q ^ ^ ^ ) ) { { } o.O.O.~.~.~.~.~.O.^.O.o.} { [ ) ) ^ ^ ^ / / Q ! ~ ~ &.&.k Y U J lXqXtXBXT.W.XX@X<X<X<X2X2X2X2X2X2X2X2X2X2X<X%X@XL.m.p.r.w.>.>.&.~ ` ! Q Q / ^ ) { } O.~.O.~.~.~.O.o.[ [ ) ^ ^ / ! ! ~ &.&.>.<.r.p.m.V.).}.}.;X:X2X2X2X<X&X@X!.W.T.BXyXpXqX0Xn M K R W Y I C u q 4 G.oX!.W.!.W.W.W.W.W.W.W.W.W.!.W.oXW.oXoX@X@X+X&X&X<X<X<X2X2XV.%.%.~ ~ ~ Q ! Q Q ^ ^ ^ ^ ) ) { { } o.o.O.~.~.~.~.~.~.~.O.O.O.o.o.[ { [ ) ) ^ ^ ^ ^ / Q Q ! ~ ~ %.&.&.m.,X>X2X2X2X2X<X<X$X&X@X%XoX+X!.!.W.!.W.W.W.W.W.W.W.W.W.!.!.!.!.!.Y.e i S Y Y E L J m kXrXpXuXBXY.T.!.+X$X$X<X",
"w.r.p.m.V.).'.*X-X:X>X2X2X<X<X@X+XW.R.T.yXuXtX8X0XlXM J R Y Y Y D V t 0 3 1 X     . . < 3 0 r V S Y fXXX@X@X%X@X%X%X$X<X<X<X2X2X2X2X2X>X>X:X;X-X*X}.w.&.` ~ ~ Q ! Q ^ ^ ^ ) { { } o.O.O.~.~.~.~.~.~.O.o.} { ) ) ^ ^ ^ / Q Q ~ ~ ~ &.>.>.5.t.p.M.M.Z._.}.-X-X;X>X>X2X2X2X2X<X<X&X@X&X@XJXlXm J L E T Y D V y q 3 1 . .   . . O 3 0 t V S Y T Y L J M lX0XqXtXyXG.T.W.!.+X#X<X<X2X2X>X;X-X}._.Z.M.p.p.w.<.>.&.` ~ ~ ! Q ^ >.&X<X2X>X-X'.V.m.p.<.>.>.&.&.&.%.` ` ` ` &.&.*.>.<.r.>.&.` ~ ! ! ! Q / ^ ^ ^ ) ) { } o.O.O.~.~.~.~.~.~.~.O.o.} } [ [ ) ^ ^ ^ / / Q ! ~ ~ ` &.7.Y U LXlXqXtXY.T.!.@X@X$X<X2X2X2X2X2X2X2X2X2X2X2X2X&X%XU.g.p.r.<.>.&.&.~ ! Q Q ^ ^ ) { { o.O.~.~.~.~.O.o.} { ) ^ ^ / Q ! ~ &.&.>.<.w.p.p.M.Z.`.}.-X:X>X2X2X<X<X+X@XW.T.Y.yXuXpX0XkXM J L Y T Y S B r 8 2 ; !.!.!.!.W.!.W.!.W.W.W.!.W.oXW.oXoXoX@X%X%X%X%X<X<X2X2X2X2X*Xt.] ~ ` ~ ! ! Q Q Q ^ ^ ^ ^ ) ) { } } o.O.O.~.~.~.~.~.~.~.~.O.o.o.} { [ [ ) ^ ^ ^ ^ ^ / Q Q ! ~ ~ ~ &.&.].2X2X2X<X<X$X&X%X%X+XoX!.!.!.!.W.W.W.W.W.W.T.W.W.W.W.W.W.!.!.!.!.rXC D T T R K H lX0X8XuXuXBXT.W.!.+X$X<X",
"<.r.p.g.B.Z._.}.-X;X>X2X2X2X<X&X@XoXW.R.Y.uXuXpX0XhXm H K R T Y I C i w 7 1 O .     . o 1 7 w i Z D Y fX@X@X@X%X%X&X&X<X<X<X2X<X2X2X2X2X>X>X;X;X-X}.'.w.` ` ~ ~ Q ! Q / ^ ^ ) ) { } o.O.O.~.~.~.~.~.O.O.o.} { [ ) ) ^ ^ ^ / Q ! ~ ~ &.>.<.r.p.g.M.Z.)._.}.-X;X;X>X>X2X2X2X2X<X<X&X@X@X%XJXzXM P R E T I S i r 7 1 O . .   . o 1 7 w i Z I Y T E K H n hXwXqXuXyXY.T.W.!.#X$X<X2X2X2X:X-X*X'.Z.V.m.p.r.<.>.>.&.~ ~ Q ! Q /  .+X<X2X2X-X}.V.m.p.w.<.>.>.&.&.%.&.` &.&.&.*.>.>.w.r.>.` &.~ ~ ! ! Q Q / ^ ^ ) ) { { o.o.O.~.~.~.~.~.O.~.O.O.} { [ ) ) ) ^ ^ ^ / / Q ~ ~ ` &.9.F U H hXqXiXBXT.!.+X%X$X<X2X2X2X2X2X2X2X2X2X2X2X2X<X%XQ.p.r.<.,.&.&.` ` ! Q Q ^ ^ ) } } o.~.~.~.~.~.O.o.[ [ ) ^ / / ! ! ~ &.&.>.<.r.p.m.Z.Z.}.}.;X:X2X2X2X<X&X@X!.W.T.yXyXpXqX0XlXH K R T Y I C u q 4 < X G.!.!.!.W.oXW.oXW.oXW.oXW.oXoXoX+X@X@X$X&X<X<X<X<X2X2X2X2X>X'.] &.` ` Q ~ ! Q Q Q ^ ^ ^ ) [ ) { } } O.O.~.~.~.~.~.~.~.O.~.O.o.o.} [ [ ) ) ^ ^ ^ ^ ^ Q Q Q ! ~ ~ &.&.5.|.<X<X<X$X$X+X@X+XoX!.!.W.W.W.W.T.T.T.T.T.T.T.T.T.W.W.W.!.!.!.!.oXH I W E L J M lX0XpXuXBXY.T.!.oX$X<X",
">.w.r.p.m.V._._.-X-X:X>X2X2X<X<X@X+XW.R.Y.BXuXpXqXhXlXM K R E Y Y D V t 0 3 O X .   . X 1 3 0 y V D Y T GX@X@X@X%X%X$X$X<X<X<X2X2X2X2X2X>X>X:X-X-X}.}._.m.&.&.~ ~ ! Q Q ^ ^ ^ ) ) { } o.o.~.~.~.~.~.~.~.O.o.o.{ [ ) ^ ^ ^ / Q Q ! ~ ~ ~ >.<.t.p.m.V.Z._.}.}.-X;X>X>X2X2X2X2X2X<X<X&X&X@X@X@XxXJ L E T Y D V r w 3 1 . .     o O 3 0 t V D Y T E L J M lXrXqXtXyXY.T.W.!.+X#X<X2X2X2X:X:X-X}._.Z.M.g.r.r.>.>.&.&.~ ~ Q Q ^ ^ ) L.,X2X2X-X}._.h.g.r.w.q.*.*.*.&.&.&.%.*.&.>.>.w.r.t.p.` &.~ ~ ! ! Q / / ^ ^ ) ) { { } o.O.~.~.~.~.~.~.^.O.O.o.} } [ ) ) ^ ^ ^ / / Q ! ~ ~ ` &.F R H kXqXyXY.R.!.+X$X<X<X2X2X2X2X>X2X2X2X2X2X2X2X<X&X@Xn.r.<.>.&.&.~ ! Q Q ^ ^ ) ) } o.O.~.~.~.~.O.o.} { ) ^ ^ / Q ~ ~ ~ &.>.<.w.p.g.h.Z._.}.-X:X>X2X2X<X<X@X+XW.T.Y.yXuXpX0XlXM J L E T Y S B r 8 2 O . = !.!.oXW.oXW.oXW.!.!.!.oXoX@X@X@X%X%X%X&X<X<X2X2X2X2X2X>X:X;Xw.&.` ` ` ! Q ! Q Q ^ ^ ^ ^ ) ) { } } o.O.O.~.O.~.~.~.~.~.~.O.O.o.} } { ) ) ) ^ ^ ^ ^ / Q Q ! ~ ~ ~ &.&.B.<X$X$X$X@XoXoX+XW.W.W.W.T.T.T.T.Y.Y.T.BXY.T.Y.T.W.W.W.W.!.!.oXXXGXP W R K H lXhXqXpXuXBXT.W.!.@X%X",
">.,.r.p.m.m.).`.}.-X;X>X2X2X2X<X&X@XoXW.R.Y.yXuXqXrXlXm H L E T Y I C u w 7 1 X .     . O 1 7 w i Z I Y T GX@X@X@X&X@X<X$X<X<X2X2X2X2X2X>X>X:X;X-X-X'.'.).m.&.~ ` ~ ! ! Q Q ^ ^ ) ) { { o.o.O.~.~.~.~.O.~.O.o.} } ) ) ) ^ ^ ^ Q Q ! ~ ~ &.&.<.p.g.M.Z._._.}.-X-X;X>X>X>X2X2X2X2X<X<X&X%X@X@X@Xm P R W T I S i w 7 1 O . .   . O 2 7 e u Z I Y T R K H n hXwXtXtXyXY.T.!.!.#X$X<X2X2X>X:X;X*X'.).M.m.p.r.w.>.&.&.` ~ Q ! Q ^ ^ ) L.,X<X2X:X*X).V.g.i.w.w.>.*.>.&.*.*.&.*.*.>.>.w.t.p.p.&.&.~ ` ! Q ! Q ^ ^ ^ ) ) { { } o.O.O.~.~.~.~.~.~.O.O.o.} [ [ [ ) ^ ^ ^ / / / ! ~ ~ &.&.9.U M hXqXyXY.W.!.+X&X<X<X2X2X2X2X>X>X2X2X2X2X2X2X2X&X%XE.<.<.&.&.` ` ! Q / ^ ^ ) { } O.~.O.~.~.~.O.o.{ ) ) ^ ^ / Q ~ ~ &.&.>.<.r.p.m.V.).'.-X-X:X2X2X2X<X&X@X!.W.T.yXuXpXqX0XlXM K R W Y I C y q 4 < X     G.!.!.!.!.oX!.!.oXoXoXoX@X@X%X%X%X&X<X<X<X2X2X2X2X2X>X>X;X-X).&.` ` ` ` Q ! ! Q Q ^ ^ ^ _ ) ) { } } o.O.~.~.~.~.~.~.~.~.O.O.O.o.} } ) ) ) ^ ^ ^ ^ ^ Q Q Q ! ~ ~ ` &.&.E.#X+X+XoXoXW.!.W.W.T.T.T.Y.Y.Y.Y.Y.G.BXY.Y.Y.BXT.W.W.W.!.!.!.+XoXFXUXR J M kX0XpXuXuXY.T.!.XX&X",
">.,.w.r.p.m.V.).'.-X-X:X>X2X2X<X$X@X+XW.R.Y.yXuXtX8XhXlXH J R E T I D V r 0 3 O X .     X 1 3 q t V D Y T Y GX@X@X@X$X%X&X<X<X<X2X2X2X2X2X>X:X:X-X*X}.'.).Z.g.&.` ` ~ Q Q Q ^ ^ ^ ) ) { } o.O.O.~.~.~.~.~.~.O.O.} } [ ) ) ^ ^ ^ / Q ! ~ ~ ` &.r.g.m.V.Z._.}.}.-X;X:X>X2X2X2X2X2X<X<X<X%X&X@X@X+XMXL E Y Y D V y 0 3 1 . .     o < 3 q y V D Y T Y L J M lXrXqXtXyXY.T.W.!.@X&X<X2X2X2X>X;X-X}.).Z.M.g.r.w.>.>.&.` ~ ~ Q Q / ^ ) { g.&X2X2X:X=X'.V.m.i.t.w.w.>.>.*.*.>.*.>.>.w.<.r.t.g.M.q.&.` ` ` ! Q Q Q ^ ^ ^ ) ) { } } O.O.~.~.~.~.~.~.~.O.o.o.} [ ) ) ) ^ ^ / / Q ! ~ ~ ~ &.9.v M 0XpXyXT.W.oX+X<X<X2X2X2X2X>X2X>X>X>X>X2X2X2X2X<X&XE.u.>.&.` ~ ! Q / / ^ ) { } o.O.~.~.~.~.O.o.} { ) ^ ^ / Q ! ~ &.&.>.,.r.t.g.B.).`.}.-X:X>X2X2X<X<X@X@XW.T.Y.yXuXpX9XlXM J L Y W Y S V e 8 2 O .     = oX!.oX!.!.oXoXoXoX@X@X%X@X%X%X&X<X<X<X2X2X2X2X>X>X;X;X-X*X'.p.&.` ~ ` ~ Q ! Q Q ^ ^ ^ ^ ) ) { { } o.o.O.~.O.~.~.~.~.~.~.O.O.O.} } { { ) ) ^ ^ ^ ^ / Q Q Q ! ~ %.~ &.5.E.oXoXW.W.W.T.T.Y.Y.Y.BXY.BXY.yXY.yXyXBXyXG.Y.Y.T.W.W.!.!.!.oXoXoXMXL M m hXqXpXuXY.T.W.!.@X",
"&.>.<.r.p.m.V.Z._.}.-X:X:X2X2X2X<X&X@XoXW.Y.Y.uXuXpX0XkXm J K E T Y D C y w 7 1 X .     . o 1 7 e i S D Y T R GXXX@X@X$X&X$X$X<X2X2X2X2X2X>X>X:X;X-X*X'._.).M.g.&.` ` ` Q ! Q Q ^ ^ ^ ) { { o.o.O.~.~.~.~.O.~.O.O.} } [ ) ) ^ ^ ^ ^ Q Q ! ~ &.&.r.m.M.Z.).}.}.*X-X;X>X>X>X2X2X2X2X<X<X<X%X%X%X@X@XGXR W T I Z i w 7 2 O .     . o 2 4 e i S I Y T R K M n hXwXtXtXyXY.W.W.+X+X<X<X2X2X>X:X-X*X'.).M.M.p.r.<.>.*.&.~ ~ Q Q Q ^ ^ ) { X.#X<X2X>X-X}.).B.g.i.w.w.w.>.>.>.>.>.>.>.w.w.r.p.m.V.p.` ` ` ` ! ! Q Q ^ ^ ^ ) ) { } } o.O.~.~.~.~.~.~.~.O.O.o.} [ [ ) ) ^ ^ ^ ^ / Q ! ~ ~ &.&.v M 0XpXyXY.W.+X@X<X<X2X2X2X2X>X>X>X>X>X>X>X2X2X2X2X&X@XA.>.&.` ~ ! Q / ^ ^ ) { } O.~.~.~.^.^.O.o.{ ) ) ^ / / Q ~ ~ &.&.>.<.r.p.m.V.).}.*X;X:X2X2X2X<X&X@X!.W.T.BXuXpXqX0XlXH K R Y Y U V u q 4 < X       X Y.!.oXoXoXHXoX+X@X@X@X#X%X%X&X<X<X<X2X2X2X2X2X>X>X;X-X-X'._.m.w.&.~ ` ` Q ! Q Q Q ^ ^ ^ ^ ) ) { } } o.o.~.~.~.~.~.~.~.~.O.O.O.o.o.{ { ) ) ) ^ ^ ^ ^ ^ / Q ! ! ~ ~ &.&.5.!.!.W.R.T.Y.Y.Y.yXY.yXyXyXyXuXyXyXuXyXyXyXY.Y.T.T.W.!.!.!.+XoXoXoXMXM lX0XpXuXuXY.T.W.XX",
"&.>.<.w.t.p.m.V.).}.-X;X:X>X2X2X<X&X+XoXW.R.Y.BXuXpXqXhXn M K R E Y Y S B r 8 3 O X     . . 1 4 0 y V D Y T E L MX@X@X@X$X&X<X<X<X2X2X2X2X2X>X:X;X-X*X}._.).Z.h.t.&.` ` ` Q ! Q Q ^ ^ ) ) { { } O.O.~.~.~.~.~.~.O.O.o.} [ ) ) ^ ^ ^ / Q ! ~ ~ ~ &.5.M.V._._.'.-X-X;X:X>X2X2X2X2X2X2X<X<X&X&X@X%X@X@XGXE Y Y D V y 0 3 < . .     o < 4 0 y V D Y T E L J M lXrXqXtXyXY.T.W.!.@X$X<X2X2X2X:X;X-X}.).Z.h.p.t.w.>.>.&.&.~ ~ Q / / ^ ) { } s._.<X2X2X-X}._.V.m.g.t.w.w.w.>.>.<.>.<.w.w.t.t.m.m.Z.V.*.` ` ` ! ! Q Q / ^ ^ ) ) ) } } o.o.~.~.~.~.~.~.~.O.O.o.o.{ [ ) ) ^ ^ ^ / / Q ! ~ ~ ~ &.8.m 0XpXBXT.W.+X$X<X<X2X2X>X>X>X>X:X>X>X>X>X>X2X2X2X<X#XE.&.&.~ ~ Q / / ^ ) { } o.O.~.~.~.~.~.o.} { ) ^ ^ / Q ~ ~ ~ &.>.<.r.t.g.m.)._.}.-X:X>X2X2X<X<X+X@XW.T.Y.uXuXpX0XlXM J L E T Y D V e 8 2 O .     . O 6 oX!.oXoX+XoX@X@X%X@X%X&X%X<X<X<X<X2X2X2X2X>X>X;X;X*X}.'.).V.r.&.` ` ` ~ ! ! Q Q Q ^ ^ ^ ) ) ) { } o.o.O.O.~.~.~.~.~.~.~.~.O.o.o.} { { ) ) ) ^ ^ ^ / / Q Q ! ~ ~ ~ %.&.0.R.T.Y.Y.Y.yXBXyXuXuXuXuXuXuXtXuXuXuXyXyXyXY.T.T.W.!.!.!.+XoX@XoXoXFXhXrXpXyXyXY.W.!.",
"&.&.>.<.r.p.m.V.).`.}.-X:X:X2X2X2X<X&XoXoXW.T.Y.uXtXqXrXlXM H L E W Y I C y w 4 1 X .     . o 1 0 e i S I Y T R K bX+X@X@X$X&X$X<X<X2X2X2X2X>X>X:X;X-X}.'.).).V.m.t.>.` ` ` Q ! Q Q ^ ^ ^ ) { } } o.O.~.~.~.~.~.~.O.O.o.} [ [ ) ^ ^ ^ ^ / Q ~ ~ ~ &.<.B.Z._.'.}.-X-X;X>X>X>X2X2X2X<X<X<X<X%X&X%X@X@X@XGXT Y I S i w 7 1 O .     . o 2 8 e i Z I T T R K M n hXwXtXuXyXY.W.W.+X@X<X<X2X2X2X:X-X*X'.).V.m.p.r.<.>.&.&.` ~ ! Q / ^ ^ ) { } O.).,X2X2X;X=X`.V.V.g.i.t.w.w.w.>.w.>.w.w.r.t.p.m.M._.V.w.` ` ` ~ ! Q Q / / ^ ^ ) ) { } o.o.O.~.~.~.~.~.~.O.O.O.o.[ [ [ ) ^ ^ ^ ^ / / Q ~ ~ ` &.7.8X0XpXBXT.W.+X$X<X2X2X2X>X>X>X:X;X>X;X>X>X>X>X2X2X<X&X@X5.` ~ ! Q / ^ ^ ) { } O.~.~.~.^.^.O.o.{ ) ) ^ / / Q ~ ~ &.&.>.<.r.p.m.V.).}.*X;X:X2X2X2X<X&X@X!.W.T.BXuXpXqX0XlXH K R E Y I C u q 4 < X .   . X 1 7 BXoXoXoX+X!.@X@X%X%X#X&X$X<X<X2X<X2X2X2X2X>X:X-X-X}.'.).Z.h.m.>.&.` ` ` Q ! Q Q Q / ^ ^ ^ ) ) { { } o.o.O.~.~.~.~.~.~.~.~.O.O.o.o.} { [ ) ) ^ ^ ^ ^ ^ Q / Q ! ~ ~ &.&.1.F.Y.yXyXyXuXuXuXtXtXtXtXpXpXpXpXpXtXtXuXyXY.Y.T.W.!.!.!.+XoX@X@X@XJXaXrXuXyXY.T.W.",
"%.&.>.<.w.t.p.m.V.).'.-X;X:X2X2X2X<X&X+XoXW.R.Y.yXuXtX8XhXlXH P R Y T I S B r 8 2 < X     . X 1 4 q y C D Y T Y L J xX@X@X%X%X$X<X<X<X2X2X2X2X>X:X;X-X*X}._.).V.m.g.t.>.` ` ~ ! ! Q Q ^ ^ ) ) ) } } o.O.~.~.~.~.~.~.O.O.o.} [ [ ) ^ ^ ^ / Q Q ~ ~ ~ &.>.Z._.'.'.-X;X;X>X>X2X2X2X2X2X2X<X<X<X&X@X#X@X@XoXoXUXY S V r 0 2 < .       o < 3 q t C D Y T E L J M kXwXqXtXyXY.T.W.!.@X&X<X2X2X>X>X-X-X}._.V.m.p.t.w.>.>.&.~ ~ ! Q / / ^ ) { } o.O.(.#X2X2X>X-X}.).V.m.g.t.t.r.w.w.w.w.w.w.t.p.g.h.V.).*Xw.&.` ` ~ ! ! / / / ^ ^ ) ) { } } O.O.~.~.~.~.~.~.~.O.O.o.} } ) ) ) ^ ^ ^ / Q Q ! ~ ~ ` &.6XrXtXY.R.!.+X<X<X2X2X2X>X>X;X>X;X;X;X:X:X>X>X2X2X2X<X#XK.~ ! ! / / ^ ) { } o.O.~.~.~.~.O.o.} { ) ^ ^ / Q ~ ~ &.&.>.,.r.t.m.m.).`.}.-X:X>X2X2X<X<X@X+XW.T.Y.yXuXpX0XkXM J L Y T Y S V r 8 2 O X     . O 1 0 h oX!.!.@X@X@X@X#X@X&X&X<X<X<X2X2X2X2X2X>X>X;X-X}.}.).Z.V.m.p.w.&.` ` ` ~ ! ! Q Q Q / ^ ^ ) ) ) { } } o.O.O.~.~.~.~.~.~.~.~.O.O.o.} } [ [ ) ) ^ ^ ^ ^ / / Q Q ~ ~ ~ ~ &.1.x.uXuXtXtXpXtXpXrXqXqXqXqXqXqXqXqXtXtXuXBXY.T.W.W.!.!.+X@X@X@X@X@XW.iXyXyXY.W.",
"%.&.&.>.w.r.p.m.V.).'.}.-X:X>X2X2X<X<X&X@XoXR.T.BXuXpXpX0XlXm J L E T Y D C y q 4 1 X .     . o 3 7 e N Z U Y T R K H mX@X@X&X$X$X<X<X2X2X2X2X2X>X:X-X-X}.'.).Z.V.m.p.r.>.&.` ~ ~ Q Q Q / ^ ^ ) ) { } o.O.~.~.~.~.~.~.O.O.o.} [ [ ) ) ^ ^ ^ / Q ! ~ ~ &.<.Z.].}.}.-X;X;X>X>X2X2X2X2X2X<X<X<X&X&X$X@X&X@X@XoXP U Z i w 7 1 O       . o 2 7 e N Z I Y T R P H vXhXqXtXtXBXY.W.!.XX@X$X<X2X2X2X:X-X}.'.).V.m.p.r.<.>.&.&.~ ~ ! Q / ^ ^ ) { } O.O./.OX2X2X>X-X|.`.Z.B.g.p.i.t.w.r.w.w.t.t.t.g.m.V.)._.-X_.&.` ` ~ ~ ! Q / / ^ ^ ) ) { { } o.O.O.~.~.~.~.~.~.O.O.o.} } [ ) ) ^ ^ ^ ^ / Q ! ~ ~ &.&.:.8XuXY.R.!.+X$X<X2X2X>X>X:X;X;X;X;X-X;X:X:X:X>X2X2X<X$XK.<.! Q Q ^ ^ ) { } O.~.~.~.^.^.O.o.{ ) ) ^ / / Q ~ ~ &.&.>.<.r.p.m.V.).}.}.;X:X2X2X2X<X&X@X!.W.T.BXuXpXqX0XlXH K R T Y I C u q 4 < X .     X < 4 w y FX!.@X@X@X@X@X%X#X&X$X<X<X<X2X2X2X2X2X>X:X-X-X}.'.).V.m.m.t.r.>.&.` ` ` ! ! ! Q Q / ^ ^ ^ ) ) ) { } o.o.O.~.O.~.~.~.~.~.~.~.O.o.o.} { [ [ ) ) ^ ^ ^ ^ / / Q ! ~ ~ ~ &.&.0.tXtXpXqX8XrX8X0X0X0X0X0X0X0XwXwXqXtXtXBXY.T.W.W.!.!.+X@X@X%X@X@X@XW.VXY.T.",
"<.&.&.*.<.w.r.m.m.V.).}.-X;X>X>X2X2X<X&X+XoXW.R.BXG.uXpXeXhXm H K R W T I S B e 8 2 O .     . o 1 7 q y Z D Y T E L H M dX@X@X@X&X$X<X<X2X2X2X2X>X:X:X-X*X}._.).V.m.p.p.r.&.&.` ~ ~ ! Q Q ^ ^ ^ ) { { } o.o.~.~.~.~.~.~.~.O.o.o.[ [ ) ^ ^ ^ / Q Q ! ~ ~ &.&.M.}.}.-X;X:X>X>X2X2X2X2X2X<X<X<X$X$X@X$X@X@XoXoX@XJ S C e q 2 O o       o < 4 q y Z D Y T E L H M kXwXqXtXyXY.T.W.!.@X&X<X2X2X>X>X-X-X}.).V.m.p.r.w.>.>.&.&.~ ~ Q Q ^ ^ ) { } o.O.~./.`.1X2X>X>X=X'.).V.B.g.p.t.t.t.t.t.t.t.p.m.m.V.).}.-X_.&.&.~ ~ ~ ! ! / / ^ ^ ^ ) { { } o.O.O.~.~.~.~.~.~.O.~.o.} } [ [ ) ^ ^ ^ ^ / Q Q ~ ~ ~ %.2.4XyXY.R.oX%X<X<X2X2X>X>X;X;X-X-X-X-X-X;X:X:X>X2X2X2X<X#Xa.! Q ^ ^ ) { } o.O.^.~.~.~.O.o.} { ) ^ ^ / Q ~ ~ ~ &.>.,.r.t.g.B.Z._.}.-X:X>X2X2X<X<X@X+XW.T.Y.yXuXpX0XkXM J L E T Y S V r 8 2 O .     . O 2 8 r N M FX@X@X@X@X#X@X&X&X$X<X2X<X2X2X2X>X>X:X;X-X*X'.).).V.m.p.r.w.>.&.&.` ` ~ ! ! Q Q / / ^ ^ ^ ) ) { { } o.o.~.O.~.~.~.~.~.O.~.~.O.o.o.} { [ ) ) ^ ^ ^ ^ / Q Q Q ! ~ ~ ~ &.` j.8X0X0X0XlXhXhXkXlXlXkXlXlXhX0XqXpXtXyXBXT.W.W.!.!.+X@X@X%X@X%X@X@XR.T.",
"#X<.&.>.>.w.r.p.m.V.)._.}.-X:X>X2X2X2X<X@X@XoXR.T.BXuXpXpX0XlXm J L Y W Y D V y q 4 < X .     . o 3 8 r N S I Y T R K M n aX@X@X&X&X$X<X<X2X2X2X2X>X:X:X-X}.'.).Z.V.g.p.t.w.&.&.` ~ ~ ! Q Q Q ^ ^ ) ) { } o.o.~.~.~.~.~.~.O.O.O.} { [ ) ) ^ ^ ^ / Q ! ~ ~ &.&.C.}.=X;X;X>X>X>X2X2X2X2X2X<X<X<X&X&X@X%X@X%XoXoXoXSXZ i w 4 1 o .     . O 2 7 e N Z Y Y E R P M vXhXqXtXuXyXT.T.!.XX&X$X<X2X2X2X:X-X}.'.).V.m.p.r.<.>.&.&.~ ~ ! Q / ^ ^ ) { } O.~.O.~.).,X2X2X>X-X'.'.V.V.m.m.t.t.p.t.t.p.p.g.m.V.Z._.}.-X:Xr.&.~ ~ ~ ! ! ! / ^ ^ ^ ) ) { { o.o.O.~.~.~.~.~.~.O.~.O.o.} [ [ ) ) ^ ^ ^ ^ / Q ! ~ ~ &.&.j.G.Y.R.+X%X<X2X2X2X>X:X;X-X-X-X-X*X-X-X;X:X:X>X2X2X<X<XK.^ Q ^ ^ ) { } O.~.^.~.^.^.O.o.{ ) ) ^ / / Q ~ ~ &.&.>.<.r.p.m.V.).'.-X-X:X2X2X2X<X&X@X!.W.T.BXuXpXqX0XlXH K R T Y I C u q 4 < X .     X 1 4 q y Z I bX@X@X@X@X%X#X&X&X$X<X2X2X2X2X2X2X>X:X-X-X*X'.).V.m.g.p.w.<.>.&.&.&.` ` ~ ~ ! ! Q Q / ^ ^ ) ) ) { { } o.O.O.~.~.~.~.~.~.O.~.O.O.o.} } [ ) [ ) ^ ^ ^ ^ ^ Q Q Q ! ~ ~ &.&.:.6XlXlXlXm m n m nXM m m vXlXhX0XqXtXuXBXT.T.!.!.!.+X@X%X%X@X%X@X@X@X",
"<X%Xw.&.>.<.w.t.g.m.Z._.}.-X;X:X2X2X2X<X&X+XoXW.T.BXBXuXpX8XhXn H K R W Y I S i e 8 2 O .     . o 1 4 w y C I Y T E L J m lXaX@X@X%X&X$X<X2X2X2X2X>X>X:X-X*X}._.).V.m.p.r.w.<.&.&.~ ~ ~ ! Q Q ^ ^ ^ ) ) { } o.O.O.~.~.~.~.~.~.O.O.} } ) ) ) ^ ^ ^ / Q Q ~ ~ ~ &.Z.-X;X:X:X>X2X2X2X2X2X<X2X<X<X$X&X%X%X%X@X%XoXoX@XSXN e q 2 < .       o O 7 0 y Z D Y T E L J n lXrXqXtXyXY.T.W.!.@X&X<X2X2X>X>X-X-X}.).V.m.p.r.w.>.>.&.~ ~ ~ Q Q ^ ^ ) { } o.O.~.^.~.(.OX2X2X>X:X|.'.).V.m.m.m.p.p.p.p.p.g.m.M.Z.).}.}.;X>XV.&.` ` ~ ! ! ! / / ^ ^ ) ) { { } o.o.~.~.~.~.~.~.~.O.O.o.o.[ [ [ ) ^ ^ ^ / / Q ! ~ ~ ~ &.2.uXR.W.+X$X<X2X2X>X>X;X-X-X-X}.-X}.}.-X-X;X:X>X2X2X<X<X@X>.^ ^ ) { } O.O.^.~.~.^.~.o.} { ) ^ ^ / Q ! ~ &.&.>.,.r.t.g.V.Z.`.}.-X:X>X2X2X<X<X@X@XW.T.Y.yXuXpX9XlXM H L E T Y D V r 8 2 O .     . O 1 8 r N S Y P GX@X@X@X@X%X$X$X<X<X<X2X2X2X2X>X:X:X-X*X'._.Z.V.m.p.r.w.>.*.&.&.&.` ~ ~ ~ Q ! Q / / ^ ^ ^ ) ) { { { o.o.O.~.~.~.~.~.~.~.~.O.~.o.o.} } [ ) ) ) ^ ^ ^ ^ / / / ! ~ ~ ~ ~ &.:.9XM H M J H H H J H H H M lXhXqXtXyXBXT.T.W.!.!.@X@X@X%X%X%X#X@X",
"2X<X#Xy.*.>.w.r.p.m.V.).'.}.-X:X>X2X2X<X<X#X@X!.R.T.BXuXuXqX0XlXM J L Y T Y D V t q 3 < X .     . < 3 0 r N S I Y T R J H lXhXaXW.@X&X&X<X<X<X2X2X2X>X>X:X-X}.'._.Z.V.m.p.r.w.>.>.&.~ ` ~ ! Q Q ^ ^ ^ ) ) { } } O.O.~.~.~.~.O.~.O.O.} } [ ) ) ^ ^ ^ ^ / Q ~ ~ &.&.g.OX;X>X>X>X2X2X2X2X2X<X<X<X<X$X&X%X@X%XoXoX%XoXoXCXz q 4 1 o .     . O 2 8 r N S I T Y R J H lXhXwXtXyXyXT.T.!.XX&X$X<X2X2X2X:X-X}.'.).V.m.p.r.<.>.&.&.~ ~ ! Q / ^ ^ ) { } O.~.~.~.~./.{.1X2X>X>X=X}.`.).V.m.m.g.g.g.g.g.m.m.V.Z._.}.-X;X>X}.&.%.~ ~ ! ! ! / / / ^ ) ) { { } o.o.O.~.~.~.~.~.~.O.O.O.o.{ [ [ ) ) ^ ^ ^ / / Q ! ~ ~ &.&.x.R.W.+X$X<X2X2X>X>X;X-X}.}.}.}.}.}.}.-X-X-X:X>X2X2X<X$XH.^ ) ) { } O.~.^.~.~.O.O.o.{ ) ) ^ / / Q ~ ~ &.&.>.<.r.p.m.V.).'.-X-X:X2X2X2X<X&X@X!.W.T.BXuXpXqX0XlXH K R Y T D C u w 4 < X .     X 1 4 w y Z D Y T NXXX@X@X+X&X&X$X$X<X2X2X2X2X2X>X:X:X-X*X'.).V.V.g.p.w.w.>.&.` ` &.&.` ` ` Q ! ! Q Q / ^ ^ ^ ) { { { } o.o.O.~.~.~.~.~.~.~.O.~.O.o.o.} [ [ [ ) ) ^ ^ ^ ^ / / Q ! ~ ~ ~ &.&.l.K K P L L L L L L K J H m lXwXqXuXyXT.T.!.!.!.XX%X%X%X%X%X&X",
"2X2X<X#Xy.>.<.r.p.m.m.Z.).}.-X;X>X2X2X2X<X&X+X!.!.T.Y.uXuXpX0XkXm H K R W Y I S i e 7 2 O .     . o 1 3 w y Z I Y T E K J M hXrXqXW.@X%X%X<X<X2X2X2X2X>X:X-X-X}.'.).V.m.p.t.r.<.>.&.&.` ` ~ ! Q Q / ^ ^ ^ ) { { o.o.O.~.~.~.~.~.~.O.O.o.} [ ) ) ^ ^ ^ / Q Q ~ ~ ~ &.r.;X:X>X2X2X2X2X2X<X2X<X<X$X&X%X%X%X@X%X%XoXoXoXoXoXj 8 3 O .       O O 7 q y C D Y T E L J n kXrXpXtXyXY.T.W.!.@X&X<X2X2X>X:X-X-X}.).V.m.g.r.w.>.>.&.~ ~ ! Q Q ^ ^ ) { } o.O.~.~.~.^./._.1X2X2X>X-X}.'.).Z.V.M.m.m.m.m.m.M.M.Z.).'.}.-X:X>X Xr.&.` ` ! ! ! / / ^ ^ ^ ) ) { } } O.O.~.~.~.~.~.~.~.O.O.o.} { [ ) ^ ^ ^ ^ / Q Q ! ~ ~ %.&.z.Y.oX+X$X2X2X2X>X;X-X-X*X'.}.'.'.}.}.}.-X;X;X>X>X2X<X$XP.*.^ { } o.O.~.~.~.~.O.o.} { ) ^ ^ / Q ~ ~ ~ &.>.,.r.t.p.V.V.`.}.-X:X>X2X2X<X<X@X+XW.T.Y.yXuXpX0XkXM J L E T Y D V r 8 3 O .     . O 1 7 r V S Y T Y PXDX@X@X@X%X$X$X<X<X<X2X2X2X2X>X:X-X-X}.'.).V.m.p.t.r.>.>.&.` ` ` &.` ` ` ~ ! ! Q Q / ^ ^ ^ ^ ) ) { } } o.O.O.~.~.~.~.~.~.~.~.~.O.o.o.} { [ ) ) ^ ^ ^ ^ / / Q Q ! ~ ~ ~ &.&.7XU E E Y E E Y E R L J nXn rXtXiXyXT.T.W.!.@X@X@X%X%X&X%X",
";X2X2X<X#XK.<.<.r.p.m.V.).}.}.;X:X>X2X2X<X<X@X@XHXW.Y.Y.uXpXqX0XlXM J R Y W Y D V t q 3 < X       . < 3 0 r V S I T T R P M vXhXqXtXW.@X%X$X<X<X2X2X2X2X>X:X-X-X'._.).V.m.p.r.w.>.>.&.&.` ` ~ ! ! Q / ^ ^ ) ) { { o.o.O.~.~.~.~.~.~.O.O.o.} [ ) ) ^ ^ ^ ^ / Q ! ~ ~ &.r.;X2X>X2X2X2X2X2X<X<X<X<X$X&X%X%X%XoXoX%XoXoXoXoXoXh 3 1 O .     . O 2 8 r N S I T Y R J H lXhXqXtXuXyXT.W.!.XX&X$X<X2X2X2X:X-X}.'.Z.V.g.t.r.<.>.&.&.~ ~ ! Q / ^ ^ ) { } O.~.~.~.~.O.~.Z.1X2X2X>X:X*X}._.).V.V.M.m.m.m.M.V.V.)._.}.*X;X>X>X2Xy.&.` ~ ~ ! ! ! / / ^ ^ ) ) { { } o.O.O.~.~.~.~.~.~.O.O.o.} { [ [ ) ^ ^ ^ ^ Q Q ! ! ~ ~ &.1.R.oX+X<X<X>X>X>X;X-X}.}._.'._.'._.}.}.}.-X-X:X>X2X2X<X&Xp._ { } O.@.~.~.~.@.O.o.{ ) ) ^ / / Q ~ ~ &.&.>.w.r.p.m.V.).}.}.;X:X2X2X2X<X&X@XoXW.T.BXuXtXqXhXlXM K R Y T D C u w 4 < X .     X 1 4 0 y Z D Y T R K bX@X+X@X&X$X$X<X<X<X2X2X2X2X:X:X-X-X'.'.).V.m.p.r.w.>.>.&.` ! ! ` &.` ` ` ! ! ! Q / / ^ ^ ^ ) ) ) { } } o.O.~.~.~.~.~.~.~.~.O.O.O.o.} { [ [ ) ) ^ ^ ^ ^ / Q Q Q ! ~ ~ ` &.&.F Y T Y T T Y T Y E L H n hXqXtXyXBXW.W.!.!.+X%X%X&X&X",
"}.;X>X2X<X&XK.<.r.i.m.B.Z._.}.-X;X>X2X2X2X<X&X+XoXW.T.Y.uXuXpX8XlXm H L R E T I C i w 7 2 O .     . o 1 7 w u Z I Y T E P J n lXwXqXtXW.%X@X&X<X<X2X2X2X>X:X:X-X}.'._.V.M.p.t.r.w.>.&.&.&.` ` ~ ! ! Q Q ^ ^ ^ ) { { } o.O.~.~.~.~.~.~.O.O.o.} { ) ) ) ^ ^ / Q Q ~ ~ ~ %.r.>X>X2X2X2X2X2X<X<X<X$X&X&X%X%XoX%X%XoX+XoXoXoXoX!.5X3 O .       o 1 4 q y Z D Y T E L H m lX9XqXtXyXY.T.W.!.@X&X<X2X2X>X:X-X-X'._.V.m.g.r.w.>.>.&.&.~ ! Q Q ^ ^ ) { } o.O.~.~.~.~.^.O.s.%X2X2X2X:X-X}.'._.Z.V.V.V.M.V.V.Z.Z.).'.}.-X;X>X2X2X[.&.%.~ ` ! ! ! / / ^ ^ ^ ) { { } o.O.O.~.~.~.~.~.~.O.~.o.} } [ [ ) ^ ^ ^ ^ Q Q Q ! ~ ~ &.%.S.oX$X<X2X2X>X:X-X}.}.}._._.)._._._._.}.}.-X;X>X>X2X2X$XP.q.} o.@.@.~.~.~.@.o.} { ) ^ ^ / Q ! ~ &.&.>.>.r.t.p.V.Z._.}.-X:X>X2X2X2X<X@X+XW.T.Y.yXuXpX8XlXm J L E T Y D V r 8 3 O .     . O 1 8 e N S Y T Y L J m DX@X@X@X&X$X<X<X2X2X2X2X2X:X:X-X-X'._.Z.V.g.p.r.w.>.&.&.` ! ! ( ` &.` ` ~ ! ! ! ! Q ^ ^ ^ ^ ) ) { { } } O.O.O.~.~.~.~.~.~.~.~.O.o.o.} } [ [ ) ) ^ ^ ^ ^ / / Q ! ~ ~ ~ ` &.9.c Y Y I Y Y Y T Y R J M hXqXtXyXBXZXW.!.!.@X%X%X&X",
").}.:X>X2X<X#XU.w.r.p.m.V._.`.}.;X:X>X2X2X2X&X@X@XW.W.Y.BXuXpXqX0XlXM J R Y Y Y D V t 0 3 1 X .     . < 3 0 r V S Y Y T R J M lXhXwXtXyXW.%X#X$X<X<X2X2X2X2X:X:X-X}._.).Z.M.p.r.w.>.>.&.&.&.` ~ ~ ~ ! Q Q ^ ^ ^ ) { { } o.O.~.~.~.~.~.~.~.O.o.} { ) ) ^ ^ ^ ^ Q Q ! ~ ~ &.&.].>X2X2X2X<X2X<X<X$X$X$X+X%X%XoX%XoXoXoXoXoXoXoXoXBX1 O .     . O 3 8 r N S Y Y E R P M lXhXqXtXyXyXT.W.!.XX&X$X<X2X2X2X:X-X*X_.).M.g.p.r.<.>.&.&.~ ~ ! Q / ^ ^ ) { } O.~.~.~.~.O.O.o.+.%X1X2X2X2X;X-X}._._.Z.Z.V.V.V.Z.Z.)._.'.*X-X;X>X2X2X[.y.%.` ` ! ! ! ! / ^ ^ ^ ) ) { { o.o.O.~.~.~.~.~.~.O.~.O.o.} [ [ ) ) ^ ^ ^ ^ Q Q ! ~ ~ &.&.1.oX$X<X2X>X>X;X-X}.'.'.).).Z.Z.Z._._.].}.=X-X;X>X>X2X<X#Xe.} @.@.~.~.~.@.@.} { ) ) ^ / / ! ~ ~ &.&.>.<.r.p.m.V.).}.}.;X:X2X2X2X<X&X@XoXW.T.BXuXpXqX0Xn M K R Y T I C u w 4 1 X .     X < 3 w y Z D Y T E K H lXdXW.@X@X$X&X<X<X<X2X2X2X2X>X:X-X-X'._.V.V.g.p.w.<.>.&.` ` ! Q ^ ` &.&.` ~ ~ ! ! ! Q Q ^ ^ ^ ) ) { { } } o.O.O.~.~.~.~.~.~.~.O.~.O.o.o.} [ [ [ ) ) ^ ^ ^ ^ / / Q ! ! ~ ~ &.&.7.x S Z S S D Y Y Y L M kXqXtXyXG.ZXW.!.!.+X%X%X",
"V.).}.;X2X2X<X#XE.w.p.m.B.Z._.}.-X;X>X2X2X<X<X&X+XoXW.T.Y.yXuXpX0XkXm H K E T Y I Z i w 7 1 O .     . O 1 7 w i Z I Y T R L H M hXwXqXtXyXW.@X@X<X<X<X2X2X2X>X:X-X-X}._.Z.h.m.p.w.w.<.&.&.~ ` &.` ~ ~ ! Q Q ^ ^ ^ ) { { } o.O.O.~.~.~.~.O.~.O.o.} } [ ) ^ ^ ^ ^ Q Q ! ~ ~ %.&.|.2X2X2X2X<X<X<X$X$X%X%X%X@X%XoX+XoXoXoXoXoXoXoX+XG.O .     . o 1 4 w y Z D T T E K J m hXwXqXtXyXY.T.W.!.@X$X<X2X2X>X:X;X*X}.).V.M.p.r.w.>.>.&.` ~ ! Q / ^ ^ ) { } O.O.~.~.~.~.~.O.{ { C.<X2X2X>X;X-X=X'._._.).Z.Z.Z.Z.).).'.}.-X;X>X2X2X2X%X3.&.` ` ~ ! ! ! / / ^ ^ ) ) { { } o.o.~.~.~.~.~.~.~.O.O.o.} } [ ) ) ^ ^ ^ ^ Q Q Q ~ ~ ~ &.5.K.<X<X2X>X:X;X}.}._.).Z.Z.Z.Z.Z.Z.Z._._.}.-X;X,X>X2X<X&X`.} @.~.~.~.~.@.o.} { ) ^ ^ Q Q ! ~ &.&.>.<.w.p.p.M.Z._.}.-X:X>X2X2X<X<X@X+XW.T.Y.yXuXpX0XhXm H L E Y Y D V r 0 2 < .     . O 2 7 r i S I T Y L J M kX0XVX+X@X#X%X$X<X<X2X2X2X>X:X:X-X*X'._.V.V.p.t.r.>.>.&.` ` ! Q ^ ^ ` &.` ` ~ ~ ! ! Q Q / ^ ^ ^ ^ [ ) { } } o.O.O.~.O.~.~.~.~.~.~.O.O.o.} } [ [ ) ) ) ^ ^ ^ / / Q Q ! ~ ~ ~ %.&., u y i i C D Y Y L H lX9XtXiXBXT.W.W.@X@X#X",
"p.V._.*X;X>X2X<X#XE.y.p.m.V._.}.}.;X:X>X2X2X<X<X@X@XW.W.Y.yXyXpXqX0XlXM K L E T Y S V t 0 3 O X .     X < 3 0 r V S Y Y Y R J M vX0XqXtXuXBXW.+X@X$X<X<X2X2X2X>X:X-X-X'.).Z.m.g.t.w.>.>.&.&.~ &.` ` ~ ~ ! Q Q Q ^ ^ ) ) { } o.o.~.~.~.~.~.~.O.~.o.} [ } ) ) ^ ^ ^ ^ Q Q ~ ~ %.%.|.2X<X2X<X<X$X$X$X%X%X%X@X@X+XoXoXoXoXoX!.!.!.!.!.oX- .     . O 3 8 r N S I T Y R J M vX0XqXtXyXyXT.W.!.XX&X$X<X2X2X2X:X-X}.'.).h.g.p.r.<.>.&.&.~ ~ ! Q ^ ^ ) ) { } O.~.~.~.~.O.O.o.} [ C.%X<X2X2X:X;X-X}._._.).).).).)._.'.'.*X-X;X>X>X2X<X%XK.&.%.~ ~ ! ! ! / / ^ ^ ) ) { { } o.o.O.~.~.~.~.~.~.O.~.o.} } [ [ ) ) ^ ^ ^ ^ Q Q ! ~ ~ &.&.A.<X<X2X>X:X-X}.'._.).Z.V.M.M.V.V.Z.Z._._.}.-X;X>X>X2X<X#Xf.@.~.~.~.@.@.} } ) ) ^ ^ Q ! ! ~ &.&.>.w.r.p.m.V.).}.}.;X:X>X2X2X<X$X@X!.W.T.BXuXpXpXhXlXH K R E T I Z u w 7 < X .     . < 4 q y Z D Y T R L H vXhXrXiXW.@X#X%X&X<X<X2X2X2X2X>X:X-X*X'._.V.V.p.t.w.>.>.%.` ~ ! Q ^ ) _ &.` ~ ~ ~ ~ ! ! Q Q ^ ^ ^ ^ ) [ { { } } O.O.~.~.~.~.~.~.~.~.O.~.O.o.} { [ [ ) ) ^ ^ ^ ^ / Q Q Q ! ~ ~ &.&.&.= 0 0 r y Z I Y R J vXwXpXyXBXT.W.!.!.#X",
"r.m.V.).-X:X>X2X<X%XU.p.m.M.Z._.}.-X:X>X2X2X<X<X&X+XoXW.T.Y.yXuXpX9XlXm J K E T Y D Z u w 7 1 O .     . O 1 7 w i Z I Y T R L H m kXwXqXtXyXY.T.+X%X$X<X2X2X2X>X:X:X-X*X'.).V.m.p.t.w.>.&.&.` ! &.&.` ~ ~ ! Q Q ^ ^ ^ ) ) { } o.O.O.~.~.~.~.~.O.~.o.o.[ [ ) ) ^ ^ ^ / Q Q ~ ~ %.&.r.2X<X<X<X$X$X%X%X%X%X@X+XoXoXoXoX!.!.!.!.!.!.!.!.oX=     . o 1 4 w y Z I Y T E K J n mX9XqXtXyXY.T.W.!.@X$X<X2X2X>X:X-X-X'.).V.m.p.r.w.>.>.&.` ~ ! Q / ^ ^ ^ { } O.O.~.~.~.~.~.O.{ [ ) | #X<X2X2X>X:X-X=X}.}._._.'._._.'.'.}.-X-X:X>X2X2X<X@XK.3.%.%.~ ! ! ! ! / ^ ^ ^ ) ) { } } O.O.~.~.~.~.~.~.O.~.o.o.} } [ ) ) ^ ^ ^ ^ Q Q ! ~ ~ ~ &.5.$X2X2X>X;X-X}._.Z.Z.V.M.M.M.M.M.M.Z.Z._.'.=X-X:X>X2X<X&XP.~.~.~.~.@.o.} { ) ^ ^ Q Q ~ ~ ~ &.>.>.r.t.g.M.Z._.}.-X:X>X2X2X<X<X@X+XW.T.Y.yXuXqXrXkXm J L E Y Y D V r 8 3 < .     . O 1 7 r i S Y T Y L J M lX9XqXtXT.@X+X&X$X$X<X2X2X2X>X>X;X-X-X'._.V.m.g.t.w.>.*.&.` ! ! ^ ^ ^ { | &.&.` ~ ~ ! ! ! Q Q ^ ^ ^ ^ ) ) { } } o.o.O.~.O.~.~.~.~.~.~.O.O.O.o.} { [ ) ) ) ^ ^ ^ ^ / Q Q Q ! ~ ~ ~ &.%.* 3 7 w u D Y U J vX9XqXtXBXY.W.!.!.",
",.r.m.V.`.-X;X2X2X<X#XE.p.B.V._.}.=X-X>X>X2X2X<X&X@X@XW.W.Y.yXuXpXqX0XlXM K L E T Y S V r 0 3 O . .     X 1 3 0 y V D Y Y Y R J M lXhXqXtXuXyXT.W.+X@X$X<X<X2X2X2X>X;X-X}._.).V.m.t.r.<.>.&.` ` ! &.&.~ ~ ~ ! Q Q Q ^ ^ ) ) { { o.O.O.~.~.~.~.~.O.~.O.o.} [ ) ) ^ ^ ^ ^ Q Q ~ ~ ~ &.5.<X<X<X$X%X%X%X@X@X+XoXoXoX!.oXoX!.!.!.!.!.!.!.!.oXj.    . < 3 7 r V S I T E R J M n rXwXtXyXyXT.W.!.+X%X<X<X2X2X2X:X-X}.'.Z.V.m.t.r.<.>.&.&.~ ~ ! Q / ^ ) ) { } O.~.~.~.~.~.O.o.{ [ ) ' L.#X2X2X2X>X;X;X}.}._._._.'.'.'.}.*X-X;X>X>X2X2X<X@XW.3.&.` ` ! ! ! ! / ^ ^ ^ ) ) { { } o.O.O.~.~.~.~.~.O.~.O.o.} { [ [ ) ) ^ ^ ^ ^ Q Q ! ~ ~ &.&.E.2X2X>X;X}.'._.Z.V.M.M.g.m.m.m.m.M.V.Z._.}.=X-X:X>X2X<X`./.~.~.~.@.} } ) ) ^ ^ Q ! ! ~ &.&.>.<.r.p.m.V.).}.}.-X:X>X2X2X<X$X@X!.W.R.BXuXuX8X0XlXM K R Y T I Z i w 4 1 X .     X 1 3 q y C D Y T E K H n mXwXtXuXyX!.XX%X&X$X<X<X2X2X2X>X:X;X*X}.).V.m.g.t.w.>.*.&.` ! Q Q ^ ) { } ] &.~ ` ~ ~ Q Q Q Q Q ^ ^ ^ ) ) ) { { o.o.o.~.~.~.~.~.~.~.~.~.O.O.O.o.} [ [ [ ) ^ ) ^ ^ ^ / / / ! ! ~ ~ &.&.#.% 1 7 r Z Y Y K M hXqXtXBXBXW.!.",
">.<.r.m.V.`.-X;X2X2X<X$XQ.g.B.Z._.}.-X;X>X2X2X2X&X&X+XoXW.Y.Y.yXuXpX0XkXm J L E T Y I Z y w 7 1 O .     . O 1 7 w i Z I Y W E P H m hXwXqXtXyXY.T.W.+X%X$X<X<X2X2X>X>X;X-X}._.).m.g.p.r.>.>.&.` ~ Q ! &.` ` ~ ! Q Q / ^ ^ ) ) { } } O.O.~.~.~.~.~.~.O.O.} } { ) ) ^ ^ ^ ^ Q Q ~ ~ ~ &.r.$X$X$X&X%X%X@X+XoXoXOX!.!.W.!.W.!.!.W.!.!.!.!.W.!.G.  . . 1 7 w y Z I Y T E L H m kXwXqXtXyXY.T.W.!.+X$X<X2X2X>X:X-X-X'.).V.m.p.r.w.>.>.&.` ~ ! Q / ^ ^ ) { } o.O.~.~.~.~.O.O.} [ ) ^ ^ H.$X<X2X>X>X;X;X-X}.}.}.'.'.'.}.}.-X-X;X>X2X2X2X%X@XW.F.&.%.` ~ ! ! ! Q / ^ ^ ^ ) { { } o.O.O.~.~.~.~.~.~.~.O.O.o.} [ [ ) ^ ^ ^ ^ / Q Q ! ~ ` ~ &.r.2X>X;X-X}.'.Z.Z.M.m.g.g.g.p.g.g.M.M.V.Z._.}.;X;X>X2X<X&X(.~.~.@.o.} { ) ^ ^ Q Q ! ~ &.&.>.>.w.t.g.m.Z._.}.-X:X>X2X2X<X<X#X@XW.R.Y.yXuXpX0XkXm H L E W Y D V t 0 3 O X     . o 1 7 r i S I T Y R J M lX9XqXtXyXBXW.!.+X$X&X<X<X2X2X2X>X:X;X}.'._.Z.m.p.t.w.>.&.&.` ! ! ^ ^ _ { } +.| &.` ` ` ~ Q Q Q Q ^ ^ ^ ^ ) ) { { } o.o.O.O.~.~.~.~.~.~.~.~.O.O.o.o.} [ [ [ ^ ) ^ ^ ^ ^ / / Q ! ! ~ ~ %.&.$.$ 2 0 B I Y L M kXqXtXyXY.W.",
"%.>.<.p.m.V.`.-X;X2X2X<X#X[.N.Z.).}.=X;X:X>X2X2X2X&X@XoXW.W.Y.yXuXpXqXhXn M P R E T I D B r 0 3 O X .     X 1 3 w t V D Y Y Y R J M lXhXqXtXuXY.Y.W.!.+X@X$X<X<X2X2X>X>X;X-X'.).Z.m.p.t.w.>.>.&.` ~ Q ` &.` ` ~ Q ! Q / ^ ^ ) ) { { } o.O.~.~.~.~.~.~.O.~.o.} { { ) ^ ^ ^ ^ / Q ! ~ ~ &.&.E.#X+X%X@XoXoXoX!.!.!.!..XW.!.!.W.Q.W.!.!.!.Q.!.!.G.  . O 3 8 r V S Y Y E R J M lXhXqXtXyXBXY.W.!.+X#X<X<X2X2X2X:X-X}.'.).m.m.t.w.<.>.&.&.~ ~ ! Q / ^ ) ) } } O.~.~.~.~.~.O.o.} [ ) ) ^ 5.+X<X<X>X>X>X;X;X=X}.}.}.}.}.*X-X-X;X>X>X2X2X2X%X!.W.F.&.%.%.! ~ ! ! Q / ^ ^ ^ ) ) { { o.o.O.~.~.~.~.~.~.O.O.O.o.} [ [ ) ) ) ^ ^ ^ Q Q Q ! ~ ` &.5.}.<X;X-X_._.Z.M.M.g.g.p.p.p.p.p.g.m.M.V._._.=X=X>X>X2X<X`.f.@.@.} } ) ) ^ ^ / Q ~ ~ &.&.>.<.r.p.m.V.).'.=X-X:X>X2X2X<X$X+XoXW.R.BXuXtXqX0XlXM K R Y W I S u w 7 1 X .     . O 4 0 y Z D Y T R L H n mX9XtXtXY.Y.W.!.+X+X&X$X<X2X2X2X>X:X:X-X'.).Z.m.p.t.w.>.&.` ` ( ! Q ^ ) } o.O...&.` ` ` ~ ~ Q Q Q Q / ^ ^ ^ ) ) { { } o.o.O.~.~.O.~.~.~.~.~.O.O.O.o.} } [ [ ) ) ^ ^ ^ ^ ^ / / Q ! ~ ~ ~ &.&.#.< 7 u D T R M lXwXtXyXBX",
"` &.>.w.t.m.Z.}.=X:X2X2X<X#XXXM.).`.}.-X:X>X2X2X<X<X&X+X!.W.Y.Y.yXuXqX0XhXM H L E T Y I C y w 4 1 X .     . O 1 7 w i S I Y T R L H m hXrXpXtXyXBXT.W.!.+X%X$X$X2X2X2X>X:X-X-X'.).V.m.p.r.<.>.&.` ~ ! Q ( &.` ` ~ ! ! Q Q ^ ^ ^ ) { { } o.O.~.~.~.~.~.~.O.O.o.} { [ ) ^ ^ ^ ^ Q Q ! ~ ~ &.%.E.%X@XoXoXOX!.!.W.!.!.W.!.W.W.W.!.W.W.W.W.!.W.!.!.!.= O 1 7 w y Z I Y T R L H M hXwXpXtXyXY.T.W.!.@X$X<X2X2X>X>X-X-X'.).V.m.p.p.<.<.&.&.` ~ ! Q / ^ ^ ) ) } O.O.~.~.~.~.O.O.} [ ) ^ ^ Q >.oX<X2X2X>X>X:X;X-X-X}.}.-X}.}.-X;X;X>X2X2X2X<X%X@XZXBX1.%.%.` ~ ! ! Q / / ^ ^ ) ) { { } o.o.~.~.~.~.~.~.~.~.O.o.o.[ } [ ) ^ ^ ^ ^ Q Q Q ! ~ ~ &.&.V.,X;X=X_.Z.V.M.g.p.p.p.r.p.t.t.p.g.m.M.V._.}.=X;X>X2X<X&X(.@.o.} { ) ^ ^ / ! ! ~ ~ &.>.<.<.p.p.m.Z._.}.-X:X>X2X2X<X<X@X+XW.R.Y.yXuXpXeXkXM H L E Y Y D V t 8 3 < X     . O 1 7 w i S I T T L J H lXrXqXtXyXY.T.W.oXoX%X$X$X<X<X2X2X2X:X;X*X}._.).m.g.t.w.>.>.` ` ! Q ^ ^ ) } o.O.~. .` &.~ ~ ~ ! ! Q Q Q ^ ^ ^ ^ ) ) { { } o.o.O.~.~.~.~.~.~.~.~.~.O.O.o.} } [ [ ) ) ^ ^ ^ ^ / Q Q Q ! ~ ~ ~ &.&.@ 3 t S Y E H lXwXtXyX",
"! ` &.>.r.p.m.Z.}.=X;X2X2X<X#XXXV._.}.=X;X:X>X2X2X<X<X@XoXW.R.Y.yXuXpXqXhXlXH P R E T I D i r 0 2 < .       X 1 3 w t V D Y Y T L J M lXhXqXtXuXG.BXW.!.oX@X%X$X$X<X2X2X>X:X-X*X'.).M.m.t.r.<.>.&.` ~ Q ! ^ &.&.` ! ~ ! Q Q / ^ ^ ) { { } o.O.O.~.~.~.~.~.O.O.o.} } ) ) ) ^ ^ ^ ^ Q Q ~ ~ &.&.K.@X+XoXHX!.!.!.W.W.W.W.W.W.W.W.W.W.W.W.W.!.!.!.!.!.= O 3 0 r V S Y T E L P M lXhXqXtXyXBXY.W.!.XX&X$X2X2X2X>X:X-X}._.).M.m.r.r.<.>.&.&.~ ~ ! Q / ^ ^ { { } O.~.~.~.~.~.O.o.[ [ ) ) ^ Q Q D.$X<X2X>X>X>X;X;X-X-X}.-X-X-X-X;X;X>X>X2X2X<X@X!.ZXBX0.%.%.~ ~ ~ ! ! / / ^ ^ ) ) { { } o.o.O.~.~.~.~.~.~.O.^.o.o.{ [ [ ) ) ^ ^ ^ ^ Q Q ! ~ ~ ~ &.r.;X;X}._.Z.M.g.g.t.t.r.r.r.r.r.t.t.g.m.M.Z._.}.;X;X>X2X<X`.f.} { { ^ ^ ^ / Q ~ ` &.&.>.<.r.p.m.V.).'.}.;X:X>X2X2X<X$X+XoXW.R.BXyXuXqX0XlXM K R Y T U S i e 4 1 X .     . O 3 0 y V D Y T E K H n hXrXtXtXyXY.W.W.+X+X@X%X$X<X<X2X2X2X>X:X-X}._.).m.g.t.w.>.*.` ` ( Q ^ ^ ) } o.O.~.+.' &.` ~ ~ ~ Q ~ Q Q / ^ ^ ^ ) ) { { } } o.O.O.~.~.~.~.~.~.~.~.O.O.O.o.} [ [ ) ) ) ^ ^ ^ ^ ^ Q Q Q ! ~ ~ ` &.&.: e C Y Y J vXwXpX",
"! ~ ` &.>.r.p.M.).'.-X:X2X2X<X#XXXZ._.}.-X:X>X2X2X<X&X&X+X!.W.T.Y.uXuXqX0XlXm J L E T Y I C y w 4 1 X .     . O 1 7 e i S I Y W R P H n hXqXqXuXyXY.T.W.oX+XoX%X$X<X2X2X2X>X:X-X*X_.).h.m.t.w.>.*.&.` ~ Q Q ^ ` &.` ~ ! ! Q Q ^ ^ ^ ) { { } o.O.~.~.~.~.~.~.~.O.O.} { { ) ) ^ ^ ^ / Q ! ~ ~ ~ &.5.W.oX!.!.W.W.W.W.W.W.W.W.W.T.W.W.W.W.W.W.W.W.!.!.!.j.1 7 w y Z I Y Y E L H m lXwXtXtXyXY.T.W.oX@X$X<X2X2X>X:X-X-X'.).V.m.g.r.<.>.>.&.` ~ ~ Q Q ^ ) ^ { } O.O.~.~.~.~.O.O.} [ ) ^ ^ Q Q Q D.OX<X<X2X>X>X:X:X;X-X-X-X-X-X;X:X>X2X2X2X2X&X@X!.T.yXc.&.%.` ~ ! ! ! Q / ^ ^ ^ ) ) { } } o.O.~.O.~.~.~.~.^.^.O.o.o.[ [ ) ) ^ ^ ^ ^ Q Q Q ~ ~ ~ &.&._.=X]._.M.M.g.p.t.r.<.r.w.w.r.r.r.t.g.g.Z.Z._.=X;X>X2X<X#Xh.} { ) ^ ^ / ! ! ~ ~ &.>.<.w.t.p.M.V._.}.-X:X>X2X2X<X<X@X+XW.R.Y.yXuXqX8XkXm H L E W Y D V t 0 3 < X       O 1 7 w i S I T Y R J M lXhXqXtXyXY.T.W.!.@X&X+X@X#X<X<X2X2X2X>X:X-X*X_.).V.g.t.r.>.*.&.` ! Q ^ ^ ) } } O.O.@...&.&.` ~ ~ Q ! Q Q / / ^ ^ ) ^ { ) { } o.o.O.O.~.~.~.~.~.~.~.~.O.O.o.o.} } [ ) ) ^ ^ ^ ^ ^ / / Q Q ! ~ ~ ` &.&.a B U Y P vX0X",
"^ ! ~ ` >.>.r.p.M._.}.-X:X2X2X<X#X{._.}.=X;X:X>X2X2X<X<X@XoXW.R.Y.yXuXpXqXhXn M P R E T I D i r 8 3 < X       O 1 3 w t C D Y Y Y R J nXlX0XqXtXyXBXY.W.!.+X+X@X%X$X$X<X2X2X>X:X-X}.).).m.g.t.w.>.&.&.~ ! Q Q ^ ` &.` ` ~ Q ! Q / ^ ^ ) ) { } o.o.O.~.~.~.~.O.~.O.O.o.{ [ ) ) ^ ^ ^ ^ / Q ~ ~ ~ &.5.W.W.W.W.W.W.T.T.T.T.T.T.T.T.T.T.W.W.W.W.W.W.!.!.!.G.2 0 r V S Y T E L P M lXhXqXtXyXyXT.W.!.+X%X$X<X2X2X2X:X-X}.'.Z.M.g.p.r.<.*.&.&.` Q ! Q / ^ ) ) { } O.~.~.~.~.^.O.o.} [ ) ) ^ ^ Q ! 1.OX$X<X2X2X>X>X:X:X-X-X-X;X;X:X;X>X>X2X2X2X<X@XW.ZXyXpX1.&.` ` ! ! ! ! / / ^ ^ ) ) { { } o.o.~.~.~.~.~.~.~.O.O.O.o.} [ [ ) ) ^ ^ ^ ^ Q Q ! ~ ~ &.&.r.}.`.Z.B.g.p.r.r.r.<.<.<.<.w.5.r.r.t.p.m.Z.Z.}.-X;X2X2X$X`.{ _ ) ^ ^ / Q ~ ` &.&.>.<.r.p.m.V.).'.}.;X:X>X2X2X<X$X@XoXW.R.Y.uXuXqX0XlXM J R Y T U S u e 7 1 X .     . < 3 0 r V D Y T E L H m hX9XpXuXyXY.W.!.+X@X<X$X%X@X$X<X<X2X2X2X:X;X-X_.).V.m.t.r.>.>.%.` ! ! ^ ^ ) } } o.O.O.o.| &.` ` ` Q ! ! ! Q Q / ^ ^ ^ ) ) { { } o.o.O.~.~.O.~.~.~.~.~.~.O.O.o.} } [ [ [ ) ) ^ ^ ^ ^ / / / ! ! ~ ` ` &.;.k I Y L M ",
"^ ^ ! ~ &.&.<.r.g.M.).}.-X:X2X2X<X$XXX].}.-X:X>X2X2X2X<X@X+X!.W.Y.Y.yXuXqX0XlXm J L E T Y D C u q 4 1 X .     . O 1 7 e i S I T T R P H n hXqXpXuXyXY.T.W.oX@X$X%X@X&X<X2X2X2X:X:X-X}.).).m.p.r.<.>.&.` ~ ! Q ^ ) ` &.~ ~ ~ ! Q Q / ^ ^ ) ) { { o.O.O.~.~.~.~.~.~.O.O.o.} { ) ) ^ ^ ^ / Q Q ~ ~ ~ &.<.D.R.W.T.T.T.T.T.Y.T.Y.T.Y.T.T.T.T.T.T.W.W.!.W.!.!.Y.7 w i Z I Y Y E P H n kXwXpXtXyXY.T.W.oX+X$X<X2X2X>X:X-X-X'.).M.M.p.r.w.<.&.&.` ~ ! Q Q ^ ^ ) { } O.O.~.~.~.~.O.O.} [ ) ^ ^ Q Q Q ~ 1.E.$X<X2X2X2X>X:X:X:X;X;X;X-X:X>X>X2X2X2X<X%X@X!.BXyXqX3X&.%.` ` ! ! ! / / ^ ^ ^ ) ) { } o.o.O.~.~.~.~.~.~.~.O.O.o.} } ) ) ) ^ ^ ^ / / Q Q ~ ~ ~ %.r.Z._.M.M.p.p.r.<.<.<.<.>.>.>.>.<.5.r.p.p.M.Z._.=X;X>X2X<X#Xe.) ^ / / ! ! ~ ` &.>.>.r.r.p.M.V._.}.-X:X>X2X2X<X<X%X+XW.W.Y.yXuXpX8XhXm H L R W Y D C t 0 3 < X     . X 1 7 w i S I Y Y R J H lXhXqXtXyXY.T.W.!.@X&X<X2X$X+X%X<X<X2X2X2X>X-X-X}._.V.m.p.r.>.*.&.` ! ! ^ ^ ) { } o.o.} } { ' &.` ` ` ~ Q ! Q / / / ^ ^ ) ) ) { } } o.O.O.~.~.~.~.~.~.~.~.O.~.o.o.o.{ [ [ ) ) ^ ^ ^ ^ / / / ! ! ! ~ ~ %.&.7.c Y L ",
"^ ^ Q ! ~ &.>.<.r.m.V._.}.-X>X2X2X<X$X@X[.-X;X:X>X2X2X<X<X@XoXW.R.Y.yXuXpXqXhXn M P E E T I S i r 8 2 < X       . 1 7 0 y Z S Y T Y L J M lX0XqXtXyXBXY.W.!.+X%X$X$X+X&X$X<X2X2X>X:X-X'._.V.m.p.w.<.>.&.` ~ ! Q ^ ) _ &.%.~ ~ ! ! Q / ^ ^ ^ ) { { o.o.O.~.~.~.~.~.~.O.O.o.} { [ ) ^ ^ ^ ^ / Q ! ~ ~ &.&.S.Y.T.Y.Y.Y.Y.Y.Y.Y.Y.Y.Y.Y.Y.Y.T.T.T.T.W.W.!.W.!.XXg r V S Y T E R J M lXhXqXtXuXY.Y.W.!.+X%X$X2X2X2X>X:X-X}.'.).h.g.p.w.<.>.&.&.~ ~ Q Q / ^ ) ) } } O.~.~.~.~.^.O.o.[ [ ) ) ^ ^ Q ! ~ ` D.$X$X<X>X2X2X>X>X:X:X:X:X:X>X>X>X2X2X2X<X%XHX!.BXuXqX3X4.&.` ~ ! ! ! ! / / ^ ^ ) ) { { o.o.O.O.~.~.~.~.~.~.O.O.o.} } [ [ ) ) ^ ^ ^ ^ / Q ! ~ ~ &.&.p._.B.g.u.t.r.<.>.>.>.>.>.>.>.>.<.5.r.p.g.M.Z.}.-X;X2X<X$XP.^ ) / Q ! ! ` &.&.>.<.r.p.m.V.).'.}.-X:X>X2X2X<X$X@XoXW.R.Y.uXtXqX0XlXM J R Y T U S i e 7 1 O       . < 3 0 r V D Y T Y L H m hXrXqXuXyXY.T.!.XX%X&X<X2X2X#X@X#X<X<X2X2X2X:X-X}._.).m.p.r.w.*.&.` ~ ! Q ^ ) { { } o.} { ) _ &.&.` ` ` ! ! ! Q / / ^ ^ ^ ) ) ) { } } o.O.O.~.~.~.~.~.~.~.O.~.O.O.o.} { [ [ [ ) ^ ^ ^ ^ / / Q Q ! ! ~ ~ &.&.9.F ",
"{ ^ ^ Q ! ~ &.>.<.t.g.V._.}.;X>X2X2X<X$X+X X-X:X>X2X2X<X<X%X+X!.W.Y.BXuXtXqX0XlXM J L E T Y D C y q 4 1 X .     . < 1 0 e i S I Y T R K H vXhX9XpXuXyXT.T.W.oX+X$X<X<X+X&X<X2X2X2X:X;X-X'.).V.m.t.r.>.*.&.` ! Q ^ ^ _ { &.` ` ~ Q ! Q Q ^ ^ ) ) { { } o.O.~.~.~.~.~.~.O.O.o.} { [ ) ) ^ ^ ^ / Q ! ~ ~ ` &.S.Y.Y.Y.BXY.BXY.BXBXY.BXY.BXY.Y.Y.T.T.T.W.W.!.!.!.!.h u Z I Y T R L H m hXqXpXuXyXY.T.W.oX@X$X<X2X2X>X>X-X*X'.).V.m.p.r.w.<.&.&.` ~ ! Q / ^ ^ ) ) } O.O.~.~.~.~.O.O.} [ ) ^ ^ Q Q Q ~ %.%.5.%X$X<X2X>X2X>X>X>X:X:X>X>X2X>X2X2X2X2X&X%X!.W.Y.uXqXlX8.%.%.` ! ! ! ! / / ^ ^ ) ) { { } o.O.O.~.~.~.~.~.~.O.~.o.o.} [ [ ) ) ^ ^ ^ / Q Q ! ~ ~ ~ &.<.g.M.g.r.r.<.<.>.>.*.*.*.*.>.>.>.<.<.r.p.m.V._.-X;X>X2X<X#X>.^ Q Q ! ~ ` &.>.>.w.t.p.m.V._.}.-X:X>X2X2X2X&X&X+XW.R.Y.BXuXpXrXhXm H L R T Y D C y q 3 < X     . X 1 3 w i S I Y T R K M lXhXqXtXiXG.T.W.!.+X&X<X2X2X2X;X#X&X$X<X2X2X>X>X-X-X_.Z.M.m.r.w.>.&.` ! Q Q ^ ) ) { { { { { ) ) ( &.` ` ~ ~ ! ! ! Q / / ^ ^ ^ ) ) { { { o.o.O.O.~.O.~.~.~.~.~.~.O.~.o.} o.{ [ [ ) ) ^ ^ ^ ^ / / Q Q ! ~ ~ ~ ` &.",
"} ) ^ ^ Q ~ ` &.>.w.p.g.Z._.}.-X>X2X2X<X$X+XOX;X>X>X2X2X<X&X@XoXW.W.Y.yXuXpXqXhXm H P R W T I S B e 8 2 < X     . X 1 3 w y C D Y Y E L J M lXrXqXtXyXyXT.W.!.+X%X$X<X<X+X$X<X<X2X2X:X:X*X'.).M.m.r.w.>.*.` ` ! Q / ^ ) { &.` ` ~ ~ Q Q Q ^ ^ ^ ) { { } o.O.~.~.~.~.~.~.O.O.o.} { [ ) ) ^ ^ ^ / / Q ~ ~ &.&.0.Y.yXY.yXBXyXG.yXyXBXyXG.BXY.BXBXY.T.T.W.W.W.!.!.XXrXV S Y T E L J M lXhXqXtXuXY.Y.W.!.+X%X$X<X2X2X>X:X-X}.'.V.V.g.p.w.<.>.&.&.` ! ! Q / ^ ^ { { } O.~.~.~.~.^.O.o.} ) ) ) ^ ^ Q ! ~ %.*.5.E.%X<X<X>X2X>X>X>X>X>X>X>X>X2X2X2X2X2X&X@X!.HXBXtXqXlXgX&.%.` ( ! ! ! Q / ^ ^ ^ ) ) { { o.o.O.~.~.~.~.~.~.O.~.O.o.} [ [ [ ) ^ ^ ^ ^ / / Q ~ ~ ~ &.&.g.g.g.r.<.<.>.*.>.%.*.&.&.>.&.>.>.>.<.t.p.M.Z.}.;X>X>X<X<XH.Q Q ! ~ ` &.&.>.<.r.p.m.V.Z.'.}.;X:X>X2X2X<X&X%XoXW.R.Y.yXuXqX0XlXM J R E T I S i r 7 1 O X     . < 3 0 r V D Y Y E L J m kX9XqXuXyXY.T.!.!.#X$X<X2X2X>X:X X+X$X<X<X2X2X>X:X-X}.Z.V.m.t.w.>.>.` ` Q Q ^ ^ ) ) { { ) ) ^ ^ ^ ` &.&.~ ~ ~ ! ! ! Q Q / ^ ^ ^ ) ) { { } } o.O.~.~.~.~.~.~.~.~.O.~.O.o.o.{ { [ [ ) ) ^ ^ ^ ^ / / / Q ! ~ ~ ` ",
"o.{ ) ^ Q Q ~ &.&.<.w.p.m.Z._.-X;X:X2X2X<X$X@X;X:X>X2X2X<X$X&X+XW.W.Y.BXyXpXqX0XlXm J L E T Y D V y q 4 < X       X O 3 8 e V Z Y Y T R K M vXhX9XpXuXyXY.T.W.oX+X$X<X2X<X@X%X<X2X2X2X:X:X*X'.).V.g.t.w.>.&.` ! ! / ^ ) { | &.~ &.~ ! ! Q Q ^ ^ ^ ) { { } o.O.O.~.~.~.~.~.~.O.o.o.[ { ) ) ^ ^ ^ / / ! ~ ~ ~ &.1.yXyXyXuXyXuXuXyXyXyXyXyXyXyXG.Y.BXZXT.T.W.!.!.!.!.SXZ I Y W E P H n hX0XpXuXyXY.T.W.oX+X$X<X2X2X>X:X-X-X'.).V.m.p.r.w.>.>.&.` ~ ! Q / ^ ) ^ { } o.O.~.~.~.~.O.O.} [ ) ^ ^ Q Q Q ~ %.%.*.>.E.%X$X<X2X2X2X>X2X>X>X>X2X>X2X2X2X2X<X&X@XW.R.BXuXrXn gX9.%.%.` ! ! ! Q / / ^ ^ ) ) { { } o.O.O.~.~.~.~.~.~.~.O.o.o.} [ [ ) ^ ^ ^ ^ / Q Q ! ~ ~ %.&.>.g.t.5.<.>.>.&.*.&.%.&.&.&.&.&.>.>.<.r.t.m.Z._.=X>X>X<X<X#X>.! ! ~ ` ` >.>.w.r.p.m.Z._.}.-X;X>X2X2X2X<X@X+XW.R.Y.yXuXpX8XhXm H K E W Y I C y 0 4 < X     . X 1 4 w y Z I Y T R K H lXhXqXtXuXY.AXW.!.@X$X<X2X2X2X:X;X XXX%X$X<X2X2X2X:X-X=X_.Z.m.p.r.>.>.` ~ ! Q ^ ^ ) ) ) ) ) ) ^ ^ / ( ~ &.%.~ ~ ~ ~ Q Q Q / / ^ ^ ^ ) ) { } } o.O.O.O.~.~.~.~.~.~.~.~.O.O.o.o.} [ [ [ ) ) ^ ^ ^ ^ / / Q Q ! ~ ",
"+.} { ) ^ Q Q ~ &.&.<.r.p.M.Z._.=X;X>X>X2X<X$X+X#X>X>X2X2X<X&X@XoXW.R.Y.yXuXpX9XkXn H P R W T I S i e 8 2 O X     . X 1 7 0 y Z D U T Y L J M lXrXqXtXyXY.Y.W.!.+X&X$X<X2X<X+X%X<X<X2X2X>X:X}.'.Z.M.p.t.w.>.&.` ~ ! Q ^ ) { o.] ~ ~ %.~ ! Q Q / ^ ^ ) ) { } o.o.~.~.~.~.~.O.~.O.O.o.[ [ [ ) ^ ^ ^ / / Q ! ~ ~ &.1.uXyXuXuXuXuXuXuXuXuXuXyXyXyXyXBXG.BXT.W.W.W.!.!.XXFXH Y Y E R J M lX0XqXtXuXY.Y.W.!.+X$X$X<X2X2X2X:X-X}.'.Z.V.g.p.w.<.>.&.&.~ ~ ! Q / ^ ) ) { o.O.~.~.~.~.^.O.o.} [ ) ) ^ ^ Q ! ~ %.*.>.>.H.+X$X<X<X2X2X2X2X>X>X>X2X2X2X2X2X<X<X&X@XW.R.yXtXrXn P 9.%.` ` ( ! ! ! / / ^ ^ ) ) { { } } O.O.~.~.~.~.~.~.O.~.O.o.} [ [ [ ) ^ ^ ^ ^ / Q Q ~ ~ ~ &.&.r.r.<.,.>.&.&.%.&.~ &.~ &.&.%.>.&.>.<.r.g.M._.}.;X>X2X<X<XH.! ! ` &.&.>.<.r.p.m.M.)._.}.;X:X>X2X2X2X&X@XoXW.T.Y.uXuXpX0XkXm J L Y T I D i r 7 2 X X     . O 3 0 r V S Y Y E L J m lXwXqXtXyXG.R.W.+X@X$X<X2X2X>X:X-X}.`.+X#X<X<X2X2X>X;X=X`.).M.p.r.w.>.&.` ! ! Q ^ ^ ^ ) ^ ^ ^ ^ / / Q ! &.&.~ ~ ~ ~ ! Q Q / / ^ ^ ^ ) ) ) { { } o.O.O.~.~.~.~.~.~.~.~.O.O.O.o.o.{ [ [ [ ) ) ^ ^ ^ / / / Q ! ",
"&...} ) ^ / Q ~ ~ &.>.<.r.p.M.Z.}.=X;X>X2X2X<X&X+X,X>X2X2X<X$X%X+XW.W.Y.BXyXpXqXrXlXM J L Y T Y D C t q 4 < X       X o 3 7 r N S Y Y T R K M vX0X0XtXuXyXY.W.W.oX+X$X<X2X2X2X#X#X<X<X2X>X:X:X}.'.).m.g.r.<.>.&.` ! Q ^ ^ ) { o.] &.~ ~ ~ ! Q / / ^ ^ ) ) { { o.O.O.~.~.~.~.~.~.O.O.o.} [ [ ) ^ ^ ^ / Q Q ! ~ ~ ~ &.4XuXpXtXtXpXtXtXtXuXuXuXuXyXyXyXBXY.T.T.W.!.!.!.!.XXJ Y T R L H m kX9XpXuXyXY.T.W.oX@X$X<X2X2X>X>X-X*X'.).V.m.p.r.w.>.&.&.` ~ ! Q / ^ ^ ) { } o.O.~.~.~.~.O.O.} [ ) ^ ^ Q Q Q ~ %.%.&.>.5.g.+X$X<X<X2X2X2X2X2X2X2X2X2X2X2X2X2X&X%X@XW.R.yXtXrXm P G *.%.` ` ! ! ! Q / ^ ^ ^ ) ) { } } O.O.O.~.~.~.~.~.~.O.O.o.o.{ [ ) ) ^ ^ ^ ^ / Q Q ! ~ ~ ~ &.>.r.1.>.*.&.&.~ %.~ %.~ ~ %.~ &.&.>.>.<.p.m.Z.}.;X:X2X<X<X#X,.~ ` &.>.>.w.r.p.M.V._.}.-X;X>X2X2X<X<X&X+X!.R.Y.BXuXpXrXkXn H K E T T D C y q 4 < X       X 1 3 w y Z I Y T R K H lXhXqXtXuXY.Y.W.!.oX&X<X2X2X2X:X-X-X'.).E.@X$X<X2X2X>X:X-X}._.V.m.r.w.>.&.` ! Q Q ^ ^ ^ ^ ^ ^ / / / Q ! ! %.&.&.~ ~ ~ ! ! ! Q / / ^ ^ ^ ) ) { { } } o.O.O.~.~.~.~.~.~.~.~.~.O.O.o.} } [ ) ) ) ^ ^ ^ ^ / / Q ",
"` &...} ) ^ ^ Q ! ` &.>.<.r.g.M.Z.}.=X;X>X2X2X<X<X+X<X>X2X2X<X$X@XoXW.R.Y.yXuXpX8XkXm H K R T Y I S i e 8 1 O X     . X 1 7 w y V I U T E L J M lXrXqXtXyXY.Y.W.!.+X$X$X<X2X2X>X#X+X<X<X2X2X:X;X}.'.Z.m.p.r.>.>.` ` ! Q ^ ^ { } @.] &.~ ~ ~ ! ! Q / ^ ^ ) ) { { o.o.O.~.~.~.~.~.~.O.O.o.} [ [ ) ) ^ ^ ^ / Q ! ~ ~ &.&.4XtXqXpXpXpXpXpXpXtXtXtXtXuXyXyXyXBXZXT.W.W.!.!.!.+XbXT E L J M lXhXqXtXuXY.Y.W.!.+X&X$X2X2X2X>X:X-X}.'.Z.M.g.p.r.<.>.&.&.` ! ! Q / ^ ) ) { o.O.~.~.~.~.^.O.o.[ [ ) ) ^ Q Q ! ~ %.*.*.>.5.p.E.$X$X<X2X2X2X2X2X2X2X2X2X2X2X<X2X&X%XoXW.Y.yXtXrXn K Y 9.%.` ` ! ! ! ! / / ^ ^ ) ) { { } o.o.~.~.~.~.~.~.~.O.~.O.o.{ } ) ) ) ^ ^ ^ ^ / Q Q ~ ~ ~ &.&.>.>.>.&.&.%.~ ~ ~ ~ ~ ~ ~ ~ &.%.>.>.<.r.g.Z._.-X;X>X2X<X$XK.` &.&.>.<.r.p.p.V.Z.'.*X-X;X>X2X2X<X$X@XoXW.R.Y.uXuXpX0XlXM J L Y T Y S B r 8 2 O .     . O 2 0 e V S Y Y T L J M hX0XqXtXyXY.T.W.+X@X$X<X2X2X2X:X-X}._.Z.Z.Q.@X<X<X2X2X>X;X}._.Z.m.p.w.>.>.` ` ! Q / ^ / ^ / ^ Q / Q ! ! ! ` &.&.&.~ ~ ~ ! ! Q Q Q ^ ^ ^ ^ ) ) { { } } o.O.~.O.~.~.~.~.~.~.~.O.~.o.o.} } [ ) [ ) ^ ) ^ ^ / ",
"~ &.` | [ ) ^ Q ! ~ ` &.>.w.r.m.V.Z.}.-X;X>X2X2X<X<X+X<X2X2X<X<X@X+X!.W.Y.BXuXpXqX0XlXM J L E T Y D C t q 4 < X       . < 3 7 r V Z Y Y T R P M n 0X9XtXuXyXY.R.W.oX@X$X<X2X2X2X:X#X+X<X<X2X2X>X;X}._.Z.m.p.r.>.>.` ` ! Q ^ ^ { } @...&.~ ` ~ ! Q Q / ^ ^ ) ) { { } o.O.~.~.~.~.~.~.O.O.o.} { [ ) ^ ^ ^ / Q Q ! ~ ~ ~ &.j.qX0XrX8XqXqXqXqXqXqXtXtXtXtXyXyXG.Y.T.W.!.!.!.!.@XGXW E K H m hXqXpXuXyXT.T.W.oX+X$X<X2X2X>X:X-X-X'.).M.M.p.r.w.>.>.&.` ~ ! Q / ^ ^ ) { } o.O.~.~.~.~.O.O.} [ ) ^ ^ Q Q Q ~ ~ %.>.>.w.r.p.P.@X$X&X2X2X2X2X2X2X2X2X2X2X2X<X<X&X@XoXW.Y.yXpX0Xm L Y 7X` %.` ~ ! ! ! / / ^ ^ ^ ) ) { } o.O.O.O.~.~.~.~.~.~.O.O.O.} } { ) ) ^ ^ ^ ^ / Q Q ! ~ ~ %.&.>.>.&.&.~ &.~ ! ~ ! ! ! ~ ~ ~ ~ &.&.<.r.p.M._.}.;X>X>X<X<X@X<.&.>.<.<.r.p.m.Z._.'.-X;X>X2X2X2X&X&X+X!.W.Y.BXuXpX8XhXlXH K R W Y D Z y w 4 < X       X 1 3 w y Z I Y T R K H vXhXwXtXuXBXT.W.W.+X&X<X2X2X>X>X;X-X'.).V.m.B.E.&X<X2X2X>X:X-X}.).V.g.t.>.>.&.` ! ! Q Q Q Q Q Q Q Q ! ! ` ~ &.&.&.&.` ~ ` ! ! ! Q Q Q ^ ^ ^ ^ ) ) { { } o.o.O.O.~.~.~.~.~.~.~.O.~.O.o.o.} } [ [ ) ^ ^ ^ ^ ",
"! ~ &.&.{ [ ^ ^ Q ! ~ &.&.>.r.r.m.V.).}.-X;X>X2X2X<X<X+X$X2X2X<X$X@XoXW.R.Y.yXuXpX9XkXm H K E E T I S u e 8 2 O .     . X 1 7 0 u Z D Y Y E L H M lXrXqXtXyXY.Y.W.!.+X&X$X2X2X2X2X:X#X+X$X<X2X2X>X;X}._.Z.m.p.w.>.>.` ` Q Q ^ ) { o.@.+.&.~ ` ~ ! Q ! / ^ ^ ^ ) { { } o.O.~.~.~.~.~.~.~.O.O.} [ [ [ ) ^ ^ ^ / Q Q ~ ~ ~ &.2.rX0X0X0X0X0XrXqXqX8XqXqXtXtXiXyXBXY.T.W.!.!.!.!.+XFXE R J M lX0XqXtXuXyXT.W.!.+X$X$X<X2X2X2X:X-X}.'.).h.g.p.w.<.>.&.&.~ ! ! Q / ^ ) ) { o.O.~.O.~.~.^.O.o.} ) ) ) ^ Q Q ! ~ %.%.>.>.5.t.g.Z.@X$X&X<X2X2X2X2X2X2X2X2X2X2X<X<X&X@XoXR.Y.yXpX0Xm L Y c %.%.` ! ~ ! ! / / / ^ ^ ) ) { { } o.O.~.~.~.~.~.~.~.O.O.O.o.} [ [ ) ) ^ ^ ^ ^ Q Q ! ~ ~ ~ &.&.>.&.~ ~ ~ ~ ! ! ! ! ! Q ~ ~ ~ &.&.>.<.p.m.Z.}.-X:X>X2X<X$XK.&.>.<.r.p.g.M.Z.].}.-X:X>X2X2X2X&X@XoXW.R.Y.yXuXpX0XlXm J L Y T Y S B r 8 2 O X     . o 2 0 w N S I Y T L J M lXrXqXtXyXBXT.!.!.+X$X<X2X2X>X:X-X*X'.Z.V.p.p.B.@X$X<X2X2X>X;X}._.V.m.t.w.>.&.` ` ! Q Q Q Q Q ! ! ! ! ~ ~ ~ &.&.>.&.&.` ` ` ! Q ! Q Q / ^ ^ ^ ^ ) ) { { } o.o.O.~.~.O.~.~.~.~.~.O.~.O.O.o.} [ { { ) ^ ^ ",
"! ~ ~ ` &._ ) ^ ^ Q ! ~ &.>.>.r.p.m.Z._.}.-X:X>X2X2X<X&X+X@X2X<X<X@X+XW.W.Y.BXuXtXqX0XlXM J L Y T Y D V t q 3 < X       X o 3 0 e N D I T T R K H lXhX8XtXuXyXT.R.W.+X@X$X<X2X2X>X:X-X X+X<X<X2X2X>X;X}._.Z.m.t.r.>.&.` ~ ! ^ ^ ) { o.@.@.&.` ` ` ! ! Q Q ^ ^ ^ ) { { } o.O.O.~.~.~.~.O.~.O.o.o.{ [ [ ) ^ ^ ^ / Q Q ~ ~ ~ &.;.lXlXkXlXhXhXhX0XrXrXqXqXpX5XyXyXBXY.T.W.!.!.oXoXoXoXPXK H m kX9XpXtXG.Y.T.W.oX@X$X<X2X2X>X>X-X*X'.).V.m.p.t.w.>.&.&.` ~ ! / / ^ ^ ^ { } o.O.~.~.~.~.~.O.} [ ) ^ ^ / Q Q ~ %.%.>.>.w.r.p.m.M.XX+X$X<X<X2X2X2X2X2X2X2X2X2X<X<X%X@X!.W.Y.yXpX0XM L T S 6.%.%.~ ~ ! ! Q / / ^ ^ ^ ) { { } o.o.O.~.~.~.~.~.~.~.O.O.o.} { { ) ) ^ ^ ^ ^ / Q Q ! ~ ~ &.&.&.&.~ ~ ! ! ! ! Q Q Q Q Q Q ~ ~ &.>.w.r.m.Z._.=X:X>X2X<X$X@Xr.<.w.r.p.m.V.).}.-X;X:X2X2X<X<X$X@XoXW.Y.BXuXpXqXhXlXH K R T Y I S y w 4 1 X     . . 1 3 w y C I Y T E K H n hXqXtXtXG.T.T.!.+X&X$X2X2X2X>X;X-X'._.V.m.p.r.w.E.#X<X<X2X>X:X-X}.).V.p.w.<.&.%.` ` ! ! ! ! ! ! ! ! ~ ~ &.~ &.>.>.>.&.` ` ` ` ! ! ! Q / / ^ ^ ^ ) ) ) { } } o.O.O.~.~.~.~.~.~.~.~.~.O.O.o.o.} { { ) ) ",
"! ! ! ~ &.&._ ) ^ Q Q ~ ~ &.>.<.r.p.M.Z._.=X-X;X>X2X2X<X<X+X%X<X<X$X@XoXW.R.Y.uXuXpX9XhXm H L R T Y I S u e 8 1 O .     . X 1 7 w y Z D Y Y E L H M lX0XqXtXyXyXT.W.!.+X&X$X2X2X2X2X:X-X}.@X$X<X2X2X>X;X}._.Z.m.r.w.>.&.` ~ ! ^ ^ { } o.O.@.&.` ` ` Q ! Q Q ^ ^ ^ ) ) { } o.o.~.~.~.~.~.~.O.~.O.o.{ [ [ ) ) ^ ^ ^ / Q ! ~ ~ &.&.8Xn lXlXlXlXkXkX0X0X0XwXqXqXtXyXBXT.T.W.!.!.oXoX+XoXLXJ M lX0XqXpXuXY.Y.W.!.+X&X$X2X2X2X>X:X-X}.'.V.V.g.t.w.w.>.&.&.` ! ! ! / ^ ) ) { o.O.~.~.~.~.O.O.o.} [ ) ^ ^ ^ Q ~ ~ %.%.>.>.r.t.g.M.Z.[.+X&X$X<X<X2X2X2X2X2X2X<X<X<X<X%X@XW.W.Y.uXpX0XM L T D , %.%.~ ~ ~ ! ! / / / ^ ^ ) ) { { o.o.O.O.~.~.~.~.~.~.O.O.O.o.{ [ ) ) ) ^ ^ ^ ^ / Q ! ~ ~ ~ &.&.&.~ ~ ! Q Q Q / / Q Q Q Q Q ~ &.&.<.r.p.V._.}.-X>X>X2X<X$XK.w.r.p.g.B.Z.`.}.-X:X>X2X2X<X&X@XoXW.R.Y.yXuXpX0XkXm J L E T Y S V r 8 2 < .     . o 1 7 e N Z U Y T R J M lXhXqXtXyXY.T.W.!.+X$X<X2X2X>X:X-X*X_.).V.g.t.r.>.y.U.$X<X<X2X>X;X}._.V.m.t.w.*.*.` ` ` ! ~ ! ~ ~ ~ ` ~ ` &.&.>.>.<.r.w.` %.` ` ~ ! ! ! Q Q ^ ^ ^ ^ ) ) ) { { } o.o.O.~.~.~.~.~.~.~.~.O.~.O.o.} } } { ",
"Q Q ! ~ ~ ~ &.&.^ ^ Q ! ~ %.&.>.<.r.p.M.Z.`.}.;X:X2X2X2X<X<X@X#X<X<X@X+XW.R.Y.BXuXpXqXhXlXM J L E T Y D V y 0 4 < X       . < 2 0 e i D I T T R K H lXhXqXpXtXG.Y.W.W.oX+X$X<X2X2X>X>X-X-X}.@X$X<X2X>X>X;X}._.V.m.t.w.>.&.` ! Q ^ ^ ) } O.O.~. .` ` ` ! ! Q Q Q ^ ^ ) ) { { o.o.O.~.~.~.~.~.~.O.O.o.} [ [ ) ^ ^ ^ / Q Q ! ~ ~ ` &.9XH M M m m n lXlXhXhXrXqXqXtXyXyXY.R.W.!.!.oXoXoXoXDXH m hXrXpXuXyXY.T.W.oX+X$X<X2X2X>X:X-X-X'.).V.m.p.t.w.>.>.&.` ~ ! Q / ^ ^ ) { { O.O.~.~.~.~.~.O.} [ ) ^ ^ / Q Q ~ ` %.>.>.<.r.p.m.Z.Z.].oX&X<X<X<X2X<X2X2X2X2X2X<X<X&X@X+XHXR.Y.uXqXhXM L Y D s -.` %.~ ~ ! ! / / / ^ ^ ) ) { { } o.O.O.~.~.~.~.~.~.~.O.O.o.} } [ ) ) ^ ^ ^ / / Q Q ~ ~ ~ ` &.&.~ ! ! Q / / / ^ Q ^ Q Q Q ~ ~ >.>.r.p.M.Z.}.-X:X>X2X<X<X@Xu.r.p.m.Z.).}.-X;X>X2X2X2X<X&X+XoXW.Y.BXyXpXqX0Xn M K R W Y I Z u w 7 1 X .     . 1 3 w t Z D Y T R L H n hXqXpXuXyXY.W.W.+X$X<X<X2X2X:X;X-X}._.V.m.p.r.w.>.>.n.+X<X<X2X>X:X-X'.).m.p.r.>.>.&.` ` ` ~ ~ ~ ` ~ ` ~ &.&.&.>.>.w.r.t.>.&.` ` ~ ! ! ! Q Q Q / ^ ^ ^ ) ) { { } } o.O.O.~.~.~.~.~.~.~.~.O.~.O.O.} } ",
"^ / Q Q ~ ~ ~ &.&.^ ^ Q ! ~ &.>.>.w.t.g.M.Z.}.}.;X:X>X2X2X<X<X@X#X<X&X@XoXW.R.Y.yXuXpX0XhXm H L E E Y I C u e 7 1 O X     . o 1 7 w y Z D U Y E L H M hX0XqXuXuXBXY.W.!.+X$X$X2X2X2X>X:X-X}.`.@X&X$X<X2X>X;X}._.Z.m.r.w.>.&.` ! Q / ) { } o.O.~.' &.` ` ~ Q ! Q ^ ^ ^ ) ) { { o.o.O.~.~.~.~.~.~.O.O.o.} [ [ ) ) ^ ^ ^ / Q Q ~ ~ &.&.l.J H H M M M m vXlXkXhXrXqXtXiXBXG.W.W.!.!.oXoX@XoXDXM lX0XqXtXuXY.Y.W.!.+X$X$X<X2X2X2X:X-X}.'.V.V.g.t.r.>.>.&.&.` ! ! Q / ^ ) ) } } O.~.~.~.~.O.O.o.} [ ) ^ ^ ^ Q ~ ~ %.%.>.>.5.t.g.M.Z._.}.XX@X$X<X<X2X2X2X<X2X2X<X2X&X&X@XoXW.R.Y.uXqX0XM L T D e -.%.` ~ ~ ! ! ! / / ^ ^ ^ ) ) { { o.o.O.~.~.~.~.~.~.~.O.O.o.} } [ ) ) ) ^ ^ ^ ^ Q Q ! ~ ~ ` &.~ ~ ! Q Q Q Q ^ ^ ^ ^ Q Q Q ~ ~ &.>.w.p.m.Z._.-X;X>X2X2X<X$XE.p.g.B.Z._.}.-X;X>X2X2X<X<X@XoXW.R.Y.yXuXpX0XhXm J L Y T Y D B r 0 2 < .     . o 1 7 e i S I Y T L J M lXhXqXtXyXY.T.W.!.+X$X<X2X2X2X:X-X*X_.).V.m.p.r.<.>.&.&.K.%X<X<X2X>X;X}._.V.m.r.w.>.*.&.%.&.` ` ` ` ` &.~ &.&.>.>.<.r.t.g.g.w.` &.` ` Q ! ! Q Q Q / ^ ^ ^ ) ) { { } } o.O.O.~.~.~.~.~.~.~.O.~.O.O.o.",
"^ ^ / Q Q ~ ~ ~ &.` ^ Q Q ~ ~ %.*.<.5.t.m.V.).`.=X;X>X>X2X2X<X<X@X#X<X@X+XW.W.Y.BXuXtXqXhXlXM J L Y T Y D C t 0 4 < X       . < 2 0 e V D U T T L K H lXhXqXpXuXBXY.W.W.oX@X$X<X2X2X>X:X-X-X'.).{.&X<X2X2X>X;X=X_.V.m.r.w.&.&.` ! ^ ^ ^ { } o.O.@.' &.` ~ ~ Q ! Q Q ^ ^ ) ) { { o.o.O.~.~.~.~.~.~.~.O.o.} } [ ) ) ^ ^ ^ / / ! ~ ~ ~ &.8.K K K J J H M M m n hX0XqXtXuXBXZXR.W.!.oX+XoX+XoXoXmXkX9XpXuXyXY.T.W.oX@X$X<X2X2X>X:X-X*X'.).V.m.p.r.w.<.&.&.` ~ ! / / ^ ^ ) { { O.O.~.~.~.~.~.O.} [ [ ^ ^ / Q Q ~ %.%.*.>.5.r.p.m.V.).`.=X X@X#X$X<X<X<X2X2X<X2X<X<X&X&X+XoXR.R.BXuXqXkXM L Y D e & &.%.%.~ ~ ! ! Q / / ^ ^ ) ) { } } o.O.O.~.~.~.~.~.~.O.~.o.o.} { [ ) ) ^ ^ ^ ^ / Q ! ! ~ ~ &.&.~ ! Q ^ ^ ^ ^ ^ ^ ^ ^ ^ Q Q ~ &.*.5.r.m.V._.}.-X:X2X2X<X$X@XH.m.V.).}.-X;X>X2X2X2X<X&X@XoXW.T.BXyXpXqX0XlXM K R E T I S i w 7 1 X .   . X o 3 0 y V D Y T E L H M hXwXpXuXyXY.R.W.+X%X<X<X2X2X:X:X-X}._.Z.m.p.r.w.>.>.&.~ <.U.#X<X2X2X:X-X}.V.V.p.r.w.>.>.&.&.&.&.&.&.%.&.&.>.&.>.,.w.r.p.m.V.p.&.` ` ` ` ! Q ! Q Q / / ^ ^ ^ ) ) { { } o.o.O.~.O.~.~.~.~.~.~.~.~.O.",
"^ ^ ^ / / Q ~ ~ ~ &.&.Q Q ! ~ ~ >.%.w.r.p.m.Z.).}.}.;X:X>X2X2X<X<X@X@X$X@XoXW.T.Y.yXuXqX9XkXm H L R T Y I C i e 7 2 X X     . o 1 7 w y Z D Y T Y L H M kX0XqXtXyXBXY.W.!.+X&X$X<X2X2X>X:X-X}._.Z.{.&X$X2X2X>X;X}._.V.g.r.w.*.%.` ! / ^ ) { } o.o.O...&.` ~ ~ Q Q Q Q ^ ^ ^ ) { { } o.O.O.~.~.~.~.~.O.O.O.} { [ [ ) ^ ^ ^ / / Q ! ~ ` &.9.b L L L K J J H M m lXhXqXtXtXG.T.T.W.!.!.@X@X@X@XoXdX0XqXpXuXY.Y.W.!.+X$X$X2X2X2X2X:X-X}.'.Z.V.g.t.r.<.>.&.&.~ ~ ! ! / ^ ^ ) } } O.~.~.~.~.O.O.o.[ [ ) ^ ^ ^ Q ! ~ &.&.*.>.r.t.g.m.Z._.}.-X;X@X#X#X<X<X<X2X2X<X<X2X<X&X@X%XoXR.R.BXuX8XkXM L T D e 2 $.~ %.~ ~ ! ! ! / / / ^ ) ) ) { } } O.O.~.O.~.~.~.~.O.~.o.o.o.[ [ ) ) ^ ^ ^ ^ / / Q ! ~ ~ ~ &.~ Q Q ^ ^ ^ ) ) ) ^ ^ ^ Q Q ~ &.&.<.r.g.M._.}.-X;X2X2X2X<X$XQ.H.Z._.}.-X;X>X2X2X2X&X+X@XW.R.Y.yXuXpXeXkXm H L Y E Y D V t 0 3 < X     . o 1 7 w i Z I Y T R P M lXhXqXtXuXY.T.W.!.+X&X<X2X2X2X:X;X*X'.).V.m.p.r.<.>.&.&.~ ~ ,.@X<X<X2X2X;X-X_.V.m.p.r.<.,.>.*.&.&.&.>.&.&.&.>.>.,.<.r.t.p.m.V._.m.&.&.` ` ` Q ! ! Q / / / ^ ^ ) ) ) { { } } o.O.~.~.~.~.~.~.~.~.~.",
") ^ ^ ^ / Q Q ~ ~ %.&.~ Q Q ~ ~ %.>.>.<.r.g.m.Z._.}.-X:X>X2X2X2X<X<X#X@X@X+XW.R.T.yXuXpXqXrXn M J R E Y Y D V y 8 4 < X     . . < 2 0 e V S Y Y T L K M lXhXqXtXuXBXY.W.W.+X+X$X<X2X2X>X>X-X*X'._.V.E.$X<X<X2X>X;X}._.V.m.r.<.>.` ` Q / ^ ) { } o.o.o.} &.&.~ ~ ~ ! Q Q ^ ^ ^ ) ) { } o.O.~.~.O.~.~.~.~.O.O.o.} { ) ) ^ ^ ^ / Q Q ! ~ ~ ~ &.G Y R R R L K J J M lXhXwXtXiXBXT.W.W.!.oXoX@X@X@X@XJXqXpXuXyXY.R.W.oX@X$X<X2X2X>X:X-X-X'.).V.m.p.t.<.<.&.&.%.~ ! / / ^ ^ ) { } O.O.~.~.~.~.~.o.o.[ [ ^ ^ ^ Q ! ~ ~ %.*.>.<.r.p.m.V.).'.=X-X:X+X#X#X$X<X<X<X<X2X<X<X<X&X+X@XoXW.Y.BXuXqXkXM L Y D r 2 : %.%.` ~ ! ! ! / / ^ ^ ^ ) ) { } } o.O.~.~.~.~.~.~.~.~.O.o.o.} } ) ) ) ^ ^ ^ / / Q Q ~ ~ ~ &.&.Q ^ ^ ^ ) ) ) ) ) ^ ^ Q Q ~ &.&.<.r.p.m.).`.-X;X>X2X2X<X&X+XU._.`.=X;X:X2X2X2X<X$X@XoXW.Y.Y.yXpXpXkXlXM J R T T I S i e 7 1 X .     X o 3 0 t V D Y T Y L H M kXwXqXuXyXY.T.W.+X@X<X<X2X2X>X;X-X}._.Z.M.g.r.w.>.>.&.~ ~ ! ! u.%X<X2X2X:X-X}.).V.g.p.r.w.<.,.>.>.&.>.&.>.>.,.,.<.r.r.p.g.V.).'.}.m.&.` ` ` ~ ! ! ! ! / / ^ ^ ^ ^ ) ) { } } o.O.O.O.~.~.~.~.~.~.",
"{ ) ) ^ ^ ^ / Q ! ~ ~ &.%.Q Q ~ ~ %.>.>.5.r.g.M.Z.`.}.-X;X>X>X2X2X<X<X%X@X@XoXW.T.Y.yXuXqX0XhXm H L R W Y I C i e 4 2 X X     . o 1 7 w u Z D Y T E K J m lX0XqXtXyXY.Y.W.!.+X%X<X<X2X2X>X:X-X}._.).M.J.+X<X<X2X>X;X}._.V.g.r.<.>.` ` ! / ^ ) { { o.o.} { &.&.~ ~ ~ ! Q Q / ^ ^ ) ) { } } O.~.~.~.~.~.~.~.O.O.o.} { [ ) ) ^ ^ ^ / / ! ~ ~ &.&.F T T Y E R R P P H vXhXwXtXtXBXT.W.W.XXoX@X@X@X@X@XJXqXtXuXY.Y.W.!.+X$X$X<X2X2X>X:X-X*X_.).m.m.t.r.<.>.&.` ` ~ ! / / ^ ) ) { } O.~.~.~.~.~.O.o.[ [ ) ^ ^ ^ Q ! ~ &.&.*.>.r.r.g.M.Z._.}.-X;X>X<X#X#X&X$X<X<X<X<X<X<X<X&X@X@XoXR.R.BXuX8XkXM L T D r 4 # #.%.` ~ ! ! ! ! / / ^ ^ ) ) { { } o.o.O.~.~.~.~.~.~.~.O.O.o.} } [ [ ) ) ^ ^ ^ / / Q ! ~ ~ &.&.` ^ _ ) ) ) { ) ) ) ^ ^ Q ~ &.&.<.r.p.m.Z._.=X-X:X2X2X2X<X#XXX].}.-X;X>X2X2X<X<X+X@XW.W.Y.yXuXpX8XkXm H L R T Y D C y 0 3 < .       o 1 7 w u Z I Y T R K M lXhXqXtXyXBXT.W.!.+X&X<X2X2X2X:X;X-X'.).V.M.p.r.w.>.&.&.~ ~ ! Q Q L.%X<X2X2X:X-X_.).M.p.p.r.r.<.w.,.,.,.>.>.,.,.<.w.r.p.p.m.V.).}.*X_.r.&.` ` ~ ~ ! ! ! ! / / ^ ^ ^ ) ) ) { { } o.O.O.~.~.O.~.~.",
"{ ) ) ) ^ ^ / Q Q ! ~ ~ %.%.Q ! ~ %.%.>.>.r.p.g.V.Z.`.}.-X:X>X2X2X2X<X<X@X@XoXW.W.Y.yXuXtXqX0XlXM K L Y T Y D V t 0 4 < X     . . < 2 0 e V S Y T Y R J H lXhXqXtXuXBXY.W.W.oX%X$X<X2X2X>X:X-X-X'.).V.m.B.#X<X2X2X>X;X}._.V.g.t.>.>.%.( ! ^ ^ ) { } } } } { ' &.~ ~ ~ ! Q Q / ^ ^ ) ) { } } O.O.~.~.~.~.~.~.O.O.o.} { [ ) ^ ^ ^ ^ / Q ! ~ ~ ` &.9.Y T Y W Y E R L H M kXwXtXyXY.ZXW.W.!.oX@X@X%X@X@X@XiXyXyXY.T.W.oX@X$X<X2X2X>X>X-X*X'.).V.m.p.r.<.>.>.&.` ~ ! ! / ^ ^ ^ { } O.O.~.~.~.~.O.o.o.[ [ ^ ^ ^ Q Q ~ ~ %.>.>.<.r.p.m.V.Z.'.}.-X:X>X<X#X@X$X$X$X<X<X<X<X$X&X&X+XoXoXW.Y.BXuXrXhXH L T D y 7 < #.&.` ` ~ ! ! ! / / ^ ^ ^ ) ) { { o.o.O.~.~.~.~.~.~.~.~.O.O.o.} [ [ ) ) ^ ^ ^ / / Q Q ~ ~ ~ %.&.^ ) _ { { { { ) ) ^ Q Q ( ` &.>.w.t.m.V.).}.-X;X>X2X2X<X&X@X[.-X;X>X2X2X2X<X$X@XoXW.Y.Y.yXtXqX0XlXM J R Y T I S i e 8 1 O .   . . o 3 8 r V S Y T E L J m lXwXqXtXyXY.T.W.oX@X$X<X2X2X>X:X-X}._.Z.h.g.t.w.>.>.&.&.~ ! ! ^ ^ *.P.,X<X2X2X;X*X`.).N.m.p.p.y.w.w.q.<.w.<.w.w.w.r.r.p.m.m.V.).}.-X:X}.t.&.%.` ~ ~ ! ! ! Q / / ^ ^ ^ ) ) { { { } o.O.O.~.~.~.",
"o.} ) ) ) ^ ^ ^ / Q ! ~ ~ &.%.! ! ~ &.*.>.<.r.p.m.V._.`.=X-X:X>X2X2X2X<X<X%X@XoXW.R.BXyXtXpX0XkXm H L E Y T I Z u w 7 2 O .     . o 1 7 w u Z D Y T E L H m lX9XqXtXyXY.T.W.!.+X&X<X<X2X2X2X:X-X}._.).M.m.n.@X<X<X2X2X:X*X).V.m.r.>.>.` ` ! ^ ^ ) ) { } { } ) ` ] ~ ~ ~ ! Q Q / ^ ^ ) ) { { } o.O.~.~.~.~.~.~.O.O.o.} { { ) ) ^ ^ ^ / / Q ~ ~ ~ &.9.Y Y Y T T Y E L J M kXwXtXiXG.ZXW.!.!.XX@X@X@X%X@X@XiXyXBXY.W.!.+X%X$X2X2X2X2X:X-X}._.).M.m.p.r.<.>.&.&.~ ~ ! / / ^ ) ) { } O.~.~.~.~.~.O.o.[ [ ) ^ ^ ^ Q ! ~ &.&.>.>.r.r.p.M.Z._.}.-X;X>X2X2X%X@X#X&X$X<X<X<X<X$X&X%X@XoXHXW.Y.yXuXrXhXM L T D u 0 2 # &.%.~ ~ ~ ! ! ! / / ^ ^ ) ) { { } o.O.O.~.~.~.~.~.~.O.O.O.o.} [ [ [ ) ^ ^ ^ ^ / / Q ! ~ ~ &.&.` { { { } } } ) ) ) ^ Q ~ ` &.>.w.r.m.V.).}.-X;X>X2X2X2X<X%X+X X;X>X2X2X<X<X#XoX!.W.Y.yXuXpXeXhXm H K R T Y D C t q 3 < X .     X 1 4 w u Z D Y T R K H lXhXqXtXuXY.Y.W.!.+X&X$X2X2X2X>X;X-X'.).V.m.p.r.w.>.] &.~ ~ ! Q Q ^ ) p.#X,X2X2X:X-X}._.).h.m.p.p.i.t.w.w.w.w.r.r.r.t.p.g.m.V.Z._.}.-X;X>X}.r.&.%.` ~ ! ~ ! ! Q Q ^ ^ ^ ^ ) ) { { { } o.o.O.~.",
"O.} } [ [ ^ ^ ^ / / Q ~ ~ ~ &.~ ! ~ ~ %.>.>.5.t.p.M.V._.'.-X-X:X>X2X2X2X<X&X%X@XW.W.T.yXyXpXqXhXlXM K L E T Y S V t 0 3 < X     . . < 3 0 e V S Y T T L K M lXhXqXtXuXBXY.R.W.+X+X$X<X2X2X>X:X-X-X'._.V.m.p.g.E.$X2X2X>X-X-X).V.g.r.>.>.` ! Q ^ ^ ) { { { ) { { ( &.` ~ ~ ! ! / / ^ ^ ^ ) { { } o.O.O.~.~.~.~.~.~.O.O.o.{ { ) ) ^ ^ ^ / Q Q ! ~ ~ &.%.c I I Y T T E R P M kXwXtXyXY.T.W.!.!.+X@X%X@X%X@X@XW.yXY.R.W.oX@X$X<X2X2X>X:X-X-X'._.V.m.p.r.w.>.>.&.` ~ ! ! / ^ ^ ) { } O.O.~.~.~.~.~.o.o.[ [ ^ ^ ^ Q ! ~ ~ %.>.>.<.r.p.m.V.)._.=X-X:X>X2X2X&X@X#X%X&X$X$X<X$X&X&X%X+XoXW.R.R.yXtXqXkXM L Y I i w 4 < $.&.%.~ ~ ! ! Q / / ^ ^ ^ ) ) { } } O.O.O.~.~.~.~.~.~.~.O.o.o.} [ ) ) ) ^ ^ ^ / / Q Q ~ ~ ~ &.&._ } } o.} } { ) ^ Q Q ~ ~ &.>.w.r.p.V.).`.=X;X:X2X2X2X<X$X@X+X:X>X2X2X<X$X+XoXW.T.Y.yXtXpX0XlXM J R Y T Y S B r 8 1 O .     . O 2 8 r V S Y T Y L J M lXrXqXtXyXY.T.W.oX@X$X<X2X2X>X:X-X}._.).V.g.p.w.>.>.&.` ~ ! Q Q ^ ^ ) { g.#X<X2X2X:X-X}.`.Z.V.N.g.p.i.i.i.i.r.r.t.i.p.p.m.V.V.).'.}.;X:X2X2XB.&.~ %.` ~ ! ! ! Q Q / / ^ ^ ^ ) ) { { } } o.o.",
"O.O.o.[ [ [ ) ^ ^ ^ / Q Q ~ ~ &.&.~ ~ %.&.>.>.r.t.g.M.Z._.}.-X-X:X>X2X2X2X<X&X%X@XW.R.BXyXuXqX9XkXm H L E E Y I Z i w 7 2 O .     . o 1 7 w i Z D Y T E K J m lX0XqXtXyXY.T.W.!.+X$X$X2X2X2X>X:X-X}._.).M.m.t.r.E.$X<X2X2X;X-X_.V.g.r.>.*.` ` Q ^ ^ ^ ) { { ) ) ) _ &.&.~ ~ ! ! ! / ^ ^ ^ ) { { } o.o.~.~.~.~.~.~.O.O.O.o.{ [ ) ) ) ^ ^ ^ Q Q ! ~ ~ &.&.k Z D D Y Y Y E P M lXqXtXyXY.T.W.!.!.+X@X%X%X@X%X@XoXVXT.W.!.+X&X$X<X2X2X>X:X-X*X_.).M.g.p.r.>.>.&.&.~ ~ ! / / ^ ^ ) { } O.O.~.~.~.O.O.o.[ [ ) ^ ^ ^ Q ! ~ %.&.&.<.5.t.p.M.Z._.}.-X;X>X2X2X2X&X@X#X%X$X&X&X&X&X&X&X@X@XoXW.R.Y.yXuXqXlXM L T U C r 9 3 : &.%.~ ~ ~ ! ! ! / ^ ^ ^ ) ) { { } o.O.O.~.~.~.~.~.~.O.O.O.o.} } [ ) ) ^ ^ ^ ^ / / Q ! ~ ~ ~ &.] } o.o.o.} { ) ) Q Q ~ ~ &.>.<.r.p.M.Z.'.}.-X:X>X2X2X<X<X%X@X<X2X2X<X<X#X@XW.W.Y.yXyXpXeX0Xm H K E E Y I C y q 4 1 X .   . . 1 4 q y Z D Y T E K H n hXwXtXtXBXT.W.!.+X&X$X<X2X2X>X:X-X}.).V.m.p.t.w.>.>.&.` ` Q Q Q ^ ^ ) { s.).#X<X2X2X;X-X}._.).V.B.m.g.p.p.p.p.p.i.p.p.m.m.V.Z._.}.}.;X:X>X2X2XH.%.&.~ ` ( ! ! ! Q Q / / ^ ^ ^ ) ) { { { o.",
"~.O.O.o.} { ) ) ^ ^ ^ / Q ~ ~ ~ &.&.~ ~ &.&.>.<.r.p.m.V.)._.}.-X;X>X>X2X2X2X<X&X&X@XW.T.yXiXtXqXhXlXM K L Y T Y S V t 0 3 < X     . . < 3 0 e V D I T Y R J H lXhXqXtXuXBXY.R.W.oX%X$X<X2X2X>X:X;X*X'.).V.m.p.r.w.U.#X<X2X2X:X}._.V.m.r.>.>.` ! Q Q ^ ) ) ) ) ) ) ^ ^ &.` ` ~ ! ! Q / / ^ ^ ) ) { } o.O.O.~.~.~.~.~.~.O.O.o.} } ) ) ^ ^ ^ ^ / Q ! ~ ~ ~ &.p V Z Z D Y Y E L M lXqXtXyXY.T.W.!.@X@X@X%X%X@X#X@XoXR.R.W.oX@X$X<X2X2X>X>X-X*X'.).M.M.p.r.w.>.>.&.` ~ ! ! / ^ ^ ) { } o.~.O.~.~.~.~.o.o.[ ) ^ ^ ^ Q Q ~ ~ &.>.>.<.r.p.m.V.)._.}.-X:X>X2X2X<X<X@X@X@X$X&X$X&X&X%X%X%X+XoXW.R.Y.BXpXqXkXM L Y U S u e 0 5 -.&.&.~ ~ ! ! Q / / ^ ^ ^ ) { { } o.o.~.O.~.~.~.~.~.~.~.O.O.} } [ [ ) ) ^ ^ ^ / / Q Q ~ ~ &.~ &...+.@.o.} } ) ^ ^ Q ~ ~ &.>.>.r.p.m.V._.}.-X;X>X2X2X2X<X$X+X#X2X2X<X$X+XoXW.T.Y.yXtXpX0XlXM J L Y T Y S B r 0 1 O .     . O 1 8 e V S I T Y L J M lXrXqXtXyXBXT.W.!.+X$X<X2X2X>X:X-X}._.).V.m.p.w.<.>.&.` ~ ! ! Q ^ ^ ) { } o.f.'.,X2X2X>X:X-X}.'._.V.V.N.m.g.g.p.m.p.m.m.M.V.V.)._.}.-X;X>X2X2X<X%Xn.&.%.` ` ` ! ! ! Q / / / ^ ^ ^ ) ) { { ",
"~.~.O.O.o.[ [ [ ) ^ ^ ^ ^ Q Q ~ ~ &.&.~ &.&.>.>.<.r.p.m.V.).`.}.-X;X:X>X2X2X2X<X&X%X@X!.BXyXtXqXwXlXm H L R T Y I Z i w 7 1 o X     . o 1 7 w i Z I Y T E L H m lX9XqXtXyXY.T.W.oX+X$X<X<X2X2X>X:X-X}._.Z.V.m.t.r.<.U.$X<X2X2X:X-X_.V.m.r.>.*.` ` Q ^ ^ ^ ) ) ) ^ ) ^ ^ ` &.~ ` ! ! ! / / ^ ^ ) ) { { o.O.O.~.~.~.~.~.~.O.O.o.} } ) ) ) ^ ^ ^ ^ Q Q ~ ~ &.&.;.y u V S I Y Y L M lXqXtXBXY.T.W.!.XX@X@X&X%X@X$X@X@XW.W.!.@X&X$X<X2X2X2X:X-X*X'.).h.m.p.r.<.>.&.&.~ ~ ! Q / ^ ^ ) { } O.~.~.~.~.~.O.o.} [ ) ^ ^ ^ Q ! ~ ` &.>.>.5.r.p.M.Z._.}.-X;X:X2X2X2X<X%X@X@X@X#X@X<X&X%X%X%X@XoXoXW.R.Y.BXtX8XkXm L Y Y D V u t w > &.` ~ ~ ! ! ! Q / ^ ^ ^ ) ) { { } o.O.~.~.~.~.~.~.~.O.O.O.o.} { [ [ ) ^ ^ ^ ^ / / Q ! ~ ~ &.&.] @.@.+.} { { ^ ^ Q ~ ~ &.>.>.r.t.m.V._.}.-X-X>X2X2X2X<X<X#X@X$X<X<X$X@XW.W.T.yXyXpXqX0Xm M K R T Y I Z y w 4 < X .     . 1 3 q t C D Y T E P H vXhXwXpXuXG.BXW.!.oX#X<X<X2X2X>X:X-X}.).V.m.p.t.w.>.>.&.` ~ Q Q Q ^ ^ ) { } O.O./.OX<X2X2X2X;X-X}.'._.).V.h.M.m.m.m.m.m.M.V.Z.Z._.'.}.-X;X>X>X2X2X%X!.3.&.` ` ` ! ! ! ! Q / / / ^ ^ ) ) ) ",
"~.~.~.~.o.o.} [ ) ) ^ ^ ^ Q Q Q ~ ~ &.&.~ %.&.>.<.r.p.g.M.Z._.}.-X-X:X>X2X2X2X2X<X&X%X@X!.yXuXtXqXhXlXM K R Y T Y S V r 0 3 < X       X < 4 0 r V S Y T Y L K M lXhXqXtXuXyXY.W.W.oX%X$X<X2X2X>X:X-X-X'._.V.m.p.r.w.<.y.@X<X2X2X:X-X_.V.g.r.<.&.` ! Q / ^ ^ ^ ^ ) ^ ^ ^ ^ ` &.` ~ ~ ! ! Q / ^ ^ ^ ) { { } O.O.O.~.~.~.~.~.~.O.O.} { { ) ) ^ ^ ^ / Q Q ! ~ ~ &.-.4 r y V D Y W L M hXqXtXyXY.W.W.!.@X%X@X%X$X@X&X+X@XoXW.oX+X$X<X2X2X>X:X:X*X'.).V.m.p.r.w.>.>.&.` ~ ! ! / ^ ^ ) { } o.O.~.~.~.~.O.o.o.[ ) ^ ^ ^ Q ! ~ ~ &.&.>.<.r.p.m.M.).'.}.-X:X>X2X2X<X<X%XoXoX@X$X@X&X%X&X$X@X%XoXoXW.R.Y.BXpXpXlXM K E Y U D V V i f &.%.%.~ ~ ! ! ! / ^ ^ ^ ^ ) { { { o.O.O.O.~.~.~.~.~.~.~.O.O.} } [ [ ) ^ ^ ^ ^ / Q Q Q ~ ~ ~ &.%.+.@.@.+.{ [ ^ Q Q ~ ~ &.>.>.r.p.m.V.).`.-X-X:X>X2X2X<X<X<X@X+X$X$X@X+XW.R.Y.uXuXpX0XkXM J L E T Y S V r 0 3 O . .   . o 1 8 e N S I T E R P M lXhXqXtXuXY.T.W.!.@X&X<X2X2X>X:X;X}.'.).V.m.p.w.w.>.&.&.~ ~ ! Q ^ ^ ) ) } o.~.O.~.(.OX1X2X2X>X:X-X}.'.`.).).V.V.M.V.M.V.V.V.).).'.'.-X-X:X>X2X2X<X%X@XD.3.%.` ` ` ~ ! ! ! Q / / ^ ^ ^ ^ ",
"~.~.~.~.~.O.o.} [ ) ) ^ ^ ^ ^ Q Q ~ ~ %.&.%.%.>.>.<.r.p.m.V.Z._.}.-X-X:X>X>X2X2X2X<X&X%X@X!.iXtXqX9XkXm H L R T T I Z u w 7 1 O .       o 1 7 w i Z D Y T E L H M hX0XqXuXyXY.T.W.!.+X&X<X<X2X2X>X:X-X}._.Z.M.m.t.r.<.>.r.+X<X<X2X>X-X_.Z.m.w.<.*.` ` ! / ^ ^ ^ ^ ^ ^ ^ / / ` &.~ ~ ~ ! ! Q / ^ ^ ) ) { { } o.O.~.~.~.~.~.~.O.O.O.o.{ [ [ ) ^ ^ ^ ^ Q Q ! ~ ~ &.&.5 0 e i S I Y L M hXqXtXBXY.W.W.!.XX%X@X&X&X%X%X@X@X@X!.@X#X<X<X2X2X>X:X-X*X_.).V.g.p.w.w.>.&.&.~ ~ ! ! / / ^ ) { } O.~.~.~.~.~.O.o.} ) ) ^ ^ ^ Q ! ~ ~ &.>.>.5.r.p.M.V._.}.-X;X>X2X2X2X<X%X@X!.oX@X@X%X%X$X@X$X@X@XoXoXR.R.Y.BXpXpXhXM K Y E Y U D S Z Z 8.%.%.~ ~ ! ! ! Q / ^ ^ ^ ) { { { } o.O.~.~.O.~.~.~.~.O.O.O.o.} [ [ [ ) ^ ^ ^ ^ ^ / Q ! ~ ~ &.&.] @.@.} { [ ^ ^ Q ~ ~ &.>.>.r.t.m.B.).`.-X-X:X>X2X2X2X<X<X%X@X@X$X@XW.W.T.Y.uXtXqXhXlXM L R Y T I Z u w 7 1 X .     . < 3 0 t C D Y Y E P J m hXrXqXuXyXT.T.!.+X@X<X<X2X2X2X:X-X'._.).m.g.t.w.>.>.&.` ~ ! Q Q / ^ ) { } o.~.~.~.~._.OX<X2X2X>X:X-X*X}.'.).).).V.Z.V.Z.Z.Z._._.'.}.-X;X;X>X2X2X<X%X!.HXF.1.%.` ` ` ! ! ! ! ! / / ^ ^ ",
"~.~.~.~.~.O.O.o.} { ) ) ^ ^ ^ / Q Q ~ ~ %.&.%.&.>.>.r.r.p.m.V.)._.}.-X;X>X>X2X2X2X2X<X&X%X@X!.tXtXqXhXlXH J R T T I D V r 0 3 < X     . X < 3 0 r V S Y T Y L K M lX0XqXpXuXBXY.R.W.+X+X$X<X2X2X>X:X;X}.'._.V.m.p.r.w.>.>.5.+X&X2X>X:X-X'.V.m.t.>.*.` ( Q / / ^ / ^ / ^ / / ! ! &.%.~ ~ ! ! Q Q ^ ^ ^ ) ) { } o.O.O.~.~.~.~.~.~.O.O.o.} [ [ ) ^ ^ ^ ^ / Q ! ~ ~ ~ &.: 4 0 y Z Y T L M hXpXtXBXBXW.!.!.@X#X%X%X&X%X&X%X+X@XoX@X$X<X2X2X2X:X;X-X'.).V.m.p.t.w.>.&.&.%.~ ! Q / ^ ^ ) { } o.O.O.~.~.~.O.O.} } [ ^ ^ ^ Q ! ~ ~ &.>.>.<.r.p.m.V.Z.`.}.-X:X>X2X2X<X<X#X@XW.W.oX+X%X@X&X@X%X%X+XoXoXW.R.Y.BXuXrX0XM J R Y T Y Y U U D c &.%.` ~ ! ! ! Q Q ^ ^ ^ ^ ) { { } o.O.O.~.~.~.~.~.~.~.~.O.O.} } [ [ ) ) ^ ^ ^ / / Q Q ~ ~ ~ %.%.+.@.o.{ ) ^ ^ Q ~ ~ &.>.>.r.y.m.V.Z.`.}.-X;X>X2X2X2X<X&X&X#X@X@X+XW.T.Y.yXuXrX8XlXM H L E T Y D V r 0 3 O . .   . O < 8 w u S I T Y R P M lX0XqXtXyXyXR.W.!.@X&X<X2X2X>X:X-X-X'.).V.m.p.r.w.>.&.&.~ ~ ! Q ^ ^ ) ) { o.O.~.~.~.~./._.%X2X2X2X>X:X-X*X}.}._._._.).).Z.).).'.'.}.}.-X;X>X>X2X2X<X%X!.W.Y.v.1.` ` ` ` ~ ! ! ! ! / ^ ",
"~.O.~.~.~.~.O.O.o.} { ) ) ^ ^ ^ ^ / Q ~ ~ %.&.&.>.>.<.r.p.g.M.Z._.].}.-X;X:X>X2X2X2X2X<X&X%X@XoXiXpX0XkXm J K R T T D Z u w 7 1 X X     . o 1 7 w i Z I Y T E K H M lX0XpXuXyXBXT.W.!.+X$X<X<X2X2X>X:X-X}._.).M.m.t.r.<.>.&.&.P.$X<X2X>X-X].V.m.r.>.*.` ` Q Q / ^ / ^ / ^ / / Q ! &.&.~ ~ ~ ! Q / / ^ ^ ) ) { } o.o.O.~.~.~.~.~.~.O.O.o.} { [ ) ) ^ ^ ^ ^ Q Q ~ ~ &.&.$.2 7 r V I T L M hXpXiXG.BXW.!.!.@X%X%X&X&X%X&X%X%X@X@X%X$X<X2X2X>X:X-X*X_.).V.g.t.r.w.>.&.&.~ ~ ! ! / ^ ^ ) { } O.~.~.~.~.~.O.o.[ [ ) ^ ^ ^ Q ! ~ ~ &.>.>.5.r.p.m.Z._.}.-X-X:X>X2X2X<X&X@XoXW.R.W.+X@X%X&X+X%X@X@XoXHXW.R.G.iXuXeX0Xm H L Y W Y T T Y Y Y 9.%.%.` ~ ! ! ! Q Q ^ ^ ^ ) ) { { } o.O.O.~.~.~.~.~.~.O.O.O.o.} { [ ) ) ^ ^ ^ ^ / / Q ! ~ ~ %.&.] ..+.{ ) ^ / Q ! ~ &.>.>.r.r.m.M.Z.`.}.-X;X>X>X2X2X2X<X&X%X@X@X!.W.T.yXyXtXqX0XlXH J R Y T I S i w 7 1 X .     . < 2 q t N D Y T Y L J m lXwXqXuXyXG.T.W.XX@X<X<X2X2X2X:X-X}._.).m.g.t.w.>.>.&.&.~ ! ! Q ^ ^ ) { } o.O.~.~.~.~.O.d.Z.,X<X2X2X2X:X-X-X}.}._.'._._._._._.}.'.}.-X-X;X>X>X2X2X2X%X!.HXY.yX4X&.` ` ` ~ ! ! ! ! ! ",
"o.~.~.~.~.~.~.~.O.o.} } ) ) ^ ^ ^ / Q Q ~ ~ ~ &.&.>.>.r.r.p.m.V.Z._.}.-X-X:X>X>X2X2X2X<X<X<X%X@X@XiXrXhXlXM K R E T U D V r 0 3 < .       X 1 3 0 t V S Y T Y L K M lX0XqXpXuXBXY.W.W.oX%X$X<X2X2X>X:X;X}.'.).V.m.p.r.w.>.>.&.` U.$X<X2X>X-X}.V.m.t.,.*.` ` ! ! Q Q / / / / ! Q ! ~ ` &.` ~ ! ! ! / ^ ^ ^ ) ) { { o.O.O.~.~.~.~.~.~.~.O.o.} } [ ) ) ^ ^ ^ / Q Q ! ~ ~ &.#.$ 3 w V I T P M hXtXtXBXT.W.!.@X@X%X%X&X<X&X&X%X%X+X@X&X<X2X2X2X:X;X*X}.).V.m.p.t.w.>.>.&.` ~ ! Q / ^ ^ ) { } o.O.~.~.~.~.O.O.o.[ ) ^ ^ ^ Q ! ~ ~ &.&.>.<.r.p.m.V.Z._.}.-X:X>X2X2X<X<X@X+XW.W.Y.BX+X+X@X@X&X@X@XoXoXoXW.R.Y.yXuXqX0Xn H K L E E Y W T E T 7X%.%.~ ~ ~ ! Q Q Q / ^ ^ ) ) { { } o.O.O.~.~.~.~.~.~.~.~.O.o.} } [ [ ) ^ ^ ^ ^ / Q Q Q ~ ~ ~ %.&.| } { ^ ^ / Q ~ ~ &.>.>.r.t.g.B.Z._.}.-X;X:X2X2X2X2X<X<X&X@X@X!.R.Y.yXuXpX0XhXm J K E T Y D V y 0 3 1 . .     o 1 4 e u Z I Y T R P H lXhXqXtXuXY.T.W.!.+X%X<X2X2X>X>X;X*X}.).V.m.p.r.w.>.&.&.` ~ Q Q / ^ ) ) { o.O.~.~.~.~.^.O.} h.XX>X<X2X2X>X:X;X-X=X}.}.}.'.}.'.'.}.}.=X-X;X>X>X2X2X2X<X%XoXW.Y.yXtXj.&.%.%.` ~ ! ! ! ",
"o.o.O.~.~.~.~.~.O.O.o.} } ) ) ^ ^ ^ ^ / Q ~ ~ ~ &.>.>.<.r.p.p.M.Z.)._.}.-X;X:X>X2X2X2X2X<X<X&X%X@X@XiXrXlXm H L E Y Y D S y e 7 1 O .     . o 1 7 w i Z I Y T E L H m lX9XpXtXyXY.T.W.!.+X%X<X<X2X2X>X:X-X}._.).M.m.t.w.w.>.&.&.~ K.#X<X2X>X-X}.Z.m.t.>.>.` ` ! Q Q Q Q Q Q Q ! Q ! ~ &.` ` ~ ~ ! ! Q / ^ ^ ^ ) { { } o.O.~.~.~.~.~.~.O.O.O.} { [ [ ) ^ ^ ^ ^ Q Q ! ~ ~ &.&.. 1 0 V I Y K M gXtXiXBXT.W.!.+X%X%X%X&X<X#X<X%X%X%X@X%X<X2X2X2X:X-X*X`.).V.m.t.r.<.>.&.&.~ ~ ! Q / ^ ^ ) { } O.O.~.~.~.~.O.o.} [ ) ^ ^ ^ Q ! ~ %.&.>.>.<.t.p.m.Z._.}.-X;X:X2X2X2X<X$X@XoXW.T.Y.uXW.+X@X@X&X@X@XoXoXHXW.R.Y.yXtXpX0XlXM J K L R U R Y E E G 9.%.~ ~ ~ ~ Q ! Q Q / ^ ^ ) { { } } o.O.~.O.~.~.~.~.~.O.~.O.o.} [ [ [ ) ^ ^ ^ ^ / / Q ~ ~ ~ %.&.&.{ _ ) / / Q ! ~ &.>.>.r.t.g.M.Z.`.}.=X-X:X>X>X2X2X<X<X&X%X@X!.R.BXyXpXqX0XlXM K L T T I S i r 7 1 O .     . O 2 8 t N S Y T Y L J M kX0XqXtXyXY.T.W.!.#X$X<X2X2X>X:X-X}._.).V.g.p.w.<.>.&.` ` ~ Q Q / ^ ) { } o.~.O.~.~.~.O.O.{ } r.,X#X<X2X2X>X>X;X;X-X=X}.}.}.}.}.*X*X-X;X;X:X>X2X2X2X<X%XoXHXY.yXtXhXl.&.&.%.` ~ ! ",
"{ o.O.O.~.~.~.~.~.~.O.o.} { [ ) ^ ^ ^ / Q Q ~ ~ ~ &.&.>.5.r.p.m.M.Z._.}.}.-X:X:X>X2X2X2X2X<X<X&X%X@X@XaXhXlXH J R E T Y S V r 0 3 < X     . . 1 3 0 t V S Y T Y L K M lX0XrXtXuXBXY.T.W.+X%X$X<X2X2X>X:X;X*X'.).V.m.p.t.w.>.>.&.` ~ <.#X<X2X>X;X}.Z.m.t.<.&.&.` ~ ! ! ! Q Q ! Q ! ! ~ ~ &.&.` ~ ~ ! ! Q / ^ ^ ) ) ) } } o.O.O.~.~.~.~.~.~.O.O.o.} [ [ ) ^ ^ ^ ^ / Q ! ~ ~ %.%.+ < 0 i I T P vXhXpXuXT.ZXW.!.@X@X%X<X#X<X$X<X&X%X%X@X&X2X2X2X>X-X*X}.).V.m.p.t.w.>.>.&.` ~ ~ Q / / ^ ) { } o.O.~.~.~.~.O.o.o.{ [ ^ ^ ^ Q ! ~ ~ &.&.>.<.r.p.m.V.Z._.}.-X:X>X2X2X<X<X@X+XW.R.Y.BXuXVXoX%X@X@X%X@XoXoXW.W.R.Y.BXtXpX0XhXm H J K K K L L R L U 3X&.&.~ ~ ~ Q ! Q Q ^ ^ ^ ^ { ) } } o.o.~.O.~.~.~.~.~.~.O.O.o.} } [ [ ) ) ^ ^ ^ / Q Q Q ~ ~ ~ ~ &.| ) ) / Q ! ~ ` &.>.>.r.r.m.B.Z._.}.-X;X:X>X2X2X2X2X<X&X&X%X@XW.yXuXpX0XhXm H L R T Y D C y 0 3 1 . .     o < 4 q u Z I Y T R L M n hXwXtXyXyXY.W.!.+X$X<X<X2X2X:X;X-X}.).V.m.p.r.w.<.&.&.` ~ ! Q / ^ ^ ) { } o.~.~.~.~.^.O.o.[ [ ^ L.&X<X<X2X2X>X>X:X;X-X-X-X}.-X}.-X-X-X;X:X>X2X2X2X2X<X%XoXW.T.yXtXrXn l.&.` ` ` ",
"{ { o.O.O.~.~.~.~.O.~.O.o.o.{ ) ) ) ^ ^ ^ Q Q ! ~ ~ &.>.>.r.p.p.M.V.)._.}.=X-X:X:X>X2X2X2X2X<X<X&X%X@X@XaXlXm J K E Y T I Z y w 7 1 o .     . o 1 7 w i Z I Y T R L H m lX9XpXtXyXY.T.W.!.+X$X<X<X2X2X>X:X-X}._.).M.m.t.r.<.>.&.&.` ~ <.@X<X2X2X;X}.).m.p.<.&.&.~ ~ ! ! ! ! Q ! ! ! ! ~ ` &.&.~ ~ ~ ! ! ! / ^ ^ ^ ) ) { } o.O.O.~.~.~.~.~.~.O.O.o.} [ [ ) ) ^ ^ ^ ^ Q Q ~ ~ &.&.#.< 8 i I T P vXwXpXiXG.W.W.!.#X%X%X<X<X<X<X<X<X%X%X@X@X2X2X>X:X-X}.'.Z.V.m.i.r.w.>.&.&.` ! ! Q / ^ ^ ) { } O.~.~.~.~.~.O.o.{ [ ) ) ^ ^ Q ! ~ %.&.>.>.<.r.p.m.Z._.}.}.:X:X>X2X2X<X$X@XoXW.R.Y.uXuXuXR.@X@X+X@X@XoXoXW.W.R.Y.BXuXpX0XkXlXm M H H J J J K J K jX8.~ &.~ ~ ! Q Q Q Q ^ ^ ^ ) ) { { o.o.O.~.~.~.~.~.~.~.O.~.O.o.} [ [ [ ) ^ ^ ^ ^ ^ Q Q ~ ~ ~ %.&.&.^ _ / Q Q ~ ~ &.>.>.r.r.g.M.Z._.}.=X-X:X>X>X2X2X2X<X<X&X@X@XoXVXtXqX0XkXM J R E T Y S i r 7 1 O . .   . o 2 8 e N S I T E L J nXlX0XqXtXyXY.T.W.!.+X<X<X2X2X2X:X-X*X'.).V.g.p.r.>.>.&.&.~ ~ ! Q / ^ ) ) } o.O.~.~.~.~.O.O.} [ ) ^ | J.$X<X<X2X2X>X>X>X;X;X;X-X-X-X-X-X;X:X:X>X>X2X2X2X<X%X@XHXT.yXtXrXlXJ 7X%.%.",
") { } } O.O.~.~.~.~.~.~.O.o.} } [ ) ^ ^ ^ ^ Q Q ~ ~ ~ %.>.<.r.p.m.M.Z.).}.}.-X;X:X>X>X2X2X2X2X<X<X&X%X@X@XFXlXM P R T T I D V r 0 3 < X .   . . 1 3 0 t V S Y T Y L K M lX0XrXtXuXBXY.W.W.oX%X$X<X2X2X>X:X;X*X'.).V.m.p.t.w.>.>.&.` ~ ! ,.@X<X2X>X:X}._.m.t.w.>.&.&.~ ~ ! ! ! ! ! ! ~ ~ ` ` &.&.&.~ ~ ! ! Q Q ^ ^ ^ ) ) { } } O.O.~.~.~.~.~.~.~.O.o.o.{ [ ) ) ^ ^ ^ / Q Q ! ~ ~ &.#.% 7 B I Y J vXwXpXyXY.T.!.!.+X%X%X<X<X<X<X<X<X<X%X%X%X<X2X>X-X-X}._.V.m.p.i.w.>.>.&.` ~ ~ Q Q ^ ^ ) ) } o.O.O.~.~.~.~.O.o.[ ) ^ ^ ^ Q Q ~ ~ &.&.>.<.r.p.m.M.Z.`.}.-X:X>X2X2X<X<X%X+XW.R.Y.BXuXpXrXAX+XoX+X@XoXoXoXW.W.T.Y.yXuXtX8X0XhXlXm m m M M M M M M n 4X%.%.~ ~ ~ ! Q Q Q ^ ^ ^ ) ) { { } o.O.O.~.~.~.~.~.~.~.O.O.O.} } [ [ ) ) ^ ^ ^ ^ / Q Q ~ ~ ~ %.&.` ^ ^ ! ! ~ &.&.>.<.r.p.g.M.Z._.}.-X-X:X>X>X2X2X2X<X&X&X&X@X@XW.pXrXkXn H K E W Y D Z y w 4 1 .       o < 4 q y Z D T Y E L H n hXqXpXuXyXY.T.!.+X@X<X<X2X2X:X:X-X}._.Z.M.p.r.w.>.>.&.~ ~ ! ! Q ^ ^ ) { } O.O.~.~.~.^.O.o.} [ ) ^ ^ &.H.$X<X<X2X2X>X>X>X:X:X;X;X;X;X:X-X>X>X>X2X2X2X2X<X@X@XW.R.yXtXqXlXH R 7X",
") ) { { } O.O.~.~.~.~.O.~.O.O.} } [ ) ) ^ ^ ^ Q Q ~ ~ ~ &.>.5.t.g.M.V.)._.}.}.-X:X:X>X2X2X2X2X2X<X<X&X@X@X@XDXm H L R W Y D S y w 7 1 o .     . o 1 7 w i Z I Y T E L H m lX9XpXtXyXY.T.W.!.+X&X<X<X2X2X>X:X-X}._.).M.m.t.r.<.>.&.&.~ ~ ! Q J.<X<X2X:X}.).V.t.w.>.&.&.~ ` ~ ! ! ~ ! ! ~ ` ` &.&.&.&.~ ~ ! ! ! Q ^ ^ ^ ) ) { { } O.O.~.O.~.~.~.~.O.O.O.} { [ [ ) ^ ^ ^ ^ Q Q ! ~ ~ &.&.% 7 V I Y J vXwXpXyXT.T.!.!.#X%X$X<X<X<X<X<X<X<X&X%X@X<X>X:X-X}.`.).V.m.i.w.w.>.&.&.` ~ ! Q / ^ ^ ) { } O.~.~.~.~.~.O.o.o.[ ) ^ ^ ^ / ! ~ ~ &.>.>.<.r.p.M.V._.}.}.;X:X>X2X2X<X#X@XoXW.R.Y.uXuXpX0XdXoX+XoX+XoXoX!.!.W.T.Y.yXuXtXqX0X0XhXlXlXlXcXcXlXm cXcXcX8X%.%.%.~ ~ ~ Q Q Q Q ^ ^ ) ) ) { } } o.O.O.~.~.~.~.~.~.O.O.O.o.} { [ ) ) ) ^ ^ ^ ^ / Q ! ~ ~ ~ &.~ ~ Q ! ! ~ &.>.>.<.r.p.m.M.Z._.}.-X-X:X:X>X2X2X2X2X<X&X&X@X@X@XVX0XlXm J L Y T Y S V r 7 3 O .     . o 2 4 e N S I T Y R J M lX0XqXtXyXY.T.W.!.+X&X<X2X2X2X:X-X-X'.).V.M.p.r.w.>.&.&.~ ~ Q Q ^ ^ ) ) { o.O.~.~.~.~.O.O.} [ [ ^ ^ ^ Q >.oX%X$X<X2X>X2X>X>X:X:X:X:X:X:X:X>X>X>X2X2X2X2X<X%XoXW.R.BXtXqXhXH L ",
"^ ^ ) { } } O.O.~.~.~.~.~.~.O.O.} } ) [ ^ ^ ^ ^ Q Q ~ ~ ~ &.&.r.p.m.M.Z._.'.}.-X-X:X>X>X2X2X2X2X<X<X&X&X&X@X@XKXH J R Y T Y S V r 0 3 < . .   . . 1 3 0 t V S Y T Y L K M lXhXqXtXuXBXY.R.W.+X+X$X<X2X2X>X:X;X*X'.).V.m.p.t.w.>.>.&.` ~ ~ Q ! H.&X2X>X:X-X).V.p.r.<.&.&.` ~ ` ~ ! ` ~ ` ~ ~ &.&.>.&.&.` ` ~ ! Q Q / ^ ^ ^ ) { { } o.O.~.~.~.~.~.~.~.O.O.o.} [ [ ) ^ ^ ^ ^ / Q ! ~ ~ ~ &.=.7 B Y Y J lXwXtXyXY.W.!.@X%X%X<X<X<X<X2X<X<X<X<X%X@X%X2X-X*X}._.V.m.p.t.w.,.>.&.` ~ ~ Q Q / ^ ) { { o.O.~.~.~.~.O.~.{ } ) ) ^ ^ / ! ~ ~ &.&.>.<.r.p.g.B.Z._.}.-X:X>X2X2X<X<X$X@XW.W.Y.BXuXpXqX0XcXDX+XoX@X+X!.!.!.W.T.Y.Y.uXtXpXqX0X0X0X0X0XhXlXhXlXkXlXhXhX2.%.%.~ ~ ~ ! Q Q Q ^ ^ ^ ) ) { { } o.O.~.O.~.~.~.~.~.~.~.O.O.} } { ) ) ^ ^ ^ ^ / / Q Q ! ~ ~ &.&.~ Q ! ~ ~ %.&.<.<.r.p.m.V.)._.}.-X-X:X>X2X2X2X2X2X<X<X&X%X@X+XJXsXm M K R W Y I Z y w 4 1 O .     X < 4 0 t V D Y T U L H m lXrXtXtXyXY.T.W.+X@X<X<X2X2X>X:X-X}._.Z.h.g.t.w.>.>.&.&.~ ~ Q Q ^ ^ ) { } O.O.~.~.~.~.O.o.} ) ) ^ ^ Q Q ! b.+X$X<X<X2X2X2X2X>X>X>X:X>X>X>X>X2X2X2X2X2X<X&X%X@XW.R.yXyXqXhXM ",
"^ ^ ^ ) { { } O.O.~.~.~.~.O.~.O.O.} } [ ) ) ^ ^ ^ ^ Q Q ~ ~ &.&.5.m.M.V.Z._.}.}.-X;X>X>X>X2X2X2X2X2X<X&X&X@X@X@XDXJ L R T Y D S y w 7 1 o .     . o 1 7 w i Z I Y T E K H m lX9XqXtXyXY.T.W.!.+X$X<X<X2X2X>X:X-X}._.).m.m.t.r.<.>.&.&.~ ~ ! Q Q p.#X<X2X:X-X_.V.p.r.<.*.&.&.` ` ` ~ ~ ~ ` ` %.&.&.<.&.&.` ` ( ! Q Q Q ^ ^ ^ ) { { } } O.O.~.~.~.~.~.~.O.O.o.} [ [ ) ) ^ ^ ^ ^ Q Q ~ ~ ~ &.=.8 V Y U J lXwXtXBXBXW.!.+X%X&X<X<X2X<X2X<X<X<X<X&X@X%X,X-X}.'.).V.m.p.r.<.>.*.&.~ ~ ! Q Q ^ ^ ) { } o.O.~.~.~.~.O.O.{ [ ) ^ ^ ^ / ! ~ ~ &.>.>.<.r.g.m.V.).}.}.;X:X>X2X2X<X$X+XoXW.R.Y.yXuXpX9XkXm MX+XoX@X@X!.!.!.W.T.Y.Y.uXtXtXpX8XrXeXeXeXeXeX0XeX0XeXeXrX4X%.%.~ ~ ~ ~ Q Q Q Q ^ ^ ^ ) ) { } } o.O.~.~.~.~.~.~.~.O.O.O.o.} } ) { ) ^ ^ ^ ^ ^ / Q ! ~ ~ ` &.&.~ ! ~ %.&.>.>.<.t.p.m.V.)._.}.-X-X;X>X>X2X2X2X2X<X<X&X&X@X@X@XFXM J L E W Y D V r 0 2 O . .     o 1 8 e u Z I Y T R K M lXhXqXtXyXBXT.W.!.+X$X<X2X2X2X>X;X-X'.).V.m.p.t.w.>.] &.~ ~ ! Q Q ^ ) ) } } O.~.~.~.~.^.O.} } ) ) ^ ^ ^ Q ~ ~ A.oX$X$X<X2X2X2X>X2X>X>X>X>X>X>X2X2X2X2X2X<X<X@X@X!.R.BXyXqX0X",
"/ ^ ^ ^ ) { { } o.O.~.~.~.~.~.~.O.O.o.{ { ) ) ^ ^ ^ Q Q ! ~ ~ &.&.r.m.B.Z._.}.}.-X;X;X>X>X2X2X2X2X<X2X&X&X&X%X@X@XDXJ R E T Y S V r 0 3 < . .   . . 1 3 0 t V S Y T Y L K M lXhXqXtXuXBXY.W.W.oX%X$X<X2X2X>X:X;X*X}.).V.m.p.t.w.>.>.&.&.~ ~ Q Q ^ >.$X<X2X:X-X`.V.p.r.w.>.*.&.&.` ` ` ` ` ` %.&.&.&.>.<.&.` ` ` ! ! Q Q ^ ^ ^ ) ) { } o.O.O.~.~.~.~.~.~.O.O.o.} } [ ) ) ^ ^ ^ / Q Q ~ ~ ~ ` &.a B Y E H lXqXtXBXT.W.!.@X%X$X<X<X<X2X<X2X<X2X<X<X%X@X,X-X'._.V.N.p.t.w.>.>.&.&.~ ! Q Q ^ ^ ) { { o.~.O.~.~.~.^.O.} } ) ) ^ / Q Q ~ ~ &.&.>.<.r.r.m.M.)._.}.-X:X>X2X2X<X$X&X+XW.W.Y.BXuXpXqXkXlXM nXGX!.@X!.!.!.!.W.T.Y.VXc.uXpXiXpXpXpX8XpXeXpX8XpXeXpX8XpXpX1.%.%.` ~ ~ ! Q Q Q ^ ^ ^ ) ) { } } o.o.O.~.~.~.~.~.~.~.~.O.O.} } { ) ) ) ^ ^ ^ / / Q Q ! ~ ~ ~ &.%.~ ~ &.%.>.<.<.p.p.m.V._._.}.-X;X:X>X>X2X2X2X2X<X<X&X&X&X@X@X@XxXK R Y T I Z i w 7 1 o .     . < 3 0 t V D Y T E L J n lXwXpXtXyXY.T.W.oX@X$X<X2X2X>X:X-X}._.Z.V.m.t.r.>.>.&.` ` ! Q Q ^ ^ ) ) } o.O.~.~.~.~.O.O.} [ ) ^ ^ / Q ! ~ %.&.E.%X$X<X<X2X2X2X2X2X2X2X2X2X2X2X2X2X2X2X<X<X@X@X!.R.Y.yXtX",
"! / / ^ ^ ) { { } o.O.~.~.~.~.~.~.O.O.o.} [ ) ) ^ ^ ^ ^ Q Q ~ ~ &.&.t.M.Z.Z._.}.}.;X;X:X>X>X2X2X2X2X<X2X<X&X&X%X@X@XoXLXU W Y D S y w 7 1 O .     . o 1 7 w i Z I Y T E L H m lX9XpXtXyXY.T.W.!.+X&X<X<X2X2X>X:X-X}._.).M.m.t.r.<.>.&.&.~ ~ Q ! Q /  .#X<X2X2X-X}.V.m.r.w.>.>.&.&.&.` ` ` %.` &.&.>.>.<.<.&.` ` ` ! ! Q Q / ^ ^ ) ) { { o.o.O.~.~.~.~.~.~.O.~.o.} { [ [ ) ^ ^ ^ ^ / Q ! ~ ~ &.&.a C Y U H lXqXtXBXT.W.XX@X$X$X<X<X2X2X<X2X<X<X<X<X%X@X@X*X`.).V.m.i.t.,.>.&.&.~ ` ! Q Q ^ ^ ) { } o.~.~.~.~.~.^.o.{ [ ) ^ ^ ^ Q ! ~ ~ &.>.>.<.r.p.m.V._.'.-X-X>X>X2X2X<X$X@XoXW.R.Y.yXuXpX9XkXm H L MX!.@X@X!.!.!.W.T.T.Y.BXuX4XtXuXpXtXpXpXtXpXpXtXpXpXtXtXtXx.%.~ ~ ~ ~ ~ Q Q Q / ^ ^ ^ ) ) { } o.o.O.O.~.~.~.~.~.~.O.O.O.o.} { { ) ) ) ^ ^ ^ ^ Q Q ! ~ ~ ~ &.&.~ ~ &.>.>.<.r.p.g.M.Z.)._.=X-X;X;X>X>X2X2X2X2X<X<X&X&X@X@X@X@XDXLXE W Y D V y 0 3 O . .     o < 4 e u Z I Y T R K H lXhXwXtXuXY.Y.W.!.+X&X$X2X2X2X>X;X-X}.).V.m.p.t.w.>.>.&.` ` Q Q Q ^ ^ { { } o.O.~.~.~.~.O.o.[ [ ) ^ ^ ^ Q ! ~ &.&.5.E.%X$X$X<X2X2X2X2X2X2X2X2X2X2X2X2X2X<X<X<X@X@X!.R.Y.yX",
"! Q / ^ ^ ^ ) { { } o.O.~.~.~.~.~.~.O.O.o.} { ) ) ^ ^ ^ / Q Q ~ ~ %.%.p.Z.Z._.}.=X=X;X;X>X>X2X2X2X2X2X<X<X<X&X@X&X@X@X+XPXT Y Y S V r 0 3 O . .   . . 1 3 0 t V S Y T Y L K M lXhXrXtXuXBXY.R.W.+X@X$X<X2X2X>X:X-X*X'._.V.m.p.r.r.>.>.&.` ~ ~ Q Q ^ ^ q.P.$X2X>X-X}.).m.p.w.<.>.>.&.&.&.&.%.&.&.&.&.>.>.w.r.>.` ` ` ! ! Q Q ^ ^ ^ ) ) { { } o.O.O.~.~.~.~.~.O.~.o.o.} [ [ ) ^ ^ ^ ^ / Q Q ~ ~ %.&.;.C Y R H hXqXiXBXT.W.@X@X&X<X<X2X<X2X2X2X2X2X2X<X&X%X@X}._.V.N.g.r.r.>.>.&.&.~ ! Q Q / ^ ) [ { o.O.~.~.~.~.O.O.o.} ) ) ^ ^ Q Q ~ ~ &.&.>.<.r.p.p.B.Z._.}.-X;X>X2X2X2X&X&X+X!.W.Y.BXyXpXqX0XlXM K R UX@X!.@X!.!.!.W.T.T.BXBXBXuXyXtXuXuXuXtXtXuXtXuXtXuXuXuXuXBX1.&.%.~ ~ ~ ! Q Q / ^ ^ ^ ) ) { { } o.O.O.~.~.~.~.~.~.~.~.O.O.o.} { ) ) ) ^ ^ ^ / Q Q Q ! ~ ~ ~ &.&.%.%.>.>.5.r.p.m.V.Z._.}.}.-X:X:X>X2X2X2X2X2X<X<X&X&X&X@X@X@X@XMXY T U S u e 7 2 O       . O 3 8 r V S Y T E L J M lXrXqXtXyXY.T.W.oX+X$X<X2X2X>X:X-X}.'.).V.g.p.w.<.>.&.` ` ~ ! Q ^ ^ ^ { { o.~.O.~.~.~.O.O.o.[ ) ^ ^ Q Q ! ~ ~ &.>.>.u.E.&X$X<X<X2X2X2X2X2X2X2X2X2X2X2X2X<X<X&X+X@X!.T.T.",
"! ! ! / / ^ ^ ) { { } o.O.~.~.~.~.~.~.O.O.o.} { ) ) ^ ^ ^ ^ Q Q ! ~ &.&.r.Z._._.}.=X;X;X>X>X>X2X2X2X2X2X<X<X&X&X@X%X@X@X@XPXT Y D S y w 7 1 O . .   . o 1 7 w i Z D Y T E L H m lX9XqXtXyXY.T.W.!.+X&X<X<X2X2X2X:X-X}._.).V.g.p.w.<.>.&.&.` ~ Q ! Q / ^ ) _.$X2X>X;X}.).V.p.r.w.>.>.*.&.&.&.&.&.&.*.&.>.w.w.t.>.&.` ` ~ ! ! Q Q ^ ^ ^ ) { { } o.O.O.~.~.~.~.~.O.~.O.o.} [ [ ) ) ^ ^ ^ ^ / Q ~ ~ ~ &.;.x Y U H hXqXuXBXT.!.@X+X&X<X<X2X2X2X2X2X2X2X2X2X<X%X@X[.).V.m.p.r.w.>.&.&.~ ` ! Q Q ^ ^ ) { } o.O.~.~.~.~.^.o.{ [ ) ^ ^ ^ Q Q ~ ~ &.>.>.<.r.p.m.V.).'.}.;X:X>X2X2X<X$X@XoXW.R.Y.yXuXpX0X0Xm H L R T GX@X!.!.!.!.W.T.T.Y.Y.BXuXBXyXuXuXuXuXuXuXuXBXuXuXBXBXyXY.F.&.%.~ ~ ~ ! ! Q / / ^ ^ ^ ) ) { } } o.O.O.~.~.~.~.~.~.O.O.O.o.} } [ ) ) ) ^ ^ ^ ^ Q Q Q ~ ~ ~ &.&.%.*.>.>.r.r.g.m.V._._.}.=X-X:X>X>X2X2X2X2X2X<X<X&X&X%X#X@X@X@XoXP Y D Z t q 3 < o       o < 4 q y Z D Y T E P H n hXwXtXuXyXY.W.W.+X#X$X<X2X2X>X:X-X}._.V.V.p.t.w.>.>.&.` ~ ! Q Q ^ ^ ) { } o.~.~.~.~.~.O.o.[ [ ) ^ ^ ^ Q ! ~ &.&.>.<.r.g..X#X$X<X<X2X2X2X2X2X2X2X2X2X<X2X<X<X&X%X@X!.R.",
"` ~ ! Q Q ^ ^ ^ ) ) { } o.O.O.~.~.~.~.~.O.O.o.} { ) ) ^ ^ ^ / Q ! ~ ~ ~ &.<.Z.}._.=X-X;X:X>X>X2X2X2X2X<X2X<X<X&X&X&X+X@X@X@XUXT Y S V r 0 3 O .     . . < 3 0 r V S Y T T L K M lXhXqXtXuXyXY.W.W.+X@X$X<X2X2X>X:X-X-X'.).V.m.p.r.w.>.>.&.` ~ ~ Q Q ^ ^ ) ) L.#X2X>X:X*X).V.m.t.w.<.,.*.*.*.&.&.&.&.>.>.>.w.r.p.w.&.` ` ! ! ! Q Q ^ ^ ^ ) ) { { o.O.O.~.~.~.~.~.~.O.O.o.} { [ ) ) ^ ^ ^ / Q Q ! ~ ~ %.&.x T L H hXqXyXY.T.!.oX#X$X<X<X2X2X2X2X2X2X2X2X2X2X&X@X[.Z.m.g.r.w.<.>.&.&.~ ~ Q / / ^ ) { { o.O.~.~.~.~.O.O.o.} [ ) ^ ^ / Q ~ ~ &.&.>.<.w.p.p.M.Z._.}.-X;X>X2X2X2X&X&X@X!.W.Y.Y.uXpXpXkXlXM J R W T J !.@X!.!.!.W.W.T.Y.Y.Y.BXiXBXuXBXBXuXBXBXuXBXBXBXY.Y.Y.Y.R.<.&.` ` ~ ! ! ! Q / ^ ^ ^ ) ) { { } o.o.~.O.~.~.~.~.~.~.~.O.o.o.} { [ ) ) ^ ^ ^ ^ / Q Q ! ~ ~ ~ &.%.>.>.<.r.p.g.M.Z.Z.}.}.-X;X:X>X>X2X2X2X2X2X<X<X&X&X@X$X@X@X@XoXGXJ S N e 8 2 o .     . O 1 8 e N S Y T Y L J M lXrXqXtXyXY.T.W.oX@X$X<X2X2X2X:X-X*X'.).V.m.p.r.w.>.&.&.` ~ ! Q Q ^ ) ) { o.O.~.~.~.~.O.O.o.[ ) ) ^ Q Q Q ~ ~ &.&.>.5.r.p.C.@X#X$X<X<X2X<X2X2X2X2X2X2X2X2X<X<X$X@X@X!.",
"` ` ~ ! ! Q Q ^ ^ ) ) { } o.o.~.~.~.~.~.~.O.O.o.} { { ) ^ ^ ^ ^ / Q ~ ~ ~ &.<._.}.}.=X;X;X>X>X>X2X2X2X2X<X2X<X&X&X%X%X@X@X@XoXGXT D S y w 7 1 O .     . O 1 7 w i Z D Y T E L H m lX9XqXuXyXBXY.W.!.+X&X<X<X2X2X>X:X-X}.'.Z.V.m.p.r.<.>.&.&.~ ~ Q ! Q / ^ ) { s.#X<X2X:X-X_.V.m.p.r.w.,.>.*.*.*.*.*.*.>.>.w.w.t.p.p.&.` ` ` ! ! Q Q ^ ^ ^ ) ) { { o.o.O.~.~.~.~.~.~.~.O.O.} } [ [ ) ^ ^ ^ ^ / Q ! ~ ~ &.&.d T L M hXqXyXBXW.!.@X&X$X<X2X2X2X2X2X2X2X2X2X2X2X<X%XXXV.m.p.r.<.>.&.&.~ ~ ~ Q Q / ^ ) { } o.O.~.~.~.~.O.o.} { ) ^ ^ ^ / Q ~ ~ &.>.>.<.r.p.m.V.).}.}.-X:X>X2X2X2X&X@XoXW.R.Y.yXuXpX8XkXm H K R W Y D FX@X!.!.!.W.W.R.T.G.Y.Y.BXY.BXBXBXBXBXY.BXY.Y.Y.G.R.R.R.W.D.&.` ` ` ! ! ! ! / / ^ ^ ^ ) { { } } o.O.~.~.~.~.~.~.~.O.~.o.o.o.{ [ [ ) ) ^ ^ ^ ^ / Q Q ! ~ ~ &.&.>.>.5.r.p.M.M.Z._.}.}.-X;X>X>X>X2X2X2X2X<X<X<X&X&X@X$X@X@XoXoXoXxXC t w 4 < o       . 1 4 q t C D Y T E K H n kXrXqXtXyXY.W.W.+X%X$X<X2X2X2X:X-X}._.Z.m.g.t.w.>.>.&.` ~ ~ Q Q ^ ^ ) { { O.O.~.~.~.~.O.O.} [ ) ) ^ ^ Q ! ~ &.&.>.>.5.p.p.M.E.+X%X&X<X<X<X<X2X2X2X2X<X2X<X<X<X#X%X@X",
"&.` ` ~ ! Q Q ^ ^ ^ ) ) { } o.O.O.~.~.~.~.~.~.O.o.} { [ ) ^ ^ ^ / Q Q ~ ~ ~ &.<.].}.=X;X;X>X>X2X2X2X2X2X2X<X<X<X$X%X$X@X%X@X@X@XFXY S V r 0 3 < . .   . . < 3 0 r V S Y T E L K M lXhXqXpXuXBXY.W.W.+X@X$X<X2X2X2X:X-X*X'.).V.m.p.r.w.>.>.&.&.~ ~ Q Q ^ ^ ) { { s.#X2X2X:X-X'.).N.p.i.w.w.,.,.*.>.*.>.>.<.>.w.r.p.m.p.<.&.` ~ ! ! Q Q / ^ ^ ) ) { { } o.O.O.~.~.~.~.O.~.O.O.o.} [ [ ) ^ ^ ^ ^ / Q Q ~ ~ ~ &.9.Y L M 0XqXyXY.R.oX+X&X<X<X2X2X2X2X2X2X2X2X2X2X2X<X%X@XL.g.t.r.>.>.&.&.` ! ! / ^ ^ ^ { { } O.~.~.~.~.~.O.o.[ [ ) ^ / / Q ~ ~ %.&.&.<.w.p.p.M.Z._.}.-X:X:X2X2X<X<X&X+XoXW.Y.Y.yXpXqX0XlXM J R Y T Y S mX!.!.!.!.W.W.R.R.R.G.R.G.Y.Y.Y.Y.Y.Y.G.R.G.T.T.R.W.R.!.W.!.5.&.` ` ` ! ! ! Q / ^ ^ ^ ^ { ) } } o.O.O.~.O.~.~.~.~.~.~.O.o.o.} { [ ) ) ^ ^ ^ ^ / Q Q ! ~ ~ ~ %.&.>.r.p.g.M.Z._._.}.-X;X;X>X>X2X2X2X2X2X<X<X&X&X$X@X%X@X%XoXoXoXoXn e 8 2 < .     . O 1 7 e i S I T E R P H lX0XqXtXyXBXT.W.!.@X&X<X2X2X>X>X;X*X}.).V.m.p.r.w.>.&.&.` ~ Q Q / ^ ^ ) } } O.O.~.~.~.~.O.o.[ ) ) ^ ^ Q ! ! ~ &.&.>.<.r.p.m.V.Z.{.+X@X$X<X<X<X<X2X<X2X<X2X<X<X<X#X%X",
"&.&.` ` ~ ! Q Q Q ^ ^ ) ) { } o.o.~.~.~.~.~.O.~.O.o.} } ) ) ) ^ ^ ^ Q Q ! ~ ~ &.<.=X=X;X;X;X>X>X2X2X2X2X2X<X2X<X&X<X%X%X@X%X@X@XoXGXD S u w 7 1 O .     . O 1 7 w u Z D Y T E L H M hX0XqXuXyXY.Y.W.!.+X&X$X2X2X2X2X:X-X}.'.Z.V.g.p.r.<.>.&.&.~ ~ Q ! Q Q ^ ) { } s._.1X2X2X-X}.).V.m.p.t.w.w.,.>.>.>.>.>.w.w.w.t.p.m.Z.<.&.` ` ! ! Q Q / ^ ^ ^ ) { { } o.O.~.~.~.~.~.~.~.O.O.o.} [ [ [ ) ^ ^ ^ ^ / Q ! ~ ~ &.&.F L m 0XtXyXT.W.!.+X&X<X<X2X2X2X2X2X2X2X2X2X2X2X2X&X@XU.p.r.w.>.&.&.~ ` ! ! / / ^ ) { } o.O.~.~.~.~.O.O.} [ ) ) ^ / / Q ~ ~ &.>.>.<.r.p.m.V.Z.`.=X-X:X>X2X2X<X&X@XoXW.R.Y.yXuXpXrXhXm H K E E T D C z CX!.!.!.W.W.W.R.T.T.T.T.G.R.G.R.Y.R.T.R.R.R.W.W.oXW.oXoXoXU.&.` ` ~ ! ! ! ! / ^ ^ ^ ^ ) ) { { } o.O.~.~.~.~.~.~.~.~.O.O.o.} } [ ) ) ) ^ ^ ^ ^ / / Q ! ~ ~ &.&.>.5.p.M.M.Z._.}.}.-X;X;X>X>X2X2X2X2X2X<X<X&X&X&X@X%X@XoX%XoXoXoXVXh 4 < O .     . O 3 0 y V D Y T E L H m lXwXpXtXyXBXT.W.XX@X$X<X2X2X>X:X-X}._.).V.m.t.r.<.>.&.` ` ~ Q Q ^ ^ ) ) } o.O.~.~.~.~.O.O.} [ ) ) ^ ^ Q ! ~ ~ &.>.>.<.r.g.m.Z._.}. X+X#X$X$X<X<X<X<X2X<X<X<X<X$X%X",
">.&.&.` ~ ~ ! Q Q / ^ ^ ) ) { { o.O.O.~.~.~.~.~.~.O.O.} { [ ) ^ ^ ^ ^ Q Q ! ~ ~ &.<.Z.=X;X:X>X>X2X2X2X2X2X2X<X<X<X$X%X&X$X@X@X@X@XoXGXS N t 0 3 < .     . . < 3 0 r V S Y T Y L K M lX0XqXpXuXyXY.W.W.+X@X$X<X2X2X>X:X-X-X'._.V.m.p.t.w.>.>.&.&.~ ~ Q Q ^ ^ ) ) { o.O._.<X2X2X:X}.`.V.N.p.i.w.w.w.w.>.,.>.<.<.r.r.p.m.h.).p.&.` ` ! ! ! Q Q ^ ^ ^ ) ) { } o.o.O.~.~.~.~.~.~.~.O.o.o.[ [ [ ) ^ ^ ^ / Q Q ! ~ %.~ &.F L m 9XtXyXY.W.+X+X$X<X2X2X2X2X2X2X2X2X2X2X2X2X2X<X%XE.p.5.<.>.&.&.~ ! ! / / ^ ) ) { o.O.~.~.~.~.~.O.o.{ [ ) ^ / / Q ~ ~ %.&.>.>.r.t.p.m.Z._.}.-X:X:X2X2X2X<X&X+XoXW.Y.Y.uXtX8XrXlXM J L Y Y Y D V r 6X+X!.W.!.W.W.W.R.R.R.R.T.R.R.R.R.R.R.W.W.!.W.W.W.oX@X%X@X%Xy.%.%.%.! ! ! Q Q Q / ^ ^ ) ) { { } o.O.O.~.~.~.~.~.~.~.~.O.O.o.} { { ) ) ^ ^ ^ ^ / Q Q Q ~ ~ ~ %.&.5.g.M.Z.).'.}.=X;X:X>X>X2X2X2X2X<X<X<X$X&X%X%X%XoX%XoX@XoXoXoXoX5X3 O .     . O 1 7 w i Z I Y Y R K H lXhX8XtXuXG.Y.W.!.+X$X$X2X2X2X:X:X-X}._.V.m.p.r.w.>.>.&.` ~ ! Q Q ^ ^ ) { } o.~.~.~.~.~.O.o.} ) ) ^ ^ Q Q ! ~ &.&.>.<.r.t.m.M.Z._.}.-X#X+X#X&X$X<X<X<X<X<X<X<X$X<X",
">.&.&.&.&.` ~ ! Q Q / ^ ^ ) ) { { o.o.O.~.~.~.~.O.~.O.o.o.{ { ) ) ^ ^ ^ Q Q ! ! ~ &.&._.;X;X>X>X>X2X2X2X2X2X<X<X<X$X$X%X@X$X@X@XoXoXoXoXn u w 7 1 O .     . O < 7 w u Z D Y T E K J m lX0XpXtXyXBXY.W.!.+X&X$X2X2X2X2X:X-X*X_.).V.m.t.r.<.>.&.&.~ ~ Q Q Q Q ^ ) { } o.O.).,X2X2X:X=X'.Z.V.g.p.t.w.w.w.<.w.<.w.w.r.t.p.m.V._.V.&.` ` ` ! ! Q Q / ^ ^ ) ) { { o.o.O.~.~.~.~.~.~.O.O.O.o.[ [ [ ) ^ ^ ^ ^ / Q Q ~ ~ &.&.9.K vXrXpXBXY.W.+X#X$X<X2X2X2X2X>X2X>X2X2X2X2X2X2X<X&X@Xg.r.>.&.&.~ ~ ! ! / / ^ ) { { o.O.~.~.~.~.O.O.} [ ) ) ^ ^ / Q ~ ~ &.&.>.<.r.p.m.B.)._.=X-X:X>X>X2X<X<X@X@XW.W.Y.BXuXpX8XkXm H K R T Y I C i w s Y.!.!.!.!.W.W.W.W.R.W.W.W.R.W.W.W.W.W.W.!.oXoXoX@X@X&X&X&X[.&.%.%.( ! ! ! Q Q ^ ^ ^ ^ ) ) { { } o.O.O.~.~.~.~.~.~.~.O.O.O.o.} { [ ) ) ^ ^ ^ ^ / / Q ! ~ ~ ~ &.>.p.B._._.}.=X-X;X>X>X>X2X2X2X2X2X<X<X&X&X%X+X%XoX@X+XoXoXoXoXoXoX6 o .     . O 3 0 r V S Y T E L J M lXrXqXtXyXY.T.W.!.+X$X<X2X2X>X:X;X}.'.).M.m.p.w.w.>.&.&.` ~ ! Q ^ ^ ) ) } o.O.O.~.~.~.O.O.o.[ ) ) ^ ^ Q Q ! ~ &.*.>.5.r.p.m.V._.'.-X-X:X#X+X%X$X$X$X<X<X<X<X<X$X",
"<.>.&.&.&.` ` ~ ! ! Q / ^ ^ ^ ) { { o.o.O.~.~.~.~.~.O.~.o.o.{ { ) ^ ^ ^ ^ / Q ! ~ ~ &.&._.;X:X>X2X2X2X2X2X<X2X<X<X<X&X%X&X$X@X@X%X+XoXoXoXn r 0 3 < o     . . < 3 0 r V S Y T E R J H lX0XrXtXuXBXY.R.W.+X@X$X<X2X2X>X:X-X*X'._.V.m.g.r.w.>.>.&.&.~ ~ Q Q ^ ^ ) ) { o.O.~./.#X<X2X>X-X}._.V.m.g.i.r.r.w.w.w.r.w.w.t.p.m.m.Z._.).w.&.` ~ ! ! Q / / ^ ^ ) ) { { } o.O.~.O.~.~.~.~.~.O.O.o.} [ [ ) ) ^ ^ ^ / Q Q ~ ~ ~ &.9.z lX0XuXBXR.W.oX$X<X<X2X2X2X2X>X>X>X>X>X>X2X2X2X2X&X&XA.<.>.&.&.~ ~ ! / / ^ ) ) { o.O.~.~.~.~.~.O.o.} [ ) ^ ^ / Q ~ ~ %.&.>.<.r.r.p.M.Z.).}.-X:X:X2X2X2X<X&X@XoXW.Y.Y.uXuXpX0XlXm J L E T Y D V t 0 3 l.!.!.W.!.W.W.W.W.W.W.W.W.W.W.W.!.W.!.oXoXoX@X%X%X%X%X<X<X<Xi.%.%.` ` ! ! ! Q Q / ^ ^ ) ) { { { o.O.O.O.~.~.~.~.~.~.~.O.O.o.} { { ) ) ^ ^ ^ ^ / / Q Q ~ ~ ~ ~ &.<.Z._.].}.;X;X:X>X2X2X2X2X2X<X<X<X$X$X%X%X%X@X%XoXoXoXoXoXoXoX+XG.& .   . . 1 4 w y Z I Y W R L H n hXqXpXuXBXY.T.!.oX$X<X<X2X2X>X;X-X}._.Z.V.p.t.w.>.>.&.` ~ ! Q Q ^ ^ ) { } o.~.~.~.~.~.O.o.} [ ) ^ ^ Q Q ! ~ &.&.>.>.r.t.g.M.Z._.}.-X:X:X<X#X@X#X$X&X$X$X$X<X$X",
"w.>.>.&.` &.` ` ` ! ! ! / ^ ^ ) ) { { o.o.O.~.~.~.~.~.O.O.O.o.{ [ [ ) ^ ^ ^ / / Q ~ ~ &.&._.>X>X>X2X2X2X2X2X<X<X<X<X#X&X$X@X$X@X@XoX@XoXoXoXz q 7 1 O .     . O < 8 w u Z D Y T E L H m lX9XqXtXyXY.T.W.!.+X&X$X2X2X2X2X:X-X*X).).V.g.p.r.<.>.&.&.~ ` Q Q Q Q ^ ) { } o.O.~./.OX<X2X>X;X}.'.V.V.g.g.i.t.w.r.w.r.r.t.t.g.m.B._._.-Xw.&.` ~ ~ ! ! / / / ^ ^ ) { { } o.o.~.~.~.~.~.~.~.O.O.O.} [ [ ) ) ^ ^ ^ ^ / Q ! ~ ~ &.&.z lXeXuXBXT.!.+X$X<X2X2X2X2X2X>X>X>X>X>X>X>X2X2X2X<X$XE.<.>.&.~ ~ ! ! / / ^ ) { { o.O.~.~.~.~.O.O.} [ ) ^ ^ ^ / Q ~ ~ &.&.>.<.r.p.g.B.)._.}.-X:X>X2X2X<X<X@X@XW.W.Y.BXuXpX8X0Xm H K R Y T I S u e 7 1 5 oX!.W.!.W.!.W.!.W.W.W.oXW.oXW.oXHXoXoX+X@X@X#X&X<X<X<X2X2XOX' %.` ` ! Q ! Q Q ^ ^ ^ ^ ) [ { } } o.O.~.O.~.~.~.~.~.~.O.O.O.o.} { ) ) ) ^ ^ ^ ^ ^ / Q ! ~ ~ ~ &.&.t.}.}.=X;X:X:X>X2X2X2X2X<X2X<X$X$X%X%X@X@XoX+XoXoXoX!.!.!.!.!.XXj.. . . O 2 8 r N S U T E L J M lXhXqXtXuXY.T.W.!.+X$X<X2X2X2X:X;X*X'.).V.m.p.r.w.>.&.&.~ ~ ! Q / ^ ^ ) { } O.~.~.~.~.~.O.o.[ [ ) ^ ^ Q Q ! ~ &.&.>.<.r.p.m.M.).'.}.-X:X>X2X<X@X@X$X&X&X&X&X<X",
"w.w.>.&.&.` &.` ` ~ ! ! Q / ^ ^ ^ ) { { } O.O.~.~.~.~.~.~.O.O.o.} [ ) ) ^ ^ ^ / Q ! ~ ~ ~ &.].>X2X2X2X2X2X<X2X<X<X$X<X$X@X$X@X%X@X%XoXoXoXoXoXqX0 3 < o     . . < 2 0 r N S Y T Y L K H lXhXqXtXuXyXY.R.W.+X@X$X<X2X2X>X:X;X*X}.).V.M.p.r.r.>.>.&.&.~ ~ Q Q ^ ^ ) ) { } O.O.~.~._.<X2X>X:X-X'.).V.m.p.p.p.r.t.r.t.t.t.p.g.h.V.).}.-Xm.&.` ` ~ ! ! / / / ^ ^ ) ) { { o.O.O.~.~.~.~.~.~.~.O.o.} } [ ) ) ^ ^ ^ / Q Q ! ~ ~ ~ &.:.lXrXuXY.R.!.+X<X<X2X2X2X>X>X>X>X>X>X>X>X>X2X2X2X<X&X@Xy.&.&.~ ! ! / / ^ ) ) { o.O.O.~.~.~.~.O.o.} [ ) ^ / / Q ~ ~ %.&.>.>.r.r.p.M.V._.}.-X;X:X2X2X2X<X&X+XoXW.T.Y.uXtXpX0XlXM H L E W Y D V t 0 3 < . G.oX!.oXW.oXW.W.W.oXW.!.W.!.oXoX+X@X@X@X%X&X%X&X<X2X<X2X2X2Xt.` &.` ~ ~ Q ! Q Q Q ^ ^ ) ) ) { } } o.O.~.~.~.~.~.~.~.~.O.O.o.o.{ { { ^ ) ^ ^ ^ / / Q Q ! ~ ~ %.&.<.Z.=X;X;X>X>X2X2X2X2X2X<X<X$X$X%X%X@X%X+XoXoXoX!.!.!.!.!.!.!.!.W.: . . < 4 0 y Z D Y Y E L H m hXrXpXuXBXY.T.W.+X@X$X<X2X2X>X:X-X}._.Z.V.g.p.r.>.>.&.&.~ ! ! Q ^ ^ ) { } o.O.O.~.~.~.O.o.o.[ ) ^ ^ / Q ! ~ ~ &.>.>.<.r.p.m.Z.).}.-X:X:X2X2X2X<X@X@X+X%X&X%X",
"t.w.>.>.&.` ` &.` ` ` ! ! ! Q ^ ^ ^ ) { { } o.O.~.~.~.~.~.~.O.O.o.} [ [ ) ^ ^ ^ ^ Q Q ~ ~ %.&.r.2X2X2X2X2X2X<X<X<X<X$X%X&X@X%X@X@X@X%XoXoXoXoXoXBX7 1 O .     . O 1 7 w u Z D Y T E K J m lX0XqXtXyXY.T.W.!.+X&X$X<X2X2X2X:X-X*X_.).M.g.p.r.<.>.&.&.~ ` Q Q Q Q ^ ) { } o.O.~.~.~.).,X<X2X:X-X*X).Z.V.m.g.p.t.t.t.t.p.p.g.m.V.Z._.}.-X}.` ` ` ~ ~ ! ! / / ^ ^ ) ) { { } o.O.~.O.~.~.~.~.O.~.O.o.} [ [ ) ^ ^ ^ ^ / / Q ~ ~ %.&.6.lXeXuXY.R.!.+X$X<X2X2X2X>X>X:X:X;X>X>X>X>X>X2X2X2X<X%XA.&.&.~ ! ! / / ^ ) { { o.O.~.~.~.~.O.O.} { { ^ ^ ^ / Q ~ ~ &.&.>.<.r.p.g.V.Z.`.}.-X:X>X>X2X2X&X@X@XW.W.Y.BXuXpXqX0XlXH K R Y T I S i e 7 2 O . & !.!.!.W.oXW.oXW.oX!.!.HXoXoXoX@X@X%X%X%X<X<X<X2X2X2X2X2X2X*X` &.` ~ ~ Q Q ! Q ^ ^ ^ ^ ) ) { } } o.o.O.~.~.~.~.~.~.~.O.O.O.o.} { { ) ) ^ ^ ^ ^ ^ / Q Q ~ ~ ~ &.&.g.OX:X>X>X2X2X2X2X<X<X<X$X$X%X%X@X+XoXoXoXoX!.!.!.W.!.W.!.!.!.!.G.= o 1 8 e i S I T E R P M lXhXqXtXuXBXY.W.!.+X&X<X<X2X2X>X:X-X'.).V.m.p.r.w.>.>.&.` ` Q Q Q ^ ^ ) { } O.~.~.~.~.~.O.o.[ [ ) ) ^ Q Q Q ~ &.&.>.<.r.p.m.M.Z._.}.-X:X>X2X2X<X<X@X@X@X+X&X",
"p.r.w.>.&.&.` ! &.` ` ~ ! ! Q Q ^ ^ ^ ) { { } o.O.O.~.~.~.~.~.O.O.o.} { ) ) ^ ^ ^ / Q Q ~ ~ ~ &.r.2X2X2X2X2X<X<X<X<X&X&X%X%X%X%XoX%XoXoXoXoXoX!.oXBX3 < o     . . O 3 0 r V S Y T Y R J H lXhXqXtXyXyXY.T.W.oX+X$X<X2X2X>X:X-X*X}.).V.M.g.r.r.>.>.&.&.~ ~ Q Q ^ ^ ) ) { o.O.~.~.~.~.(.#X2X2X>X-X}.'.).V.m.m.g.p.p.p.t.p.g.m.m.V.).'.=X-X}.r.&.` ~ ! ! ! / / ^ ^ ) ) { { } o.O.~.~.~.~.~.~.~.O.O.o.} { [ ) ) ^ ^ ^ / Q Q ! ~ ~ &.%.6XpXuXY.W.oX%X$X2X2X2X>X>X>X:X;X>X;X;X>X>X>X2X2X2X<X%XE.<.` ~ ! / / ^ ^ ) { o.O.O.~.~.~.~.O.o.} ) ) ^ ^ / Q ~ ~ %.&.>.>.w.r.p.m.V.).}.-X;X:X2X2X2X<X&X+XoXW.T.Y.yXuXpX0XkXM H L E T Y D C y q 3 1 X .   G.oX!.oXoXW.oX!.!.oXoXoX@X@X@X@X#X%X&X$X<X<X<X2X2X2X2X>X:X>Xe.&.` ` ` ~ Q ! Q Q ^ ^ ^ ) ) ) { { o.o.O.O.~.~.~.~.~.~.~.O.O.o.o.} { ) ) ) ^ ^ ^ / / Q Q ! ~ ~ ~ &.&._.>X>X2X2X2X<X2X<X<X$X$X%X%X+XoXoXoX!.!.!.W.!.!.!.!.W.!.!.!.!.!.G.O 2 0 y V D Y Y E L J m z rXqXuXyXY.T.W.+X@X$X<X2X2X>X:X-X}.'.).V.g.p.r.w.>.&.` ` ~ ! Q ^ ^ ^ { { o.O.~.~.~.~.O.o.o.[ [ ^ ^ ^ Q ! ~ %.~ >.>.<.r.p.m.V.).'.-X;X:X2X2X2X<X&X@XoXoX@X",
"m.t.r.w.>.&.` ` ! &.&.` ` ! ! Q Q / ^ ^ ) ) } } o.O.~.~.~.~.~.~.O.O.o.} { { ) ^ ^ ^ ^ / Q ! ~ ~ &.r.2X2X2X<X2X<X<X$X$X&X$X@X%X@X%XoX+XoXoXoXoXoXoXoXBX1 O .     . O 1 4 w y Z D T T E L J m lX0XqXtXyXY.T.W.!.+X$X$X2X2X2X2X:X-X}.'.).M.g.p.r.<.>.&.&.` ~ Q Q Q ^ ^ ) { { o.O.~.~.~.~./.OX<X2X>X:X*X}.).Z.V.m.m.p.p.m.p.g.m.m.V.Z._.}.-X;X>Xt.&.~ ` ~ ! ! / / / ^ ^ ) { { } o.o.O.~.~.~.~.~.~.O.O.o.} } [ ) ) ^ ^ ^ ^ Q Q ! ~ ~ &.&.j.pXuXY.W.+X%X<X<X2X2X>X>X:X:X;X;X;X;X;X>X:X>X2X2X2X&X@X<.~ ! ! / / ^ ) { { o.O.~.~.~.~.O.O.} { { ^ ^ ^ / Q ~ ~ &.&.>.<.r.p.m.M.Z.`.}.-X:X:X2X2X2X<X@X@X!.W.Y.BXuXpXqX0Xn M K R E Y I S i r 7 1 O .     & oXHXoXoXW.oX!.oXoXoXoX@X@X%X@X$X%X<X<X<X2X<X2X2X2X2X>X>X;X'.' ` ` ` ~ Q ! Q Q Q ^ ^ ^ ) ) { { } o.O.O.~.~.~.~.~.~.~.~.O.o.o.} { { ) ) ) ^ ^ ^ ^ / / Q ! ~ ~ &.&.5.}.2X2X2X2X<X<X<X$X%X%XoX%XoXoXoX!.W.!.!.W.W.W.!.W.W.!.W.!.!.!.!.4X3 w u Z I T T R K M lXhXqXpXuXBXY.T.!.+X%X$X2X2X2X>X:X-X'._.V.h.p.r.w.>.>.&.` ~ ! ! Q ^ ^ ) { } o.O.~.~.~.~.O.o.} ) ) ^ ^ ^ Q ! ~ &.&.>.<.w.r.p.M.Z._.}.-X;X>X>X2X2X<X%X@X!.W.",
"M.g.t.r.>.>.&.` ~ ( ` &.` ~ ! ! Q Q ^ ^ ^ ) ) { } o.O.O.~.~.~.~.~.~.O.o.} { ) ) ) ^ ^ / Q Q ~ ~ ~ %.r.<X<X2X<X<X<X$X&X$X@X&X@X%X@X+XoXoXoXoX!.oXoXoXoXoX- o     . . O 3 0 r V S I T E R J H lXhXwXtXuXyXY.T.W.oX@X$X<X2X2X>X>X-X-X}.).V.M.g.r.r.>.>.&.&.~ ~ ! Q / ^ ) ) { o.o.~.~.~.~.~.d.`.1X2X2X:X-X*X`.).V.M.m.m.p.m.g.m.m.V.V.)._.}.-X>X>XB.&.~ ` ~ ! ! Q / / ^ ^ ) ) { { o.O.O.O.~.~.~.~.~.O.~.o.} } [ ) ) ^ ^ ^ ^ Q Q Q ~ ~ ~ &.2.pXBXY.W.+X$X<X2X2X2X>X>X;X;X-X;X-X-X;X:X:X>X2X2X2X<X&XK.! ! / / ^ ) ) { } o.~.~.~.~.~.O.o.} ) ) ^ ^ / Q ~ ~ ~ &.>.>.w.r.p.m.V.).'.-X-X:X2X2X2X<X&X+XoXW.T.Y.uXuXpX0XhXm J K E T Y I C y q 4 < X .   . . G.oX!.oXoXoXoXoX+X@X@X&X@X%X%X&X$X<X<X<X2X2X2X2X>X>X>X;X-X}.w.&.` ` ~ ! ! Q Q / / ^ ^ ) ) ) { { } o.O.O.~.~.~.~.~.O.~.~.O.O.o.} } ) ) ) ^ ^ ^ ^ / / Q ! ~ ~ ~ &.&.B.2X2X2X<X<X$X%X%X%X%XoXoX+XW.!.!.W.W.W.W.W.W.W.W.W.W.W.!.!.!.!.Y.g r V S Y T E L J M lX0XpXuXyXY.T.W.oX+X$X<X2X2X>X:X;X*X'.).V.m.p.r.w.>.&.&.` ! ! Q / ^ ) ) { } O.~.~.~.~.~.O.o.} ) ) ^ ^ Q Q ~ ~ &.&.>.<.r.p.m.V.).'.}.-X:X2X2X2X<X<X+X@XW.",
"V.m.p.r.w.>.&.&.` ~ Q ` &.` ` ~ ! ! Q ^ ^ ^ ) ) { } o.o.~.~.~.~.~.~.O.~.o.} } [ ) ^ ^ ^ ^ Q Q ! ~ ~ &.&.[.<X<X<X<X$X#X&X%X@X%XoX@XoXoXoXoXoXoXoX!.oX!.oXoX-         O 1 7 q u Z D Y T E L J m kX0XqXtXyXY.Y.W.!.+X&X$X<X2X2X>X:X-X}.'.).M.g.p.r.w.>.&.&.~ ~ Q Q Q ^ ^ ) { { o.O.~.~.~.~.^.O.).1X2X2X>X-X-X'.).).V.M.M.m.m.m.m.V.V.Z._.'.}.;X:X>X=X&.` ~ ~ ~ ! ! / / / ^ ) ) { { } o.O.~.~.~.~.~.~.O.~.O.o.} { [ ) ) ^ ^ ^ ^ Q Q ! ~ ~ &.&.4XY.Y.W.+X$X<X2X2X>X>X:X;X;X-X-X-X-X-X;X:X:X>X2X2X2X$XU.,.! / / ^ ^ { } o.O.~.~.~.~.~.O.o.{ ) ) ^ ^ / Q ~ ~ &.&.>.<.w.p.g.M.Z.`.}.-X:X:X>X2X2X<X%X@XW.W.T.BXuXpXpX0XlXM K L W T I D i r 8 2 O .     . O 6 oX!.oXoXoXoXoX@X@X@X%X%X%X&X<X<X<X<X2X2X2X2X2X>X>X;X-X-X'.V.q.&.` ` ! ! Q ! Q / ^ ^ ^ ) ) { { } o.o.O.~.~.~.~.~.~.~.O.O.O.o.} } [ [ ) ) ^ ^ ^ ^ / / Q ! ~ ~ ~ &.&.[.<X<X<X$X$X%X@X+XoXoXW.oXW.W.W.W.W.R.W.T.W.W.T.W.W.W.W.!.!.!.!.VXz Z D Y T R K H n kXrXpXuXBXY.T.!.+X+X&X<X2X2X>X:X-X}.'.V.V.g.t.w.>.>.*.` ` ! Q Q / ^ ) { } o.O.~.~.~.~.O.O.} [ ) ^ ^ ^ / Q ~ ~ &.&.1.<.r.g.m.V.).}.-X-X:X>X2X2X<X&X@X!.",
").V.m.p.r.<.>.&.` ~ ! Q ! &.` ` ~ ! Q Q Q ^ ^ ) ) { { o.O.O.~.~.~.~.~.O.~.o.} { [ ) ) ^ ^ ^ / Q ! ~ ~ &.&.].<X<X$X$X&X&X@X%XoX+X+XoXoXoX!.oXoX!.!.!.!.!.!.!.-     . . O 2 0 r N S Y Y E R J H n hXqXtXyXyXY.W.W.oX+X$X<X2X2X>X>X-X-X}.).Z.h.p.t.w.>.>.&.&.` ~ ! Q / ^ ) ) { o.O.O.~.~.~.^.O.O.L.%X2X2X2X;X-X}._._.Z.V.M.M.M.m.V.V.Z.)._.}.-X;X>X2X[.r.&.%.~ ! ! ! / ^ ^ ^ ^ ) { { } o.O.O.~.~.~.~.~.~.O.O.O.} { { ) ) ^ ^ ^ / Q Q ! ~ ~ ~ >.8.BXR.HX+X&X2X2X2X>X>X:X-X-X*X-X-X-X-X-X;X:X>X2X2X<X<X%X,.Q Q ^ ) ) { } o.O.~.~.~.~.O.o.} { ) ^ ^ / Q ! ~ ~ &.>.>.w.r.p.m.V.).'.-X-X:X2X2X2X<X$X@X+XW.T.Y.yXuXpX0XhXm H L R T Y D Z y w 4 1 X .   . . O 2 BXoXoXoXoX@XoX@X@X%X%X%X&X#X<X<X<X2X2X2X2X2X>X>X;X-X*X}.'.).t.&.` ` ` ` ! Q Q Q Q ^ ^ ^ ) ) { } } o.O.O.~.~.~.~.~.~.~.~.O.o.o.} { [ ) ) ^ ^ ^ ^ / Q Q Q ~ ~ ~ %.&.r.[.$X$X%X%X+XoX+XW.!.W.W.W.W.W.T.T.T.T.T.T.T.T.T.T.W.W.W.!.!.!.!.sXS U T E R J M lX0XqXtXuXBXT.W.!.@X$X<X2X2X>X:X;X-X'.).V.m.p.t.w.>.&.&.` ~ ! Q / ^ ^ ) { } o.~.~.~.~.~.O.o.} ) ) ^ ^ / Q ! ~ &.>.&.<.r.r.m.M.)._.}.-X:X>X2X2X<X&X#X@X",
"`.).M.m.t.w.w.>.&.` ` Q Q ! &.` ` ~ ! ! Q ^ ^ ^ ) ) { { o.O.O.~.~.~.~.~.O.~.o.o.[ [ ) ) ^ ^ ^ ^ Q Q ~ ~ &.&.E.<X$X$X%X@X%X@X+XoXoXoXoXoX!.oXW.!.!.!.!.!.!.!.!.G.      O 1 4 w y Z D Y T E L H M kX0XqXtXyXY.Y.W.!.+X$X$X<X2X2X2X:X-X}.'.).V.m.p.r.w.>.&.&.~ ~ Q ! Q ^ ^ ) { { o.O.~.~.~.~.O.O.o.X.%X<X2X2X:X-X=X_._.).Z.V.V.M.V.V.V.)._.'.}.-X:X>X2X2Xy.&.~ ~ ! ! ! ! / ^ ^ ^ ) ) { } o.o.O.~.~.~.~.~.~.O.O.O.o.{ [ [ ) ) ^ ^ ^ / Q Q ~ ~ ~ &.2.BXR.oX+X$X<X2X>X>X:X;X-X-X}.}.}.}.-X-X;X;X:X>X2X2X<X#XJ.^ / ^ ) ) } o.O.~.~.~.~.O.O.o.{ ) ) ^ ^ / Q ~ ~ &.&.>.<.r.r.m.m.)._.}.-X:X:X2X2X2X<X%X@X!.W.T.BXuXpXpX0XlXM J R E T Y S B r 8 3 O X     . O 1 7 h W.oXoXoX+X@X@X@X%X%X%X<X<X<X<X2X2X2X2X2X2X>X;X;X-X}.'.'.V.m.>.` ` ` ` ! ! Q Q Q / ^ ^ ) _ ) { } o.o.O.~.~.O.~.~.~.~.O.~.O.o.o.} [ [ ) ) ^ ^ ^ ^ ^ / Q ! ~ ~ ~ &.&.A.$X%X@XoXoXW.oXW.W.W.T.T.T.T.T.Y.Y.Y.T.Y.Y.T.T.T.T.W.W.!.!.!.!.+XxXY W E L H m kX0XpXuXyXY.T.W.+X+X$X<X<X2X>X:X-X*X_.).V.m.t.r.<.>.&.&.~ ~ ! Q / ^ ) ) { o.O.~.~.~.~.O.O.o.[ [ ) ^ ^ / Q ~ ~ &.>.>.<.r.p.m.V.).}.}.-X:X>X2X2X<X$X@X",
"}._.).m.m.t.w.>.*.&.` ! ! ^ ( &.~ ` ~ Q Q Q / ^ ^ ) ) { } } O.O.~.~.~.~.~.O.~.o.} } { ) ) ^ ^ ^ / Q Q ~ ~ ~ %.E.$X@X%X%X+XoX+XoXoX!.oX.X!.W..X!.!.W.!.!.!.!.!.!.G.    . O 3 8 r N S Y T E R P H vX0X9XpXuXyXT.T.W.oX@X$X<X2X2X>X:X-X-X}._.V.m.p.t.w.>.>.&.&.` ~ ! Q ^ ^ ^ ) } } o.~.~.~.~.^.^.o.} e.OX<X2X2X>X;X-X}._._.Z.Z.Z.V.V.Z.).).'.'.-X-X>X>X2X<XB.&.%.` ~ ! ! ! / / ^ ^ ) ) { { o.o.O.~.~.~.~.~.~.~.O.O.o.} [ [ ) ^ ^ ^ ^ Q Q Q ! ~ ~ &.%.F.R.oX%X<X<X2X>X:X:X-X-X}.}.}.}.}.}.}.-X;X:X>X2X2X<X<X@X,.^ ^ ) { } o.~.O.~.~.~.~.o.} { ) ^ ^ / Q ! ~ ~ %.>.>.<.r.p.m.V.).'.*X-X:X2X2X2X<X<X@X@XW.T.Y.BXuXpX0XhXn H K E W Y D S y w 7 1 X .   . . O 3 0 e FXoXoXoXoX@X%X@X%X%X&X$X<X<X<X2X2X2X2X>X>X>X;X-X}.}.).).V.m.w.&.` ` ` ~ ~ Q Q Q ^ ^ ^ ^ ) [ { { } o.o.O.~.~.~.~.~.~.~.~.O.O.o.} { [ [ ) ^ ^ ^ ^ / / Q Q ! ~ ~ ~ &.&.K.+XoXoX!.W.W.R.T.T.T.Y.BXG.Y.Y.Y.yXY.Y.Y.G.Y.T.T.W.W.!.!.!.!.!.GXP W R J H lX0XqXtXuXY.Y.W.!.oX$X<X2X2X2X:X;X-X}._.Z.m.p.r.w.>.>.&.` ~ ! Q Q ^ ^ ) { } O.O.~.~.~.~.O.o.} [ ) ^ ^ / Q ! ~ ~ &.>.<.w.t.p.m.V.).}.-X:X:X2X2X2X<X%X",
"-X}.).Z.m.g.r.w.>.&.` ` ! Q Q ^ >.~ ` ` Q Q Q Q ^ ^ ) ) { { } O.O.~.~.~.~.~.O.~.O.o.[ [ [ ) ^ ^ ^ ^ Q Q ~ ~ &.&.5.$X@X@X@XoXoX!.!.!.!.W.!.!.W.!.!.!.W.W.!.!.W..XoXG.    o 1 4 w y Z D Y T E L H M lXrXqXtXyXyXT.W.!.+X%X<X<X2X2X2X:X-X}.'.).V.m.p.r.w.>.] &.~ ~ ! Q Q ^ ^ ) ) } o.O.~.~.~.~.O.O.o.{ [ Z.,X<X2X>X:X-X=X_._.).).Z.Z.Z.Z.)._.'.}.-X;X:X>X2X<XE.&.%.~ ~ ! ! ! Q / ^ ^ ) ) { { } o.O.O.~.~.~.~.O.~.O.O.o.} [ [ [ ) ^ ^ ^ ^ Q Q ! ~ ~ &.&.0.W.+X%X<X2X2X>X:X;X-X}.}.'.}._.}.}.}.}.-X;X>X>X2X2X<X#Xp.^ _ ) } o.o.~.~.~.^.^.O.o.{ ) ) ^ ^ / Q ! ~ &.&.>.<.w.t.g.m.Z._.}.-X;X:X2X2X2X<X%X@XoXW.T.BXyXpXpX0XlXM J L Y T Y S V r 0 3 < X       X 1 3 w y n oX@X+XoX@X%X%X%X%X<X$X<X2X2X<X2X2X2X2X>X;X-X-X}.'.).V.V.g.r.>.` ` ~ ~ ~ Q ! Q Q ^ ^ ^ ^ ) [ { { o.o.o.~.~.~.~.~.~.~.~.O.O.O.o.} { ) [ ) ^ ^ ^ ^ ^ / Q Q ~ ~ ~ &.&.1.K.W.W.W.R.T.T.Y.BXY.BXBXBXyXBXG.yXyXyXY.yXY.Y.T.T.W.!.!.!.!.+XoXFXPXR H M kX0XqXuXyXY.T.W.oX+X$X<X2X2X2X:X-X*X'.).V.m.p.r.<.>.&.&.` ~ ! Q / ^ ^ { { } O.~.~.~.~.~.O.o.[ [ ) ^ ^ ^ Q ! ~ &.&.>.<.r.p.m.V.)._.}.-X:X>X2X2X<X<X",
";X-X}.).Z.m.p.r.<.>.&.` ` ! Q ^ ^ ] ` ` ` ! ! Q Q ^ ^ ^ ) { } } O.O.~.~.~.~.~.~.O.O.o.} { ) ) ^ ^ ^ / Q Q ~ ~ ~ &.5.@XoXoXoXoX!.!.!.W.!.!.W.!.W.W.W.W..XW.!.!.!.!.!.!.= . < 3 8 t i S I T Y R K H vXhXwXqXuXyXT.T.W.oX+X$X<X2X2X>X:X;X-X'._.Z.m.g.t.w.<.>.&.` ` ~ ! Q / ^ ) ) { } o.~.O.~.~.^.^.O.{ [ ) L.&X<X2X2X>X-X-X}.}._.).).).).)._._.}.}.-X:X>X2X2X<XU.5.%.%.~ ~ ! ! / / ^ ^ ^ ) ) { } o.O.O.~.~.~.~.~.~.~.O.o.o.{ [ ) ) ^ ^ ^ ^ Q Q Q ~ ~ ~ &.1.R.+X$X<X2X2X>X;X-X-X}.}.'.'._.'.'.}.}.=X-X;X>X2X2X<X&XP.^ ) { } o.~.^.~.~.~.O.O.} { ) ^ ^ / Q ! ~ ~ &.&.>.w.r.p.m.V.).'.}.-X:X2X2X2X<X<X@X+XW.R.Y.yXuXpXrXhXn H K R T Y I Z i w 7 1 X .     . o 3 7 r N S FX!.+X@X@X@X%X%X#X<X<X<X<X2X2X2X2X>X>X:X;X-X}.}.).).V.m.p.t.<.&.%.` ` ~ ! ! Q Q Q ^ ^ ^ ) ) { { } o.O.O.O.~.~.~.~.~.~.~.O.O.O.} } { ) ) ) ^ ^ ^ ^ / Q Q ! ~ ~ ~ &.&.b.R.R.T.Y.Y.BXG.BXBXBXuXBXyXyXuXyXyXyXyXyXY.Y.Y.T.W.W.!.!.!.+XoXoXMXK M m kXqXpXyXyXY.R.!.@X+X<X<X2X2X:X:X-X}._.Z.V.p.p.r.>.>.&.` ~ ! Q Q ^ ^ ) ) } o.O.~.~.~.~.O.O.} [ ) ^ ^ / Q ! ! &.~ >.>.<.r.p.m.V.).'.-X;X:X2X2X2X<X",
":X:X-X'.).V.m.p.w.w.*.&.` ! ! Q ^ ^ ` &.` ` ! ! Q Q ^ ^ ^ ) { { } o.O.~.~.~.~.~.~.O.O.o.} { [ ) ^ ^ ^ ^ Q Q ! ~ ~ &.5.oXoXoXW.!.!.W.!.W.W.W.W.W.W.W.W.W.W.W.W.!.W.!.!.!.= . 1 4 q u C D Y T E L J M lXrXqXtXyXyXT.W.!.+X@X<X<X2X2X2X:X-X*X_.).V.m.p.w.w.>.>.&.~ ~ ! Q Q ^ ^ ) { { o.O.~.~.~.~.O.O.o.[ [ ) | #X<X2X2X>X:X-X}.}.'._._.)._._.'.}.}.-X-X>X>X2X2X&X@X5.&.` ~ ~ ! ! Q / / ^ ^ ) ) { } } O.O.~.~.~.~.~.~.O.O.O.o.{ { [ ) ) ^ ^ ^ ^ Q Q ! ~ ~ &.&.D.oX&X<X2X2X>X;X-X}.}._.'._._._._.'.}.}.-X-X:X>X2X2X<X+Xq._ { o.O.~.^.~.~.^.O.o.} ) ) ^ ^ / Q ! ~ &.&.>.>.r.r.p.B.V.`.}.-X-X>X2X2X2X<X&X@X!.W.R.BXuXuXpX0XlXm J L E T Y D V t 0 3 < . .   . . 1 7 0 y C D K !.@X@X@X%X%X%X&X$X<X<X2X2X2X2X2X2X>X:X-X-X}.'.).V.M.m.t.t.w.] &.` ` ` Q ! Q Q Q ^ ^ ^ ^ ) ) { } } o.o.~.O.~.~.~.~.~.~.~.O.O.o.} { { ) ) ^ ^ ^ ^ ^ / / Q ! ~ ~ ~ &.&.S.Y.Y.BXyXBXuXyXuXuXuXuXuXuXuXuXuXuXuXuXyXY.Y.T.W.W.!.!.!.+XoXoXoXMXm lX0XpXtXyXY.Y.W.oX+X&X<X2X2X2X>X;X*X'.).V.m.p.r.w.>.>.&.` ` ! Q / ^ ^ ) { } O.O.~.~.~.~.O.o.} [ ) ^ ^ ^ Q ! ~ &.&.>.<.w.r.m.m.Z._.}.-X;X>X>X2X2X",
"2X:X;X=X'.Z.V.g.p.w.>.*.` ` ! Q / ^ ) ' ` ` ` ! ! Q Q ^ ^ ^ ) ) } } o.o.~.~.~.~.~.~.~.O.o.} { ) ) ) ^ ^ ^ Q Q ! ~ ~ &.<.K.W.!.W.W.W.W.T.W.W.W.W.T.W.W.T.W.W.W.W.W.!.W.!.!.- O 3 8 r i S I T E R P M n hXqXqXuXyXY.T.W.oX+X$X<X2X2X>X>X-X-X}._.Z.m.g.p.w.>.>.&.&.~ ~ ! Q ^ ^ ^ ) { o.o.~.~.~.~.^.~.o.} [ ) ) *.XX$X2X2X>X:X;X-X}.'.'._.'._.'._.}.*X-X;X>X2X2X2X&X@XD.&.%.` ! ! ! Q / / ^ ^ ) ) { { } o.o.~.~.~.~.~.~.~.^.O.O.} { [ ) ) ^ ^ ^ / Q Q ! ~ ~ ~ &.b.+X$X2X2X>X:X-X-X}.'._._.Z.).).)._.`.}.}.-X;X>X2X2X<X&XL.{ } o.O.^.~.~.^.O.O.} { ) ^ ^ / Q ! ~ ~ &.&.>.<.r.p.m.V.).'.}.-X:X>X2X2X<X<X+X@XW.R.Y.BXuXpX0X0Xn M K R Y T I S i w 7 2 O .     . o 1 8 e N S I T FX@X@X@X@X%X%X&X<X<X<X2X2X2X2X2X>X:X:X-X*X'._.).V.m.g.t.w.>.*.&.` ` ` ~ ! ! Q Q Q ^ ^ ^ ) ) ) { } o.o.O.~.~.~.~.~.~.~.O.~.O.o.o.} } ) ) ) ^ ^ ^ ^ / / Q Q ~ ~ ~ ~ &.1.v.yXBXuXuXuXtXuXpXuXpXpXpXpXtXtXtXuXuXyXyXY.Y.W.W.!.!.oXoXoXoX+XDXmXhX0XpXuXyXT.R.W.oX#X$X<X2X2X>X:X-X}.'.Z.V.g.p.r.w.>.&.` ` ! ! / / ^ ) ) } } O.~.~.~.~.~.O.o.[ ) ^ ^ ^ Q ! ~ ~ &.&.>.<.r.p.m.V.).'.}.-X:X2X2X2X",
"2X2X:X:X*X'.).V.p.t.w.>.*.` ` ! Q / ^ ) ' ` ` ` ~ ! Q Q / ^ ^ ) ) { } o.O.O.~.~.~.~.~.O.O.O.} } ) ) ^ ^ ^ ^ / Q ! ~ ~ &.&.D.W.W.W.W.T.W.T.T.T.T.W.T.T.W.T.W.W.W.W.W.!.!.!.!.G.1 4 q u C D Y T E L J m lX0XqXtXuXY.Y.W.!.+X#X$X<X2X2X2X:X-X*X'.).V.m.p.t.w.>.>.&.~ ~ ~ ! / ^ ^ ) { { o.O.~.~.~.~.O.O.o.[ [ ) ) ^ H.#X<X2X2X>X:X-X-X}.}._.'.'.'.}.}.-X-X;X>X>X2X2X%XoXD.&.%.` ` ! ! ! / / / ^ ) ) { { } o.o.O.~.~.~.~.~.~.O.O.o.} { [ [ ) ) ^ ^ ^ / Q Q ~ ~ %.&.5.+X$X2X2X>X:X-X}.}._._.).Z.Z.Z.Z.Z._.}.'.=X-X;X2X2X2X$XP.e.o.O.^.~.~.~.^.O.o.} { ^ ) ^ / Q ! ~ &.&.>.>.w.r.p.m.V.`.}.-X-X>X2X2X2X<X&X+XoXW.R.Y.uXuXpX0XlXM J L E T Y D V y 0 3 1 X .   . X 1 3 w t V D Y T UXXX@X@X@X%X&X&X$X<X<X2X2X2X2X2X>X:X;X-X}.'.).).M.m.t.t.w.>.*.&.&.` ` ` ! ! Q Q Q ^ ^ ^ ^ ) ) { { } o.o.O.~.~.~.~.~.~.~.O.O.O.o.} } { ) ) ) ^ ^ ^ ^ / / / ! ~ ~ ~ &.&.z.uXuXtXpXtXpXpXrXpXpXqXqXqXqXqXpXpXtXuXyXY.Y.T.W.!.!.oX+XoX@X@X@XJXaX8XtXyXyXY.W.!.oX$X<X<X2X2X>X:X-X'._.V.h.p.r.w.>.>.&.` ` ! ! / / ^ ) { } o.O.~.~.~.~.O.O.} [ ) ^ ^ ^ Q ! ~ ~ &.>.>.5.r.p.m.Z.).}.-X-X:X>X2X",
"2X2X2X:X-X-X'.V.V.g.r.w.>.&.` ~ ! Q ^ ) _ ' &.` ~ ~ ! Q / ^ ^ ^ ) ) { } o.o.~.~.~.~.~.~.~.O.o.} { [ ) ) ^ ^ ^ / Q ! ~ ~ &.%.D.R.W.T.T.T.T.T.Y.T.Y.Y.T.T.T.T.T.T.W.W.W.W.W.!.oXG.3 8 e N S I T Y R K H n hXqXpXuXyXY.T.W.!.@X$X<X2X2X>X>X;X-X}._.Z.m.g.t.w.>.>.&.&.` ~ Q Q / ^ ^ ) { } O.O.~.~.~.^.~.O.} [ ) ^ ^ / H.&X<X2X>X>X:X;X-X}.}.}.'.}.}.}.*X-X;X>X>X2X2X<X%X!.HX<.&.` ` ! ! ! / / ^ ^ ^ ) ) { { o.o.O.~.~.~.~.~.~.O.~.o.o.} [ [ ) ^ ^ ^ ^ / Q Q ! ~ ~ %.&.E.<X2X2X>X;X-X}._._.Z.Z.V.V.V.Z.Z.Z._.`.}.=X;X:X2X2X<X%Xg.o.O.~.~.~.^.~.O.} { ) ^ ^ / Q Q ~ ~ &.&.>.<.r.p.m.V.Z.'.}.-X:X>X2X2X2X<X@X+XW.W.Y.BXuXpXqXhXlXM K R E Y U S i e 8 1 O .     . o 1 7 w i S I Y T R GX@X@X@X#X%X&X<X<X2X2X2X2X2X>X:X:X-X-X}._.).V.m.g.t.w.w.>.&.&.&.&.` ` ~ ! ! ! Q Q ^ ^ ^ ) ) ) { } } o.O.O.~.~.~.~.~.~.~.~.O.O.o.} { { ) ) ) ^ ^ ^ / / / Q ! ~ ~ ~ %.&.4XpXpXqX8XrX8XrX0X0XrX0XrX9XrXwXqXtXuXyXyXT.T.W.W.!.oX+X@X@X@X@X@XCXpXtXyXY.R.W.+X@X$X<X2X2X>X:X-X*X'.).V.m.p.r.w.>.&.&.` ! ! / / ^ ) ) { o.O.~.~.~.~.~.O.o.} [ ) ^ ^ / Q ~ ~ &.&.>.<.w.p.m.m.)._.}.-X:X>X2X",
"<X2X2X2X>X-X*X'.V.m.g.t.<.>.&.` ! Q Q ^ ) { ' ` ` ` ! ! ! Q / ^ ^ ) ) { } o.o.O.~.~.~.~.O.~.O.O.o.[ [ ) ) ^ ^ ^ / / Q ~ ~ &.&.S.T.T.Y.Y.Y.T.Y.Y.Y.Y.Y.BXY.Y.T.T.T.T.W.W.W.!.W.!.G.4 q y C D Y T E L J M lX0XqXtXuXY.Y.W.!.+X@X<X<X2X2X>X:X-X}.'.).V.m.p.t.w.>.] &.~ ~ ~ Q Q ^ ^ ) { { o.O.~.~.~.~.O.O.o.} ) ) ) ^ ^ &.@X<X<X2X>X>X;X;X-X}.}.}.}.}.-X*X-X;X>X>X2X2X<X@X!.ZX0.&.` ` ` ! ! ! / / ^ ^ ) ) { { o.o.O.O.~.~.~.~.~.O.^.O.o.} [ [ [ ) ^ ^ ^ ^ Q Q ! ~ ~ &.&.A.<X2X>X>X;X}.}._.).Z.V.V.V.h.B.V.Z.Z._.}.}.-X;X>X2X2X&XP.O.@.~.~.~.O.O.o.} { ) ^ ^ / Q ! ~ ` &.>.>.w.r.p.m.V.).}.*X;X:X>X2X2X<X$X@XoXW.R.Y.uXuXqXrXlXm J L Y W Y D C y q 4 < X .     . < 3 0 r V D U Y W L nXXX@X@X#X%X&X$X<X<X2X2X2X2X>X>X:X-X*X}._.).V.m.g.t.w.>.>.&.` ` &.` ` ~ ~ Q ! Q Q / ^ ^ ^ ) ) { { } o.o.O.~.~.~.~.~.~.~.~.O.O.O.o.} { ) ) ) ^ ^ ^ ^ / / / Q ! ~ ~ %.&.2.4XeX0X0XkXkXhXhXlXhXkXhXkXrXhXwXqXtXyXyXY.T.W.W.!.!.oX@X@X%X@X@X@XVXuXY.Y.R.W.+X%X&X<X2X2X2X:X-X'.'.V.V.g.t.w.,.>.&.` ` ! ! Q ^ ^ ) { { o.O.~.~.~.~.O.O.} [ [ ) ^ ^ / Q ~ ~ &.&.>.<.r.p.m.V.).'.}.;X:X2X",
"#X<X2X2X>X:X-X*X_.).m.p.r.>.>.&.~ ! Q ^ ^ ) } ..&.~ ` ~ ! Q Q / ^ ^ ) ) { { o.O.O.~.~.~.~.~.~.O.o.o.} [ ) ) ^ ^ ^ / Q Q ~ ~ ~ &.1.Y.Y.Y.Y.yXBXY.BXBXBXG.Y.Y.Y.Y.Y.T.T.W.W.W.!.!.!.!.g w N S I T T R K H vXkX8XpXuXyXY.T.W.!.+X$X<X2X2X2X:X:X-X}.).Z.M.g.t.r.<.>.&.&.` ~ ! Q / ^ ^ ) { } O.O.~.~.~.~.O.O.} [ ) ^ ^ Q Q >.+X<X<X2X2X>X:X;X-X-X-X}.}.}.-X-X;X:X>X2X2X2X<X@X!.T.v.&.%.~ ~ ! ! ! / / ^ ^ ) ) { { } o.O.O.~.~.~.~.~.~.^.O.o.o.{ [ ) ) ^ ^ ^ ^ / Q Q ~ ~ ~ &.r.<X2X2X;X;X}._._.Z.V.V.m.m.m.V.m.V.Z.Z._.'.-X;X:X2X2X<X#X/.O.~.~.~.~.O.} { ) ^ ^ / / ! ~ ~ &.&.>.<.r.t.m.V.).`.}.-X:X>X2X2X<X<X&X+XW.W.Y.BXuXtX8X0XlXM J R E Y Y S B r 8 2 O .     . o 1 7 w i Z I Y T R K H DX@X@X@X&X&X$X<X2X2X2X2X2X>X:X:X-X*X'._.V.V.m.t.r.w.>.&.&.` ` &.&.` ` ~ ! ! ! Q Q ^ ^ ^ ^ ) ) { { } o.O.O.~.~.~.~.~.~.~.~.O.O.o.} } { ) ) ) ^ ^ ^ ^ / / Q ! ~ ~ ~ %.&.:.lXlXlXlXlXm lXvXlXm lXn lXhX0XqXqXyXyXY.T.W.W.!.+X@X@X@X@X%X@XoX+XVXyXR.W.oX+X&X<X2X2X>X>X-X-X'.).V.m.p.t.w.>.&.&.` ~ ! Q / ^ ^ ) { } O.O.~.~.~.~.O.o.} [ ) ^ ^ / Q ! ~ %.&.>.<.w.t.p.m.Z._.}.-X;X:X",
"#X%X<X<X2X2X:X-X}._.V.m.p.w.>.>.&.~ ! Q ^ ^ ) } +.&.` ` ~ ! Q ! / ^ ^ ) ) { { o.o.O.~.~.~.~.~.~.O.O.o.} [ [ ) ^ ^ ^ / / Q ~ ~ ~ &.1.Y.BXBXG.yXyXBXBXBXBXBXY.BXY.Y.Y.Y.T.T.W.W.!.!.!.!.h t Z S Y T E L J M lXhXqXtXuXY.Y.W.!.oX%X$X<X2X2X>X:X;X}.}.).V.m.p.r.w.>.>.&.` ~ ! Q Q ^ ^ ) { { o.O.~.~.~.~.~.O.o.} ) ) ) ^ Q Q Q D.$X<X2X2X>X>X;X;X-X-X-X-X-X-X;X;X>X>X>X2X2X&X@XW.T.v.1.%.%.! ~ ! ! ! / ^ ^ ^ ) ) { } o.o.O.~.~.~.~.~.~.O.O.O.o.{ { [ ) ) ^ ^ ^ ^ / Q ! ~ ~ &.&.[.2X>X;X-X}._.Z.Z.M.m.m.m.g.m.m.h.V.Z.)._.}.-X;X2X2X<X$X`.@.~.~.~.O.o.} { ) ^ ^ / Q ! ~ ` &.>.>.<.r.p.m.V.).}.}.;X:X>X2X2X<X$X@XoXW.R.Y.yXuXpX0XkXm H L R T Y I C u w 4 1 X .     . O 3 0 r V S Y Y T R J M mX@X+X@X&X&X$X<X<X2X2X2X2X>X:X:X-X*X'.).V.V.m.t.r.w.>.&.&.` ! ~ &.&.` ` Q ! Q ! Q Q / ^ ^ ) ) { { } } o.O.~.O.~.~.~.~.~.~.O.O.o.o.} { [ ) ) ) ^ ^ ^ ^ / / Q ! ~ ~ ~ &.&.l.M M M H M H M H M M M m vXhXwXqXtXyXBXT.W.W.!.!.+X@X%X@X%X%X@X@XoXR.R.!.oX+X&X<X2X2X>X:X-X*X_.).V.m.i.w.w.>.&.&.` ~ ! Q / ^ ^ ) { o.O.~.O.~.~.~.O.o.[ [ ) ^ ^ / Q ! ~ &.&.>.<.r.p.m.M.Z.`.}.-X:X",
":XOX#X<X2X2X2X:X-X}._.V.m.t.r.>.&.&.! ! Q ^ ) { } +.&.` ` ~ ! Q Q Q ^ ^ ^ ) { { } O.O.~.~.~.~.~.~.O.O.o.} [ [ ) ^ ^ ^ / Q Q ~ ~ ~ &.1.yXuXBXuXBXuXBXyXyXBXyXBXyXBXY.Y.BXT.T.W.W.W.!.!.oXh i S I Y T R K H n hXrXpXtXyXBXT.W.oX+X&X<X2X2X2X>X;X-X}._.Z.M.m.t.r.<.>.&.&.` ~ Q Q Q ^ ^ ) { } o.O.~.~.~.~.O.O.} } ) ^ ^ ^ Q ! ! K.&X<X<X2X>X>X:X;X;X-X-X-X-X;X;X;X>X2X2X2X2X&X@XW.Y.iX1.%.%.~ ~ ! ! Q / / ^ ^ ) ) { { o.o.O.~.~.~.~.~.~.^.^.O.o.} { [ ) ) ^ ^ ^ / / Q ! ~ ~ %.&.r.>X>X;X-X_._.Z.V.m.m.g.g.p.p.g.m.m.V.Z.).}.}.-X:X2X2X<X'./.~.~.O.O.o.{ ) ^ ^ / / ! ~ ~ &.&.>.<.r.p.p.V.Z._.}.-X:X>X2X2X<X<X&X+X!.W.Y.Y.uXtXqX0XlXM J R E T Y S V r 8 3 < .     . X 1 7 w y Z I Y T R L H m hXJX@X@X%X&X$X<X<X<X2X2X2X>X:X-X-X}.'._.V.m.g.t.w.>.>.&.` ` ! Q ` &.` ` ` ` Q ! Q Q ^ ^ ^ ^ ) ) { { } o.o.~.O.~.~.~.~.~.~.~.~.O.o.o.} } [ ) ) ^ ^ ^ ^ / / Q Q ! ~ ~ ~ &.7.gXK J P P K J K J P J M M lXhXqXtXyXY.ZXW.W.!.!.+X@X%X#X@X&X+X@X@XoXW.!.@X&X<X2X2X2X:X:X-X}._.V.m.p.t.w.>.>.&.` ~ ! Q / ^ ^ ) { } O.O.~.~.~.~.O.O.} { ) ^ ^ / / ! ~ ~ %.>.>.<.r.p.m.V._.`.=X-X",
"2X:X#X#X<X<X2X2X:X-X}.).V.m.t.w.>.&.&.~ Q Q ^ ) { o.+.&.` ` ` ! ! Q Q ^ ^ ) ) { { } o.O.~.~.~.~.~.~.O.O.o.} [ [ ) ) ^ ^ ^ / Q ! ~ ~ &.1.x.uXuXuXuXuXuXuXuXyXuXG.yXyXY.G.BXT.T.T.W.!.!.!.!.AXC D Y T E L J M lX0XqXtXuXG.Y.T.!.+X+X$X<X2X2X>X:X;X*X'.).V.m.p.r.w.>.>.&.` ~ ~ Q Q ^ ^ ) ) } o.O.~.~.~.~.~.O.o.[ [ ) ) ^ Q Q Q ~ <.@X<X<X2X2X>X>X:X;X;X-X-X;X;X:X:X>X>X2X2X2X%X@XW.BXyXc.&.%.` ~ ! ! ! / / ^ ^ ) ) { { } o.O.O.~.~.~.~.~.^.O.O.O.} { [ [ ) ^ ^ ^ ^ / / Q ~ ~ ~ &.5.}.,X;X=X_.Z.V.M.m.p.p.p.p.t.p.p.m.m.V.Z._.}.-X:X>X2X<X$X(.~.~.O.O.} { ) ) ^ / Q ! ~ ` &.>.>.w.r.p.m.V.).'.}.;X:X>X2X2X<X$X@X@XW.W.Y.yXuXpX8XkXm H K Y W Y I C u w 4 1 X .     . O 3 7 r N S I Y T L J M lXhXiXW.@X%X&X$X<X<X2X2X2X2X>X:X:X-X}._.).V.m.g.t.w.>.>.&.` ` ! Q ( ` &.` ` ` Q ! ! Q Q / ^ ^ ^ ) ) { { } o.O.O.~.~.~.~.~.~.~.O.~.o.o.} } [ [ ) ) ^ ^ ^ ^ ^ / / ! ! ~ ~ &.&.7.c R R R R R R L R L J H vXhXwXpXiXG.BXW.W.!.!.+X@X%X%X@X$X%X@X@X@X!.oX+X&X<X<X2X>X>X-X*X'.).V.m.p.r.w.>.&.&.` ~ ! Q / ^ ^ ) { } O.~.~.~.~.^.O.o.{ [ ) ^ ^ / / ! ~ &.&.>.<.w.r.g.m.Z._.}.-X",
">X:X-X#X@X<X<X2X2X:X-X}.).V.g.t.w.>.&.` ! ! ^ ^ ) { o.+. .` ` ~ ! ! Q Q ^ ^ ^ ) { { } o.O.O.~.~.~.~.~.~.O.o.} { [ ) ) ^ ^ / / Q ! ~ ~ %.%.c.uXuXpXuXuXuXuXuXuXuXuXyXyXyXyXY.BXT.W.W.W.!.!.!.SXS I Y T R K H m kX9XpXuXyXY.T.W.!.@X$X<X2X2X2X>X;X-X}._.Z.V.g.p.w.<.>.&.&.` ! ~ Q Q ^ ^ ) { } o.O.~.~.~.~.O.O.o.[ ) ^ ^ ^ Q ! ~ ~ 5.oX$X<X2X2X>X>X>X:X:X;X;X:X;X:X>X2X2X2X2X<X@X@XW.BXtXc.4.` %.~ ! ! ! / / ^ ^ ^ ) ) { { o.O.O.O.~.~.~.~.~.~.O.o.o.} [ [ ) ^ ^ ^ ^ / Q Q ! ~ ~ &.%.].;X=X}._.Z.M.m.m.p.p.t.p.t.p.p.p.m.m.Z.)._.}.-X>X>X<X<X`.@.~.O.} } ) ^ ^ / Q ! ! ~ &.&.&.<.w.p.p.V.V.`.}.-X:X:X2X2X2X<X&X+X!.W.Y.BXyXtXqX0XlXM J L E Y Y D V r 0 3 < X     . o o 7 0 y Z D Y T E L H m z rXqXAX@X@X%X&X<X<X2X2X2X2X>X>X-X-X}._.).V.m.p.t.w.>.&.&.` ! ! Q ^ ` &.` ` ~ ~ ! ! Q Q Q ^ ^ ^ ) ) { { { o.O.O.O.~.~.~.~.~.~.~.~.O.O.o.} [ [ ) ) ) ^ ^ ^ / / Q Q ! ~ ~ ~ &.&.7XY T Y T T W W Y R L J H lXwXtXtXBXY.T.!.!.!.+X@X@X&X%X%X%X%X#X@X@X@X&X&X2X2X2X:X:X-X}.'.V.V.g.i.w.,.>.&.` ~ ~ Q / / ^ ) { { o.O.~.~.~.~.O.^.{ } ) ) ^ / / ! ~ ~ &.&.>.<.r.p.m.B.).'.}.",
"2X2X:X-X X&X&X2X2X2X:X-X}.Z.V.p.t.w.&.&.` ! Q ^ ^ { { O.~.' &.~ ` ! ! Q Q / ^ ^ ) ) } } o.o.~.~.~.~.~.O.~.O.O.} [ [ ) ) ^ ^ ^ / / Q ~ ~ &.&.4XtXpXpXpXpXtXpXuXtXuXuXuXyXyXyXG.BXT.T.W.!.!.!.!.SXH Y T E R J M lXhXqXpXuXBXY.T.!.+X@X$X<X2X2X>X:X;X}.'.).V.m.p.t.w.>.>.&.` ` Q Q Q ^ ^ ) ) { o.O.~.~.~.~.~.O.o.} [ ) ) ^ ^ Q ! ~ ~ &.E.%X<X<X2X2X>X>X:X:X:X;X:X:X:X>X2X2X2X2X<X@X!.R.BXtXqX:.` ` ` ! ! ! ! / / ^ ^ ) ) { { o.o.O.~.~.~.~.~.~.~.O.O.o.} [ [ [ ) ^ ^ ^ ^ Q Q ! ~ ~ &.&.r.;X=X]._.V.M.p.p.p.r.r.r.r.r.r.p.p.p.M.V._.'.-X;X>X2X<X#X/.O.o.} { ) ^ ^ / Q ! ~ ` &.>.>.<.r.p.m.V.).'.}.-X:X>X2X2X<X<X@X@XW.W.Y.yXuXpXqXhXm M K R T T I Z i w 7 1 O .     . O 1 0 e i S I Y Y R K M lXhXqXtXBXW.@X%X&X$X<X<X2X2X2X>X>X:X-X}._.).V.m.p.r.w.>.&.&.` ! Q Q ^ ^ &.` &.~ ~ ~ Q Q Q Q / ^ ^ ^ ) ) { { } o.O.O.~.O.~.~.~.~.~.~.O.O.O.o.} [ [ [ ) ^ ^ ^ ^ ^ Q Q Q ! ~ ~ ` &.&.F Y Y Y Y Y T T Y E P H vXhXpXtXBXBXT.W.!.!.#X+X%X&X%X&X%X&X%X%X@X@X#X<X<X2X2X:X:X*X'.).V.m.p.t.w.>.>.&.~ ~ ! ! / / ^ ) { } o.O.~.~.~.^.O.O.{ [ ) ^ ^ / / ! ~ ~ &.&.<.<.r.g.m.V._.'.",
"2X>X:X;X-XXX+X&X2X2X>X:X-X}.).V.p.r.w.*.&.` ! Q ^ ^ { } O.~.| &.` ~ Q ! ! Q ^ ^ ^ ) ) { } o.o.~.O.~.~.~.~.~.O.o.o.[ { ) ) ^ ^ ^ / / ! ~ ~ ~ >.9.qXqXqXpXqXpXpXpXtXtXtXtXuXyXyXyXY.Y.T.W.W.!.!.oXXXJ T T R L H m hX0XpXuXyXY.T.W.!.+X&X<X<X2X2X>X;X-X}._.Z.V.g.p.w.w.>.&.&.` ~ ~ Q Q ^ ^ ) { } o.O.~.~.~.~.O.o.o.[ ) ^ ^ ^ Q Q ~ ~ &.&.K.%X<X<X2X2X2X>X>X>X:X:X:X>X>X>X2X2X2X<X<X@X!.W.BXtXqXl.&.` ` ~ ! ! Q / / ^ ^ ) ) { { } o.O.O.~.~.~.~.~.~.~.O.o.o.{ [ [ ) ^ ^ ^ ^ / Q Q ~ ~ ~ %.5.`.=X_.Z.M.m.p.p.r.r.w.r.w.r.r.r.p.p.m.M.Z._.}.-X>X2X2X%X`.O.o.} ) ) ^ / Q ! ! ~ &.&.>.>.r.i.p.m.Z.).}.-X:X:X2X2X2X<X&X@X!.W.T.Y.yXuXqXrXlXM J L E Y Y D V y 0 3 < X     . X 1 3 0 y V D Y T E L J m lX0XpXtXyXW.@X+X$X$X<X<X2X2X2X>X:X;X-X}._.).V.m.p.r.w.>.&.&.` ~ Q Q ^ ) _ ` &.` ~ ~ ~ ! Q Q Q / ^ ^ ) ) ) { { } o.o.~.O.~.~.~.~.~.~.~.O.O.o.o.} [ ) ) ) ^ ^ ^ ^ / Q Q Q ! ~ %.~ &.9.c I I I I Y Y T Y R J n hXqXtXyXY.T.W.!.!.@X#X@X&X&X&X&X&X%X&X#X@X@X<X2X2X>X:X-X}.'.Z.V.m.i.r.<.>.&.&.` ~ ! / / ^ ) ) { o.O.~.~.~.~.^.O.o.{ [ ) ^ / / Q ~ ~ &.>.&.<.r.r.m.m.Z.`.",
"2X2X2X:X-X}.}.+X&X<X2X2X:X-X'.).V.g.r.<.>.` ` ! Q ^ ) { } O.~. .&.` ` ! Q ! Q Q ^ ^ ) ) { } o.o.~.~.~.~.~.O.~.O.O.o.[ [ [ ) ^ ^ ^ / / Q ! ~ ` &.2.0XqX0X8XrXqXpXqXqXpXtXtXtXuXyXyXY.Y.T.W.!.!.!.!.oXJ T E L K M lX0XqXpXuXBXY.T.!.+X+X&X<X2X2X2X:X;X-X'.).V.m.p.t.w.>.>.&.` ` Q Q Q ^ ^ ) ) { o.O.~.O.~.~.~.O.o.} [ ) ^ ^ ^ Q ! ~ ~ &.>.5.+X$X<X<X2X2X>X>X>X>X>X>X>X>X2X2X2X2X<X&X@XHXR.yXtXrX8X%.%.` ~ ~ ! ! Q / ^ ^ ^ ) ) { } o.o.O.~.~.~.~.~.~.O.O.O.o.{ [ [ ) ) ^ ^ ^ ^ Q Q ! ~ ~ &.&.g.}._.Z.M.g.p.r.r.w.<.w.<.<.r.r.r.p.p.m.V.).}.}.:X>X2X<X'.s.} { ) ) ^ / Q ! ~ ~ &.&.>.<.r.p.m.V.).`.}.-X:X>X2X2X<X<X@X@XW.W.Y.yXuXpX8X0Xn M K R T Y U S i e 7 2 O .     . O 3 7 e i Z I Y T R K H lXhX9XtXuXyXT.!.@X&X$X$X<X<X2X2X2X>X:X-X}.'.Z.V.m.p.r.w.>.&.&.` Q ! Q ^ ) { | &.` ` ~ ~ ! ! Q Q / ^ ^ ^ ) ) { { } o.o.O.~.O.~.~.~.~.~.~.O.O.O.o.} } [ [ ) ) ^ ^ ^ ^ ^ / Q ! ! ~ ~ &.&.7.Z Z Z Z S D Y T Y P M hXwXtXyXBXT.W.!.!.@X#X%X&X&X<X<X$X$X&X%X%X@X@X<X2X:X:X-X}._.V.N.g.i.w.>.>.&.` ~ ~ ! / / ^ ) { { o.O.~.~.~.~.^.O.} [ ) ) ^ ^ / Q ~ ~ &.>.>.<.r.p.m.V.).",
"2X2X>X:X;X-X'.].+X$X2X2X>X:X-X'.).m.p.t.>.*.` ` Q / ^ ) { o.O.@...&.` ~ ~ ! Q Q ^ ^ ^ ) ) { { o.o.O.~.~.~.~.~.~.O.O.o.} [ ) ) ^ ^ ^ / / ! ! ~ ~ &.2.kXhX0X0X0X0X9XqXqXqXqXpXtXtXyXyXY.T.T.W.W.!.!.+X!.GXW E K H m lX0XqXuXyXBXT.W.oXoX&X<X2X2X2X:X:X-X}._.).V.m.p.w.w.>.&.&.` ` ! Q Q ^ ^ ) { } o.O.~.~.~.~.O.O.o.[ [ ^ ^ ^ Q Q ~ ~ &.&.>.u.E.$X<X2X2X2X2X>X>X>X>X>X>X>X2X2X2X2X<X%X@XW.T.yXtX0Xm 8.` %.~ ! ! ! Q / / ^ ^ ) ) { { o.o.O.O.~.~.~.~.~.~.O.O.o.o.{ [ ) ) ^ ^ ^ ^ Q Q ! ~ ~ ~ &.w.]._.V.m.p.r.r.r.<.<.<.<.<.<.<.w.r.p.p.M.V._.}.-X:X2X<X#Xh.} ) ) ^ ^ / ! ! ~ ` &.>.,.w.t.p.m.V.).}.-X:X:X2X2X2X<X&X+XoXW.T.Y.yXuXpX0XlXm J L R T Y D V y q 3 < X .     X o 3 0 t V D Y T Y L J M lXrXqXtXyXBXR.W.+X@X&X$X<X2X2X2X>X:X:X-X}.'.).V.m.p.r.<.>.&.` ` ! Q ^ ^ _ } { ' &.%.~ ~ ~ ! ! Q Q ^ ^ ^ ^ ) ) { { } o.o.~.O.~.~.~.~.~.~.~.O.O.o.o.} [ [ ) ) ) ^ ^ ^ / / Q Q ! ~ ~ ~ &.&., y y i i Z D Y Y L H lXwXpXuXBXZXW.W.+X@X%X%X&X$X$X<X<X<X<X&X&X%X@X%X<X>X-X}.'.).V.m.p.r.w.>.&.&.` ~ ! Q / ^ ^ ) { } O.O.~.~.~.~.O.o.} { ) ^ ^ / Q ! ~ ~ &.>.>.w.r.p.m.V.",
"<X2X2X2X:X-X*X'._.+X$X<X2X2X:X-X'.).m.p.r.>.*.` ` ! / ^ ) { o.O.~.+.&.` ` ~ Q ! Q / ^ ^ ^ ) { { o.o.O.~.~.~.~.~.~.O.O.o.} [ ) ) ) ^ ^ / / Q ! ~ ~ &.;.6XlXhXlXhX0X0X0XwXqXqXqXqXtXuXyXBXT.T.W.!.!.!.+XoXFXE R J M lXhXqXpXuXBXY.T.W.+X+X&X<X2X2X2X:X;X*X'.).V.m.p.t.w.>.>.&.` ` ! Q Q ^ ^ ) ) { o.O.~.~.~.~.~.O.o.} [ ) ) ^ ^ Q Q ~ ~ &.*.>.<.E.+X<X<X2X2X2X2X>X>X>X>X2X>X2X2X2X2X<X%X@XW.AXyXtX0XM 3X` ` ` ~ ! ! ! / / ^ ^ ) ) { { } o.O.O.~.~.~.~.~.~.O.O.O.{ { [ [ ) ) ^ ^ ^ ^ Q Q ! ~ ~ &.&.B.Z.M.g.p.r.<.<.<.<.>.>.>.>.<.<.5.r.p.g.M.Z.].-X;X>X2X<XP.e.) ^ ^ / / ! ! ` &.&.>.<.r.p.g.V.Z.`.}.-X:X>X2X2X2X&X%X@XW.W.T.yXuXpXpX0XlXM K U E T Y S B r 8 2 O . .   . o 1 7 w u Z I Y T R K H n hXrXpXuXBXBXT.W.XX@X&X$X$X<X2X2X2X>X:X-X*X_.).V.m.p.t.w.>.&.` ` ! Q ^ ^ ) } o.| ] %.~ ~ ~ ~ ! Q Q Q ^ ^ ^ ^ ) ) { { } o.O.O.~.~.~.~.~.~.~.~.O.O.o.o.} [ [ ) ) ^ ^ ^ ^ ^ Q / Q ! ~ ~ ` &.&.- 0 w r i Z Y Y R H n wXpXiXG.ZXW.W.!.+X&X&X&X<X<X<X<X<X<X<X<X&X@X@X%X:X-X}.`.Z.V.g.i.w.w.>.&.&.~ ~ ! Q / ^ ) ) { o.O.~.O.~.~.O.O.o.{ [ ^ ^ ^ / Q ~ ~ &.&.>.<.r.p.g.M.",
"<X2X2X>X:X;X-X}._.P.@X<X<X2X>X:X-X'.).m.p.r.>.>.` ( ! ^ ^ { { o.O.O.+.&.` ` ~ ! ! Q Q ^ ^ ) ) { { } o.O.~.~.~.~.~.~.O.O.o.} } [ ) ^ ^ ^ / / Q ! ~ ~ &.&.8Xm lXlXlXlXhXhXhX0XwXqXqXtXuXyXyXT.T.W.!.!.!.+XoXGXPXL H m kX0XqXuXyXBXT.W.!.+X&X$X2X2X2X>X;X-X}._.).V.m.p.r.w.>.*.&.` ~ ! Q / ^ ^ ^ { } o.O.~.~.~.~.O.O.o.[ [ ^ ^ ^ Q Q ~ ~ %.&.>.<.5.H.#X$X<X2X2X2X2X2X2X2X>X2X2X2X2X2X<X<X@X@XW.Y.yXqX0XM v &.%.` ~ ! ! ! / / ^ ^ ^ ) ) { } o.o.O.~.~.~.~.~.~.^.O.O.o.} { [ ) ) ^ ^ ^ / Q Q ! ~ ~ ~ &.<.C.M.g.r.r.w.<.>.>.&.>.>.>.>.>.<.<.r.p.m.V._.}.;X>X2X<X#Xq.) ^ ^ / ! ! ~ ` &.>.>.w.r.p.m.Z.).'.-X-X:X2X2X2X<X&X+XoXW.T.Y.yXuXpX0XlXm J K E W Y D C y q 4 1 X       X o 3 8 r V S Y T Y R J M lX0XqXtXtXG.T.W.!.+X@X%X$X<X<X2X2X2X>X:X-X-X'._.V.m.p.t.<.>.&.&.~ ! Q ^ ^ ) } o.O.] %.&.~ ~ ~ ! Q Q Q Q ^ ^ ^ ) ) { { { o.o.O.O.~.~.~.~.~.~.~.~.O.O.o.} } [ ) ) ) ^ ^ ^ ^ / / Q Q ~ ~ ~ ~ &.=.* 3 8 r i D Y E J vX0XpXtXyXY.W.!.oX@X%X&X$X<X<X<X2X<X<X<X<X&X&X%X@X#X-X'.`.V.m.p.t.w.>.>.&.` ~ ! Q / ^ ^ ) { } O.O.~.~.~.~.~.O.} [ { ^ ^ / Q ! ~ ~ %.>.>.<.r.t.m.",
"<X<X2X2X>X:X-X*X_.).Z.@X$X<X2X2X:X-X'.).m.p.w.>.*.` ~ Q ^ ^ { { o.O.O.+.&.` ~ ` ! ! Q Q ^ ^ ^ ) { { } o.O.~.~.~.~.~.~.O.O.O.} [ [ [ ^ ) ^ / / / ! ! ~ ` &.gXH M m m lXlXkXkXhXrX9XqXpXtXyXBXY.T.W.!.!.!.@XoXoXLXK M lXhXqXpXuXBXY.T.W.+X+X$X<X2X2X>X>X;X-X'.).V.m.p.t.w.>.>.&.` ` Q ! Q / ^ ) ) { } O.O.~.~.~.~.O.o.} [ ) ^ ^ ^ / ! ~ ~ &.&.>.<.r.A.+X$X<X<X2X2X2X2X2X2X2X2X2X2X2X2X<X&X@XoXW.Y.yXqX0XM R 9.%.~ ` ! ! ! ! / / ^ ^ ) ) { { o.o.O.O.~.~.~.~.~.~.O.O.o.} { [ [ ) ^ ^ ^ ^ ^ Q Q ~ ~ ` &.<.p.g.p.r.<.<.>.>.>.&.&.>.>.>.>.>.<.5.r.p.M.Z.].-X:X2X2X&XL.^ ^ / / ! ! ` &.&.>.<.r.p.m.m.)._.}.-X:X:X>X2X2X<X%X@XW.W.T.BXuXpXpX0XlXM K L Y T Y S B r 8 3 < X       o 1 7 w y Z D Y T E K H m kX9XpXuXyXY.T.W.!.+X@X@X$X&X<X<X2X2X2X:X;X-X'._.V.m.p.t.w.>.&.&.~ ! Q Q ^ _ } o.O.@.] %.` ~ ~ ~ ! Q Q Q ^ ^ ^ ^ ) ) { { } o.o.O.~.~.~.~.~.~.~.~.O.O.O.o.} { [ [ ) ) ^ ^ ^ ^ / / / ! ! ~ ~ %.&.=.% 2 0 y C Y Y P M hXqXtXBXBXW.W.XX@X&X&X$X<X<X<X2X<X2X<X2X<X&X&X%X@XXX`.Z.V.m.t.r.<.>.&.&.` ~ ! Q / ^ ^ ) { } O.~.~.~.~.O.O.o.} ) ) ^ ^ / Q ! ~ %.&.>.>.<.p.p.",
"$X<X2X2X2X:X-X-X}._.Z.M.[.$X<X2X2X:X-X'.).m.p.w.>.&.` ! ! ^ ^ [ { o.o.o.+.` &.~ ~ ~ ! Q Q ^ ^ ^ ) { { } o.O.O.~.~.~.~.~.~.O.o.o.[ [ [ ^ ^ ^ ^ / / ! ~ ~ &.&.l.H H H M M m lXlXlXhX0XwXpXtXyXyXT.T.W.!.!.oXoX@XoXnXJ m kX0XpXuXuXBXT.W.!.oX$X<X<X2X2X>X:X-X}.'.).V.m.t.r.w.>.*.&.` ` ! Q / ^ ^ ) { } o.O.~.~.~.~.~.o.o.{ [ ) ^ ^ Q Q ! ~ %.&.>.>.r.r.p.Q.$X<X<X2X2X2X2X2X2X2X2X2X2X2X<X<X&X@X!.W.Y.yXqXhXH R 7X&.` %.! ! ! ! / / ^ ^ ) ) { { } o.O.O.~.~.~.~.~.^.^.O.O.o.{ { ) ) ) ^ ^ ^ / Q Q ! ~ ~ ` &.p.g.r.r.<.>.*.>.%.>.&.&.&.&.>.>.>.<.r.t.m.V._.=X;X2X2X<X#Xq.^ / ! ! ~ ` &.>.>.w.r.p.m.V._._.-X-X:X2X2X2X<X$X@X+XW.T.Y.yXuXpX0XhXm H K E W Y I C u w 4 1 X .   . . o 3 7 r N S I T Y R J H lX0XqXtXuXBXY.W.!.+X#X$X@X+X$X<X<X2X2X2X>X;X-X}._.Z.m.g.r.w.>.&.&.~ ! Q ^ ^ ) } o.O.~...&.&.` ~ ~ ! ! Q Q Q ^ ^ ^ ) ) ) { } } o.O.O.~.~.~.~.~.~.~.~.O.O.o.o.} { [ ) ) ) ^ ^ ^ / / Q Q ! ~ ~ %.~ &.+ O 3 w V I Y L M hXqXtXyXBXW.W.oX+X%X$X<X<X<X2X2X<X2X<X2X2X2X<X&X%X@X[.).m.g.t.r.>.>.&.` ~ ~ Q / / ^ ) ) } o.O.~.~.~.~.~.O.} } ) ) ^ / Q Q ~ ~ &.&.>.<.w.p.",
"#X<X<X2X2X2X:X-X*X_.).V.m.E.$X<X2X2X:X-X'.Z.m.p.w.>.&.` ! ! ^ ) { { o.o.o.o.| ~ ` ~ ~ Q ! Q / ^ ^ ) ) { } o.o.~.~.~.~.~.~.O.O.O.o.[ [ [ ) ^ ^ ^ / / Q ! ~ ` &.8.K J J J H M M vXlXlXhXrXqXtXyXyXT.T.!.W.XXoXoXoXoXDXM cXhXrXtXuXBXY.T.W.+X@X$X<X2X2X2X:X;X-X'.).V.V.p.t.w.>.>.&.` ` ~ ! Q / ^ ^ ) { } O.~.~.~.~.~.~.o.{ [ ) ^ ^ ^ / ! ~ ~ &.&.>.<.r.p.g..X+X$X<X<X2X2X2X2X2X2X2X2X2X2X<X<X&X@XW.W.Y.uXpXhXH R F &.` %.! ! ! ! / / / ^ ^ ) ) { } o.o.O.~.~.~.~.~.~.^.O.O.o.{ } [ ) ) ^ ^ ^ ^ Q Q ! ! ~ &.&.>.p.r.<.<.>.&.>.%.&.&.%.&.&.&.>.&.<.<.r.p.M.Z.}.;X:X2X<X#XL./ ! ! ! ` %.&.>.<.r.t.m.m.Z.`.}.-X:X:X>X2X2X<X%X@X!.W.T.BXuXuX8XdXlXM J L Y T Y D B t 0 3 O X     . . 1 7 q y C D Y T E L H m lX0XqXuXyXY.T.W.!.+X$X<X#X+X%X<X<X2X2X2X>X;X-X}._.).m.g.t.w.>.&.&.~ ! Q ^ ^ ) } o.o.~.O.| &.` ` ~ ~ ~ Q Q Q Q ^ ^ ^ ) ) ) { } } o.O.O.~.~.~.~.~.~.~.O.~.O.o.} } [ [ ) ) ^ ^ ^ ^ ^ Q Q Q ! ~ ~ &.&.&.+ < 8 i D Y R H kXwXpXyXBXW.W.!.+X&X$X<X<X<X2X2X2X2X2X2X2X2X2X<X<X%X.XL.m.p.r.w.>.>.&.~ ~ ! ! / / ^ ) { } o.O.~.~.~.~.O.O.} { ) ^ ^ / / Q ~ ~ &.>.>.<.r.",
"@X$X<X2X2X>X>X;X-X}._.Z.m.m.E.#X<X2X2X;X-X}.Z.m.p.<.>.&.~ ! ^ ^ ^ { { } } o.} ' &.` ~ ~ Q ! Q ^ ^ ^ ) ) { } o.O.O.~.~.~.~.~.~.O.O.} } [ [ ) ^ ^ ^ / / Q ~ ~ ~ &.8.R L P P P H H M m lXkX0XqXtXuXBXT.T.!.!.!.oX@X@XoXDXm kX0X8XuXuXY.T.W.!.+X&X<X<X2X2X>X:X-X}.'.).V.m.p.w.w.>.>.&.` ~ ! Q / ^ ^ ) [ } o.O.O.~.~.~.O.O.o.} [ ) ^ ^ / Q ! ~ &.&.>.<.<.r.p.m.P.+X$X<X<X2X2X2X2X2X2X2X2X2X2X<X&X&X@XW.R.Y.tXqXhXH R Y 9.%.%.` ~ ! ! ! / / ^ ^ ) ) { { o.o.O.~.~.~.~.~.~.^.O.O.O.{ } [ ) ) ^ ^ ^ ^ / Q ! ~ ~ ~ %.&.5.r.<.>.>.&.&.&.~ &.~ &.&.~ >.&.>.>.r.r.m.Z._.-X:X2X<X<X%X>.Q ! ~ %.` >.>.<.r.p.m.V.).'.}.-X:X2X2X2X<X<X@X+XW.R.Y.yXuXpX8XhXn M K R W Y I S i e 7 2 O .     . O 1 7 r i S I T Y R P H lXhXqXpXyXyXY.R.!.oX&X$X<X<X#X@X$X<X<X2X2X>X:X;X}._.).V.m.t.w.<.&.&.` ! Q ^ ^ _ { o.o.O.O.+.' ` ` ` Q ~ Q ! Q Q Q ^ ^ ^ ) ) { { } o.O.O.O.~.~.~.~.~.~.~.O.~.o.o.} } [ [ ) ) ^ ^ ^ ^ / / Q Q ! ~ ~ ~ &.&.# 4 r D Y R H vXwXpXyXBXT.W.oX+X$X$X<X2X<X2X2X2X2X2X2X2X2X2X2X<X<X#X!.B.p.r.<.>.&.&.` ~ ! / / ^ ) ) { } O.~.~.~.~.~.O.o.{ ) ) ^ / / Q ~ ~ %.&.>.<.w.",
"@X%X<X<X2X2X>X:X-X*X'.).V.m.p.E.#X<X2X2X:X-X'.Z.m.p.w.*.%.` ! Q ^ ) { { } } } } ` &.~ ` ~ Q ! Q Q ^ ^ ) ) { { } o.O.~.~.~.~.~.~.O.O.o.} [ [ ) ) ^ ^ / / Q ! ~ ~ &.&.c E L L L P J H M n lX0XqXtXyXBXY.T.W.!.XX@XoX@X@XDXmX0XrXpXuXyXY.T.W.oX+X$X<X2X2X2X:X;X-X'._.V.m.m.t.w.>.>.*.` ` ~ ! Q / ^ ^ ) { } O.~.~.~.~.~.O.O.{ [ [ ^ ^ ^ / Q ~ ~ &.&.>.<.r.p.g.M.P.XX#X&X<X2X2X2X2X2X2X2X2X2X<X<X&X&XoXW.R.Y.uXqXhXH Y Y d &.%.( ! ! ! ! / / / ^ ) ) { { } o.O.O.~.~.~.~.~.~.O.O.O.o.{ { [ ) ) ^ ^ ^ ^ / Q ! ~ ~ &.&.<.<.>.>.&.%.%.%.~ &.~ ~ &.~ &.&.&.>.<.r.g.M._.=X;X2X2X<X%Xa.! ! ~ &.&.>.<.r.r.g.N.Z._.}.-X-X>X2X2X2X<X$X@X!.W.R.Y.uXuXpX0XlXM J L E T Y D V y q 3 1 X .     . 1 3 0 t V D Y T Y L J nXkX0XqXtXyXY.T.W.oX+X&X<X<X2X2X@X#X$X<X2X2X2X>X;X-X'.).V.m.p.w.<.*.` ` ! Q ^ ^ ) { } o.O.O.o.| &.&.` ~ ~ Q ! Q Q Q / ^ ^ ) ) ) { { } o.O.O.~.~.~.~.~.~.~.O.~.O.O.o.} [ [ ) ) ) ^ ^ ^ ^ / / / Q ~ ~ ~ &.&.#.* w Z Y E J vXrXqXyXBXT.W.!.+X&X$X<X2X2X2X2X2X2X2X2X2X2X2X2X2X<X<X@XQ.n.r.>.>.&.~ ` ~ ! / / ^ ) { { o.O.~.~.~.~.O.O.o.{ ) ) ^ ^ / Q ~ ~ &.&.>.<.",
"+X@X$X<X2X2X2X:X;X-X}._.Z.M.g.t.H.%X<X2X2X:X-X}.Z.m.i.w.>.&.` ! ^ ^ ^ { { { } { [ | &.` ~ ~ Q ! Q / ^ ^ ) ) { { o.O.O.~.~.~.~.~.~.~.O.o.} [ [ ) ^ ^ ^ / Q Q ! ~ ~ &.` F E Y R R L K J H nXlX0XqXtXiXBXT.W.!.!.!.@X@X@XoX+XdX0XqXuXuXBXT.R.oX+X@X<X<X2X2X>X:X-X}.'.).V.m.p.t.w.>.&.&.` ~ ! Q / ^ ^ [ { { o.O.~.~.~.~.~.O.o.} [ ) ^ ^ / Q ~ ~ ~ &.>.<.<.r.p.m.V.).XX#X&X<X<X2X2X2X2X2X2X2X2X<X<X&X@X+XW.R.yXuXrXhXH R Y l %.%.%.` ! ! ! / / ^ ^ ^ ) ) { } } O.O.~.O.~.~.~.^.^.^.O.o.} { [ ) ) ^ ^ ^ / Q Q Q ~ ~ ~ &.&.1.>.&.&.&.~ %.~ ~ ~ ~ ~ ~ ~ &.&.>.>.<.t.M.Z.}.;X:X2X2X#XU.,.~ ~ &.&.>.<.r.p.m.V.).'.}.-X:X>X2X2X<X<X@X+XW.R.Y.BXuXpXrXhXlXM K R Y T I S i e 8 1 O .     . o 1 7 w i S I Y W E P H n hXqXpXyXyXBXW.W.@X+X$X<X2X2X>X#X@X$X<X2X2X2X>X:X-X}._.Z.m.p.r.<.>.&.` ! ! ^ ^ ) { } } } o.} } ( &.&.` ~ ~ ! ! Q / / ^ ^ ^ ^ ) { { { } o.O.O.~.~.~.~.~.~.~.~.O.O.o.o.} } ) [ ^ ) ^ ^ ^ ^ / / Q ! ~ ~ ~ %.&.=.a V U Y P n hXpXtXY.T.W.!.+X$X$X<X<X2X2X2X2X2X2X2X2X2X2X2X2X2X<X<X@XE.u.,.>.&.~ ! ! / / ^ ^ ) { } O.O.~.~.~.~.O.o.} { ^ ) ^ Q Q ! ~ ~ &.>.>.",
"!.+X%X$X<X2X2X2X:X-X*X'.).V.m.p.t.p.@X<X2X2X:X-X'.Z.m.i.w.&.&.~ ! Q ^ ^ ) { { { { ) [ &.&.` ~ Q Q Q Q ^ ^ ^ ) { { } o.O.~.~.~.~.~.~.O.O.O.} [ [ ) ) ^ ^ ^ / Q Q ~ ~ &.&.F T T Y E R R L J H vXhXqXtXyXBXT.W.W.!.XXoX@X@X@X@XdXrXpXuXyXY.T.W.+X+X$X<X2X2X2X>X;X-X}.).Z.m.g.t.w.<.>.&.&.~ ~ ! Q / / ^ ) { } o.O.~.~.~.^.O.O.{ { [ ^ ^ ^ / Q ! ` &.&.>.<.r.t.g.M.Z.`.{.+X%X<X<X2X2X<X2X2X2X2X<X2X<X&X@XoXW.R.yXuXrXlXH Y Y C ;.%.%.( ! ! ! / / / ^ ^ ) ) { { } o.O.~.~.~.~.~.~.^.O.^.o.} { [ [ ) ) ^ ^ ^ ^ Q Q ! ~ ~ &.&.>.>.&.&.%.~ ~ ~ ~ ! ! ~ ~ ~ ~ &.>.>.<.r.g.Z.`.-X;X2X2X<X#Xn.~ &.&.>.>.r.r.p.m.V._.}.-X-X>X2X2X2X<X$X@XoXW.R.Y.uXuXpX0XkXm J K E W Y I V y q 4 < X .     . O 3 0 r V S Y Y Y R J M lXhXqXtXuXG.BXW.!.@X&X<X<X2X2X>X;X+X&X$X<X2X2X2X:X-X}._.).m.p.r.w.>.&.` ` Q Q ^ ) ) } } } } { { _ ( &.&.` ~ ! ! ! Q / / ^ ^ ^ ) ) { { } } o.O.~.~.~.~.~.~.~.~.O.O.O.o.} } [ [ ) ) ^ ^ ^ ^ ^ / / Q ! ~ ~ %.&.&.= i I Y L M hXqXtXBXT.W.!.+X&X$X<X2X2X2X2X2X2X2X>X2X2X2X2X2X2X2X<X&X%XK.y.&.&.~ ~ ! ! / ^ ^ { { } O.~.~.~.~.^.O.o.{ { ^ ^ ^ / Q ~ ~ &.&.>.",
"W.oX@X$X<X2X2X>X>X;X-X}._.Z.M.m.t.r.p.+X<X<X2X:X-X}.Z.m.i.w.&.&.~ Q / ^ ) ) ) { { ) _ ^ &.` ` ~ ! ! Q Q ^ ^ ) ) ) } } o.O.O.~.~.~.~.~.~.O.O.} } [ [ ^ ^ ^ ^ / / ! ~ ~ ` &.9.Y T T W Y R R P H vXhXqXtXyXBXT.W.!.W.+X@X@X@X@X@XW.qXtXuXY.Y.W.W.+X$X$X<X2X2X>X:X-X}.'.).V.m.p.t.w.>.>.&.` ~ ! Q Q ^ ^ ) { { o.O.~.~.~.~.^.O.o.} [ ) ^ ^ / Q ~ ~ ~ &.>.<.<.r.p.m.V.).'.|.@X%X$X<X<X2X2X<X2X2X2X<X<X$X$X@XoXW.R.yXtXqXlXH R Y C > %.%.%.! ! ! ! / / ^ ^ ^ ) { { } o.O.O.~.~.~.~.~.~.O.~.o.o.} [ [ ) ) ^ ^ ^ / Q Q ! ~ ~ ~ &.&.>.&.~ ~ ~ ~ ! ! ! ! ! ! ~ ~ ~ %.>.<.r.g.V._.-X;X>X2X<X$XK.<.&.&.>.<.r.p.m.V.).`.}.-X:X>X2X2X<X<X#X@XW.R.Y.BXuXtX8X0XlXM K R Y T I D B r 8 2 O .     . O 1 7 w u Z D T T R L H m hXwXqXuXyXY.T.W.+X+X$X<X2X2X>X>X;X X@X$X<X<X2X2X>X;X-X'.).V.m.r.w.>.&.` ! ! Q ^ ) ) { { { { { ) _ ^ &.` ` ~ ~ ! ! ! Q Q ^ ^ ^ ^ ) ) { } } o.O.O.O.~.~.~.~.~.~.~.~.O.O.o.} } [ [ ) ) ^ ^ ^ ^ / Q Q Q ! ~ ~ ~ &.&., D T L H lXqXtXyXT.W.!.+X$X<X<X2X2X2X2X2X>X2X>X2X>X>X>X2X2X2X2X<X&X%XA.&.&.~ ! Q / ^ ^ ) ) } o.O.~.~.~.^.~.O.} { ) ^ ^ / Q ! ~ ~ &.&.",
"W.!.+X%X$X<X2X2X>X:X-X*X'._.V.m.p.t.w.u.+X<X<X2X>X-X}.V.m.i.w.&.&.~ ! / ^ ^ ) ) ) ) ) ) ^ &.` ` ` ! ! Q Q / ^ ^ ) ) { } o.O.O.~.~.~.~.~.O.O.O.} { [ [ ) ^ ^ ^ / / Q ~ ~ ` &.9.Y Y Y T T Y E L H M hXwXtXyXBXT.W.!.!.XX@X@X@X@X@XJXtXuXyXY.T.W.!.+X$X<X2X2X2X>X:X-X}.).).m.g.t.w.w.>.&.&.~ ~ ! Q / ^ ^ ) { } o.O.~.~.~.~.O.O.{ { [ ^ ^ ^ / Q ~ ~ &.&.>.<.r.t.g.m.Z._.}.-XXX#X#X<X<X<X2X2X<X2X2X<X<X$X#X@XoXW.Y.yXuXrXlXH U Y B a %.%.%.( ! ! ! / / ^ ^ ^ ) ) { } } O.O.~.~.~.~.~.~.O.^.O.o.} { [ [ ) ^ ^ ^ ^ / / Q ~ ~ ~ &.&.&.&.~ ~ ~ ! ! ! ! Q Q ! Q ~ ~ %.&.>.<.p.m.).}.-X:X2X2X<X#Xb.&.>.>.w.r.p.m.V._.}.}.;X:X>X2X2X<X$X+XoXW.R.Y.yXuXpX0XhXm H L E E Y D C y w 4 1 X .     . O 3 8 r V S I T Y L K M lXhXqXtXuXY.Y.W.W.+X#X<X<X2X2X>X:X-X}.XX@X$X<X2X2X>X:X-X}.).Z.m.p.w.>.*.&.! ! Q ^ ^ ) ) { { ) ) ) ) ^ ` &.&.~ ~ ~ ! ! Q Q / / ^ ^ ^ ) ) { { } o.O.O.~.~.~.~.~.~.~.~.O.~.o.o.} [ [ ) ) ) ^ ^ ^ ^ ^ Q Q Q ! ~ ~ &.%.&.x Y U H lXrXpXyXT.W.!.+X&X$X<X2X2X2X2X>X>X>X>X>X>X>X>X>X2X2X2X2X<X&X%Xn.` ~ ! ! / ^ ^ ) { } o.O.~.~.~.^.O.o.} { ) ^ ^ ^ Q ! ~ ` &.",
"T.W.oX@X&X<X2X2X2X:X:X-X}._.Z.m.m.p.w.<.u.@X<X2X2X:X-X}.Z.m.i.w.&.&.~ ! / ^ ^ ) ) ) ) ) ^ ^ ` &.` ~ ~ ! Q / / ^ ^ ) ) { } o.o.~.O.~.~.~.~.~.O.O.o.} [ [ ) ^ ^ ^ / Q Q ! ~ ~ &.7.c I Y Y T Y Y R J m hXqXtXyXT.T.W.!.!.@X@X%X@X@X@X+XiXuXY.Y.R.!.oX$X<X<X2X2X>X:X-X*X'.).V.m.p.t.w.>.&.&.` ~ ~ Q Q / ^ ) { { o.O.~.~.~.~.^.O.O.{ [ ) ^ ^ / Q ! ~ ~ %.>.>.<.r.p.m.V.).'.}.-X#X@X$X<X<X<X<X2X<X2X<X<X<X&X#X@X!.R.T.yXtXqXlXJ R E C q $.%.%.` ~ ! ! ! / / ^ ^ ) ) ) } } o.O.O.~.~.~.~.~.^.^.O.O.o.{ [ [ ) ) ^ ^ ^ / Q Q ! ~ ~ ~ &.&.%.~ ~ ! ! ! Q / / Q Q Q Q ~ %.&.>.<.p.m.V.}.-X:X2X2X<X&XK.y.>.<.r.p.m.B.Z._.}.-X:X>X2X2X<X&X$X@XoXW.Y.Y.uXpXqX0XlXM J L Y T Y S V r 0 3 < .       O O 7 0 y Z D Y T E L H M hXrXqXuXyXY.T.!.!.@X$X<X2X2X>X:X-X-X].`.+X$X<X<X2X2X:X-X-X_.Z.m.p.r.<.&.&.` ! Q ^ ^ ^ ) ) ) ) ^ ^ ^ / ! ~ &.` ` ~ ~ ! ! Q / / ^ ^ ^ ) ) { { } } o.O.O.~.~.~.~.~.~.~.O.~.O.o.o.} } [ [ ) ^ ^ ^ ^ ^ / / Q ! ! ~ %.~ &.9.F Y J lXrXpXyXY.W.!.+X$X<X<X2X2X2X2X>X>X:X:X>X>X>X>X>X>X>X2X2X2X<X$X@Xn.! Q / / ^ ) { { o.O.~.^.~.^.~.O.o.} ) ) ^ / Q Q ~ ~ %.",
"T.W.!.+X#X$X<X2X2X>X:X;X*X'.).V.m.p.t.w.>.>.U.$X2X2X>X-X}.Z.m.i.<.&.%.~ ! / ^ ^ ^ ) ) ^ ) ^ ^ ` &.~ ~ ~ ! ! / / ^ ^ ) ) { { o.o.~.~.O.~.~.~.~.O.O.o.} [ [ ) ) ^ ^ ^ / Q ! ~ ~ &.&.k D D I Y T Y R K M hXwXtXyXBXHXW.!.!.XX@X%X@X@X@X@XVXyXY.R.W.!.+X$X<X<X2X2X>X:X-X}._.Z.V.g.t.w.w.>.&.&.~ ~ ! Q Q ^ ^ ) { } o.O.~.~.~.~.O.O.} [ [ ) ^ ^ / Q ~ ~ %.&.>.>.r.r.g.m.Z._.}.-X;X,X@X@X$X<X<X<X2X<X2X<X<X<X$X@X@XoXR.Y.yXtXrXlXJ U Y C 9 : %.%.( ( ! ! ! / / / ^ ) ) ) { } } O.O.~.~.~.~.~.~.^.O.O.o.} { [ ) ) ^ ^ ^ ^ / Q Q ~ ~ ~ &.%.~ ~ ~ ! Q Q / / / / / Q Q Q ~ &.>.>.r.m.V._.=X;X>X2X2X<X@Xy.<.<.r.p.m.V.).}.}.-X:X>X2X2X2X&X@XoXW.R.Y.yXuXpXrXhXm H K E E T I Z i w 7 1 O .     . O 1 0 e i S I Y T R K M vX0XrXtXuXyXT.T.!.+X@X$X<X2X2X2X:X-X}._.).P.%X$X<X2X2X>X;X-X}.).V.m.r.<.>.&.` ! ! / ^ ^ ^ ) ^ ) ^ ^ ^ / / ~ &.` ~ ~ ~ ~ ! ! Q / ^ ^ ^ ^ ) ) { { } o.o.O.O.~.~.~.~.~.~.~.O.O.O.O.} } [ [ [ ) ) ^ ^ ^ ^ / / Q ! ! ~ ~ %.&.9.F K n rXqXyXY.T.!.+X&X$X<X2X2X2X>X>X>X:X;X;X;X>X;X>X:X>X>X2X2X2X<X$X#Xb.! / / ^ ) { } o.O.~.~.~.^.O.O.} { ) ) ^ ^ Q Q ~ ` ",
"Y.T.W.!.@X$X<X2X2X2X>X;X-X}._.).m.m.p.w.w.>.&.U.$X<X2X2X-X}.Z.m.p.,.>.` ~ Q / ^ ^ ^ ^ ^ ^ ^ / ^ ` &.` ~ ~ ! ! Q / ^ ^ ) ) { } } o.O.~.~.~.~.~.~.O.O.o.} [ [ ) ^ ^ ^ / / Q ! ~ ~ &.` j C Z D I Y T R P M hXqXtXBXG.W.W.!.@X@X@X%X%X@X@X@XR.yXT.R.!.oX%X$X<X2X2X>X:X-X*X'.).V.m.p.t.w.>.>.&.&.~ ! Q Q / ^ ) ) { o.o.~.~.~.~.^.O.o.} [ ) ^ ^ / Q Q ~ %.%.>.>.<.r.p.m.V.).`.}.-X;X>X&X+X$X$X<X<X<X<X<X<X<X$X&X+XoX!.R.Y.yXtX0XlXJ R Y C q % %.%.%.~ ~ ! ! / / ^ ^ ^ ) ) { } } o.O.~.~.~.~.~.~.~.O.O.O.} } [ [ ) ^ ^ ^ ^ / Q Q ! ~ ~ &.&.~ ! ! Q / / / / / / ^ Q Q Q ~ ~ >.<.r.p.M._.}.-X:X2X2X<X&XK.<.r.p.g.M.Z._.}.-X;X>X2X2X<X<X$X@XoXW.Y.Y.uXtX8XrXlXM J L E T Y D V y q 3 < . .   . . 1 3 0 y V D Y T E L J m lX9XqXtXyXY.T.W.!.+X$X<X2X2X>X>X;X-X}._.V.Z.E.#X<X<X2X2X:X;X}._.V.m.p.w.>.*.` ( ! Q ^ ^ ^ ^ ^ ^ ^ / / / Q ! &.&.&.` ~ ~ ! ! ! Q Q ^ ^ ^ ^ ) ) { { } o.O.O.~.~.~.~.~.~.~.~.~.O.O.o.} } [ [ ) ) ^ ^ ^ ^ / / Q Q ! ~ ~ ~ &.&.9.L M 0XqXuXY.R.W.+X&X<X2X2X2X>X>X>X:X;X;X;X-X;X;X;X:X:X>X2X2X2X2X<X&X+Xa.^ ^ ^ ) { } o.~.^.~.~.~.O.o.} { ^ ) ^ Q Q ! ~ ",
"BXT.W.!.+X@X$X<X2X2X>X:X;X*X'._.V.m.p.t.w.>.>.&.K.&X<X2X>X-X}.Z.m.p.,.>.` ` ! Q ^ ^ ^ ^ ^ ^ ^ / / Q &.~ ~ ~ ! ! Q / ^ ^ ^ ) { } } o.O.~.~.~.~.~.~.O.O.O.} { [ ) ) ^ ^ ^ / / Q ~ ~ &.&.6.u B C D Y T E P M hXqXtXBXBXHXW.!.XX@X@X%X%X@X@X@XoXyXR.W.oX+X&X<X<X2X2X>X:X-X'.'.).m.m.t.r.w.>.&.&.` ` ! Q Q ^ ^ ) { } o.O.~.~.~.~.O.O.} [ [ ^ ^ ^ / Q ! ~ &.&.>.<.<.t.p.m.V._.}.*X;X:X>X<X+X$X$X$X<X<X<X<X<X<X&X&X@XoX!.R.Y.yXtXeXlXJ U Y C q < $.` %.( ! ~ ! ! / / ^ ^ ) ) { { } o.o.O.~.~.~.~.~.~.O.O.O.o.} [ [ ) ) ^ ^ ^ ^ / / ! ~ ~ ` &.&.! ! Q / Q ^ ^ ^ ^ ^ ^ Q Q ~ ~ &.<.5.p.m.).}.-X;X2X2X<X<X+Xu.r.p.m.V.)._.-X-X:X>X2X2X<X<X+XoXW.W.Y.BXuXpX8X0Xm M K R E T I S i w 7 2 O .     . O 1 7 w i S I Y T R K H n mX9XpXuXyXBXT.!.!.#X$X<X2X2X>X>X-X*X'.).V.m.H.+X$X<X2X2X>X;X-X`.).m.p.r.>.>.` ` ! Q / / ^ ^ ^ / ^ / / Q ! ! ` &.` ` ~ ~ ~ Q ! Q Q / ^ ^ ^ ) ) ) { { } o.O.O.~.~.~.~.~.~.~.~.O.~.o.o.} { [ [ ) ) ^ ^ ^ ^ / Q Q Q ! ~ ~ ~ &.&.3XH hXqXuXY.R.!.+X%X$X<X2X2X>X>X>X;X;X-X-X-X-X-X-X;X;X:X:X>X2X2X2X<X$X+Xp.^ ) ) } o.O.~.^.~.~.@.O.o.{ { ^ ^ ^ Q Q ! ",
"yXY.T.W.!.@X&X<X2X2X2X:X;X-X}._.Z.V.m.p.w.w.>.&.&.K.&X<X2X2X-X}.).m.p.,.>.` ~ ! Q / / ^ / ^ ^ / / Q ! &.&.~ ~ ! ! Q Q ^ ^ ) ) ) } } o.O.O.~.~.~.~.~.~.O.O.} } [ ) ) ^ ^ ^ / Q Q ~ ~ ~ &.;.r y V C I Y E K M hXpXtXBXG.W.W.!.@X@X&X@X$X@X#XoXoXR.W.W.oX$X$X<X2X2X>X:X-X-X'.).V.m.p.t.w.>.>.&.` ~ ! Q / / ^ ) ) { o.O.~.~.~.~.^.^.o.} [ ) ^ ^ / Q ! ~ ~ &.&.>.<.r.p.m.V.).`.}.-X:X>X>X<X@X#X&X$X$X<X<X<X<X$X&X#X@XoXW.R.Y.yXtX0XlXJ R Y V e < : %.%.%.! ! ! ! / / ^ ^ ^ ) ) { } o.O.O.~.~.~.~.~.~.~.O.O.o.} { [ [ ) ^ ^ ^ / / Q ! ! ~ ~ ` &.! ! Q ^ ^ ^ ) ^ ^ ^ ^ Q Q Q &.&.>.<.p.m.Z._.-X;X>X2X2X<X#XE.r.m.m.Z._.}.-X:X>X2X2X2X<X$X@XoXW.T.Y.uXuXpX0XkXM H L Y T Y D C y w 3 1 X     . . O 3 0 r V S Y T E R J M lXrXqXtXyXG.T.W.!.@X#X<X<X2X2X:X:X-X}._.Z.V.g.t.E.#X<X<X2X2X:X-X}.).V.p.t.<.>.&.` ! ! / / / / / / / Q Q ! ! ~ ~ &.&.&.` ` ` ~ ! ! Q / / ^ ^ ^ ) ) { { } } o.O.O.~.~.~.~.~.~.~.O.~.O.o.o.} { [ ) ) ) ^ ^ ^ ^ / Q Q Q ! ~ ~ ~ &.&.l.lXqXuXBXR.W.+X$X<X2X2X2X>X:X:X;X-X-X-X*X-X}.-X-X-X;X:X>X:X2X2X2X<X<X@Xp.) { } o.O.~.~.~.~.@.o.} { ) ^ ^ Q Q ! ",
"yXBXT.W.!.XX&X$X<X2X2X2X:X;X*X'.).V.m.p.t.w.>.>.&.` <.&X<X2X2X-X}.).m.p.,.>.` ~ ! Q Q / ^ / / / / / Q ! &.&.~ ~ ! ! Q Q / ^ ^ ) ) { } o.o.~.~.~.~.~.~.O.O.O.} } [ ) ) ^ ^ ^ / / Q ! ~ ~ &.=.a w y V D Y E K M hXpXuXBXBXW.!.!.XX@X&X@X$X@X$X@X@XR.W.oX@X&X<X2X2X2X2X:X-X}.'.Z.V.m.t.r.w.>.&.&.` ~ ! Q Q ^ ^ ) { { o.O.~.~.~.~.O.O.o.[ [ ) ^ ^ / Q ! ~ &.&.>.>.w.r.p.m.V._.}.}.-X:X>X2X<X@X#X%X&X$X<X<X<X$X$X&X$XoXoXW.R.Y.uXtXeXlXJ Y U C e 2 $ #.%.%.! ~ ! ! ! / / ^ ^ ) ) { { } o.O.O.~.~.~.~.~.~.O.O.O.o.{ [ [ ) ) ^ ^ ^ / / Q ! ~ ~ &.&.~ ! Q ^ ^ ^ ) ^ ) ^ ^ ^ Q Q ~ &.>.<.r.m.V._.}.-X:X2X2X<X<X+XA.m.M.)._.}.-X;X>X2X2X<X<X+X@XW.W.Y.BXuXpXqX0XlXH K L E T Y S i r 8 3 O .     . O 1 4 w y Z I Y T R L H n kXwXqXtXyXT.T.W.+X@X$X<X2X2X2X:X-X*X'.).V.m.p.r.p.U.$X<X2X2X>X;X=X_.Z.m.p.w.>.&.%.` ! Q ! Q Q Q ! Q ! ! ! ~ ~ ` &.&.&.` ` ~ ~ ! ! ! Q / ^ ^ ^ ^ ) ) { { } o.o.O.O.~.~.~.~.~.~.~.O.~.O.o.o.} [ [ [ ) ) ^ ^ ^ ^ / / Q ! ! ~ ~ ` &.&.j.qXuXyXR.W.+X&X$X<X2X2X>X:X:X-X-X}.*X}.}.}.}.}.}.-X-X:X:X:X2X2X2X<X<X@Xa.{ o.O.O.~.~.~.~.@.o.{ { ) ^ ^ Q Q ",
"tXyXBXT.W.!.@X&X<X2X2X2X>X;X-X}._.Z.V.m.p.r.w.>.&.&.` <.@X<X2X2X;X}.).m.p.<.>.&.! ! ! Q Q / / / / ! Q ! ~ ` &.` ~ ~ ! Q Q ^ ^ ^ ) ) { } o.O.O.~.~.~.~.~.~.O.O.o.} { ) ) ^ ^ ^ / / ! ! ~ ~ &.&.* 0 e B S Y E P vXhXqXuXBXT.T.!.!.@X@X&X%X$X@X%X+X@XoXW.oX+X$X<X2X2X>X>X-X-X'.).V.m.p.t.w.>.>.&.&.~ ! ! / / ^ ) ) } } o.~.~.~.~.^.O.o.} { ) ^ ^ / Q ! ~ ~ &.&.>.<.r.p.m.V.Z._.}.-X:X>X2X2X2X@X@X&X$X$X$X$X<X$X<X@X$X@XoXW.R.Y.yXpXeXlXH E Y S e 4 < $.%.%.` ~ ! ! ! / / ^ ^ ^ ) { { } o.O.O.~.~.~.~.~.~.~.O.O.o.} { [ ) ) ^ ^ ^ / / Q ! ~ ~ ~ &.&.^ ^ ^ ) ^ ) ) ) ) ^ ^ Q Q ~ &.>.<.r.p.M.).}.-X:X2X2X<X<X#XE.M.V._.}.-X;X>X>X2X2X<X&X+XoXW.T.Y.yXuXpX0XlXm H L E W Y D Z y w 3 1 O .     . O 3 0 r B S I T Y R J H lXhXqXtXyXyXT.W.W.+X&X<X<X2X2X:X:X-X*X_.Z.V.m.p.w.w.A.#X$X<X2X2X:X-X}.).V.p.r.<.&.&.` ` ! ! ! ! Q ! ! ! ! ~ ~ ~ &.&.&.>.` &.` ` ! ! ! Q Q Q ^ ^ ^ ^ ) ) { { } o.O.O.O.~.~.~.~.~.~.~.O.~.O.o.o.} [ [ ) ) ) ^ ^ ^ ^ / / Q ! ~ ~ ~ ~ &.:.4XuXyXR.W.+X$X<X2X2X2X>X:X;X-X-X}.'.}.'.'.'.}.}.}.}.-X-X:X:X>X2X2X<X,X%Xg.} O.~.~.~.@.~.o.o.{ ) ) ^ ^ Q ",
"tXyXG.Y.W.!.XX%X$X<X2X2X2X:X;X*X}.).V.m.p.t.w.>.>.&.` ` <.@X<X2X2X;X}.).m.t.w.&.&.` ! ! Q Q / / / Q Q ! ! ! &.` ` ~ ~ ! ! Q / ^ ^ ) ) { { o.o.O.~.~.~.~.~.~.O.O.o.} { ) ) ) ^ ^ ^ / Q ! ~ ~ &.&.% 4 q y S Y Y P vXrXpXiXBXT.W.!.!.+X@X&X%X&X%X%X@X@XoX!.@X$X$X<X2X2X>X:X-X}.'.).V.m.p.r.w.>.&.&.` ~ ! Q / / ^ ) ) } o.O.~.~.~.~.^.O.o.[ [ ) ^ ^ ^ Q ! ~ &.&.>.>.<.r.p.m.V.).}.}.;X:X>X2X2X2X&XoX@X&X&X&X$X$X&X&X@X+X@XoXW.R.Y.uXpXrXlXH R Y S t 9 2 # %.%.` ~ ! ! ! Q / / ^ ^ ) { ) } } o.O.~.~.~.~.~.~.~.O.~.o.} { [ [ ) ^ ^ ^ ^ / / Q ! ~ ~ &.&.` ^ _ ) ) { ) ) ) ^ ^ ^ Q ~ &.>.>.r.p.m.Z.}.=X;X>X2X2X<X$X+XP.Z._.}.-X;X>X2X2X<X<X#X@X!.W.Y.BXuXpXqX0XlXM J R Y W Y S V r 0 3 O X     . X 1 4 q y Z D Y T E L H m lXwXqXtXyXY.T.W.!.+X&X<X2X2X2X>X:X*X'.).V.m.g.t.w.>.>.U.#X$X2X2X>X:X*X_.V.m.t.w.>.&.%.` ! ~ ! ! ! ! ! ! ~ ` ` ` &.&.>.<.&.&.` ` ` ! ! Q Q Q / ^ ^ ^ ) ) ) { { } o.O.O.~.~.~.~.~.~.~.O.~.O.O.o.} { [ [ ) ) ^ ^ ^ ^ ^ / / Q ! ! ~ ~ %.&.2.x.yXT.W.+X%X<X<X2X2X:X:X-X-X}.}.'.'._._._._.`.'.}.}.}.-X:X:X>X2X2X2X$X#Xh.@.~.~.~.~.@.o.o.{ ) ^ ^ ^ ",
"pXtXyXY.T.W.!.@X&X<X2X2X2X:X:X-X}.'.Z.V.m.p.r.w.>.>.&.` ! ,.U.&X2X2X;X-X).V.t.w.>.&.` ~ ! ! ! Q Q Q Q ! Q ~ ~ &.&.` ~ ~ ! Q Q / ^ ^ ) ) { { } O.O.~.O.~.~.~.~.~.O.o.} } ) ) ^ ^ ^ / / Q ! ~ ~ ~ %.=.2 8 t C Y E P vXgXpXyXBXT.W.!.@X@X%X%X&X%X&X%X#X@X@X@X@X$X<X2X2X>X:X-X-X}._.V.m.p.t.w.>.>.&.&.` ! ! / / ^ ) ) { } O.O.~.~.~.^.^.o.} { ) ^ ^ / Q ! ~ ~ &.&.>.<.r.p.g.V.Z._.}.-X:X:X2X2X<X<X&X@X+X%X&X&X&X&X&X%X$X@X@X!.W.T.BXyXpXeXlXJ U E D i q 4 & $.&.%.~ ! ! ! ! / ^ ^ ^ ^ { ) } } o.O.O.~.~.~.~.~.~.O.O.O.o.} { ) ) ) ^ ^ ^ / / Q ! ~ ~ ~ &.&.^ ) { _ { { { ) ^ ^ ^ Q ~ ` >.>.w.p.m.Z.`.}.;X:X2X2X<X<X@X{.).].=X;X:X2X2X2X<X&X+XoXW.T.Y.yXuXpX8XhXn H K R W Y I Z i w 7 1 X .     . O 1 7 r i S I T Y R P H lXhXwXpXyXyXY.W.W.@X+X<X<X2X2X>X:X-X*X'.).V.g.p.r.w.>.&.5.E.$X<X2X2X:X-X}.).V.p.w.,.*.&.&.` ! ` ! ` ! ` ~ ~ ` ~ &.>.&.>.w.>.&.` ` ` ` ! ! ! ! / ^ ^ ^ ^ ) ) { { } } o.O.O.~.~.~.~.~.~.~.~.O.O.O.o.} } [ [ ) ) ^ ^ ^ ^ / / / Q ! ~ ~ ~ %.&.1.v.Y.W.+X$X<X2X2X2X:X:X-X}.}.'._._.).).).)._.).`.'.}.}.-X-X:X>X2X2X<X<X@Xh.~.~.~.~.@.} } { ) ^ ^ ",
"qXtXyXyXY.W.W.+X+X&X<X2X2X2X:X;X*X'.).Z.m.p.t.w.>.>.&.&.` ~ ! P.$X2X2X;X}._.M.t.w.>.&.` ` ! ! ! ! ! ! ! ! ! ! ` &.&.~ ` ~ ! ! Q / ^ ^ ) ) { { } o.O.~.~.~.~.~.O.~.O.O.} } { ) ^ ^ ^ ^ / Q ! ! ~ %.&.#.< 7 r C Y Y J vXwXqXuXBXT.W.!.XX@X&X%X&X&X%X%X%X@X@X@X&X<X<X2X2X2X:X-X}._.).V.m.p.r.w.>.*.&.` ` ! ! / / ^ ) { { o.O.~.~.~.~.O.O.o.{ [ ) ^ ^ ^ Q ! ~ ` &.>.>.<.r.p.m.V.).'.}.-X:X>X2X2X<X<X@X@X@X%X%X&X&X&X&X%X@X@X@X!.W.R.BXuXpXeXlXJ U Y D V t 9 4 : %.%.~ ~ ! ! ! Q / / ^ ^ ) ) { } o.o.O.~.~.~.~.~.~.~.O.O.o.} } [ ) ) ^ ^ ^ / / / Q ! ~ ~ &.&.` { { { } } { { ^ ^ ^ Q ~ ` >.>.w.p.m.V._.}.-X:X2X2X2X<X$X@X].}.-X;X>X2X2X2X<X&X@XoXR.R.BXuXuXqX0XlXM J L Y W Y D V t 0 4 < X .     . 1 3 0 y V D Y T E L J M lXrXqXtXyXY.T.W.!.@X$X<X<X2X2X>X:X-X'._.V.V.p.t.w.>.>.] ~ n.+X<X<X2X>X:X*X_.V.m.r.w.>.&.&.&.` ` ` ` ~ ~ ` ` &.` &.>.>.<.w.p.w.` &.` ` ! ! ! ! Q Q ^ / ^ ^ ) ) { { } } o.O.O.~.~.~.~.~.~.~.~.O.~.o.o.} { { ) ) ) ^ ^ ^ ^ / / / Q ! ~ ~ ~ &.&.1.S.W.oX$X$X2X2X2X:X;X-X}.}._.).).Z.Z.V.V.Z.Z.).).'.'.}.}.-X:X:X2X2X2X<X+X(.~.~.@.@.} { ) ) ^ ",
"wXpXtXyXY.T.W.!.+X$X<X<X2X2X:X:X-X}.'.Z.V.m.p.r.w.>.&.&.` ~ ! Q K.%X2X2X:X*X).V.p.w.>.&.` ` ~ ! ! ! ! ! ! ! ` ~ ` &.&.` ~ ~ ! ! Q Q ^ ^ ^ ) { { } o.O.~.O.~.~.~.~.~.O.o.o.{ { ) ) ^ ^ ^ / Q ! ! ~ ~ &.#.$ 3 w C Y E J n rXpXyXBXT.!.!.@X@X%X&X%X<X&X&X%X%X@X+X$X<X2X2X>X>X-X-X}._.Z.m.g.t.w.,.>.&.` ` ~ ! / / ^ ) ) { } O.O.~.~.~.~.~.O.} { ) ^ ^ / Q ! ! ~ &.&.>.<.r.p.g.B.Z._.}.-X:X:X2X2X2X<X&X@XoX@X+X@X$X&X%X&X%X#X@XoX!.W.R.Y.uXpXeXlXH R E Y C u e 8 a &.%.` ~ ! ! ! Q / / ^ ^ ) ) { { } o.O.O.~.~.~.~.~.~.~.O.O.o.} { ) ) ) ^ ^ ^ / / ! ! ~ ~ ~ &.` { { o.} } { { ) ^ ^ Q ~ ` &.>.w.r.m.B.).'.-X;X>X2X2X<X<X@XXX=X;X>X>X2X2X<X$X+XoXW.R.Y.BXuXpX0XhXlXH K R Y T I S i e 7 1 O .     . O 1 7 w i Z I Y T R L H n hXwXtXtXyXY.T.W.+X@X&X<X2X2X>X:X-X*X'.).V.m.p.r.w.>.&.&.` ` K.%X<X2X2X:X-X}.).V.p.w.w.>.&.&.&.` ` ` &.` ` ` &.&.&.>.>.w.w.p.p.>.%.` ` ` ! ! ! Q Q Q ^ ^ ^ ^ ) ) { { } o.o.O.~.~.~.~.~.~.~.~.O.~.O.o.o.} { { [ ^ ) ^ ^ ^ / / / Q Q ! ~ ~ ` ` &.3.W.oX&X&X2X2X>X:X-X-X}._._.Z.Z.V.V.V.V.V.V.V.V.Z.).`.'.}.-X;X:X2X2X<X<X+Xh.~.@.o.} { ) ^ ",
"hXqXtXuXY.Y.W.!.oX#X$X<X2X2X2X:X;X-X'.).V.M.p.t.w.<.>.&.&.~ ~ ! Q J.#X2X2X:X-X).V.p.r.>.*.` ` ` ! ! ! ! ~ ! ! ` ` ` &.&.&.~ ~ ~ ! Q Q / ^ ^ ) ) { } o.o.~.~.~.~.~.O.~.O.O.o.} { ) ) ^ ^ ^ / Q Q ~ ~ ~ &.&.# 2 w C Y Y J lXwXpXyXT.T.W.XX@X%X%X&X&X$X$X&X%X%X@X@X<X<X2X2X>X:X-X}.'.).V.m.p.r.w.>.*.&.~ ~ ~ ! / / ^ ) { { o.O.~.O.~.~.O.O.o.{ [ ) ^ ^ ^ / ! ~ ` &.>.>.<.r.p.m.V.).`.}.-X:X>X2X2X2X&X%X@X!.oX+X@X%X$X%X$X@X#X@XoXW.W.R.Y.uXtXeXlXH U E Y D C u t r ;.%.%.~ ~ ! ! ! / / / ^ ) ) { { } o.o.O.~.~.~.~.~.~.~.O.O.o.} } ) ) ) ^ ^ ^ / / / Q ! ~ ~ &.&.' } o.o.o.} { ) ^ ^ Q ~ ` &.>.<.r.m.B.).'.=X;X:X2X2X2X<X%X@X X;X>X2X2X2X<X$X@XoXW.R.BXuXuXpX0XkXm J L E W Y D C y q 4 < X .     . 1 2 0 r V D Y Y E L J M lXhXqXtXyXBXT.W.!.+X&X$X2X2X2X2X:X-X}.'.V.V.g.t.r.<.>.&.&.~ ~ ,.K.#X<X2X2X:X}.`.V.m.t.w.w.>.&.*.&.&.` &.&.&.&.&.&.>.>.<.w.r.p.m.m.w.` ` ` ` ! ! ! Q Q / ^ ^ ^ ^ ) ) { } } o.o.O.~.~.~.~.~.~.~.~.O.~.O.o.o.} { { ) ) ^ ^ ^ ^ ^ / / Q Q ~ ~ ~ ` &.&.b.!.&X<X2X2X2X:X-X}.}._.).Z.V.M.m.m.m.m.m.m.B.V.V.).).'.}.-X-X:X>X2X2X<X+X(.@.o.} ) ) ",
"hXwXpXtXyXY.T.W.!.+X%X<X2X2X2X:X:X-X}.'.).V.m.p.r.w.<.&.&.` ~ ! ! ^ >.#X<X2X:X-X'.V.p.w.,.*.&.` ` ~ ` ! ! ! ` ~ ` ` &.&.&.&.~ ~ ! ! Q / / ^ ^ ) ) { } o.o.O.~.~.~.~.~.~.O.O.o.} } ) ) ^ ^ ^ / Q Q ! ~ ~ ~ &.+ 1 q C Y R J lXwXtXyXBXW.W.!.@X&X%X&X<X<X$X$X&X&X@X+X<X<X2X2X>X;X-X}._.Z.m.g.p.w.<.>.&.&.` ~ ! Q / ^ ^ ) { } o.O.~.~.~.~.~.O.o.{ ) ^ ^ / / ! ~ ~ &.&.>.<.w.p.p.m.Z.).}.-X;X>X>X2X2X<X&X+XoX!.!.@X#X@X$X@X$X@X%X@X+XW.W.T.BXuXpXeXlXM R W Y I S C B i , %.%.%.~ ! ! ! / / ^ ^ ^ ) ) { { o.o.O.~.~.~.~.~.~.~.O.~.o.} } { ) ) ^ ^ ^ ^ / Q ! ! ~ ~ ` &.' ..O.O.o.} { ) ^ Q Q ~ ~ &.>.<.r.p.M.Z.`.}.;X:X2X2X2X<X$X#X+X:X>X2X2X<X<X@X+XW.R.Y.BXuXpXqXkXlXM K R Y Y Y S B r 8 3 O . .   . . 1 7 w y Z D T W E L H m hX0XtXtXyXY.T.W.!.+X$X<X2X2X>X:X-X-X'.).V.m.p.r.w.>.>.&.` ~ ! ! a.%X<X2X2X>X-X}.).V.g.t.w.w.>.>.*.>.*.&.&.&.*.&.>.>.>.w.r.t.m.m.V.p.&.%.` ` ~ ! ! ! Q / / ^ ^ ^ ) ) ) { { } o.o.O.O.~.~.~.~.~.~.~.O.~.O.o.} } { { ) ) ) ^ ^ / / / Q Q Q ~ ~ ~ ~ &.&.n.%X<X2X>X>X:X-X}.`.).Z.V.V.m.g.g.g.g.g.g.g.m.m.V.V.)._.}.*X;X:X>X2X<X<X%Xh.} } ) ",
"lXhXqXtXuXyXT.T.!.!.#X$X<X2X2X2X:X;X-X'.).V.M.g.t.w.<.>.&.&.` ~ ! Q / >.#X<X2X>X-X_.V.g.r.,.*.&.&.` ` ` ` ! ~ ` ` ` &.&.>.&.&.~ ` ~ ! Q Q / / ^ ) ) { { o.o.O.~.~.~.~.~.~.O.O.O.} { { ) ) ^ ^ / / Q ! ! ~ ` &.$.< q C Y E H lXwXtXBXY.W.!.!.@X&X&X$X<X<X<X<X#X%X%X@X<X2X2X>X:X;X}.'.).V.m.p.r.w.>.>.&.~ ~ ! ! Q / ^ ) ) } o.O.~.~.~.~.O.O.o.} { ) ^ ^ / Q ! ~ ` &.&.>.<.r.p.m.V.).`.}.-X:X>X2X2X2X<X%X@XW.W.W.oX#X@X&X@X$X@X@X@XoXW.W.R.BXuXtXeXlXM L Y E Y I D S S k 7.%.~ ` ! ! ! ! / / ^ ^ ) ) ) { } o.o.O.~.~.~.~.~.~.O.~.O.o.} } { ) ) ^ ^ ^ / / Q ! ! ~ ~ &.&.| @.O.o.o.{ ) ) ^ Q ! ~ &.>.>.r.p.m.Z.`.}.-X;X2X2X2X<X<X#X@X<X>X2X2X<X$X@XoXW.R.Y.yXuXpX9XkXm H L R T Y I C y w 4 1 X .     . O 3 7 r i S I T Y R P M n rX9XtXyXyXT.W.!.!.#X$X<X2X2X2X:X-X}.'.).V.m.p.r.<.>.&.&.~ ~ ! Q / H.%X<X2X2X:X*X'.).m.g.t.r.<.>.>.>.>.&.>.*.>.*.,.,.<.w.t.t.m.V.).'.g.&.` ` ` ~ ! ! ! Q Q ^ ^ ^ ^ ) ) { { { o.o.O.O.~.~.~.~.~.~.~.O.~.O.O.o.} } { ) ) ) ^ ) ^ / / / / Q ! ! ~ ~ %.&.&.A.<X<X2X>X;X-X}._.).Z.M.m.m.p.p.p.p.p.p.p.p.g.m.m.V.V._.'.}.-X;X2X2X2X<X#Xg.{ ",
"m hX0XpXtXyXY.T.W.!.+X%X<X2X2X2X>X:X-X}.'.).V.m.p.r.w.>.>.&.` ~ ! ! Q ^ >.+X<X2X:X-X}.V.m.r.w.>.&.&.` ` ` ` ` ~ ` ` ` &.&.>.&.&.` ~ ~ ! Q / / ^ ^ ) ) { { } o.O.~.~.~.~.~.~.~.O.o.o.{ ) ) ) ^ ^ ^ / Q ! ~ ~ ` %.$.< q C Y R H kXwXtXyXT.T.!.XX@X&X&X<X<X<X<X<X<X&X%X@X&X2X2X:X;X-X}._.Z.B.g.p.r.<.>.&.&.` ~ ! Q Q ^ ^ ) { } o.O.~.~.~.~.~.O.} { ) ^ ^ / Q Q ~ ~ &.&.>.,.r.i.p.m.V.).}.-X;X:X2X2X2X<X$X@X+XW.R.T.W.@X@X%X%X@X%X@X+XoXW.W.T.Y.uXpXrXlXM K E E T Y Y I I D 7.&.~ %.! ! ! ! / / ^ ^ ^ ) { { { o.O.O.O.~.~.~.~.~.~.O.O.O.} { { ) ) ^ ^ ^ ^ / Q Q ! ~ ~ ` &.' +.~.o.o.{ ) ^ ^ ! ! ~ &.>.<.w.p.m.V.).}.=X;X>X2X2X2X<X<X@X#X2X2X<X<X%X+X!.W.Y.BXyXpXqXhXlXM J R E T Y S V r 0 3 < .     . X < 7 0 y C D Y T E L J m kXrXqXtXyXY.T.W.!.+X&X<X2X2X>X:X;X-X}._.V.M.p.r.w.<.>.&.&.~ ! ! Q ^ >.P.,X2X2X2X-X}.'.V.m.p.p.r.w.<.<.,.>.>.>.,.>.>.<.w.r.t.g.m.V.).}.).w.&.` ` ` ~ ! ! Q Q Q ^ ^ ^ ^ ) ) { { } } o.O.O.~.~.~.~.~.~.~.~.~.O.O.o.} } { { ) ^ ^ ^ ^ ^ / / Q ! ! ! ~ ` ~ &.&.B.<X2X>X;X=X}._.Z.V.m.m.p.p.t.t.t.r.r.t.t.t.p.p.m.m.V.)._.}.-X;X>X2X<X<X%X",
"M lX0XwXtXuXyXY.W.W.!.#X#X<X2X2X2X:X;X-X'._.Z.m.m.t.w.<.>.&.&.~ ~ ! Q Q Q q.L.<X2X>X-X}.V.m.t.w.>.>.&.&.` ` ` ` ` ` &.&.&.>.>.<.&.` ` ~ ! ! / / ^ ^ ^ ) { { } o.o.~.~.~.~.~.~.O.O.O.o.} { ) ) ^ ^ ^ / Q Q ! ~ ~ &.&.% w A T U H hXwXtXBXT.W.!.+X@X&X$X<X<X<X<X<X<X&X%X@X%X2X>X:X;X}.'.).V.m.p.r.w.,.>.&.` ` ! ! Q / ^ ) ) { o.o.~.~.~.~.O.O.O.} { ) ^ ^ / Q ! ~ ~ &.&.>.<.r.p.m.V.Z.`.}.-X:X:X2X2X2X<X%X@X!.W.T.Y.R.@X@X@X%X@X%X@X@XoXW.W.R.BXuXpXqXlXM J R E Y W T T Y Y F &.%.%.! ~ ! ! Q / / ^ ^ ) ) { { } o.O.~.O.~.~.~.~.~.~.O.O.o.} { { ) ) ^ ^ ^ / / Q ! ~ ~ ` &.&.+.~.O.o.{ _ ^ ^ ! ! ~ &.>.<.w.p.m.V.).}.=X;X:X>X2X2X<X<X%X@X$X2X<X$X@XoXW.R.Y.yXuXpXqXhXm H K E E Y I Z i w 7 1 O .     . O 1 8 r i S I Y T R K H n hXqXqXuXyXBXT.!.!.#X$X<X2X2X2X:X-X*X'.).V.m.p.r.<.>.&.&.` ~ ! Q Q ^ ^ p.#X<X2X2X:X-X'.).V.m.g.p.r.w.w.w.<.<.,.<.w.w.w.r.t.p.g.m.V.`.}.-X`.t.` ` ` ~ ! ! ! Q Q Q / ^ ^ ^ ) ) { { } o.o.O.O.~.~.~.~.~.~.~.~.O.O.o.o.} { { { ) ) ^ ^ ^ ^ / / Q ! ! ! ~ ~ &.&.&.B.2X>X;X-X_._.Z.M.m.p.p.t.r.w.r.w.w.w.r.r.r.p.p.p.m.V.Z._.}.=X;X:X2X2X",
"H m lXrXqXuXyXY.T.W.!.+X%X<X<X2X2X>X:X-X*X_.).V.m.p.r.w.>.>.&.` ~ ~ Q Q ^ ^ ) L.<X2X2X;X'.).m.p.r.>.>.&.&.&.` ` ` ` ` &.&.&.>.<.<.&.` ` ` ! ! Q / ^ ^ ^ ) ) { } o.O.O.~.~.~.~.~.~.O.O.o.} { ) ) ^ ^ ^ / Q ! ! ~ ~ %.&.% w C T L H kXqXtXBXT.W.!.+X@X&X<X<X<X<X<X<X<X<X&X@X#X<X:X;X-X}.`.Z.V.p.p.r.<.>.&.&.` ~ ! Q / ^ ^ ) { } O.O.~.~.~.~.~.O.} { ) ) ^ / Q Q ! ~ &.&.>.,.w.r.p.m.Z.).'.-X-X:X2X2X2X<X&X#XoXW.R.Y.yXBXXX@X@X%X@X%X@XoXoXW.R.T.BXyXpXqXhXM H L R E E W T W T T 9.%.%.` ! ! ! Q / / ^ ^ ^ ) { { } o.o.~.O.~.~.~.~.O.~.~.O.o.} { { ) ) ^ ^ ^ / Q Q Q ! ~ ~ ` &.] ~.@.o.{ ) ^ ^ ! ! ~ &.&.<.r.r.m.B.).'.}.;X:X>X2X2X2X<X&X#X@X$X$X&X+X!.W.Y.Y.yXtXqX0XlXM J L E T Y D V y 0 3 1 . .   . . < 3 0 r V S Y T Y L J M lXhXqXtXyXG.T.W.!.@X#X<X<X2X2X>X;X-X}._.Z.M.m.t.r.<.>.&.` ` ~ ! Q / ^ ) ) L.#X2X2X:X:X-X'.).V.m.g.p.i.r.w.w.w.w.w.w.w.w.t.i.p.m.V.Z._.}.-X;X}.&.&.` ` ~ ! ! ! Q / / ^ ^ ^ ^ ) ) { { } o.O.O.O.~.~.~.~.~.~.~.~.~.O.o.o.} { { ) ) ) ^ ^ ^ ^ / / Q Q ! ~ ~ ~ ` &.&.B.>X-X=X'.).V.m.g.p.t.r.r.<.w.<.w.<.<.<.<.r.r.r.p.g.m.Z.).}.-X;X2X",
"J M lXrX9XtXuXyXY.T.!.!.#X$X<X2X2X2X>X:X-X}.).Z.h.g.p.w.<.>.&.&.` ~ ! Q Q / ^ ) L.#X2X>X:X}.).m.p.r.w.>.>.&.&.&.&.&.&.&.&.>.>.>.<.w.&.` ` ` ! ! ! / / ^ ^ ) ) { } o.O.O.~.~.~.~.~.~.O.O.o.} { { ) ^ ^ ^ / / Q ! ! ~ &.&.=.e A T R M hXqXtXBXT.W.!.+X&X$X<X<X<X2X<X<X<X<X&X%X@X<X:X;X-X_._.V.M.p.r.w.<.>.&.` ` ! ! Q / ^ ) ) { } O.O.~.~.~.~.O.O.} { ) ^ ^ / Q ! ~ ~ &.&.>.<.r.p.m.N.)._.}.-X:X:X2X2X2X<X%X%X!.W.T.Y.yXtXW.@X@X@X@X@X@XoXoXW.W.T.BXuXtXqXhXn M J L R R R Y E E Y 7X&.` ` ` ! ! Q Q / / ^ ^ ) ) { { } o.O.~.~.~.~.~.~.O.~.O.O.o.} { { ) ) ^ ^ ^ / Q Q ! ~ ~ ` ` &.+.~.o.{ ) ^ ^ ! ! ~ &.&.>.r.r.m.V.Z.`.}.-X:X>X2X2X2X<X<X%X@X&X&X@X@XW.W.Y.yXuXpXqXhXlXH P R T Y U S i r 7 2 O .     . O 1 7 w i Z I Y T R K H M hX0XtXtXyXY.T.W.+X@X$X<X2X2X2X:X;X-X'.).V.m.g.r.<.<.>.&.~ ~ ! ! / ^ ^ ) { e._.1X<X2X>X;X-X'.).V.m.m.p.p.t.r.r.r.w.t.r.t.i.g.g.m.V.).`.}.-X:X2XV.&.&.` ` ~ ! ! ! ! / / ^ ^ ^ ) ) ) { { } o.O.O.~.~.O.~.~.~.~.~.O.~.O.O.o.} { { ) ) ) ^ ^ ^ ^ / / / ! ! ! ~ ~ &.&.r.].;X}.`.).V.m.p.t.t.w.w.>.<.>.<.>.>.>.>.<.<.w.r.t.p.m.V._.}.-X",
"L H m z rXqXtXyXY.T.W.!.+X%X<X<X2X2X>X:X-X}.'.).V.m.p.t.w.>.>.&.` ~ ! Q Q ^ ^ ^ ) h.#X<X2X:X}._.V.g.r.w.>.>.>.&.&.&.&.&.&.&.&.>.<.w.t.>.` ` ` ! ! ! / / ^ ^ ) ) { { } O.O.~.~.~.~.~.~.O.O.o.} { { ) ) ^ ^ / / ! ! ~ ~ ~ &.=.e S Y L H hXqXyXBXT.!.!.@X&X$X<X<X<X2X<X2X<X<X<X&X@X#X;X-X}.`.Z.m.m.p.r.<.>.&.&.` ` ! Q / ^ ^ ) { } o.O.~.~.~.~.O.O.o.{ ) ) ^ ^ Q Q ~ ~ ` &.>.,.w.r.p.m.V.).'.*X-X:X2X2X2X<X<X@X+X!.T.T.yXuXtXVX@X+X@X@X@X@XoXoXW.W.T.Y.uXtXqX0XlXM H J P L L L R R R b 9.&.` ` ~ ! ! Q / ^ ^ ^ ^ ) { { } o.O.O.~.~.~.~.~.~.~.O.O.O.} { { ) ^ ) ^ ^ / Q Q ! ! ~ ` ` &.' O.o.{ ) ^ Q ! ! ~ &.>.>.r.r.p.V.Z._.}.-X;X>X2X2X2X<X<X&X@X+X$X@X!.W.T.Y.yXtXpX9XlXm J L R T Y D C y w 3 1 X       X O 3 0 r V S Y T E R J M lX0XqXtXuXY.Y.W.W.+X#X<X<X2X2X>X:X-X}.'.Z.V.g.p.r.<.>.&.&.` ~ ! Q / ^ ^ ) { } s.#X<X2X2X:X;X}.'.).V.V.m.g.p.i.i.t.t.t.i.p.p.p.m.V.Z.).}.}.;X:X2X2Xr.&.` ` ~ ~ ! ! ! Q / / ^ ^ ^ ) ) { { { } o.o.O.~.~.~.~.~.~.~.~.~.O.O.o.o.} { { ) ^ ) ^ ^ / / / / Q ! ! ~ ~ ` ~ &.w._.}.`.Z.m.m.p.r.w.w.<.<.>.&.>.>.>.>.>.>.>.<.<.w.r.p.m.V.).",
"L K M lXhXqXtXuXyXY.T.!.!.+X&X<X2X2X2X>X:X-X}.).Z.V.p.t.r.<.>.&.&.~ ` ! Q Q ^ ^ ) ) s.#X<X2X:X}.`.V.m.t.r.w.>.>.*.&.&.&.&.>.>.>.>.w.w.p.>.&.` ` ! ! ! / / / ^ ) ) { { } o.O.~.~.~.~.~.~.@.O.O.} { { ) ) ^ ^ ^ Q Q ! ! ~ ` &.&.s D Y L M hXpXuXBXT.!.XX@X&X<X<X<X2X2X<X2X<X<X<X&X@X#X-X-X}.).Z.m.p.i.w.,.>.&.` ` ! ! / / ^ ^ ) { } O.~.~.~.~.~.O.o.} { ) ^ ^ ^ Q ! ! ~ &.&.>.<.r.p.g.B.Z.`.}.-X;X>X2X2X2X<X#X@X!.W.T.Y.yXtXpXaX!.+X@X@X@XoXoX!.W.W.T.Y.uXtXqXwXlXvXM H H J K K K L L L 8.&.` ` ` ! ! ! Q / ^ ^ ^ ) { ) } } o.O.~.~.~.~.~.~.~.O.O.O.o.} { { ^ ) ^ ^ ^ / Q Q ! ! ~ ` &.&...} { ) ^ ^ Q ! ~ &.>.>.r.r.g.M.Z.`.}.-X-X>X>X2X2X2X<X<X@X@X@X@X!.R.T.yXyXpXqX0Xn M P R E T Y S i r 0 2 < X .     X 1 7 0 y Z D Y T E L H m lX9XqXtXyXY.T.W.!.+X&X<X2X2X2X>X:X-X'._.V.h.p.p.<.<.>.&.` ~ ! ! Q / ^ ) ) } o.O.(.%X<X2X2X:X-X-X'.).V.V.m.m.p.g.p.p.p.p.p.g.m.m.V.Z._.}.}.;X:X2X2X[.r.&.` ~ ~ ~ ! ! ! Q / / ^ ^ ^ ) ) { { { o.o.o.O.~.~.~.~.~.~.^.^.O.^.O.O.o.} { { ) ) ^ ) ^ ^ / / / Q ! ! ! ~ ~ &.&.w.Z._.Z.m.g.p.w.w.>.>.>.>.&.&.&.&.&.>.&.&.>.>.<.<.r.p.m.",
"E L H m kX0XqXtXyXY.T.W.!.+X%X<X<X2X2X>X:X-X}.'.).V.m.p.t.w.>.>.&.&.~ ! Q / / ^ ) ) { s.%X<X2X>X-X'.Z.m.p.r.w.<.>.>.&.>.&.&.&.>.>.,.w.r.g.w.&.` ` ! ! ! / / ^ ^ ^ ) { { } o.O.O.~.~.~.~.@.~.O.O.o.} { ) ) ^ ^ ^ Q Q ! ! ~ ~ %.&.s D Y L nXhXtXuXY.W.W.@X+X&X<X<X<X2X2X<X2X<X<X<X<X@X#X X}.`.Z.V.m.p.r.w.>.&.&.` ~ ! ! / ^ ^ ) { } o.O.O.~.~.^.~.O.o.} ) ) ^ / / ! ! ~ %.&.>.>.w.r.p.m.V.).'.}.-X:X>X2X2X<X<X%X@X!.W.T.BXyXtXqXhXJXoX@X@X@XoXoX!.W.W.T.Y.yXtXqXrXhXlXn M M nXH H H J J J jX&.` ` ~ ! ! ! Q / ^ ^ ^ ^ { ) } } o.O.O.~.~.~.~.~.~.~.O.O.o.} { { ) ) ^ ^ ^ / Q ! ! ! ~ ~ ` &.] } { ) ^ / ! ~ ~ &.&.<.w.t.p.V.V._.'.-X;X:X>X2X2X2X<X&X&X+X@XoXW.T.Y.yXuXqX0XhXm H L E T Y D S y w 7 1 X       . O 2 7 r i S I T Y R K H lXhXwXtXuXyXY.W.W.@X@X<X<X2X2X>X:X-X}.'.).V.m.p.r.w.>.&.&.` ~ ! Q / ^ ^ ) { } o.~.d.`.1X<X2X>X:X-X}.}.).).V.V.m.m.p.m.p.m.m.m.M.B.Z.).`.}.-X;X>X2X2X<XE.5.&.&.~ ~ ! Q ! Q Q / / ^ ^ ^ ) ) { { { o.o.O.O.~.~.~.~.~.~.~.^.^.O.O.o.o.} } ) { ^ ) ^ ^ ^ / / Q ! ! ! ~ ~ ~ &.` w.M.V.m.p.t.w.w.>.>.&.&.&.&.&.&.` &.&.&.&.&.>.>.<.r.",
"E L K M lXhXqXpXuXyXY.T.W.!.#X#X<X2X2X2X>X:X-X}._.Z.V.m.t.r.<.>.&.&.` ` ! Q / ^ ^ ) { } s.`.<X2X>X-X}.Z.N.g.i.w.w.<.>.>.>.>.>.*.>.<.w.r.t.g.p.&.` ` ` ! ! / / / ^ ^ ) ) { } o.o.@.~.~.~.~.~.@.O.O.o.} { ) ) ) ^ ^ Q Q ! ! ! ~ &.%.7.D Y L m hXtXyXBXW.!.@X#X&X<X<X<X2X2X2X2X<X2X<X<X%X+X X}.).Z.m.p.i.w.<.>.&.%.` ! ! / / ^ ^ ) { } O.~.~.~.~.^.O.O.} { ) ^ ^ ^ / ! ! ~ &.&.>.<.w.t.g.m.Z._.}.-X-X:X2X2X2X<X#X@X!.W.T.Y.yXuXpXqXhXmX+X@XoX@XoX!.!.W.W.T.BXyXtX5XrX0XhXlXlXn m m m M M M M H :.&.` ` ~ ! ! ! / / ^ ^ ^ ) ) { } } O.O.@.~.~.~.~.~.^.O.O.O.o.} { { ) ^ ^ ^ ^ Q Q ! ! ! ~ ` %.&.{ _ ) ^ ^ ! ! ` &.&.<.w.t.p.V.V.`.}.*X-X:X>X2X2X2X2X<X$X@X@XoXR.T.BXyXtXqX0XlXM J L E T Y S V t 0 3 < X       X < 4 0 y V D Y T E L J M lX0XqXtXyXBXT.W.!.+X%X<X<X2X2X>X:X-X'._.Z.V.p.p.w.<.>.&.&.` ! ! ! ^ ^ ) ) { } O.~.~./.`.<X<X2X2X:X-X*X'._.).V.V.M.M.m.m.m.m.N.V.V.)._.'.}.-X;X:X2X2X<X%Xn.&.%.` ` ` ! ! ! Q Q / / ^ ^ ^ ) ) { { } } o.O.O.~.~.~.~.~.~.~.^.O.O.O.o.} } { { ) ^ ) ^ ^ ^ ^ Q ! Q ! ! ~ ~ ` &.&.<.g.m.p.r.w.>.>.>.&.&.` ` ` ` ` &.~ &.` &.&.>.>.",
"Y E K J m lX0XqXtXyXBXT.W.!.@X%X<X<X2X2X>X:X-X}.'._.V.m.p.r.w.,.>.&.%.~ ! ! / / ^ ) ) { } o.`.<X2X2X-X}._.V.m.p.r.w.<.>.>.>.>.>.>.,.<.w.t.p.m.g.&.` ` ~ ! ! Q / ^ ^ ^ ) ) { { o.o.@.@.~.~.~.~.~.O.O.o.} } ) ) ) ^ ^ / Q ! ! ! ~ %.%.7.D E L n rXqXyXY.W.!.@X&X&X<X2X<X2X2X2X2X2X<X<X<X$X@XXX'.Z.V.m.p.r.w.>.*.&.` ~ ! ! / ^ ^ ) { { o.O.@.~.~.~.~.O.o.{ { ) ^ / / ! ! ~ ` &.*.>.w.r.p.m.V.).'.}.-X:X>X2X2X<X<X#X@X!.W.T.yXyXtXqX0XlXxXDX+X@XoX@X!.!.!.T.T.Y.yXiXtXqXqX0XhXhXhXlXlXlXlXvXm lXvXj.&.%.~ ~ ! ! ! / / ^ ^ ^ ) ) ) } } o.O.@.@.~.~.~.~.~.~.O.O.o.} { { ) ) ^ ^ ^ Q / ! ! ! ~ ` ` &.' ) ^ ^ / ! ~ ` &.>.>.w.t.p.B.Z.).'.-X-X:X:X2X2X2X<X<X<X%X+X@XW.Y.yXtXpXrXhXn H K R E Y I S i w 7 2 O .     . O 1 7 w i S I Y T R K H m hXwXtXtXyXBXW.W.!.%X#X<X2X2X>X:X-X-X'._.V.m.p.r.w.>.>.&.` ~ ! Q / ^ ^ ) { } o.O.~.~.~.(.%X<X2X2X>X:X-X*X}._.).).V.V.V.M.V.V.V.Z.Z.)._.}.}.-X:X2X2X2X<X%X!.b.&.&.` ` ` ! Q ! Q / / ^ ^ ^ ^ ) ) { { } o.o.O.@.@.~.~.~.~.~.~.~.@.O.O.o.} } { { ) ) ) ^ ^ ^ ^ Q Q ! ! ! ~ ~ ` ` &.>.r.p.r.<.>.&.&.&.&.` ` ` ~ ~ ~ ~ ~ ~ ` ` &.",
"T E R J H lXhXrXpXuXyXY.T.!.!.+X&X<X2X2X2X:X:X-X}._.Z.B.m.i.r.<.>.&.&.` ` ! ! / ^ ^ ) ) } o.O.`.&X2X2X;X}.`.V.m.p.i.r.w.<.>.>.<.>.<.<.w.r.i.p.B.Z.w.` ` ` ! ! ! Q ^ ^ ^ ) ) { { o.o.@.@.~.~.~.~.~.@.@.o.} } ) ) ) ^ ^ ^ Q ! ! ! ~ ` %.8.c Y P vXrXtXyXT.W.!.+X&X<X<X2X2X2X2X2X2X2X2X<X<X<X#XXX_.Z.m.m.t.w.<.>.&.&.` ! ! ! / ^ ^ ) { } o.@.~.~.~.~.O.O.} { ) ) ^ ^ ! ! ! ` %.&.>.>.r.r.g.m.Z._.}.-X-X:X2X2X2X<X$X+X@XW.T.T.yXyXqXqXhXn M GX+X@X@X!.!.!.!.W.T.BXyXyXtXqXqXqXrX0X0XhXhXhXhXhXkXhXkX5X2.&.` ~ ~ ! ! ! / ^ ^ ^ ) ) ) { } o.o.@.@.~.~.~.~.~.~.O.@.o.} } { ) ) ) ^ ^ ^ Q ! ! ! ! ~ ` %.&._ ^ ^ ! ! ! ` &.>.>.w.p.p.m.Z._.'.-X-X:X:X2X2X2X2X<X<X%X%X@X!.BXyXtXqXrXlXM J L E T Y D C y q 3 < o       X O 3 0 r V S Y T E R J M lXhXqXtXyXBXY.W.!.@X%X<X<X2X2X2X:X-X}.`.Z.V.m.t.r.<.>.&.&.` ! ! ! / ^ ^ ) { } O.O.~.~.~.~.(.%X<X2X2X2X:X-X-X'.'._.).Z.Z.V.Z.V.Z.).)._.'.}.-X-X:X>X2X2X<X%X@XW.0.&.` ` ` ` ! ! ! Q / ^ ^ ^ ^ ) ) ) { { } o.o.O.~.@.~.~.~.~.~.~.~.O.@.o.o.} } { ) ) ) ^ ^ ^ ^ / / Q ! ! ! ~ ~ ` ` &.>.w.w.<.>.&.&.` ` ` ~ ( ! ! ! ! ! ! ~ ~ "
};
