/* XPM */
static char *result[] = {
/* columns rows colors chars-per-pixel */
"512 512 256 2 ",
"   c #D0C490",
".  c #D0C88E",
"X  c #D0C78F",
"o  c #CFC191",
"O  c #CBC38C",
"+  c #C980FF",
"@  c #C580FF",
"#  c #CBBB91",
"$  c #C8B790",
"%  c #C6B490",
"&  c #C8BF8B",
"*  c #C8B78F",
"=  c #C5BB8A",
"-  c #C2B589",
";  c #C0B587",
":  c #C1AE8D",
">  c #BFB189",
",  c #BEB287",
"<  c #BDAC89",
"1  c #BAAC85",
"2  c #B9A58A",
"3  c #B8A787",
"4  c #B7A984",
"5  c #B6A289",
"6  c #B3A383",
"7  c #AFA081",
"8  c #B39C89",
"9  c #B19E84",
"0  c #B09788",
"q  c #B09787",
"w  c #B08398",
"e  c #B08596",
"r  c #AE9B81",
"t  c #AF9688",
"y  c #AB9582",
"u  c #A79180",
"i  c #AE8891",
"p  c #AF8198",
"a  c #AC8492",
"s  c #AA898B",
"d  c #A88E84",
"f  c #A9858D",
"g  c #A58B82",
"h  c #A5828A",
"j  c #A28483",
"k  c #9F8181",
"l  c #AB9A7F",
"z  c #A9967E",
"x  c #A6927D",
"c  c #A28C7C",
"v  c #A0867E",
"b  c #9E897A",
"n  c #9B847A",
"m  c #988177",
"M  c #978078",
"N  c #978077",
"B  c #F170FF",
"V  c #F26DFF",
"C  c #EC71FF",
"Z  c #E373FF",
"A  c #ED6AFE",
"S  c #E969F6",
"D  c #E967FE",
"F  c #E867F7",
"G  c #E56BFB",
"H  c #E468F5",
"J  c #E465FB",
"K  c #E264F5",
"L  c #E166EE",
"P  c #D878FF",
"I  c #DC76FF",
"U  c #D37AFF",
"Y  c #D373FD",
"T  c #D070F7",
"R  c #DD6CFA",
"E  c #DB69F5",
"W  c #DD62F2",
"Q  c #D56EF9",
"!  c #D46BF2",
"~  c #D968EF",
"^  c #DA61ED",
"/  c #D962E6",
"(  c #D269EE",
")  c #D661EA",
"_  c #D462E5",
"`  c #CD7DFF",
"'  c #CC75FB",
"]  c #CC71F6",
"[  c #C27EFF",
"{  c #C576FA",
"}  c #C673F7",
"|  c #CF6FFA",
" . c #CF6EF4",
".. c #CC6AEC",
"X. c #C968E7",
"o. c #CE67E9",
"O. c #CB65E3",
"+. c #C66BE8",
"@. c #C469E4",
"#. c #C566E1",
"$. c #D161DE",
"%. c #CC61DC",
"&. c #C961D7",
"*. c #C363DC",
"=. c #C360D6",
"-. c #D85FEC",
";. c #D55FEA",
":. c #D25EE5",
">. c #CE5CE1",
",. c #D05FDE",
"<. c #CA5BDD",
"1. c #C95DD6",
"2. c #C75AD9",
"3. c #C359D4",
"4. c #C057D1",
"5. c #C15BCE",
"6. c #C057CF",
"7. c #BC7DFF",
"8. c #B57AFC",
"9. c #B277F8",
"0. c #B076F6",
"q. c #BF69E0",
"w. c #AE75F2",
"e. c #AB72ED",
"r. c #BE68DE",
"t. c #BD65DA",
"y. c #BC62D4",
"u. c #B960CF",
"i. c #BF5AD0",
"p. c #BF57D0",
"a. c #BD5ACC",
"s. c #BA5BC4",
"d. c #BC56CB",
"f. c #B855C7",
"g. c #B659C1",
"h. c #B755C8",
"j. c #B454C3",
"k. c #A461A2",
"l. c #AD7C99",
"z. c #A97D93",
"x. c #A9739A",
"c. c #A87795",
"v. c #A67991",
"b. c #A47393",
"n. c #A37D8B",
"m. c #A07E86",
"M. c #A1758C",
"N. c #A56C9C",
"B. c #A26C96",
"V. c #A2649C",
"C. c #B25ABB",
"Z. c #B05DB6",
"A. c #B153BE",
"S. c #AF58B8",
"D. c #AD5AB3",
"F. c #AD52BA",
"G. c #A951B6",
"H. c #A750B3",
"J. c #A95BAE",
"K. c #A857AF",
"L. c #A65AAA",
"P. c #A25BA4",
"I. c #A352AC",
"U. c #A155A6",
"Y. c #A84FB5",
"T. c #A54FB1",
"R. c #A14EAD",
"E. c #A05E9E",
"W. c #9F7988",
"Q. c #9D7B82",
"!. c #9D7389",
"~. c #9A7584",
"^. c #967281",
"/. c #9E6A92",
"(. c #9F609A",
"). c #9A6193",
"_. c #976190",
"`. c #9A6C8B",
"'. c #996F86",
"]. c #99658F",
"[. c #966988",
"{. c #936B82",
"}. c #95638B",
"|. c #916584",
" X c #8E6282",
".X c #9F59A1",
"XX c #9F50A8",
"oX c #9D51A3",
"OX c #9E4DA9",
"+X c #9A4CA4",
"@X c #974BA0",
"#X c #9C5B9B",
"$X c #995D96",
"%X c #99539D",
"&X c #985797",
"*X c #955B92",
"=X c #96519A",
"-X c #925394",
";X c #915C8B",
":X c #905F87",
">X c #90568E",
",X c #984E9F",
"<X c #934B9B",
"1X c #914C96",
"2X c #8F5191",
"3X c #8E5A89",
"4X c #8B5B83",
"5X c #8C538B",
"6X c #895585",
"7X c #875980",
"8X c #855282",
"9X c #8F4A98",
"0X c #8C4A93",
"qX c #894A8E",
"wX c #884F87",
"eX c #85498A",
"rX c #824A84",
"tX c #997D7C",
"yX c #987F77",
"uX c #98777F",
"iX c #967B79",
"pX c #947B76",
"aX c #93747A",
"sX c #917576",
"dX c #916D7D",
"fX c #8F7078",
"gX c #8E7275",
"hX c #8D6B79",
"jX c #8A6C74",
"kX c #8A647B",
"lX c #886676",
"zX c #876873",
"xX c #876178",
"cX c #846373",
"vX c #895D7D",
"bX c #855B7A",
"nX c #815D73",
"mX c #82547C",
"MX c #805677",
"NX c #804E7E",
"BX c #7F4981",
"VX c #7E5A72",
"CX c #7E5179",
"ZX c #7C5373",
"AX c #7C4B7B",
"SX c #7B4E76",
"DX c black",
"FX c black",
"GX c black",
"HX c black",
"JX c black",
"KX c black",
"LX c black",
"PX c black",
"IX c black",
"UX c black",
/* pixels */
"/ o._ _ _ _ :./ ,.,.,.,.>.2.2.2.6.6.6.d.f.d.A.A.A.A.A.A.Y.A.H.A.A.H.A.F.A.A.d.A.d.f.6.6.3.2.<.>.:.-.W W W F F S S S V S B C C C Z Z Z I P Z P P P P U U U U Y U Y ' ' ' ' ] ' ] ] ] ] ] ] ] ] ] ]  .] ]  .]  . . .|  .|  .| | | | ' Q ' Q ' Q ' ! '  .T ..T ..............@...+.+.+.+.+.q.+.+.+.q.q.@.q.r.r.q.r.r.r.r.y.r.y.r.u.r.u.t.u.y.u.u.u.u.u.u.u.u.u.u.s.u.s.u.s.5.s.s.s.s.s.s.s.g.s.g.C.s.C.A.S.K.D.I.L.I..X%X#X=X*X=X*X*X>X}.*X}.}.[.].[.!.!.W.W.M.W.h h h h h h h a h s h h i h i h a s z.i f i i z.i f a e i z.i i e i i i i i i h s h h m.W.uX^.aX^.hXhXhXvXjXzXcXzXzXzXzXcXjXjXjXjXgXgXgXpXpXpXm m m c c c x x x x x x x x c yXpXpXsXjXjXzXcXcXVXVXVXVXVXVXVXVXZXZXZXVXZXZXVXZXZXVXZXmXVXZXbXVXMXbXbXbXxXxXvXlX|.hXhX|.^.'.^.Q.W.W.Q.M.h M.h h f f f f a a i a i a i a i a i i a i e p i p p p p l.l.x.x.x.x.V.V.N.N.N.(.k.(.k.k.k.P.P.P.P.L.L.L.L.L.L.L.D.D.K.D.D.D.D.S.S.S.S.S.S.C.S.g.Z.g.S.g.Z.s.Z.g.Z.g.S.g.A.S.S.C.C.H.S.S.S.S.S.H.K.K.T.K.oXK.T.K.oXoXoXoXoXoX%XoXoX%XoX@XoXoXoXoXoXR.oXR.Y.K.H.H.A.A.A.g.d.d.6.6.1.1.1.1./ ,.,._ _ _ _ _ _ ",
"_ _ ( _ ) _ / ,./ 1.,.,.1.>.2.6.2.6.d.d.f.A.d.A.A.A.A.S.A.Y.A.Y.S.A.Y.A.A.A.A.A.d.d.d.6.3.2.<.>.:.-.-.W D F F F V S S V S C S C Z Z R Z P P P P U U Y U Y ` ' ' ' ' ' ' ' ' ] } ] ] ] }  ...}  .] ]  . .] ] ]  .] ]  . .' Q | | Y Q ' Q ' Q Y Q Y ! Y ! T ( ( ....................+.+...+.+.+.+.+.+.@.@.@.@.q.q.q.*.q.*.q.*.t.r.y.t.y.t.y.y.y.y.y.y.u.y.u.u.s.y.s.u.5.s.s.s.s.s.s.5.s.s.s.s.g.s.A.C.A.G.S.T.L.oX.XoXoX=X=X-X*X>X>X>X>X:X3X:X[.|.[.[.'.'.~.W.W.W.h W.h h h m.h h h h h h h h h h z.h h z.h z.h z.z.f z.z.f z.f f f z.s i f i h h h j m.Q.Q.^.aXhXdXhXjXhXcXzXzXzXzXzXzXzXcXzXzXzXgXzXgXgXpXgXm m m b b c c z z z z z c c c b b yXpXjXgXjXjXzXcXcXVXVXVXVXVXVXVXVXVXVXVXVXZXVXVXZXnXZXbXnXVXbXcXxXxXxXxXhXhX XfX|.^.^.^.uXW.W.Q.h h j h h h f h f f f f i f i f a a i a i a a a i a a a a z.z.z.v.c.x./.b.(.B.B.(.(.(.(.(.E.(.P.E.P.E.P.P.P.P.P.L.L.L.L.L.L.D.K.H.D.D.D.S.K.S.S.S.S.S.S.S.S.A.S.A.A.S.A.A.S.S.S.S.F.S.F.S.D.S.H.H.K.K.T.K.R.K.oXK.oXoXoXoXoXoXoX@XoXoX%X@XoX%XoX@XoXoXoXoXoXR.T.oXT.Y.S.Y.A.A.f.f.d.6.6.6.1.>.1.,.>./ $._ _ _ _ ( ",
"_ ( _ / _ / ,./ ,.-.,.1.>.1.6.2.6.6.6.f.d.f.A.A.A.A.Y.A.Y.A.Y.Y.A.Y.A.A.A.A.A.d.A.f.d.6.3.2.<.>.:.-.-.W K F F F S V V S B S C Z Z Z Z I I P P P U U U ' ` ' ` ' ' ' ' ' { ] }  .}  .}  .} }  .}  .}  .} ]  . . .]  .| ' ! ' Y Y Y Y Y Y I Y Y I Y Y ! Q ! T T ( ( ! ( (  ...................+...+.+.+.+.@.@.@.@.O.q.q.@.*.q.t.*.*.y.*.=.t.=.y.y.=.y.y.5.u.5.y.5.5.5.s.&.s.5.5.5.5.s.5.s.s.s.s.A.s.A.F.S.T.L.I.I.oXoX=X=X=X-X2X2X>X>X3X3X3X:X:X:X|.|.|.'.'.'.!.W.W.W.W.W.W.h m.h m.h h m.h h h h h m.z.m.v.m.z.n.n.M.n.n.n.z.n.z.z.s z.h s h s h h m.k Q.uXiX^.aXhXhXjXzXzXzXzXcXzXcXzXcXzXzXjXzXzXgXjXgXgXpXsXpXm m c b z b x x x z x x x c b b yXyXgXjXjXzXzXcXcXcXVXcXVXVXVXVXVXVXVXnXnXVXZXnXnXnXnXnXxXcXxXxXxXlXhX|.hXfXdX^.uXuXQ.W.Q.Q.j h j h h s h h s f f s f f f s a s i a s i a s i a a s z.z.z.z./.v./././.)./.).(.).).&X).#X).#X#X#X#XE.%XE.P.oXP.P.oXP.I.L.I.L.I.L.K.K.K.K.S.K.S.S.K.S.S.G.S.S.S.S.S.F.S.S.S.S.F.S.S.F.D.D.H.H.Y.K.K.T.K.R.K.R.K.R.oXoXoXoXoXoX@XoX%X@X@X%X%X@X@XoXoX@XoX+XoXR.oXT.T.T.H.H.A.A.A.f.d.d.6.2.1.1.1.1./ ,.:._ _ / o.) ",
"^ _ ^ _ / :./ / >.,.,.>.2.2.2.6.6.6.f.f.A.A.A.A.A.Y.A.Y.S.Y.Y.S.Y.S.Y.A.H.A.A.A.d.d.f.6.6.2.2.>.>.-.-.W W K F F F S S V S B C Z C Z I I I I U Y U U ` U ` ' ' ' [ ' ' { | } } } } } } +. .} } ..}  .}  .] }  .' ] '  .Y ' Y Y Y Y Y I Y Y Y I Y Y R Y Q ! ! E ! T ( ( ( ( (  ...! ..................+...+.X.@.X.@.X.q.%.q.*.@.*.%.q.*.*.=.*.=.=.=.=.=.=.=.=.5.5.5.5.5.s.1.s.5.s.5.s.s.5.d.s.s.g.A.A.S.S.T.I.XXoXoX=X=X=X-X2X2X2X6X>X6X6X:X3X7X:X X|.|.dX'.^.^.'.^.Q.W.Q.Q.W.W.Q.m.W.k W.W.W.W.m.W.h W.W.W.W.m.M.M.W.M.M.M.n.n.M.n.z.h z.h s h s k h k Q.tXuXaXaXhXhXjXzXzXzXcXzXcXzXcXzXzXzXzXjXjXjXgXjXgXgXpXsXpXm m b b x x x x x z z x x c c b m b pXjXgXzXzXzXzXcXVXVXcXVXcXVXVXVXnXnXnXcXnXcXcXcXxXzXxXlXhXhXhXhXfX^.uXuXuXQ.k k k h j j h s j h h s f s s f s s s s h s s s s i h s a h a h z.h v.M./.M./.`.[.).].).).;X&X).*X&X&X&X&X&X#X&X%X#X%X%X#XoXoXP.oXP.oXL.I.L.I.I.L.T.K.K.K.Y.G.S.G.S.S.S.S.S.S.S.S.S.Y.S.F.D.Y.D.H.H.H.K.R.K.R.K.oXK.oXI.oXoXoXoXoXoX@XoXoX@X&X@X%X@X1X@X@X&X@X@XoX@XoXoX+XoXOXT.T.T.H.S.A.A.A.d.d.d.6.2.1.>.>.,.-.,./ _ _ ^ _ ",
"_ ^ _ ^ :./ -.,.-.,.2.2.2.2.4.6.f.6.A.d.A.A.A.A.Y.Y.S.H.T.Y.T.Y.Y.H.H.H.A.Y.A.A.A.A.f.d.6.4.2.<.>.:.-.W W K F F V S V S V C S C Z Z Z I I P P U U U U ` ' ' ` { ' { { { { { } } } } } } } }  .}  .} } ] }  .'  .| ] Y ' Y Y Y Y Y Y Y I Y I Y Y R Y R Q Q Q ! T E ! ! ( ! ! ! ( ( ! ( ] ( ( ] ................X.X.X.X.X.O.@.%.X.q.%.q.%.*.*.*.%.*.=.=.&.&.5.1.&.&.5.1.5.5.1.5.1.5.5.5.5.s.f.f.f.A.S.S.T.I.I.oX+X%X=X=X-X0X2X2X3XqX6X6X6X6X7X:XvX XkX|.|.dX{.{.^.Q.'.^.Q.Q.Q.Q.Q.W.Q.W.Q.W.k Q.W.W.uXW.W.W.W.'.W.~.W.'.W.~.~.M.m.M.n.m.m.h m.s k s m.k k uXuXaXaXfXjXzXzXjXcXzXzXzXzXzXzXzXjXjXjXjXgXjXgXsXsXsXpXpXm m b b b x x x l z l l l z x c x m m yXyXgXgXzXzXzXzXzXcXzXVXcXcXcXnXnXcXcXcXcXxXzXlXzXhXhXfXdXfXiXuXiXuXk k k k k h j g h j j s s g s d s s g s s s s s s h s h h s h h h h h M.W.W.!.!.[.[.[.}.}.}.;X;X*X;X-X*X*X*X-X-X&X-X&X&X%X&X%X%X%X%X%XoXoX.XoXoXoXI.L.XXK.XXK.T.K.K.T.K.G.K.G.G.G.Y.S.G.G.S.T.D.T.K.T.T.I.I.R.K.I.I.I.I.oXR.oX%XoXoXoXoX1XoX1X@X1X%X1X@X&X@X@X&X@X1X%X1X@X@X@XoXoXoXoXR.T.H.H.H.A.A.f.f.6.6.6.2.1.,.,.,./ :.:./ ^ _ ",
"^ _ -./ / / ,.-.,.,.>.2.2.4.6.d.6.A.d.Y.A.A.Y.S.Y.Y.T.T.Y.T.T.T.T.T.Y.H.H.S.A.Y.A.A.d.f.f.6.4.<.<.:.:.-.W J K F F V F V S B C C Z Z Z I I Y P P U U ` ' ` ` ' ` { ' { { { { } } } }  .} } } } } }  . .} | ' | ' ' Y ' Y Y Y Y U I I Y I I I R I I R Q R R E E R ! E ! E ( ! ! E T ( ! ! T ( ! ! ] ( ............( X.X.o.X._ X.%.X.O.%.X.%.%.%.*.%.%.*.&.&.1.&.1.1.1.1.1.5.5.5.5.5.5.d.s.6.f.g.A.A.G.K.T.I.XXoXoX<X=X1X2X5X2XwXqX6XwX6X6X7X7X7XvXvX|.|.vX|.dX^.{.^.aX'.^.Q.^.Q.Q.^.Q.uXQ.Q.'.Q.Q.^.W.^.~.^.'.~.'.'.~.'.'.'.'.~.~.~.W.W.m.m.m.m.h j k k k k iXuXfXfXgXzXjXjXjXzXzXzXzXzXjXjXjXjXjXgXgXsXsXsXpXpXpXpXm m m b b b x l x l l l l l l l x x b b m m gXpXjXgXzXzXzXzXzXzXzXcXzXzXzXcXzXjXjXjXfXhXfXsXuXiXiXuXk k k k k k g j j g j g s g g s s g s s s s s s h h s h s h s j h h h h W.W.W.!.'.'.'.[.[.:X}.3X;X;X3X3X;X;X>X>X>X-X-X-X-X-X-X-X%X-X%X%X%X%X%X%XoXoXoXoXoXXXI.XXL.XXK.T.L.T.K.T.K.T.K.K.K.Y.K.T.K.K.T.T.I.T.I.I.I.R.oXI.oXoXoXoXoX@XoX@X%X@X%X@X&X@X1X@X1X1X1X1X1X1X1X1X@X1X@X1X@X@X@X@XoXoXR.R.R.Y.H.A.A.A.f.f.6.6.2.2.1.,.,.-./ / :./ ^ ",
"/ -./ / / ,.-.,.,.2.2.<.4.6.6.6.A.f.A.A.A.S.Y.Y.T.T.T.T.R.R.R.R.K.R.T.T.H.H.H.F.F.A.A.f.f.6.6.2.2.>.:.-.W W K F F F V S V S C A Z Z Z Z I I P U U U Y ` ` ' ` { ' [ { { { { { { }  .8.} } } } {  .} { | { | ' ' ' ' U Y U Y U P P P P I I I I I R I R I R R R E E E E E E E E T E T E T ! E T ! ! ! ! ! ( ( ( ( X.( o.o.o.o._ o.o.$.X.$.X.$.X.%.%.%.$.&.&.,.1.1.1.1.1.1.1.1.1.5.1.6.6.6.f.f.f.A.F.S.T.T.XXoX+X=X=X1X-X0X2XqXwXwXwXwX6XmX7X7X7XvXvXvXvXhX XhXhX{.dX^.aX^.^.^.Q.^.uXQ.^.Q.^.uX^.^.^.^.^.^.'.^.dX^.dX|.'.{.'.'.{.'.~.'.uXW.W.m.k m.k k k k k uXiXiXfXgXgXjXjXzXzXzXzXjXjXjXgXjXgXgXsXsXpXpXyXyXm m m m m b b b x x x l 7 l 7 7 7 7 l l l x x c m m pXpXpXgXgXjXjXgXjXjXjXjXjXgXgXjXgXgXaXfXiXiXuXyXiXk k v v k v g g v j g g s g d g s g d s g h g h g h g s j s h h j h m.h m.Q.W.Q.Q.'.'.dX|.|. X:X4X3X3X4X3X3X3X5X5X>X>X>X>X>X-X-X-X-X-X1X=X=X=X=X=X%X@X%X+XoXoXoXoXoXXXXXXXXXT.U.T.I.T.T.K.T.T.T.K.T.T.T.T.XXI.XXI.oXR.oXoXoXoXoXoX@X%XoX@X%X@X1X@X1X1X1X&XqX1X1X&X1XqX&X1X1XqX@X1X1X@X1X@X@X@X+X+XoXT.R.Y.H.Y.A.A.f.d.6.6.2.2.>.,.,.-./ / -./ ",
"^ / -./ -.,.-.>.1.>.2.4.4.6.f.f.f.A.Y.A.Y.Y.Y.R.T.R.R.R.R.OXR.R.R.R.I.R.R.H.H.H.A.F.A.A.d.f.6.4.<.<.:.:.-.W J K F V F V S V S C C Z Z I I I P U P U ` U ` ` { ` { { ' { { { { { | 8. .{ { } { } { ' { { ' ' ' ' ' Y Y U Y U P P U P Z P I I I G I R G R R R E R E E R E E E E E E E ! E T ! E T ! ! ! ! ! ! ( ( ( ( ( ( o.o.o._ o.o._ o.$.o.$._ $.$.,.,.,.,.,.1.1.,.1.1.1.1.1.6.6.6.6.d.f.f.A.A.Y.Y.T.XXXX+X@X<X<X1XqX5XqXwXwXNX6X7XNX6XmXmX7X7XbX7XxXvXhX|.hXdX{.dX{.aX^.^.aX^.aX^.aX^.aX^.^.^.aX^.aX{.fX^.|.dX|.fX|.dX|.dX{.dX^.^.^.uXW.uXm.k k k k k yXk iXiXiXgXgXjXgXjXgXgXjXgXgXgXgXsXpXyXyXpXm m m m m c b b c c b x x x x l l 7 6 7 6 7 4 7 7 l l l x x b m m pXpXpXgXgXgXgXgXgXgXjXsXpXiXiXiXiXk yXv v b v v v g g v g g s u g g g s g s g s d j s g s g h j h j h k h k W.k Q.Q.Q.Q.^.'.^.aX{.|.kX|. X X4X4X4X3X8X3XwX3X5XwX5X5X5X0X>X0X-X1X-X-X-X1X=X<X=X<X%X%X%X+X%XoX+XoXXXXXXXXXXXR.XXT.XXT.T.I.T.XXT.XXXXR.XXXXXXoXoX+XoXoX+X@X%X@X@X@X@X1X@X@X&X1X1X1X1X1X1X1X1XqX1X1X1XqX1X1X1XqX1X1X1X@X1X@X@X@X@XoXOXT.R.Y.Y.A.A.f.f.6.6.2.2.>.>.,.,./ / / -.",
"/ -./ / ,.-.>.>.<.2.<.4.d.d.f.f.A.A.A.Y.Y.R.Y.T.T.OXR.R.OXoXR.oXR.R.+XR.I.R.T.H.H.Y.F.A.A.f.d.6.4.<.<.:.-.W W K F F F V S V V C C C Z Z I I Y P U U U ` ` ' ` ' [ ' [ { { { { { 8.{ { { { { { { ' { { ' ' ' ' ` Y ' U Y U U P P Z P P P I I G I I G I G R R G E G E H E R E H E R E I E R R R ! R ! E ! E ! R ( R ( ( ~ ( ( ~ ( _ ( / o._ _ _ :.,.,.,.,./ $.$.,.,.,.1.,.1.1.2.6.2.4.6.d.f.A.A.F.F.T.XXOX+X@X<X<X0X0X0XqXeXwXwXwXrXrX8XmXmXmX7XMXbXxXbXxXxXhXvXhXhXhXaXdXaXaX{.aX^.aX^.aX^.dX^.aX^.fX|.fX|.hX|.dX|.|.kX|.kXdX|.dX|.dX^.^.uXuXuXk k v k k k yXk yXiXpXgXpXgXgXgXgXgXgXgXpXyXyXyXm m c m c c c c c c x c x z z x l l 7 l 7 7 4 4 4 4 4 4 4 6 7 7 l x x b b m m m pXyXyXyXyXyXyXyXyXyXyXyXb yXv v b v b g g v g u g u u g u s g y g g g g j d j g j j j j j k k Q.Q.k Q.Q.tXQ.'.^.^.^.^.|.hX|.|.vXvX7X7X4X8X8X4XwXwXwXwX5XwXqX5X5XqX5X5X2X0X2X0X-X1X-X=X=X<X=X<X=XoX<XoXoX,XoXXX,XXXXXXXXXXXXXXXXXXXXXXXXXXXXXXXoX+XoX@X+X@X@X@X@X@X@X@X1X@X@X1X1X1X1X1X1X1X1XqX1XqX1XqXqXqXqXqX1XqX1XqX1X1X1X1X@X1X@X@X@XoXoXR.T.Y.Y.A.A.f.f.6.6.>.2.>.>.-.>./ / -.",
"-./ / :.-.>.:.<.<.<.4.4.d.f.f.A.A.Y.Y.Y.T.Y.OXOXOXOXOX+XR.+X+X+X+X+XR.OXR.R.I.R.T.F.F.F.A.A.f.6.4.<.<.:.:.-.W J K F V F V V S V C Z Z Z Z I I Y U U U U ` ` ' [ ` { { [ ' { [ { { { { { { { { { { ' ' { ' ' ` ' ` Y U U U P P P P Z P Z I Z I G Z Z G G G G G H H G H G H H R R E G E R E R E R E R E E E ! E E E ~ E ~ ~ ( ~ ~ ~ / ( / ^ _ / / / / / / ,.,.,.,.,.,.,.1.1.2.2.2.4.4.d.f.f.A.A.Y.T.T.OXOX@X<X<X9X0X0XeXeXeXeXNXrXNXNXmXNXmXmXmXbXbXbXxXxXxXxXhXhXhXhXhXaXhXaXaX^.fX^.fX^.fX^.hXdXdX|.fXhX|.hXkXkXkXvXkXkXvXkXkX|.fX|.fXdXuXuXuXtXk tXv k yXv yXyXyXyXyXgXyXgXpXpXyXyXyXm b b b c c c x c z z z z z z l z l l r r r l 4 6 6 4 1 1 ; 4 ; 1 1 4 4 7 7 7 l x x x b b m m m m b b b b b b c c x b u g u g u u u u d u d u d g u g g g g g g g j g j j j Q.k Q.Q.tXQ.iX'.iX^.'.aXaX^.{.hXhX|.hXvXvXvXvX7X7X8XbX8X8X8X8XwXwX8X5XwXqXwX5XqXqX5X0X2X0X0X0X1X0X<X<X<X<X<X<XoX<XoX,XoX,XXXXX,XXXXXXXOXXXOXOXXXOXXXOX@XXX@X+X@X+X<X@X@X<X@X<X<X<X<X1X1X@XqX1XqX1XqX1XqX1XwXqXqXqXqXqXqXqXqXqXqX1XqX1XqX1X1X@X0X@X@X@X+XR.R.Y.Y.Y.A.f.f.d.6.4.>.>.>.>.-.:.-./ ",
"/ / >.-.-.>.<.<.<.4.4.d.d.f.f.A.Y.Y.Y.T.T.OXOXOXOXOX@XOX+X+X+X+X+X+X+XoX+XOXR.R.T.T.T.F.F.A.f.f.6.4.<.<.:.-.W W J F F V V S V V C C C Z I I I I U U U ` ` ` ` ` { ` [ { [ { { { [ { { { { { { { ' { { ' ` ' ' ` Y U U U P P P P P P Z I Z I Z Z G G Z G G A H D F F S K F G H H H R G R R G R R R R R R E G E E E E E E ~ H ~ ^ ~ ^ ^ -./ L / / / / / / ,./ ,./ ,.,.,.>.2.2.2.<.4.6.d.f.j.A.Y.Y.T.OXOX@X@X@X9X9XqXqXqXqXrXrXrXNXNXmXAXmXNXMXMXMXMXbXxXbXxXxXjXvXhXhXhXhXfXfXfXfXfXfXfXfXfXhXfXhXhXhXlX|.lXkXlXvXxXxXxXxXkXvXlXkXvXhXhXdXfXuXuXtXtXk v yXg yXb yXb m m yXm m m m m b b b c c z z z z z z l z l l l r r r r r r r r 4 7 7 4 1 1 1 ; ; ; ; ; ; ; ; 1 4 4 4 l l x l x x x c x c x x c z x x x x x x u z u u u d z d u d u u u g g g g g k g g j yXj Q.tXQ.iXQ.^.^.^.^.aX^.aXaX^.hXhXhXfXvXxXxX7XxX7XMX7XmX8XmX8X8X8XrX8XwXrX5XrX5XqXqX5X0XeX0X0X0X0X9X0X9X1X1X<X<X<X<X<X@X@X@X@X@X@XOX@XOX+XOX+XOXOXOX+X+X+X+X@X@X@X@X<X<X<X<X<X<X<X<X1X1X1X1XqX1XqX1XqXqXqXqXqXqXwXqXqXqXqXqXqXqXqX1XqXqXqX1X0X1X0X1X@X@X@X@XOXOXT.T.Y.A.F.f.d.4.4.4.<.>.>.-.:./ / ",
"-.:.-.:.>.>.>.<.2.4.d.d.f.A.F.F.Y.Y.T.T.OXOXOX@XOX@X@X@X@X@X+X+X<X+X+X+X+XoXOXR.I.R.T.H.F.F.A.f.d.4.4.<.:.:.-.W W D F A F V V S V C Z C Z I I I P U U U ` ` ` ` ` { ` [ { [ { [ { { [ { [ { ' [ { ` { ` ' ` ` Y ` U U P U P P Z P Z P Z Z Z Z G Z G A G A D F F D F F F F F D F A H G G G R G R G R R G R E G E H E H E H ~ H L ^ K L L L / / L / / / / / / / ,.-.1.,.>.>.2.2.4.4.d.f.j.A.A.Y.T.R.OX+X@X<X9X9XqX0XqXrXrXrXrXrXBXNXAXNXZXmXMXMXMXMXnXxXcXcXxXcXhXzXhXhXhXfXfXfXfXfXfXfXfXhXfXlXfXhXlXhXxXlXxXlXxXxXxXxXvXnXvXvXlXxXkX|.fX|.sXuXsXtXk yXv b b b b b b m b m b b b x b x x z l z r r r r l r r r r r r r r 7 6 r 7 4 7 4 4 4 4 ; ; ; ; ; & = = = ; = ; ; 1 1 4 4 7 7 7 l l z l z l l z z z z z z z r u u r u z d z d u u g u g u g v v g k yXk tXtXtXuXaXaXaXaXaXaXhXaXfXhXhXhXhXhXhXvXjXbXxXbXbXmX7XMX8X8X8XAX8XrXmXrX8XrXrXeXrXeXeXeXqXqXqXqXqX0XqX9X9X0X9X9X<X<X<X<X<X@X@X@X@X@X@X+X+X+X+X+X+X+X@X+X@X@X@X@X@X9X@X<X<X<X<X1X1X1X1X1X1XqX1X1XqXqXqXwXqXqXwXrXqXqXqXwXqXrXqXqXrXqXrXqXqXqXqX1XqX1X1X1X@X@X@X+XOXOXY.T.Y.A.j.f.d.4.2.2.>.>.>.-.:.-.",
":.:.:.>.>.<.<.>.4.4.d.d.A.f.F.Y.Y.T.OXOXOXOXOX@X@X@X@X<X@X<X<X<X+X<X<X+X+X+X+X+XOXI.T.T.F.F.A.j.f.d.4.<.<.:.;.W J K F F V V V A V C A Z Z Z Z P Y U U U U ` ` ` [ ` [ ' [ ' [ { ' [ { [ { ' [ ' ` { ` ' ` ` Y ` U U U U P P P P P I I Z Z Z A Z Z A A A A A F D F F D F F D F A F D G A G G G G G G G G G G H G G H H H K K K L F L L L L L K / L / L / / / ,.-.,.-.>.>.<.<.<.4.6.f.f.f.A.Y.Y.R.OX+X+X@X9X9X0X0XeXeXeXrXrXBXAXAXAXSXSXZXSXZXVXVXVXnXnXnXzXcXzXzXzXgXzXgXgXjXfXfXsXjXfXfXfXfXjXjXlXlXlXzXlXzXxXlXxXxXvXnXvXxXnXxXxXlXlXlXfXfXsXuXtXyXk b b b c c b b x b x x x x l r r r r r r r r r r 6 r 7 r r 7 r 7 7 6 r 4 7 4 r 4 4 4 1 4 1 ; ; & = & & & & & = = ; ; ; 1 1 4 7 4 7 6 l 6 l l r l r r r r r z z r z z y z u u u u z v u g v g g k yXtXtXtXaXaXaXaXhXaXfXhXhXfXhXhXhXhXhXhXjXvXxXbXxXxXbXMXMXMXCXCXCXAXmXNXmXrXrXrXrXrXrXeXeXeXeXeXqXqXqX0XqX0X0XqX9X0X9X9X9X9X<X<X@X9X@X@X@X@X+X@X@X+X@X@X@X@X@X@X@X@X<X<X@X9X<X9X0X9X1X1X1X0X1X0X1X1XqXqXqXqXqXqXqXqXqXqXrXwXqXrXqXwXrXqXwXqXqXqXrXqXqXqX0X0X1X0X@X@X@X@XOXOXT.Y.F.F.j.d.d.4.2.<.>.>.:.:.:.",
":.:.:.>.<.>.2.4.4.d.d.j.F.F.F.Y.T.T.OXOXOX@X@X@X@X<X<X<X<X<X<X<X<X<X<X<X@X@X+X+X+XOXR.R.T.F.F.A.f.f.d.4.<.>.;.-.W J J F V F V V A V C C Z Z I R I Y U U U ` ` ` ` [ ` [ ` [ [ ` [ { ` { [ { ` [ ' ` ' ` ' U ` U U U U P P P P I I Z I Z Z Z Z A A A A A D D V F V F F F D F F F D S A A D A A A G A A G A G D H D F D F F F F F L F L L L L L L / L / K / / / -.>.>.>.>.<.2.4.4.d.f.j.A.Y.Y.T.R.OX+X<X<X9X0XeX0XeXeXBXBXBXBXAXAXAXSXSXSXZXZXZXVXnXnXnXcXnXzXcXjXzXjXjXjXjXsXjXjXjXsXjXjXjXjXjXjXjXzXzXzXnXcXnXnXnXnXnXnXnXxXnXxXnXlXcXlXjXfXsXiXtXyXb b x c c x x l x l r 7 r 7 7 7 7 7 4 r 4 r 7 7 r r r r r l r r r r r 7 7 7 7 4 4 4 4 4 ; ; ; ; ; & & & O O O . O O & ; = ; ; ; 4 4 4 6 6 6 6 l 4 l l r r r r l z r z z u u z u u v u v v v yXyXk iXiXaXaXgXaXjXgXhXjXfXjXjXhXjXjXhXzXzXcXcXcXcXcXbXVXMXMXMXCXCXCXCXAXAXBXBXAXrXAXrXrXrXeXrXrXqXeXeXqXeXeX0XeX0X0X0X0X9X9X9X9X<X<X<X@X9X@X<X@X<X@X@X@X@X@X@X@X<X@X<X<X<X9X9X9X9X9X9X0X0X0X0X0X0XqXqXqXqXqXqXqXqXrXwXrXqXrXrXrXrXrXrXqXrXrXqXrXrXqXqXqXqXqXqX0X0X1X@X0X@X@XOXOXOXT.Y.F.f.j.d.4.4.<.<.>.>.:.:.",
":.:.>.>.>.2.2.4.d.d.j.f.A.Y.T.T.OXOXOXOX@X@X@X<X<X<X<X<X<X<X<X0X<X<X<X<X<X<X@X@X+X+XOXI.T.Y.Y.A.A.f.d.6.<.>.>.;.W W K D F V V V V V C C Z Z Z I I I U U U U ` ` ` ` ` [ ` [ ` [ [ ` [ [ ` ` [ ` { ` ` ` ` ` ` U U U U P P P I I Z I Z Z C Z C C D A V D V A F A F A F A F F V D V D D D A A A D A D A D A D A A S A S D F F F F K F F K K F K L L L K / K -.-.>.-.;.>.>.2.2.4.d.d.f.A.Y.Y.T.R.OX+X@X@X9X0X0X0XeXeXBXBXBXBXAXAXAXSXSXSXSXZXZXZXVXVXnXnXnXcXcXjXcXjXjXjXgXjXjXgXjXgXjXjXjXjXjXjXjXzXzXcXcXcXcXnXcXnXnXnXnXnXnXnXnXcXnXcXcXjXjXsXsXyXyXb c c x x l l r 7 4 7 7 4 4 7 4 4 4 7 4 7 7 7 r l l l l l l r l l l l l l 7 r 4 7 7 4 4 1 1 1 ; ; = & & O O O O . O O O & & ; ; ; ; 1 4 4 6 6 4 l 6 7 7 r r r r l l z z z z u u c u b v b yXyXiXpXpXgXpXgXgXjXgXjXjXjXzXzXzXzXzXzXzXzXzXzXcXcXcXnXVXnXVXVXZXZXZXSXAXAXAXAXAXAXBXBXBXBXrXrXrXeXrXeXeXeXeX0XeX0X0XeX0X0X0X9X9X9X9X9X<X9X@X<X<X@X@X@X<X+X<X@X<X@X@X9X@X9X9X9X9X0X0X9X0X9X0X0X0X0XqXqXqXqXqXqXrXqXrXqXrXqXrXrXwXrXrXrXrXrXrXrXrXrXqXrXqXrXqXqXqXqX0X0X0X<X<X@X@XOXOXT.Y.Y.F.j.d.d.4.2.2.>.<.>.:.",
">.>.>.<.2.<.4.4.d.d.A.F.F.Y.T.T.OXOXOX@X@X@X@X<X<X<X0X<X1X1X0X1X1X9X<X<X<X<X<X@X+X+X+XOXR.T.Y.Y.A.A.f.d.4.<.>.;.-.J J K D V F V V V V C C Z Z I I I Y U U U U ` ` ` ` ` ` [ ` ` [ ` ` [ [ ` ` [ ` ` ` ` U ` U U U U P P P P I I I Z Z Z Z C A A V A D V A A A F A F A F A F A F A V D V D D D V A A D A A D A D D D D F V F D F V F F F F K K F K K -.-.-.-.-.-.>.>.>.2.<.4.4.d.f.F.f.Y.Y.R.OX+X+X@X9X9X0X0XeXeXeXBXBXBXAXAXAXSXSXSXSXZXZXZXZXVXVXnXcXcXcXcXzXzXjXjXjXjXgXgXgXgXgXgXjXgXjXgXzXzXzXzXcXcXcXcXcXVXcXVXVXVXnXVXcXVXnXcXcXcXzXjXgXsXyXyXc b x z r 7 7 4 4 4 ; 4 1 4 4 4 4 7 4 7 7 r r l l l z z x x x x z z x l l l l l 7 7 7 7 4 4 1 1 ; ; = & & O O O . . . . O O & & & = ; ; 1 4 4 6 4 6 6 7 7 l 4 r r l z l z x x c c b b yXyXpXyXpXsXsXjXjXjXjXjXzXzXzXzXzXzXzXzXcXzXcXcXcXcXcXnXnXnXnXZXVXZXZXZXSXSXSXAXAXAXAXBXAXBXBXBXrXBXrXrXeXBXeXeXeXeX0XeX0X0X0X0X0X0X9X9X9X9X9X@X9X@X@X9X@X@X@X9X+X9X@X9X@X9X9X9X9X0X0X0X0X0X0X0XqXqX0XqXqXqXqXrXqXrXqXrXqXrXrXNXrXrXrXrXrXrXrXrXrXrXrXrXrXrXrXqXrXqXqXqXqX0X0X0X@X<X@X@XOXOXT.Y.Y.j.f.d.d.4.>.2.>.>.>.",
">.<.<.2.>.4.4.d.d.j.A.F.Y.T.T.OXOXOX@X@X<X<X0X<X<X0X0X1X0X0X1X1X0X1X1X0X1X<X<X<X<X@X+X+XOXOXT.Y.A.A.j.d.4.4.<.>.-.-.W J F D V V V V V A C Z Z Z I I I P U U U ` ` ` ` ` [ ` [ @ ` ` [ ` ` ` [ ` ` ` U ` ` U U U U U P U Y I I I Z Z Z Z C C V A V V V A A A A F D F F D F A F A A A V A V V V D D V V D D V D D V V A A A A F A F F F F F K F K K W W W -.-.-.-.>.>.>.2.4.4.d.f.j.j.Y.Y.R.R.OX+X@X9X9X0X0XeXeXeXBXBXBXBXAXAXSXSXSXSXZXZXZXVXVXVXcXVXVXcXcXzXzXgXzXzXgXgXgXgXgXgXgXgXgXgXjXjXjXzXzXzXzXcXcXcXVXcXVXVXVXVXVXVXVXVXcXVXcXzXzXzXgXsXyXb c c l 7 7 7 1 ; ; ; ; ; ; 4 , 4 4 4 7 7 l l l z x x x x b x b x b b x x x x x x l l l 7 7 7 4 4 1 1 ; ; = & & & O O O O . O . O & = & ; ; ; ; 4 4 4 7 4 7 4 7 r r l l z x x c c c m yXyXyXyXgXgXgXjXjXjXzXjXzXzXcXcXcXcXcXcXcXcXcXcXcXcXcXnXnXnXVXVXVXZXZXZXSXSXSXSXSXAXSXAXAXAXBXBXBXBXBXBXeXBXeXeXeXeXeXeXeX0X0XeX0X0X0X0X0X9X9X9X9X9X9X9X9X@X9X9X@X9X@X@X9X9X9X9X9X0X0X0X0X0X0X0XqXqX0XqXqXqXqXeXqXrXqXrXrXrXrXrXrXrXrXrXBXrXrXNXBXrXBXrXBXrXrXrXrXrXeXeXqXqXqX0X0X<X<X<X@XOXOXT.T.F.F.A.d.4.4.4.2.<.<.>.",
"<.<.2.<.4.4.4.d.h.A.F.Y.Y.T.OXOXOX@X@X<X@X<X<X0X0X1X0X0X0X0XqX0X0X0X0X1X0X<X<X<X<X<X+X+XOXOXR.T.Y.A.A.f.d.4.<.<.;.-.J J J D A A V V V V C C Z Z Z I I Y Y U U U ` ` ` ` ` ` ` ` + ` ` + ` ` ` ` ` ` ` U ` U U U U P P I I I I G I Z C Z C A V A V V V A A A D D D D D F D D D A A A A A V V V V V D V V D V V V A A V A A A A F A F F F F F K K J K W W -.-.;.;.>.>.2.2.4.d.d.j.A.F.Y.Y.R.OX+X@X9X9X9X0XeXeXeXBXBXBXBXAXAXAXSXSXSXSXZXZXZXZXVXVXVXcXcXcXzXzXjXzXgXgXgXgXpXgXgXgXgXgXgXgXgXjXjXjXzXzXzXzXcXcXcXVXcXVXVXcXVXVXVXcXVXcXcXcXzXgXgXpXm b b l r 7 , ; ; ; = ; ; = ; , 4 1 7 7 7 l z z b x b b b m b m m m b m b m b b b x b x l l x 7 l 4 4 4 4 1 ; ; = = O O O O O O O . O O & & = ; ; ; 4 4 4 4 4 7 7 7 r l z x x c c m m m yXpXgXgXgXjXjXjXjXzXzXcXcXcXcXcXcXcXcXcXcXcXcXcXcXVXcXcXVXVXVXVXZXZXZXZXZXSXSXSXSXSXAXAXAXAXBXBXBXBXrXrXBXeXBXeXeXeXeXeX0XeXeX0X0X0X0X0X9X0X9X9X9X9X9X9X9X9X@X9X9X9X9X9X9X9X9X9X0X0X0X0X0XeX0XeXqXqXqXqXeXqXrXqXrXqXrXrXrXrXrXrXrXBXBXBXBXNXBXBXBXBXBXBXBXNXrXrXrXrXrXeXeXqXqXqX0X0X<X<X@X@XOXOXT.T.F.A.f.d.d.4.<.2.2.<.",
"2.2.<.4.4.d.d.d.A.F.Y.Y.T.OXOXOX@X@X<X@X0X<X0X0X0X0X0X0XqXqX0XqXqXqX0X0X0X0X0X1X<X<X<X@X@XOXOXT.T.Y.A.A.d.4.4.<.>.-.-.J J D A V V V V V A C C Z Z Z I I I U U U U ` U ` ` ` ` + ` ` + ` ` ` ` U ` ` ` ` U U U U U P Y I I R I I Z C Z C A V V V V V A A A D D D J J J J J D D D A A A A A A A V V V V V V V A V A V A A A A A A D D D F F D K K W W W W -.-.-.>.>.>.2.4.6.d.f.j.F.Y.Y.R.OXOX@X@X9X9X9XeXeXeXeXBXBXBXAXAXSXSXSXSXSXZXZXZXZXVXVXcXVXcXzXzXzXzXjXgXgXgXgXgXgXpXgXpXpXgXpXgXgXgXgXzXgXzXzXzXzXcXcXcXVXcXVXVXVXcXVXVXcXcXcXzXzXjXsXpXm b x 7 7 1 ; ; = O = O O ; , , 1 7 7 l l x x b b m m pXm pXm pXpXm pXpXpXpXm m m m b b b b x x z l l l 4 4 4 1 ; = = = & O O O O O . O O & & & = ; ; ; 1 4 4 4 7 r l l x x c c m m pXpXpXgXgXgXjXjXzXzXzXcXcXcXcXcXcXcXcXVXcXcXVXcXzXcXVXcXcXVXcXVXVXVXZXZXZXZXSXSXSXSXSXAXAXAXAXAXAXBXBXBXBXBXeXBXeXeXeXeXqXeXeXeX0X0XeX0X0X0X0X0X9X9X9X0X<X<X<X9X9X9X9X9X9X9X9X0X9X0X0X9X0X0XeX0XeXqXqXqXeXeXeXrXqXrXqXrXrXrXrXrXNXBXBXBXBXNXBXBXBXBXNXBXBXNXBXBXBXBXrXrXrXeXeXeXeXqX0X0X0X<X<X@X@XOXR.Y.Y.F.A.f.d.4.4.4.2.<.",
"2.3.4.4.4.d.d.j.A.F.Y.T.R.OXOX@X@X@X<X0X<X0X0X0X0XqXqXqXqXqXqXqXqXqXqXqXqX0X0X0X<X<X<X<X@X@XOXOXT.T.A.A.j.d.d.2.<.>.-.-.J J D A V V V V V A C Z Z Z I I I Y P U U U ` ` U ` ` ` ` ` ` ` ` ` ` ` ` U U U U U U Y P Y I I I I Z Z Z Z C C V V V V V A A A D D J J J J J J J J J D D A A A A A A V A V V V V A V A A A A A A A A A A D D D J J J J J W W -.-.-.>.>.<.4.2.4.d.f.j.F.F.Y.T.OXOX@X@X9X9X0XeX0XeXeXBXBXBXBXAXAXAXSXSXSXZXZXZXZXVXVXVXVXcXcXzXzXzXgXgXgXpXpXpXpXpXpXpXpXpXpXpXgXpXgXgXgXjXjXzXzXzXzXcXcXcXVXcXVXVXVXcXVXcXcXzXzXzXgXgXm m x l 7 , ; = O = O O = ; ; , 1 6 7 l x x b m m m pXpXpXgXpXgXgXgXgXgXpXgXpXgXpXpXpXpXm m m b b x x x z l l 4 4 4 1 ; = = = O O O O O . O . O & & ; ; ; ; 1 4 4 7 7 l z x c c m m yXpXpXgXgXgXjXjXzXzXzXcXcXcXcXcXcXVXcXcXcXVXcXcXVXVXcXcXVXcXVXVXVXVXVXZXZXZXZXSXSXSXSXAXSXAXAXAXAXBXAXBXBXBXBXBXeXBXBXeXeXeXeXqX0XeX0X0X0X0X0X0X9X0X9X9X<X0X<X9X<X9X9X9X9X9X9X0X9X0X0X0XeX9XeX0XeX0XeXqXqXeXeXeXeXeXrXrXrXrXrXBXBXBXBXBXNXBXBXAXNXNXAXrXAXNXBXNXBXBXBXBXBXrXrXrXeXeXqXqX0X0X<X<X<X@XOXOXT.T.F.j.f.f.d.4.4.2.4.",
"4.4.4.4.d.h.d.A.F.Y.T.T.OXOX@X@X<X<X<X<X0X0X0X0XqXeXqXeXqXqXrXqXeXqXqXqX0XqX0X0X0X0X<X<X@X@XOX+XR.T.Y.Y.j.j.d.4.<.>.;.-.J J D A V V V V V V C C Z Z Z I I I Y P U U U U ` U ` U ` U ` ` ` ` U ` U U U U U U P U Y I I I I Z Z Z C C C V V V V V A V D D D J J J J W J J J J J J D D A A A A A A A A A A A A A A A A A A A A A A D D D D J J J J W W -.-.-.>.>.<.<.<.4.d.f.f.A.A.Y.T.R.OX+X@X9X9X0X0XqXeXeXBXBXAXBXAXAXAXSXSXSXZXZXZXVXZXVXVXVXcXcXzXzXzXgXgXgXpXpXpXm m m m m m m m m m pXpXpXpXgXgXgXjXzXzXzXzXcXcXcXcXcXcXcXcXcXcXzXzXjXgXpXm b l 7 , ; = O O . O O & = , 1 6 7 x x c m m m pXgXpXgXgXgXjXjXgXgXjXgXjXgXgXgXgXgXgXpXgXpXm pXm m b b x x l l 7 4 1 1 ; = = = & O O O . . O . & & ; O ; ; 1 1 7 7 l l z c c m m pXpXpXgXgXjXjXjXzXzXzXcXcXcXcXcXcXnXcXnXcXnXcXcXVXcXcXcXVXcXVXnXVXVXnXZXZXZXZXSXSXSXSXSXSXAXAXAXAXBXAXBXBXBXBXBXeXBXeXeXeXeXeXqXeXeX0XeX0XeX0X0X0X0X0X9X9X9X9X9X<X9X9X9X<X9X9X0X9X0X0X0X0X0XeX0XeXqXeXqXqXeXeXeXeXrXrXrXrXrXBXBXNXBXBXNXBXAXBXNXNXNXAXNXAXNXNXAXBXBXBXBXBXBXBXrXrXeXeXeXeX0X0X0X0X@X@X@XOXOXY.Y.F.F.f.d.d.4.d.3.",
"4.d.d.d.h.d.A.F.F.Y.T.OXOX+X@X@X<X<X0X0X0X0XeXeXqXqXeXqXeXeXqXeXeXeXeXeXqX0XeX0X0X0X0X<X<X<X@XOXOXOXY.Y.Y.f.f.d.4.<.>.;.W W J D A A V V V V V A C Z Z Z I I I Y P U U U U ` U ` ` ` U ` U ` U U U U U U U P Y I I I I I Z Z Z C Z C B V V V V V V D V J J J J J W J J W J J J J J D D D A A A A A A A A A A A A A A A A A A D D D D D J J J W W W -.-.-.:.>.<.<.4.4.6.f.f.A.A.Y.Y.T.OXOX@X@X9X9XqXqXeXeXeXBXBXBXAXAXAXSXSXSXSXZXZXZXZXVXVXcXcXcXzXjXjXgXgXpXyXyXm b m b b b b b b b m b m m m pXpXpXgXgXjXzXzXzXzXcXcXcXcXcXcXcXzXzXzXjXgXpXm b x 7 4 ; ; O O . O O & ; , 1 6 l x x m m pXpXgXgXgXjXjXjXjXjXjXcXjXjXzXjXjXjXjXjXjXgXgXgXgXgXpXpXpXm m b b x l l 7 4 4 1 ; = = = O O O . . . . O & O ; = ; 1 4 4 7 l x b c m m yXpXsXsXjXjXjXjXzXzXzXcXcXcXcXcXnXnXcXnXnXnXnXnXcXcXnXcXVXcXVXcXVXVXnXZXZXZXZXZXZXSXSXSXSXAXAXAXAXAXAXBXAXBXBXBXrXBXeXBXeXeXeXeXeX0XeXeX0X0X0X0X0X9X0X9X0X9X9X9X9X9X9X<X9X9X9X9X9X0X0X0X0XeX0XqXeXeXqXeXeXeXeXeXeXBXeXrXrXBXBXBXBXBXBXAXBXNXNXAXAXAXAXAXCXAXAXAXNXNXAXNXBXAXBXBXBXBXrXrXeXeXeX0X0X<X0X<X@XOXOXR.Y.Y.j.j.f.d.d.4.4.",
"d.d.d.d.d.j.A.F.Y.T.OXOXOX@X@X<X<X0X0X0X0XeXqXqXqXeXeXeXeXeXeXrXeXeXeXeXeXeXqXeX0X0X0X0X9X<X@X@X+XR.R.Y.A.Y.j.d.4.2.>.;.;.J J D A A V V V V V B C C Z Z Z I I I Y P Y U U U U U U U U U U U U U U U U P U Y I I I I I Z Z Z Z C C B V V V V V V V D J J J W J W W -.-.W -.W J J J J D D D A D A A A A A A A A A A A A A D D D D D D J J K J K W -.-.-.:.>.<.<.<.4.d.f.f.f.A.Y.T.T.OXOX@X@X<X9X0XqXqXeXeXBXBXBXAXAXAXSXSXSXSXZXZXVXZXVXVXcXcXcXjXjXgXgXpXm m m b b b x x x x x x x x x b b b m m m pXpXpXgXgXgXzXzXzXzXzXzXzXzXzXzXzXgXgXpXm m x 7 4 ; ; O O . O O = = , 4 6 l x x m m pXpXgXgXjXjXjXjXjXcXjXcXjXcXzXcXzXcXzXzXjXzXjXjXjXgXgXgXpXgXpXm m b x b z l 7 4 4 ; ; = = O O O . . . O O O = O ; 1 , 1 6 l z x c c m yXpXpXsXgXgXjXgXjXzXzXcXzXcXcXnXnXnXnXnXnXnXnXnXnXnXnXnXcXnXnXcXnXnXnXVXVXVXZXZXZXZXSXSXSXSXSXSXAXAXAXAXAXBXBXBXBXBXeXBXeXeXeXeXeXeXeXeX0XqX0X0X0X0X0X9X0X<X0X<X0X<X9X<X0X<X0X<X0X0X0X0X0X0X0XqXqXqXeXeXeXeXqXrXeXBXeXrXBXrXrXBXBXBXBXBXNXAXNXAXAXAXCXAXAXAXAXAXAXAXAXNXAXNXNXBXBXBXBXrXrXeXeXeX0X0X0X<X<X@X@XOXR.T.Y.F.A.f.h.d.d.d.",
"h.d.h.j.j.A.F.F.Y.R.R.OX@X@X<X<X0X0X0X0XqXqXeXeXeXeXrXrXrXrXrXeXrXeXrXeXeXrXeXeXqXqX0X0X9X9X<X@X@X+XR.R.Y.A.j.j.d.4.<.>.-.-.W J D A A V V V V A V C C Z Z Z I I I Y I Y U U U U U U U U U U U U P U Y P I Y I I Z I Z Z G Z C C C C V V V V V D V J J J W W -.-.-.-.-.-.-.-.-.J W J J D D D D D D A A A A A A A A D D D D D D D J K K K K W -.-.-.-.:.:.<.<.2.4.6.d.f.f.A.Y.Y.T.R.OX@X@X<X9X0X0XqXrXeXrXBXBXBXAXAXSXSXSXSXSXZXZXZXVXVXcXcXcXjXjXgXgXyXm m b x x x l l l 7 l 7 l l 7 z z z x x b b m m pXpXpXgXgXjXjXzXjXzXjXzXgXjXgXgXpXm m x l 7 , ; O O O O O & = , 1 6 l x c m yXpXsXgXgXjXjXcXjXcXzXcXcXcXcXcXcXcXcXcXcXcXcXjXzXjXzXjXjXgXgXpXpXpXpXm b x x z 7 4 4 1 ; = = O O O O . O O O O = ; ; 1 1 7 7 l z x c m b yXyXsXsXsXjXjXzXzXzXzXzXcXcXcXcXnXcXcXVXcXVXcXnXnXnXnXnXnXzXnXnXcXnXnXnXVXVXVXZXZXZXSXSXSXSXSXAXSXAXAXBXBXBXBXBXrXBXrXeXrXeXeXeXeX0XeX0XqX0XqX0X0X0X0X0X<X0X9X9X<X0X<X9X<X0X9X0X<X0X0X0X0XeX0XqXeXeXqXeXeXeXrXqXrXeXBXrXrXrXAXrXAXBXBXSXBXNXSXAXAXAXAXAXAXAXAXAXAXAXSXAXAXAXNXNXBXBXBXBXBXrXeXeXeXeX0X0X<X<X@XOXOXR.T.Y.F.A.j.f.d.d.",
"d.j.j.j.j.F.Y.T.T.OXOX@X@X<X<X0X0X0XqXqXeXeXeXeXrXrXrXrXrXrXrXrXrXrX8XeXrXeXeXeXqXqXqXqX0X9X9X<X@X+X+XR.T.Y.Y.j.h.4.4.>.>.-.W J J D A V V V V V V A C Z C Z I Z I I I I Y I U P U P U P U U P P Y U P Y I I I I I Z Z Z Z C C C B V V A V V D D J J J W W -.-.-.-.-.>.;.-.-.-.W W W K K J J D D D D D D D D D D D D D D F D F F K K K K K -.-.-.:.-.>.<.<.<.4.6.d.f.f.A.Y.Y.T.R.OXOX@X<X<X9X0XqXqXqXrXrXBXAXAXAXAXSXSXSXZXZXZXZXVXVXcXcXcXjXjXsXyXyXb b x x r l 7 7 7 4 7 4 7 4 4 7 4 7 7 l l l x x c b m m pXpXpXgXgXjXgXjXgXgXgXpXpXm b x l 7 4 ; ; = O O = & ; , 1 r l x c n pXpXgXgXjXjXzXcXjXnXzXnXzXnXcXnXcXnXcXnXcXcXcXcXcXcXcXjXzXjXjXgXgXgXpXpXm b b x l l l 4 ; ; = & & O O . O O O & O ; , , 1 6 6 l z z c c c m yXsXyXsXgXgXgXjXjXzXzXzXcXcXcXcXcXcXnXcXVXcXcXVXcXnXcXcXcXnXcXcXnXnXnXnXVXVXZXVXZXZXSXSXSXSXAXSXAXAXAXAXAXBXAXBXBXrXeXrXeXeXeXeXeXeX0XqXqX0X0X0X9X0X0X<X0X9X9X<X0X9X9X<X0X<X0X<X0X0X0X0X0X0X0XeXqXeXeXeXeXrXqXrXeXBXrXrXrXAXrXAXBXBXNXAXNXAXAXAXAXCXAXCXAXSXAXZXAXAXAXSXAXAXAXAXBXAXBXBXrXrXBXeXeX0XeX0X9X9X@X@XOXR.T.Y.F.F.j.j.j.j.",
"j.j.j.j.Y.A.Y.Y.R.OX+X@X<X<X9X0X0XeX0XeXeXeXrXeXrXrXrXrXrXBXrXrXrXBXeXBXeXeXrXeXrXqXqXqXqX9X0X9X@X@X+XR.R.T.Y.j.j.d.4.4.>.;.-.W J J D A V V V V V V V C Z C Z I Z I I I I Y I Y Y U Y P U I Y P P I I I I I I Z Z Z Z Z C C C A C V V V V A A D F J W -.-.-.>.>.>.>.>.>.>.>.-.-.-.W W K K K K K F F F D F F F D F K F K F K K W K W K -.-.-.-.-.>.>.>.2.2.4.4.d.f.f.A.A.Y.Y.T.OX+X+X@X9X9X0X0XeXeXrXrXBXrXAXAXAXSXSXSXSXZXZXVXVXnXcXcXjXjXgXpXyXm b x x r 7 7 4 4 4 4 1 1 , 4 1 1 4 4 4 4 4 7 7 l l z x x b b m m pXpXpXgXpXpXpXpXm m x x l 7 1 , ; O O & = = ; 1 6 l l c c m yXpXsXgXjXjXcXzXzXnXzXnXnXnXnXnXnXnXnXnXnXnXnXnXcXcXcXcXcXjXjXjXjXgXgXpXpXyXm b x z l 4 4 4 ; = = O O O O O O & O ; ; , 4 4 7 l z z c c c m b yXyXsXsXsXgXgXjXjXzXzXcXzXzXcXcXcXcXcXcXcXnXcXcXcXcXcXcXcXcXnXnXzXnXnXnXVXVXVXZXZXZXZXSXSXSXSXAXAXAXAXAXBXBXBXrXrXrXrXrXeXrXqXeXqXqXqX0X0X0X0X0X0X0X<X0X<X0X<X9X<X9X<X0X<X0X<X0X0X<X0X0XqX0XeX0XeXeXeXeXeXeXrXrXrXeXBXrXBXrXAXrXAXAXAXNXAXSXAXAXCXAXSXSXCXAXSXAXZXAXAXAXAXAXAXAXAXBXBXBXBXBXrXBXeXeX0X0X0X<X<X@X@XOXT.T.Y.F.A.j.j.j.",
"j.A.j.Y.A.Y.Y.R.OXOX@X@X<X<X0X0X0X0XeXeXeXrXeXrXrXrXBXrXBXrXBXBXBXBXBXBXBXrXrXrXqXrXeXqXqXqX9X9X<X9X@X+XR.R.Y.Y.j.h.d.4.<.>.-.-.J J D A A V V V V A V C A Z Z A Z Z I I I I I I I I I U I P I P I I I I I Z Z Z Z Z Z C C C C V V V V A A D D D J W -.-.;.>.>.<.>.2.>.<.<.>.>.:.:.-.-.-.-.K K K K K K K K F K K F K K K K W K K / K -./ -.:.-.>.>.2.<.<.4.6.d.f.f.A.A.Y.T.R.R.OX+X@X<X<X0X0XeXeXeXrXBXrXAXAXAXSXSXSXZXZXZXZXVXnXnXcXjXjXsXyXm b x x l 7 7 4 4 4 4 1 , , , , , , , , , , 1 1 4 4 4 7 7 7 l x x b b n n n n M n n b c x x l 7 4 4 ; ; ; ; ; , , 4 6 l z x c n pXpXsXgXjXjXlXzXzXnXcXnXnXnXVXcXVXnXVXnXnXnXnXnXnXcXnXcXcXcXzXzXjXjXgXsXsXpXm m x b l l 4 4 ; = = = O O O O O = & ; , , 1 6 6 l z z x c c m v yXyXyXsXiXsXgXgXgXjXjXzXjXjXcXcXzXcXcXcXcXcXcXcXcXcXcXcXzXzXcXzXzXcXcXnXnXcXVXnXVXZXZXZXZXSXAXSXAXAXAXAXBXBXBXBXrXrXrXrXqXrXqXeXqXqXqXqXqX0X0X0X0X0X<X0X9X9X<X9X9X<X9X9X<X0X<X9X0X<X0X0X0X0XqXqXqXeXqXrXeXeXrXeXrXrXBXrXBXrXAXNXAXNXNXAXAXAXAXAXCXSXSXCXSXSXCXSXCXAXZXAXSXAXAXSXNXSXBXAXBXBXBXrXBXeXeXeX0X0X0X9X@X@XOXOXT.Y.Y.j.Y.A.j.",
"F.j.Y.A.Y.Y.R.R.OX@X@X<X9X0X0XqXqXeXeXeXrXrXrXrXBXBXrXBXBXBXAXBXBXBXNXBXBXBXBXrXrXeXeXqXqXqXqX9X9X9X@X@XOXOXT.Y.Y.h.h.4.4.>.>.-.W J J D D A A V V V V V V C C Z Z Z Z Z I I I I I I I I I I I I I I Z I Z I Z Z C Z A C C C V C V A V A D D D K L -.-.:.>.<.<.2.4.<.4.<.<.<.<.<.>.:.-.-.-.-.K -.K K K K W K K K -.F K K -.L -.-.-./ -.>.>.>.>.>.>.2.4.4.4.d.f.f.A.A.Y.Y.T.R.+X+X+X<X<X0X0X0XeXeXBXrXBXBXAXAXAXSXSXSXZXZXZXnXnXnXjXjXjXyXyXm c z r 7 4 4 4 ; 4 ; , ; ; ; ; ; ; ; ; ; , , , 1 1 4 4 4 4 7 7 7 l l x x c b b x b x x x l 7 7 4 4 , , , , ; , 4 6 7 l z c m m n pXsXjXfXzXlXcXnXcXnXnXnXnXnXVXVXVXnXVXVXMXnXnXnXnXnXnXcXcXzXcXzXjXjXgXgXpXpXyXm b x z l 4 4 ; = = O O O O O = = ; 1 , 4 7 6 l z z c c c m v yXyXyXiXsXsXsXfXgXgXjXfXjXjXxXjXcXxXjXcXcXzXxXzXcXzXcXzXzXlXzXzXzXzXzXzXxXnXnXVXVXVXCXVXCXZXAXZXAXAXAXBXAXBXBXBXrXrXrXrXeXrXqXrXqXqXqXqX0X0X0X0X0X<X9X0X<X9X9X9X<X9X9X<X9X9X<X9X1X9X0X0X0X0X0XqXqXqXeXeXeXrXeXrXrXrXrXBXBXrXAXrXAXNXAXAXAXCXSXAXCXSXCXSXSXCXSXSXCXZXSXCXSXAXZXAXAXSXAXAXAXBXBXBXBXrXBXeXeXeX0X0X9X<X@X@XOXOXY.Y.Y.A.A.F.",
"A.Y.Y.Y.Y.Y.R.OX+X@X<X<X9X0X0X0XeXeXeXrXrXrXrXAXrXBXBXAXBXAXBXBXSXBXBXBXNXBXrXrXrXrXrXeXrXqXqX0X0X<X9X@X@XOXR.T.Y.F.h.d.4.4.<.-.-.W J J D A V A V V A V V C A Z C Z Z Z Z Z Z I I I I Z P Z P Z I Z Z Z Z C Z C Z C C C C A C V A V A D F D K K -.:.:.>.<.<.4.2.6.6.4.4.4.4.2.<.>.>.>.:.:./ :.K -./ -./ K -.L -.K -./ -.-.-./ -./ >.>.>.,.>.2.2.2.2.6.6.d.f.f.A.A.F.T.T.R.OX+X+X<X<X0X0X0XeXeXeXrXBXBXAXAXAXSXSXCXZXZXZXnXnXcXjXjXjXyXm m z z 7 7 4 4 4 4 4 , ; ; ; ; ; ; , ; , ; , ; , , , , , , 1 4 4 4 4 6 7 7 l l x l x l l l 7 7 4 4 4 , , , , , 1 6 6 l x x c n n tXpXsXfXfXjXlXcXcXlXnXnXnXnXnXMXVXVXnXMXVXnXVXnXnXMXnXnXxXnXcXnXzXzXjXjXgXsXsXpXm b b z l 7 4 ; = = = O O O O & = & ; , 4 7 7 l z z c c b v v yXyXyXiXiXiXpXiXsXaXgXaXjXhXjXjXhXjXjXcXhXlXlXcXlXzXxXzXzXzXzXzXfXzXlXlXlXzXxXcXcXMXnXVXZXZXCXZXCXAXAXCXSXBXNXBXrXrXrXrXeXrXeXrXqXqXqXqX0XqX0X0X0X9X0X0X<X0X<X<X<X<X<X<X<X<X<X1X9X9X0X<X0X0X0XqX0XqXeXqXqXrXqXrXeXrXrXrXBXBXAXrXAXNXAXAXAXSXAXAXCXCXCXSXSXZXCXZXCXSXCXZXZXCXZXAXZXAXAXSXNXAXAXAXBXBXrXrXBXeXeXeX0X0X9X<X@XOXR.R.Y.Y.Y.Y.F.",
"Y.F.Y.Y.R.R.R.OX@X@X9X9X0X0XeXqXeXeXrXrXrXrXAXrXAXBXAXBXAXBXCXAXBXSXBXAXBXBXNXrXBXrXrXrXeXeXqXqX0X0X<X9X@X+XOXOXT.Y.A.h.4.4.<.>.-.-.W J J D D V V V V D V V V C C C Z C Z Z Z Z Z Z I Z Z Z Z Z Z Z Z Z C Z Z C C C C V C V A A A A D D D K L -.-.:.<.<.4.4.6.6.6.6.f.6.6.6.4.4.2.<.>.>.>.>./ ,./ -./ -./ -./ -./ / -./ / >./ >.,./ ,.,.1.1.2.6.6.6.6.f.f.j.A.A.F.T.T.T.OX+X+X<X<X1X0X0XeXeXeXrXBXBXBXCXAXSXAXZXZXZXnXnXnXcXlXjXsXyXm c z l 6 7 1 4 1 ; ; ; , , 1 , , , , , , , , , , , , , , 1 , , , 1 4 4 4 4 7 7 7 7 r 7 r 7 4 7 4 4 1 , 1 4 4 4 6 6 l x x c n n m yXsXsXsXjXjXlXlXlXnXnXnXxXMXnXMXnXMXVXMXZXMXZXnXMXnXnXnXnXnXxXcXzXnXzXjXjXjXgXpXpXm b x z l 4 4 ; = O O O O O O = = ; 1 1 7 7 l x x c c m b yXyXyXyXiXiXfXiXaXgXaXgXaXjXaXhXfXhXjXhXjXhXzXhXzXhXzXhXjXhXhXhXlXfXlXfXfXlXfXlXlXxXzXcXMXVXbXZXCXCXCXCXAXBXNXBXBXNXrXrXrXqXrXeXqXqXqXqXqXqX0X1X0X1X0X1X<X1X<X<X<X<X<X<X<X<X<X<X<X<X1X1X<X0X1X0X0X0XqXqXqXrXeXeXrXeXrXrXrXrXBXBXAXAXrXAXNXAXCXAXZXAXCXSXSXCXZXCXZXCXSXVXSXCXCXZXCXZXAXZXAXAXSXNXSXBXAXBXBXrXrXeXeXeX0X0X9X<X<X+XOXOXR.Y.Y.Y.F.",
"Y.Y.T.T.R.R.OX@X@X@X9X0X0X0XqXeXeXrXrXrXrXAXrXBXAXBXAXAXAXAXBXSXAXNXSXNXAXNXAXAXrXAXrXrXeXrXeXqXeX0X0X9X9X@XOXOXT.Y.F.F.h.4.4.<.>.-.W W J J D V D V V V V A V V C C C Z C Z Z C Z Z C Z Z Z Z Z Z Z Z C Z Z C C A C C C A C A A A D D J K L -.-.:.<.<.4.6.6.d.d.d.f.d.f.f.d.f.6.2.2.2.2.2.,.>.>.>.>./ >.>./ >./ >./ >.,.,./ ,.,.,.1.1.1.1.1.6.5.d.6.f.f.f.A.A.F.Y.T.T.OX+X+X+X<X<X0X0X0XeXeXeXBXBXBXNXAXAXSXZXCXZXZXnXnXcXjXfXsXyXb x z 6 7 4 4 4 ; ; 1 ; 4 , , , 1 , 1 1 , 4 , 4 4 4 , 1 4 4 , 4 , 4 4 , , 1 4 4 4 4 4 4 4 4 4 4 4 1 1 1 4 4 4 4 7 l x x c c n n yXtXaXsXfXfXdXlXlXnXxXxXMXnXnXnXMXMXMXMXMXMXMXVXMXMXMXnXnXMXnXnXnXnXnXzXzXjXjXgXsXsXyXm b x l 7 4 ; = = O O . O O = & ; 1 4 7 7 z x x c c b v tXyXyXiXiXaXiXiXsXaXaXgXaXfXaXfXfXhXfXhXfXhXhXhXfXhXhXhXhXhXhXhXhXfXfXfXfXlXfXlXfXlXhXxXxXcXbXVXCXMXCXCXAXCXNXNXrXNXrXrXrXrXrXeXwXqXqXqXqXqX1X0X0X1X0X<X1X1X<X<X<X<X<X<X<X+X<X<X<X<X<X<X<X0X1X0X1XqX0XqXqXqXeXqXrXeXrXrXrXNXrXBXNXBXBXAXAXCXAXAXCXAXZXCXZXCXZXMXSXMXZXVXCXVXZXZXCXZXCXZXAXZXSXAXSXNXSXBXAXBXBXrXrXeXeX0X0X0X9X@X@X+XR.R.R.Y.T.Y.",
"Y.T.T.R.R.OX+X+X<X9X9X0XqXeXeXeXrXrXrXBXBXBXAXAXAXAXAXAXAXCXAXNXSXAXNXCXNXAXNXAXNXrXAXrXrXeXrXeX0XqX0X0X<X9X@XOXOXT.Y.F.h.h.4.4.<.>.W W W J J D V V V V V V A V V C C C C C Z Z Z Z Z Z Z C Z C Z C Z C C C C C C A C A A A A G D D J K -.-./ >.<.<.6.6.6.f.f.f.A.f.A.f.f.d.d.d.d.6.6.2.1.2.2.2.,.2.,.,.,.,.,.,.,.,.,.,.1.1.1.1.1.1.1.6.6.6.6.6.f.d.f.A.A.A.Y.Y.T.T.XXOX+X<X<X<X0X0X0XeXeXeXBXBXNXBXSXAXZXmXZXZXMXnXnXlXjXjXpXn v z l 6 6 1 1 , , 1 1 , 4 , 4 1 4 4 4 6 6 6 6 6 6 4 4 7 4 4 4 4 4 4 , 4 4 1 1 1 1 1 1 4 4 4 4 1 1 1 1 4 1 4 7 7 l z x b m b n pXtXpXsXsXfXfXjXjXlXlXxXnXnXxXMXMXMXMXMXMXMXMXMXMXMXMXMXnXMXMXnXnXxXnXxXzXnXlXjXjXgXsXpXyXb b x l 4 1 = = O O O O O = O ; ; 4 4 7 z x x b c m n yXyXyXiXiXiXiXaXaXaXgXaXaXfXhXfXhXaXhXfXhXhXfXhXhXhXhXfXhXhXhXfXhXfXhXfXfXfXfXfXfXlXfXlXlXxXlXxXbXVXCXmXCXmXNXCXBXNXNXrXwXrXwXeXwXqXqXqXqXqX1X0X1X0X1X<X1X<X<X<X<X,X<X<X@X<X<X<X,X<X<X<X<X<X1X<X0X0X1XqXqXqXqXqXrXeXrXrXrXrXrXNXBXBXCXBXmXAXAXCXCXCXZXCXZXCXVXCXMXMXMXMXMXMXMXMXVXZXCXVXCXZXAXZXAXSXAXAXAXNXAXrXrXrXrXeXeX0X0X9X<X@X@XOXR.R.R.T.Y.",
"R.R.R.OXR.+X+X@X<X9X0X0XqXeXeXeXrXrXBXBXBXAXAXAXAXAXAXCXAXSXNXSXNXSXAXAXAXAXNXAXNXAXrXBXBXrXrXeXeXeX0X0X9X9X@X@XOXR.T.Y.F.h.h.4.<.>.>.-.W J J J D D V V V V V A V V B A C C C C C C C C C Z C Z C Z C C C C C A C C A A A A A A J K K L -./ >.<.<.4.6.6.f.f.A.A.A.A.A.A.A.A.A.f.d.d.6.6.6.6.1.1.1.1.,.1.,.1.1.,.1.1.1.1.1.1.1.1.5.6.6.6.d.d.6.A.d.A.A.A.F.F.Y.T.T.XX+XoX@X<X<X1X0XqX5XeXBXeXBXBXAXNXAXAXCXZXCXnXnXcXlXjXfXpXv c l r 6 6 1 1 , 1 1 4 1 4 4 4 7 6 l 6 l l l l l l l l z 7 l 7 7 7 7 4 7 4 1 4 1 1 1 1 1 1 1 , 1 1 1 1 1 4 7 7 7 z x b m m yXpXiXiXsXaXfXfXfXfXkXlXxXlXlXMXxXMXxXMXMXMXMXMXCXMXMXMXMXMXMXMXMXnXMXnXnXnXnXnXlXzXjXjXgXsXyXm m x l l 1 ; = = O . O O O O ; ; 4 4 7 l x x c c m tXyXyXiXiXfXiXaXgXaXfXaXaXaXhXfXaXfXaXhXfXhXaXdXhXdXhXhXdXhXhXaXhXfXfXhXfXfX|.fXfXfXfXfXhXhXhXhXvXxXxXbXbXmXmXCXCX8XNXNXwXrXrXwXrXwXqXqXqXqXqX1X0X0X1X1X1X1X<X<X<X<X<X<X<X,X<X,X<X+X<X<X,X<X<X1X<X0X1X1XqX1XqXqXqXeXeXwXrXqXrXNXrXrXNXNXBXCXAXCXCXCXCXCXCXMXCXMXMXMXMXMXnXMXMXMXMXnXMXMXVXCXZXCXZXCXZXSXAXSXNXAXBXAXBXrXrXeXeXqX0X0X<X<X@X+XOXOXR.T.R.",
"R.R.R.OX+X+X@X<X9X9X0XqXeXeXeXBXrXrXBXBXAXAXAXAXAXAXCXSXCXSXSXSXAXCXSXAXZXAXAXSXNXNXAXrXAXBXeXeXBXeXeXqX9X9X9X@X@XOXR.T.Y.F.h.4.4.4.>.>.-.W W J J D D V D V V V V A V V C C C A C C C C C C C C C C C C C C A C A A A G A D J J K K -./ / >.>.2.6.6.f.f.A.A.A.Y.Y.Y.Y.A.Y.A.A.A.f.f.d.d.d.6.5.6.5.1.6.1.6.1.1.5.1.6.1.6.6.6.6.6.6.d.d.d.s.d.A.f.A.A.F.F.F.T.T.T.OXOX+X+X<X=X1X0X0XqXeXeXeXNXBXNXNXSXmXZXCXZXnXbXcXlXjXsXyXn u z 6 6 1 1 1 , 4 4 4 4 7 7 7 l l l x x x x x x x x c x x x x x z z l l 7 7 7 7 4 4 4 1 1 1 1 7 1 1 4 7 7 4 7 l z b m m pXpXpXsXsXsXaXsXfXfXfXkXjXkXkXnXvXxXMXMXMXbXMXMXMXmXMXMXMXMXMXMXMXMXMXMXnXnXnXxXnXlXcXlXjXgXgXsXpXm b x l 4 4 ; = O O O O O O & ; ; 4 7 7 z x b n v m yXyXsXiXsXiXfXaXaXsXaXjXaXhXaXhXhXhXhXfXhXhXhXhXhXhXaXhXhXhXhXhXhXhXhXfXfXfXfXfXdXjXdXjXfXhXhXhXxXxXxX7XbXbX8XmX8XNX8X8XNXwXeXwXqXwXqXqXqXqX0X0X-X0X<X1X<X=X<X,X<X,X,X,X,X@X,X,X,X<X,X<X<X,X<X<X<X1X1X0X0XqX2XqXqXwXqXrXrXrXrXrXNXNXNXNXNXBXCXAXCXCXCXCXMXMXMXMXMXMXnXMXMXnXMXnXMXMXMXMXnXVXCXVXCXZXCXCXSXAXSXNXAXNXrXAXrXrXeXeXqX0X0X<X@X@X+XOXR.OXR.",
"OXR.OX+X+X@X@X9X9X9XqXeXeXeXrXrXrXAXBXAXAXAXAXAXSXCXSXCXSXCXSXAXZXSXNXSXNXCXAXNXAXAXAXAXBXBXBXBXeXeXeXqXeX9X9X9X@X+XOXR.Y.F.F.h.4.4.<.<.;.-.-.J J J D D V V D V A V A V V V A C C C C C C C C C C C A C C A C A G A A A D G K K K -./ -.,.>.2.6.6.f.f.A.A.Y.Y.Y.T.Y.Y.Y.Y.Y.Y.F.A.f.A.d.f.d.f.6.6.6.5.6.6.6.5.6.6.6.6.6.d.d.6.d.d.d.d.A.d.A.A.A.A.F.F.Y.T.T.R.XXOX@X+X<X<X<X0X0XqXqXeXrXrXBXNXmXAXNXZXCXZXbXnXnXjXjXsXtXv z l 9 6 1 1 1 , 4 4 4 7 7 l l x x x c c b c b b m b m b m b m b b b x b x x z l l l 7 7 7 7 1 7 1 7 4 7 7 7 l x x m m pXpXgXsXsXgXsXfXsXjXdXfXkXhXkXkXcXvXxXMX7XMXbXCXmXMXmXMXMXNXMXMXmXMXMXMXMXMXnXMXnXnXlXnXzXjXjXjXsXpXm m x l l 4 ; = = O O . O O O ; ; ; 7 l z x b c n m tXyXiXiXsXiXaXgXaXgXhXfXfXhXhXhXhXhXhXhXhXhXfXhXhXhXhXhXhXhXhXfXhXhXhXhXhXhXhXfXdXjXdXjX|.fXhXfXlXhX|.xXxXbX7XbX8X7X8X8X8XwXwXwXwX6XqXqXqXqX-X0X1X0X1X1X<X<X<X<X<X,X,X,X+X,X,X,X+X,X,X,X,X,X<X<X<X1X<X0X1X0X1XqXqXqXqXrXrXqXrXrXrXrXNXNXNXBXCXCXmXCXMXCXMXMXMXMXxXMXnXnXnXxXnXnXnXnXnXnXnXMXbXVXCXVXZXCXZXCXSXAXAXNXAXAXrXBXrXrXeXqX0X0X9X@X@X+X+X+XOXOX",
"OX+X+X+X@X@X<X9X0XqXqXeXeXeXBXBXBXBXAXAXAXAXAXZXAXSXSXSXCXSXZXMXSXMXSXZXSXSXSXSXAXSXAXAXAXBXAXBXBXeXeXeXqXeX9X9X9X@XOXOXT.Y.Y.h.h.4.4.<.>.>.-.-.W J J J D D V V V A V A V V V A A C C C A C C A C A C A A A G A A G G J J J K W -./ ,.:.2.2.6.6.f.f.A.F.Y.Y.T.T.T.T.R.R.T.Y.Y.Y.F.F.A.A.d.A.f.f.f.d.d.s.6.d.d.d.d.d.s.d.s.d.A.d.s.A.s.A.A.A.A.A.H.F.T.T.T.XXOXXX@XoX<X<X<X0X0XqXqXrXeXeXNXNXNXAXNXZXmXZXbXnXkXjXhXaXn c y 9 6 1 1 1 , 1 4 4 7 7 l x x b b b m m m m pXpXpXpXpXm pXm pXm pXm pXm m m b b b z x z l l 7 l 7 7 7 l l l x b b m pXpXpXjXgXjXjXfXjXdXjXdXjXkXjXkXkXkXvXbXbXvXMX7XMX7XMXmXmXMXmXMXmXMXCXMXMXMXMXnXMXnXnXnXnXlXzXlXjXgXgXpXm b b l l 4 ; = O O . . O O ; ; ; 7 7 l z b b m n pXyXsXsXsXsXfXfXaXjXaXhXhXhXhXgXhXjXhXhXhXhXhXvXhXhXhXhXxXhXhXhXvXhXhXhXhXhXhXhXhXjXdXjXdXjX|.jXlX|.hXlX|.xXxX4XbX7X8X8X5X8XwXwXwXqXqXqX>X0X2X0X1X1X1X=X<X=X<X,X,X,X,X+X,X,X,XXX,X,X+X+X,X,X,X,X<X=X<X1X<X0X-XqX0XqX5XeXqXrXrXrX8XrXNXrXNXNXCXNXCXCXCXCXbXMXMXMXxXMXxXnXvXcXnXvXlXnXxXnXxXnXnXnXbXVXMXCXVXCXZXmXSXAXAXNXAXNXrXrXrXeXeX0X0X9X9X@X@X+X+X+XOX",
"+X+X+X@X+X<X9X9X0XqXqXeXeXBXrXrXAXAXAXAXSXAXAXCXSXMXSXMXZXMXMXZXMXZXZXZXZXZXZXSXSXSXSXAXAXAXBXBXBXeXBXeXqXqXeX9X9X@X@X+XOXY.Y.Y.h.h.4.4.<.>.;.-.W W J J J D D D D A V A A A V V V A A A C A C C A C A G A A A A J J J K K K -./ :./ >.1.2.6.d.f.f.A.Y.Y.T.T.R.R.R.+XR.R.R.R.R.Y.Y.F.F.F.F.A.f.A.f.A.d.A.f.s.d.s.d.d.f.s.d.A.d.A.A.A.A.A.Y.S.H.Y.T.T.T.T.XXOXXX@XoX<X<X1X-X0XqXqXrXeXeXNXNXNXNXNXZXmXZXbXnXlXjXhXiXn c y 9 6 1 1 , 4 1 4 7 7 l x x b b m m m pXpXpXpXpXpXpXsXpXgXsXgXpXgXpXgXpXpXpXpXm pXm m b b x x x l x x x x x b b m pXpXgXgXjXzXjXjXjXjXhXjXdXjXdXkXkXkXvXkXbXvXvXMX7XMX7XMXmXmXMXmXmXmXMXNXMXmXMXMXMXMXMXnXnXnXxXcXcXzXjXgXpXpXm b x l 4 ; ; = O O . O O O ; ; 4 7 l x b b b pXpXpXsXsXsXfXfXfXsXhXhXhXhXgXhXgXvXgXvXhXhXhXvXhXhXxXfXvXhXfXvXhXxXhXhXhXxXhXlXlXlXlXlXkXlXlXkXjXlX|.lXhX XxX X XvX4X4X7X4X8XwX8X5XwXwX5X2XqX5X1X1X-X<X=X<X<X<X,X,X+X,X,X,XXX,XXX,X+X+X+X%X+X,X,X<X,X<X<X<X1X1X0X1XqXqXqXqXrXqXrX8XrX8XrXmXNXNXNXbXCXCXMXbXMXMXxXMXxXnXxXnXcXbXlXlXnXkXnXlXnXxXxXnXnXbXnXVXCXVXCXZXAXZXAXAXNXNXAXrXrXeXeXeX0XqX9X<X<X@X+X+X+X",
"+X@X+X<X<X<X9X0XqXqXrXeXBXrXBXAXrXAXAXAXAXCXZXCXSXSXMXZXMXZXZXZXZXZXVXZXZXZXZXSXZXSXSXSXSXAXAXAXBXBXeXeXBXeXqX0X0X9X@X@X+XR.Y.Y.Y.j.h.4.4.<.>.>.-.-.W W J J J D D D D A A A A A V V A A A A A A A A A A G G J J G J K K ^ -.-.:.,.1.>.6.6.6.f.A.A.F.T.T.R.R.OXOX+XR.OXOXOXR.R.R.R.T.H.F.F.F.F.A.A.A.A.f.A.A.A.A.A.A.A.A.A.A.A.S.Y.A.Y.Y.S.Y.Y.K.T.T.OXXXOXXX,X,X<X<X1X1X0XqX5XeXeX8XrXNXNXNXMXNXMXnXbXnXkXjXhXtXn g r 9 3 1 1 , 4 , 7 7 7 z b b m m pXpXpXsXpXgXsXgXgXgXgXgXgXgXgXjXgXjXgXgXgXgXpXgXgXpXpXpXpXm m b b b b b b m b m pXpXpXgXjXzXzXzXcXlXlXlXlXlXkXkXkXkXkXvXkXvXbXbXvX7XMX7XMX7XmXmXNXmXMXNXMXmXMXMXMXMXMXMXnXMXnXxXnXlXzXjXjXgXgXm m x x l 4 ; = O O . . O O ; ; 4 4 l x x b m m m pXsXsXfXfXgXjXhXhXhXjXhXjXvXhXhXhXvXjXvXhXvXhXvXhXhXvXhXvXvXjXvXhXvXxXxXxXlXlXxXxXlXlXxXlXkXlXkXlXkX|.lXhX XhX X4X X4X4X3X4X5X5X5X5X2XqX>X1X1X-X1X<X-X<X=X,X,X,X,X%X+XU.,X,XXX,XXX,X,XXX+X%X+X%X+X,X<X=X<X-X<X0X0X-XqXqX5XwXrXwXrX8XrXmXrXmXmXmXNXMX7XMXbXMXxXnXxXnXxXxXxXlXlXcXlXlXlXlXcXlXnXxXxXnXnXMXxXVXCXVXCXZXAXCXAXAXAXrXAXrXrXeXeXqX9X9X9X<X<X+X@X+X",
"@X@X<X<X<X9X0X0XqXqXeXeXrXBXBXrXAXAXSXAXCXZXCXSXMXMXZXMXZXZXZXVXZXZXZXZXZXZXZXZXSXSXSXSXSXSXAXAXAXBXBXBXeXeXeXeX9X9X9X@X+X+XR.Y.Y.j.j.h.4.4.<.>.>.-.-.W W J J D D D D D D D A D D D A A A A A G A J A G G J G J K K W -.-./ ,.,.,.,.6.6.6.f.f.A.F.T.T.R.OX+X+X@XOX@X@X@X+X+X+XOXR.I.T.T.F.H.F.F.F.A.A.Y.A.A.A.A.A.S.A.A.S.Y.S.Y.S.Y.Y.K.H.T.I.R.I.OXXX+XXX,X@X<X<X1X-X0XqXqXeXeXrXeXNXNXNXAXmXMXmXbXnXlXjXaXtXn d r 9 1 1 1 , 4 1 7 7 l b b m pXm gXpXgXgXgXjXgXjXgXjXjXjXjXjXjXjXjXjXjXgXzXjXzXzXjXgXjXgXgXgXpXpXpXm pXm pXm N pXpXpXgXzXzXzXzXcXcXcXcXnXlXlXkXkXkXkXkX XkXvXvXvXvX7XmX7XmXmXmXmXmXmXmXNXMXmXmXSXmXMXMXMXMXMXnXnXnXcXcXzXzXgXgXpXpXb b z 4 4 ; = O O . O O O ; ; 4 l l x b m pXN gXpXgXsXfXgXfXhXjXhXjXhXhXhXhXgXvXhXxXhXhXvXhXvXhXxXvXxXvXvXjXvXvXxXvXxXxXxXnXxXxXxXxXxXcXvXnXkXcXvXlXlXxX|.vXvX X X X4X:X4X3X3X5X3X2X>X1X>X1X-X-X<X-X<X%X,X,X%X,XU.+X+X+XoXXXoXXXoXXXU.+XoX+X+X+X%X<X%X<X<X1X1X1X-XqXqXqXqXrX5XrX8XrX8XrXNXmXmXNXMX7XMXbXMXxXnXxXxXxXxXlXlXlXcXkXlXlXlXcXlXlXlXlXnXxXxXxXVXbXVXbXZXCXZXCXCXAXNXAXNXBXrXeXeXqXqXqX9X<X<X<X@X@X",
"<X<X<X<X0X1X0XqXeXqXrXrXBXBXAXAXAXCXAXCXSXCXZXVXSXVXZXZXVXZXVXZXVXZXZXVXZXZXZXZXZXZXSXSXSXSXSXAXAXAXAXBXBXeXeXeXeX9X9X9X@X+XOXR.Y.Y.j.j.h.4.4.<.<.>.-.-.W W W J J J D D D D D D D D D D D A J A J G J J J J W K W -.-.-.:.,.>.2.6.6.6.f.f.A.A.F.T.T.OXOX+X+X@X<X<X<X<X@X<X@X+X+XOXOXR.R.T.T.T.H.H.Y.Y.S.Y.S.Y.Y.S.Y.S.Y.Y.S.T.T.T.K.T.T.oXI.R.I.+XXX@XoX@X,X=X<X1X1X0XqXqX5XeXrX8X8XNXNXmXmXmXbXnXxXlXhXaXiXn y r 6 < 1 1 , 4 4 7 l z b m m pXpXgXgXgXgXjXjXjXjXzXjXjXjXjXjXlXjXlXzXzXzXcXjXzXzXzXcXzXzXzXzXjXjXgXpXgXpXpXpXgXgXgXjXjXzXzXzXVXcXcXcXnXlXkXlXkXkXkXkXkX XkXvXkX4XbX4X7X7XmX7X7XNXmXmXmXNXmXmXCXmXmXZXmXZXMXMXnXMXnXnXcXzXcXgXjXpXpXm b x z 7 4 = = O O . O O ; ; ; 7 l x b b m pXpXpXgXgXjXfXfXlXhXhXcXhXjXjXvXjXvXjXvXhXvXvXhXxXvXxXhXxX XxXxXvXxXbXvXnXbXbXcXbXMXnXnXnXnXnXnXnXbXnXbXvXxXxXxX XvX X X X X:X3X;X;X3X>X>X>X>X1X-X-X1X%X=X%X,X%XoXoX%X+XU.XXXXXXXXXXXXXXXXXXXX+XU.,X+XoX,X,X%X<X=X1X1XqX1X5XqX6XqXrX5XrX8X8X8XmX8XmX7XMXbXbXbXxXbXxXxXxXlXxXlXlXcXlXzXcXjXcXzXzXcXcXlXlXnXlXnXxXVXbXVXbXZXmXZXAXZXAXNXAXrXAXrXeXeXqX1X0X9X<X<X<X<X",
"<X<X<X<X1X0XqXqXqXrXrXBXBXBXAXAXAXAXCXCXZXCXZXMXZXVXZXVXZXVXVXVXZXVXVXZXVXZXZXZXZXZXZXSXSXSXSXSXAXAXAXAXBXBXeXeXeXeX9X9X@X9X+X+XY.Y.Y.F.j.h.4.4.<.>.>.>.-.-.W W W J W D J D J D D D D D D J J J J J K J W K W -.-.-./ ,.>.1.2.2.6.6.f.f.A.A.Y.T.T.OX+X+X+X<X<X<X<X<X<X<X<X<X<X+X+X+XOXXXOXT.T.T.T.T.K.H.Y.T.Y.K.T.T.H.T.K.T.T.T.T.T.R.R.R.R.oX+XoX@XoX@X=X<X<X1X0X0XqXwXqXeX8XrX8XNXNXmXmXmXbXnXxXlXhXaXiXj y 9 6 < , 1 , 1 7 7 l x b pXpXpXpXgXjXgXjXzXzXjXjXlXjXcXlXlXcXlXcXlXcXlXcXcXlXcXcXcXcXcXcXzXcXzXzXzXjXjXzXjXjXjXjXjXzXzXcXcXzXVXcXcXVXnXnXnXnXnXkXvXkXkXkXvXvXvX4XbX4XmX7X7X7X7XNX7XNXmXmXmXmXCXmXmXZXmXMXMXMXnXMXnXnXnXcXcXzXjXgXgXpXm b b l 4 ; = = O . . O = ; ; 4 7 x x b m pXpXpXgXgXgXjXjXlXzXhXlXhXjXvXxXhXvXjXvXjXvXxXhXxXhXxXhXvXvXxXvXbXxXbXvXnXbXbXnXbXMXnXMXnXVXVXVXVXVXVXnXnXnXbXxX7XxX X4X X:X:X3X;X;X3X3X>X*X-X-X-X&X-X%X%X%X%X%XoX%X+XXXU.XXXXU.XXXXI.XXXXXXXXXXU.+XU.+X%X+X%X<X%X1X1X-X1X>XqX5XqXqX6X8X6X8XmX8X7XmX7XMX7XbX7XxXnXxXxXxXlXxXlXlXcXzXzXcXzXcXzXzXcXzXzXcXcXzXnXxXnXxXcXbXVXbXZXZXmXAXmXAXAXrXBXeXBXeXqXqX0X1X0X9X<X<X",
"<X9X1X0X0X0XqXqXrXrXrXBXNXAXAXCXAXZXAXZXCXVXZXZXVXZXVXVXVXVXVXVXVXVXVXVXZXVXZXVXZXZXZXZXZXSXSXSXSXAXAXAXBXBXBXeXeXeXeX9X9X9X+X@XOXR.Y.Y.A.h.h.4.4.<.<.>.>.-.-.-.W W W W J J J J J J J J J J J K K K K W -.-.-./ :.,.>.>.2.2.6.6.d.f.f.A.A.Y.Y.R.OX+X+X<X<X<X1X1X0X1X1X1X1X<X<X<X<X+X+X+XoXOXXXOXT.I.R.R.I.K.R.T.K.T.XXT.T.U.T.R.oXR.oXoXoX+XoX+X+X=X<X=X<X1X0X-X0XqX5XqXeX8XeXNX8XNXMXmXmXbXnXkXlXdXaXn g y 9 < 1 < , , 1 4 7 z b m m pXgXjXjXzXzXzXzXzXcXcXcXcXlXcXlXcXlXcXlXcXlXnXlXnXnXnXnXcXnXcXcXVXcXcXcXzXVXzXzXcXzXzXcXcXcXcXcXcXVXVXVXVXVXVXnXnXbXxXxXkXbXkX4XkXvX4XvX4XbX6XbXmX7XmX7XNX7XNXmXmXNXmXCXCXmXZXmXMXMXMXMXnXnXnXcXcXzXjXgXpXpXm b z l 4 ; = O O . O O O ; ; 7 l x b m m pXgXgXgXjXzXjXlXlXlXlXxXzXvXjXvXcXvXxXhXvXhXvXvXvXvXvXxXvXvXxXbXvXbXbXbXmXnXbXbXMXVXMXVXZXVXZXVXZXVXZXZXVXMXMXxXbX7XbX X4X X:X}.3X}.*X*X*X>X_.&X&X&X%X&X%X%XU.%XoXU.U.XXXXU.XXU.R.L.XXXXL.XXXXU.XXU.+XoX+X%X,X,X1X%X1X1X-XqX>XqX5X6XqX6X8X6X8XbX8XmXvXmXxXbXxX7XxXxXxXlXnXlXcXcXcXcXzXzXcXzXcXzXcXcXzXcXzXcXcXcXzXnXnXnXxXVXmXZXZXZXAXAXmXAXrXBXeXeXrXqXqX0X1X1X9X<X",
"1X1X0X0X0XqXqXeXrXrXBXBXBXAXAXAXCXCXZXCXVXVXZXVXZXVXVXVXVXVXVXVXVXVXVXVXVXVXZXZXZXZXZXZXZXZXSXSXSXSXAXAXAXBXBXeXeXeXeX9XeX9X9X@X+XOXY.Y.Y.F.j.h.h.4.2.<.<.>.>.;.W ;.W W W W W W W K K K K W K W K -.-.-.-./ -.>.>.>.2.2.2.6.6.f.f.j.A.F.Y.Y.R.OX+X+X<X<X1X0X1X0X1XqX1XqX1X1X1X1X<X<X<X+X+X+X+XOXoXOXI.oXR.R.R.oXR.R.R.R.oXR.oXoXoXoXoX+X%X@X+X=X=X<X=X<X1X0X-XqXqX5XqXeX8XrXNX7XNXmXmXmXvXnXkXlXdXuXtXg y 6 1 < > , , 1 7 l x b m pXgXgXjXzXzXzXcXcXcXcXcXcXcXlXnXlXnXlXnXcXnXxXnXvXnXnXnXnXnXnXnXnXVXcXVXVXcXVXcXVXcXcXcXcXcXcXcXVXVXVXVXVXVXVXZXnXMXbXnXbXvXbXkX4XvX4XvX4XvX4X8XvX6X6XmX6XmX7XmXmXNXmXmXCXmXmXCXmXZXMXMXZXnXMXnXnXnXzXzXjXzXpXpXm b z 4 4 ; = O . O O O ; ; 4 7 l b b m pXpXgXgXjXzXjXlXlXzXxXcXcXvXcXxXcXvXxXxXxXvXvXvXxXvXxXvXvXvXbXvXbXbXbXbXbXnXmXbXZXMXMXZXZXZXZXZXZXZXZXZXZXZXVXMXCXbXbX7X4X4X4X:X3X}.;X;X_.*X$X&X&X$X%X#X%XU.%X%XU.U.U.U.U.U.I.U.R.L.XXI.L.XXL.T.XXU.XXU.XX%XXX%X,X%X<X-X-X1X-XqX>X5X5X5X8X6X8X4X8XvXvX7X7XxX7XxXnXxXxXxXcXcXcXcXcXzXcXzXcXzXzXzXcXzXzXcXcXcXcXcXcXnXcXnXxXVXbXVXmXZXmXCXCXAXBXCXBXrXBXqXeXqX0X0X0X1X0X",
"0X0X0X0XqXqXeXeXrXrXBXNXAXAXCXAXCXZXCXVXZXZXVXVXVXVXVXVXVXVXVXVXVXVXVXVXVXVXVXZXZXVXZXZXZXZXSXSXSXSXSXAXAXAXBXBXBXeXeXeX9X9X9X9X+X+XOXOXY.Y.F.h.h.h.4.4.<.<.<.>.>.-.-.;.-.-.W -.W -.-.W -.L -.-.-.-.:.:.:.>.>.<.>.2.2.6.6.f.f.f.A.A.Y.Y.Y.R.OX+X@X<X<X1X0X1XqXqXqX1XqXqXqXqX1X1X1X<X<X<X<XoX+X+X+XoX+X+XoX+XR.+XoXoXoXoX+X+X+X%X+X@X@X%X@X%X<X<X1X<X0X1X-X0XqXqXwXwXeX8XrX8X8XNXmXmXmXxXnXkXkXaXaXn d r 5 < < > > , 4 4 z x m m pXgXzXzXzXzXcXcXcXcXVXnXnXnXnXnXnXnXnXnXnXbXnXnXnXnXnXnXnXnXnXZXnXVXVXVXVXVXVXVXVXVXVXVXVXVXVXVXVXVXVXVXVXZXVXZXVXZXnXMXbXbXbXvXvXvXvXvX4XvX4XvXvX6XbXmX6X7XNXmXmXNXmXNXmXmXZXmXZXmXCXMXMXnXMXnXnXnXcXcXzXjXpXgXm b b z 7 1 ; O & O . O O ; 4 4 l x b m pXpXjXgXzXjXzXzXcXlXlXnXxXxXcXbXbXvXcXvXvXvXxXvXxX4XbXvXbXvXbXvXbXvXbXmXbXmXbXmXZXbXZXCXMXZXSXZXZXZXZXZXZXSXSXZXZXCXCXbXmX7X4X4X3X3X;X*X*X*X_.&X$X$X%X#X%X%XE.U.U.U.U.U.U.U.K.U.K.I.K.K.R.K.I.I.L.XXR.U.XXU.+X%X%XU.,X%X1X-X-X2X2XqX5X5X6X5X7X6X6XvX8XvXvXbXvXxX7XxXxXnXlXnXcXcXcXcXzXzXzXzXzXzXzXzXcXzXzXcXcXzXcXcXcXnXcXnXcXMXbXnXmXZXmXZXCXAXrXBXNXeXrXqXqXqXqX0X0X1X",
"0X0X0XqXqXeXqXrXrXNXBXBXAXCXAXCXZXCXVXVXZXVXVXVXVXVXVXVXVXcXVXVXVXVXVXVXVXVXVXVXVXZXVXZXZXZXZXZXSXSXSXSXAXAXAXBXBXBXeXeX0XeX9X9X9X+X+XOXY.Y.Y.Y.j.j.h.4.4.4.<.<.>.>.>.>.;.;.;.-.-.-.-.-.-.:.-.:.:.:.:.>.<.>.2.<.4.6.6.d.f.f.j.j.A.F.Y.T.R.OX+X@X<X<X0X0X0XqXqXqXqXrXqXqXqXqXqXqX1X1X0X<X<X<X<X=X+X@X+XoX+X+X%X+X+X%X@X@X@X%X@X@X%X<X%X@X<X<X1X1X1X-X1X-XqX5XqX5XqXqX8XrX8X7XNXmXmXvXbXbXkXhXfXQ.n g r 5 < < - > , 1 7 l x m m gXgXzXzXzXzXVXcXcXnXnXnXnXnXnXnXnXnXnXnXbXnXnXbXnXnXnXnXnXMXnXMXnXMXVXVXZXVXVXVXVXVXVXVXVXVXVXVXVXVXVXZXZXZXZXZXZXZXMXMXMXbXbXvXvXvXvX4X4XvX6XvX8X4XmX6X6XmXmX6XNXmXmXmXmXmXSXmXCXmXZXMXMXMXZXMXnXnXnXcXzXjXjXjXpXm m z l 7 ; = = O . . O ; ; ; 7 l x m m pXjXpXzXzXzXcXcXcXnXnXxXnXcXbXnXvXnXvXbXbXbXvXbXvXbXvXvXvXvXvXbX7XbXbXvXmXnXmXnXCXmXCXZXZXSXZXZXZXZXZXZXSXZXZXSXZXCXCXmXmX8X4X8X3X3X;X;X;X*X$X$X$X#XE.#XE.P.P.P.P.P.L.U.L.K.L.K.K.K.K.K.K.K.K.K.XXK.I.U.U.U.XX.X+X%X%X-X%X-X-X-X>X>X>X6X3X4X5X4XvX6XvXvXmXvXvXMXxXxXnXcXVXcXcXcXcXzXVXcXcXcXcXcXzXcXzXzXcXzXzXcXcXcXcXcXnXnXnXnXnXnXCXbXZXmXAXCXAXNXBXrXrXeXeXqXqXqX0X0X",
"qXqXqXqXqXeXrXrXrXBXNXAXCXAXCXZXCXVXVXZXVXZXVXVXcXVXVXVXVXVXVXVXcXVXVXVXVXVXVXVXVXVXZXZXZXZXZXZXZXSXSXSXSXSXAXAXAXBXBXeXeX0X0X0X9X9X+X+XOXR.Y.Y.Y.h.j.h.h.4.4.<.4.<.<.>.>.>.;.>.>.;.>.>.:.:.>.:.>.<.<.<.<.4.<.4.6.6.d.f.j.A.A.Y.Y.Y.R.R.+X+X+X1X1X0X0XqXqXrXqXqXrXqXrXqXrXqXqXqXqXqX1X1X1X1X<X<X=X<X<X<X@X=X+X<X%X@X%X@X%X@X%X<X<X%X1X-X1X1X-X1X1X0XqXqXqXqXwXwX8XrX8X8X8XNX7XMX7XnXvXlXdXdXiXn y y 2 < > - > , 4 7 l b m pXgXjXzXzXzXVXcXcXVXVXVXnXnXnXnXnXMXnXnXMXnXnXMXnXnXMXnXmXMXMXnXZXnXZXVXZXMXZXZXZXZXZXZXZXZXZXZXZXZXZXZXZXZXZXZXZXZXZXZXZXMXbXmXvXmX4XvXvXvX7X4XvX6XvX6X7XmX7X8XmXmXmXNXmXmXMXAXmXZXmXZXmXZXMXZXMXnXZXnXcXVXcXzXjXpXjXm m b l 4 4 = O O O O O = ; 4 l x b m pXpXjXjXzXzXzXcXcXnXnXnXxXbXbXVXbXnXbXnXvXbXbXbXbXbXvXvXbXvXmXvX4XbX8XbXmXvXmXmXmXnXCXZXCXZXZXSXZXZXSXZXZXZXZXSXSXSXZXCXCX8XCX8X4X3X3X3X*X*X*X*X&X$XE.%XE.E.P.P.P.L.L.L.L.L.J.J.K.K.K.K.K.K.K.K.K.K.L.U.I.U.U.U.U.%X%X%X%X&X1X-X-X>X>X5X>X5X3X4X6X4XbX4XmXvXbXnX7XnXnXnXnXcXVXcXVXzXVXzXcXcXcXcXcXcXzXcXcXzXzXVXzXzXcXcXcXcXVXnXnXnXbXnXZXmXZXmXAXCXBXNXBXwXrXqXeXqXqXqXqX",
"qXqXqXqXrXeXrXrXAXNXBXCXAXZXCXCXVXZXVXZXVXVXcXVXVXVXVXcXVXVXcXVXVXVXcXVXVXVXVXVXVXVXVXVXZXZXZXZXZXSXSXSXSXSXAXAXAXBXBXBXeXeXeX0X9X9X9X@X+XOXOXY.Y.Y.F.j.h.h.h.4.2.4.<.4.<.>.4.>.>.<.>.<.>.<.>.<.<.<.2.2.4.4.d.d.d.j.j.j.j.j.Y.T.T.R.R.+X+X@X1X<X0X0XqXqXeXqXrXrXrXrXrXrXrXqXrXqXwXqX0XqX0X1X1X1X0X<X-X<X=X<X<X%X1X@X<X1X<X1X1X1X1X1X1X1X1X1XqX0X5XqXqX5XqX5XqX8XrX8X8X8XNX7XMX7XxXvXlXdXaXtXj u 9 2 < - - > , 1 7 z b m pXpXzXzXcXzXVXcXVXVXVXVXnXnXZXnXMXMXnXnXZXnXmXnXMXMXMXMXMXnXMXnXMXMXMXZXmXZXZXZXZXZXZXZXZXZXZXZXZXZXZXZXZXZXZXZXZXZXSXZXZXmXMXMXmXbXvXmX4XvX6X4XmX4X7X4XmX7XmX6XmXmXmXmXmXmXAXmXmXCXmXZXmXSXMXZXMXnXZXnXnXVXcXzXzXjXjXpXm b x l 4 ; = O O . O = ; ; 4 l x b pXpXpXjXzXzXzXcXcXVXnXnXnXVXnXVXbXnXmXnXvXmXbXmXvXbX4XbXbX4XbXvX4XbXbXvXmXvXmXmXmXZXCXCXCXZXZXSXZXSXZXZXZXSXZXSXSXSXSXSXAXCXCX8X8XwX8X3X2X3X*X*X&X$XE.#XE.E.P.k.P.L.L.L.L.D.J.J.J.J.Z.K.J.K.S.K.K.K.K.K.K.U.K.U.U..XU.%X%X%X&X&X>X&X>X>X>X3X3X4X6XvX6X4XmXvXbXbXbXnXnXnXVXcXVXcXVXzXVXcXcXVXcXcXzXcXzXVXzXzXzXVXzXzXVXcXcXcXVXcXnXnXnXnXnXZXbXZXmXmXAXCXBXNXrXrXrXeXqXeXqXqX",
"qXqXeXrXqXrXrXNXrXNXNXSXCXCXZXVXZXZXZXVXVXVXVXVXVXVXVXVXcXVXVXcXVXcXVXcXVXVXcXVXVXVXVXVXVXZXVXZXZXZXZXSXSXSXSXSXAXAXAXBXBXeXeXeX9X9X9X9X+X@XOXOXY.R.Y.F.h.h.j.h.h.4.4.2.4.4.<.<.4.>.2.<.4.<.4.4.4.4.4.4.d.d.d.j.d.j.j.Y.Y.Y.Y.T.OXOX+X+X<X<X1XqX0XqXeXeXrXrXrXrXrXrXrXrXrXrXwXrXqXqXwX0XqX0XqX1X1X1X1X1X1X1X1X1X<X-X1X1X1X1X1X1X1XqX1XqX>X0XqX5XqXqX5XrX5XrX8XeX8X8XbXNX7XMXvXxXxXhXdXaXtXv y 5 2 > - - - , 4 7 l b m pXjXzXzXcXVXVXVXVXVXVXVXZXVXZXnXZXnXMXMXZXbXMXnXmXnXmXMXMXmXMXmXMXZXmXZXMXZXmXZXZXSXZXZXSXZXZXZXZXZXZXZXZXZXZXZXZXZXZXZXSXZXZXmXmXbXmXvXvXmX6XvX4XvX8X4XmX4XmX6XmX8XmXmXNXmXCXmXCXCXCXCXmXZXMXZXMXZXMXnXVXnXVXcXcXzXjXgXpXm m z l 4 ; = O O . O O ; 4 7 l b m m jXgXjXzXcXcXcXVXcXVXVXMXMXMXMXMXbXnXmXmXnXbXvXmXvXmXvX8XbX4XbXmX4XmXbXvXmXbXmXmXmXCXCXCXZXAXZXSXZXSXZXSXZXSXZXSXSXSXSXAXAXAXCX8X8XwXwX3X5X*X-X&X&X&XE.E.P.P.L.k.J.J.L.Z.k.D.D.J.D.J.Z.K.D.J.K.Z.K.K.K.K.L.U.L.U.U..X.X%X&X%X&X&X>X*X>X>X5X4X5X4X6XvXmXvXmXmXbXMXVXVXVXVXVXVXcXVXVXcXVXcXcXcXcXVXzXcXcXcXzXVXzXzXVXzXzXVXzXcXVXcXnXnXnXVXbXZXmXZXmXCXCXCXBXBXrXwXeXrXqXqXeX",
"eXeXeXqXrXrXrXrXNXNXSXCXCXCXVXZXVXZXVXcXVXVXVXVXVXcXVXcXcXVXcXcXcXVXVXVXzXVXVXcXVXVXVXVXVXVXZXZXZXZXZXSXSXSXSXSXAXAXAXBXBXBXeXeX0XeX9X9X9X@X+X+XOXY.Y.Y.Y.Y.j.j.h.h.h.h.4.4.4.4.4.4.4.4.4.4.4.4.4.d.d.h.d.j.j.d.Y.j.Y.Y.T.T.R.OXOX+X@X<X<X1X1X0XeXeXrXrXrXrXrXBXBXBXNXBXBXNXrXrXrXrXqXrXqXqXqXqX0X0X0X0X0X-X0X1X-XqX0X1X>X1XqX1X>XqX>XqXqXwXqXqX5XrX5XeX8XrX8XmX8X7XNX7X7XxXvXlX|.fXuXtXg y 5 < : - = - , , 7 l b pXpXjXzXcXcXVXVXVXVXVXVXVXZXnXZXMXZXMXZXMXZXmXZXmXmXZXmXMXMXmXMXmXZXmXmXCXmXCXMXCXCXSXZXZXSXSXSXZXSXSXZXSXZXZXSXZXSXZXZXSXSXSXZXCXMXmXmXmXvXmX7X7XvXmX6XvXmX6XmX6XmXmXmXmXNXmXmXmXmXCXmXCXmXZXMXMXMXZXnXZXVXnXVXVXcXzXzXjXjXpXm b z l 4 ; = O . . O ; ; ; 7 x b m gXpXjXzXcXcXcXVXcXVXZXnXVXVXMXZXbXZXmXmXnXmXmXmXmXmXvXbXbXvXmX4XvXbX4XvXmXbXmXmXmXCXmXCXZXSXZXSXZXSXZXSXZXSXSXSXSXSXSXAXAXAXAX8XBX8XwX5X5X2X2X*X&X&XE.%XE.P.P.P.L.J.k.D.k.Z.J.Z.D.Z.Z.Z.Z.Z.S.Z.K.J.D.J.K.K.L.L.U.U..X.X%X.X&X&X-X*X-X;X>X3X3X4X6XvX6XvXmXmXbXZXVXZXVXZXVXVXVXVXVXcXVXcXVXzXVXcXcXzXVXzXzXVXzXzXVXzXzXVXcXVXcXcXVXVXnXnXVXVXnXZXbXZXCXCXBXNXNXrXrXrXqXrXrXqX",
"eXeXrXrXrXrXrXAXNXSXNXSXMXZXZXZXZXVXVXVXVXVXzXVXVXVXcXVXVXzXVXVXzXzXzXVXVXzXVXVXcXVXVXVXVXVXVXZXZXZXZXZXZXSXSXSXSXSXAXAXBXBXBXeXeX0X0X0X9X9X@X+XOXOXOXY.Y.Y.Y.F.h.j.h.h.h.h.h.h.h.4.4.d.d.d.h.h.h.h.h.j.j.A.A.Y.A.Y.T.T.T.OXOXOX@X@X<X<X0X0XqXqXeXrXrXrXBXNXNXNXNXNXAXNXNXBXBXNXrXrXrXqXwXeXqXqXwXqXqX5XqXqX2XqXqX1X5XqXqXqX5XqXqXqXqXqXwXqXwXqXrXwXrX8X8X8X8X8X7XCX7XbXxXvXlXdXfXuXtXd y 5 < > - $ > > 4 7 z b pXpXzXzXcXcXVXVXVXVXZXZXZXZXZXZXMXZXmXZXmXZXmXMXmXZXmXmXCXmXmXCXmXCXmXZXmXmXAXmXAXCXCXCXAXZXSXSXSXSXSXSXSXSXSXSXZXZXSXZXSXZXSXSXZXCXCXmXmXbXmX6XbX6XmX4XmX6X6XbX8XmX8XmXmXmXmXmXNXmXAXmXZXmXZXmXZXMXZXMXZXnXZXVXVXcXcXzXzXzXpXpXpXb z 7 ; ; O O O O O = ; 7 l x b pXpXjXjXzXcXcXVXVXVXVXVXZXZXZXVXCXZXCXmXZXmXmXmXmXmXmXmXwXbX8XbXmXwXbXmXvXmXwXbXmXmXmXZXCXCXCXZXSXSXZXSXZXSXZXSXSXSXSXSXSXSXAXAXBX8XrX8XqX5X5X2X-X*X=X&XE.%XP.P.P.J.J.J.J.Z.J.Z.D.Z.Z.Z.Z.Z.Z.Z.Z.Z.S.J.D.J.J.L.U.K.P.U.%X.X%X&X&X&X>X>X>X>X5X6X6XmX6XmXmXmXZXZXZXZXZXVXVXZXVXVXVXVXVXzXVXcXVXzXVXzXVXzXzXVXjXVXzXzXVXVXzXzXzXVXcXcXVXVXnXnXVXVXMXMXCXmXCXCXBXNXBXNXrXrXqXqXrX",
"rXrXrXrXrXrXNXNXCXNXCXMXZXZXVXZXVXVXVXVXVXVXVXcXVXcXVXcXzXVXzXzXVXzXVXzXzXzXVXzXVXzXVXVXVXVXVXVXVXZXZXZXZXSXSXSXSXSXAXAXAXBXBXBXeXeXeX0X0X9X9X9X@X+XOXOXOXY.Y.Y.Y.F.F.j.j.j.h.h.j.h.h.h.h.h.h.h.j.j.A.A.A.A.Y.Y.T.T.T.OXOXOXOX@X<X<X<X0X0XqXqXeXeXrXBXrXNXAXNXNXAXAXmXAXNXNXNXNXNXrXrXrXrXwXrXwXqXeXqXqXqXqXqXqXqXwXqXqXqXqXqXwXqXwXqXwXwXwXwXrX8X8X8X8X8XNX7X8XMX7XxXvXxXlXfXdXuXn d y 5 < - $ = - = 4 7 x b pXpXzXzXcXVXVXVXVXZXZXZXZXZXZXZXZXZXSXZXmXZXCXZXmXZXmXmXCXmXmXCXmXmXmXmXrXmXAXmXCXmXCXCXAXCXAXSXSXSXSXSXSXSXSXSXSXSXSXSXSXZXSXSXZXAXZXmXmXmXmX8XbX8XbX6XmX8XvXmX8XmXmXmXmXmXmXmXCXmXCXmXZXmXZXmXZXMXZXMXZXnXZXVXVXcXVXzXVXzXgXjXpXm b z 7 4 = = O . O O ; ; 4 l x m pXpXjXzXcXcXcXVXVXZXVXZXZXZXZXCXZXCXmXZXmXNXZXNXmXmXmXmXmX8XmX4X8XbXwXbX8XvXmXmXmXmXmXCXCXCXZXSXSXZXSXSXZXSXSXSXSXSXSXSXAXAXAXBXAXrX8XeX8XqX5X2X2X1X&X%X%XU.%XP.J.P.J.J.J.D.D.Z.Z.Z.Z.Z.Z.Z.Z.Z.Z.Z.J.Z.J.J.J.K.L.P.U..X.X.X&X=X*X&X-X>X>X5X6X6X6X6XmXmXmXZXZXZXZXZXVXZXZXVXVXVXVXzXVXVXcXVXzXVXzXVXzXzXVXjXVXzXVXVXzXzXzXVXVXzXVXcXcXVXVXnXVXVXVXZXCXVXCXCXCXNXNXrXrXrXrXrXrX",
"rXrXrXrXNXrXAXAXNXSXSXZXZXZXZXVXVXVXVXVXVXcXVXcXcXcXcXcXcXzXVXzXzXVXzXVXzXVXzXVXzXVXzXVXVXzXVXVXVXVXZXZXZXZXZXSXSXSXSXSXAXAXAXBXBXeXeX0X0X0X9X9X9X@X@XOXOXOXY.Y.Y.Y.Y.Y.A.F.A.A.h.j.Y.h.j.j.j.A.A.Y.A.Y.Y.Y.Y.T.R.R.OXOX+X@X@X<X9X9X0X0XqXqXrXrXrXBXBXCXAXNXZXAXCXAXAXNXSXmXAXNXNXNXNXrXNXrXwXrXwXwXwXeXqXwXrX5XqXqXqXwXqX8XeXqXrXwXwX8XrXwXrX8XrX8X8X8XCX7XmXbX7XxXvXlX|.fX^.tXv d 9 2 < - $ = - , 4 7 z b pXgXzXzXcXVXVXVXZXZXZXZXZXZXSXZXSXZXCXMXZXAXmXCXmXCXNXmXAXmXmXAXmXmXrXCX8XCX8XmXrXCXCXBXCXCXAXAXAXAXSXSXSXSXSXSXSXSXSXSXSXSXSXZXSXSXZXAXCXmXmXmXmX8XbX8XmX7XmX8XmXmX8XmXmXmXCXmXmXmXCXmXZXmXCXMXZXmXZXZXZXVXZXVXVXVXVXcXzXzXzXzXgXpXm b z 7 ; ; & O O O O ; ; 7 x b m pXjXjXzXzXcXVXVXVXVXZXZXZXSXZXZXAXZXCXCXAXmXmXmXmXNXmX8XmXmX8XmX8X7XmXwXbX8XmXmXmXmXmXmXCXCXSXZXSXSXZXSXSXZXSXSXSXSXSXSXSXAXAXAXBXBXrX8XeX5XqX5X-X=X=X&X%X.XU.U.P.J.J.J.D.D.D.D.Z.Z.Z.C.Z.Z.C.Z.Z.Z.Z.J.Z.K.J.J.J.U.P..X.X&X.X*X=X>X>X2X6X5X6X6X8XmXNXSXSXSXSXZXZXZXZXVXZXVXVXVXVXVXzXVXzXVXzXVXzXzXVXzXcXVXzXzXzXzXVXzXVXzXVXVXzXVXzXVXVXVXnXZXnXVXCXCXCXCXCXCXBXNXrXrXrXrXrX",
"rXrXrXrXrXNXNXmXAXSXZXZXZXVXZXVXVXVXVXVXcXVXcXVXzXVXzXVXzXVXzXzXzXzXzXzXzXzXzXzXzXzXVXzXVXVXzXVXVXVXVXZXZXZXZXSXSXSXSXSXAXAXAXBXBXBXeXeXeX0X0X9X9X9X@X+X+XOXOXOXOXY.Y.Y.Y.Y.Y.A.Y.Y.j.Y.Y.Y.Y.Y.Y.Y.Y.Y.Y.R.R.OXR.+X+X+X@X@X9X9X9X0X0XeXeXrXrXBXBXBXAXAXCXAXAXCXAXZXCXZXmXAXZXNXAXNXNXNXrXNXrXrXrXrXrXwXrXrXqXrXrXeX8XeXrXeX8XrX8XrXrXrX8XrX8XmX8XmX8XCX7XMX7XvXxXvXxXhXfXuXtXv y 6 2 - = $ = = ; 1 7 z b pXpXzXcXcXVXVXVXZXZXZXZXZXZXSXSXSXZXAXZXAXCXCXAXmXAXNXmXAXmXmXrXmX8XNXmXrXmX8XAX8XAX8XNXNXCXrXAXAXAXSXAXSXSXSXSXSXSXSXSXSXSXSXSXSXSXSXSXCXmXNXmXmXmXmXmXmXmX8XmXmXmX8XmXmXmXmXmXmXmXCXmXZXmXZXCXCXCXZXZXZXZXVXZXVXVXVXcXVXVXzXzXjXgXpXm b z 4 4 = O O . O O ; 4 7 l m m pXgXzXzXzXVXVXVXVXZXZXZXZXZXSXSXZXAXZXAXmXZXNXNXNXmXNXmXmX8XmX8X8XmX8X8X8XmX8XmXmXmXmXCXCXCXZXSXSXZXSXSXZXSXSXSXSXSXSXSXSXSXAXAXBXBXrXeX8XqX5X0X2X1X=X,X%X%XU.U.U.K.K.J.J.J.S.Z.Z.Z.Z.Z.Z.C.Z.S.Z.Z.D.Z.K.J.J.J.U.P.U..X.XoX&X=X&X>X2X>X>X6XwX6XNXNXAXSXSXZXSXZXZXZXZXZXVXVXVXVXVXVXVXzXVXzXVXzXzXVXcXcXcXzXzXVXzXVXzXVXzXzXVXzXVXVXVXVXcXVXVXnXVXVXVXVXMXCXCXNXNXNXNXrXrXrXrX",
"rXNXrXAXNXNXAXAXZXZXZXZXZXZXVXVXVXVXVXVXVXzXVXcXVXzXzXzXzXzXzXzXzXzXzXzXzXzXzXzXzXzXcXzXcXVXVXVXzXVXVXVXVXZXZXZXZXSXSXSXSXSXAXAXAXBXBXBXeXeX0X0X0X9X9X9X@X+X@XOXOXOXOXY.Y.Y.Y.R.Y.Y.Y.Y.Y.Y.Y.Y.R.Y.R.R.R.R.+XOXOX+X@X9X9X9X9X9XqXqXeXeXrXrXrXAXBXAXAXCXAXZXCXCXCXCXCXCXZXCXCXCXNXCXAXmXAXNXNXrXNXrXrXrX8XrX8XeX8XrXrX8XrX8XBX8XrX8XmXrX8XNXrXmXmX8XmXbX8XbXxXxXxXhXhXaXuXk c y 9 : : - # = = > 1 7 z m m gXzXcXcXVXVXZXZXZXZXSXSXSXSXSXSXSXSXSXCXCXAXCXmXAXmXAXmXrXCXrXmXrXmX8XrX8XrX8X8XBX8XBXNXNXBXCXAXBXAXAXAXAXAXSXSXSXSXSXSXSXSXSXSXSXSXSXSXSXCXmXmXmXmX8XCX8XmXmXmXmXmXmXmXmXmXmXCXmXCXCXCXCXCXCXZXZXZXZXZXZXVXZXVXZXVXVXVXzXcXcXzXzXgXpXm b l 7 4 = O O . O = ; ; l x b pXjXjXjXzXVXcXVXVXVXZXZXZXZXSXSXSXSXSXAXSXAXAXmXNXNXNXNXmXrXmXmX8XmXrXmX8XmX8XmXmX8XmXmXNXCXCXAXZXSXSXZXSXSXZXSXSXSXSXSXSXSXAXSXAXAXBXrXeXeXqXqX-X0X2X=X=X,X.XoXU.I.P.K.K.J.Z.D.Z.Z.Z.A.Z.Z.Z.Z.Z.Z.S.Z.J.Z.K.J.U.K.U.U..X,X#X=X-X=X2X>X6XqX6XwXNXBXAXAXSXSXSXSXZXZXZXZXZXZXVXVXVXVXzXVXVXzXVXzXVXzXzXzXcXzXcXcXzXcXzXVXzXVXzXzXVXzXVXVXzXVXVXVXVXVXVXZXZXZXMXCXNXNXNXNXBXNXrXrX",
"rXBXNXNXNXAXAXSXSXSXZXZXVXZXVXVXVXzXVXVXzXVXcXzXzXzXzXzXzXzXjXzXzXzXjXzXzXjXzXjXzXzXzXzXzXzXcXzXVXVXVXVXVXVXZXZXZXSXSXSXSXSXAXAXAXBXBXBXeXeXeX0XeX0X9X9X9X9X@XOX@XOXOXOXOXOXOXY.R.Y.OXY.R.Y.R.R.R.R.OXOXOX+X+XOX9X@X9X9X9X9XqXqXeXeXeXeXBXrXBXAXBXCXSXCXCXZXZXZXZXZXnXZXZXmXZXCXZXCXmXAXmXAXNXNXNXNX8XAXrXNXrXCXrXrX8XBX8X8X8XNX8XCXrXmXmXmXbX8XmXmXbX7XxXxXxXvXhXhXuXuXk u q 3 : : & = = = ; 1 7 z m pXgXzXcXcXVXVXZXZXZXSXSXSXSXSXSXSXSXAXSXAXAXAXNXCXAXCXrXmXBXmXrXmXrX8X8XrX8XrX8X8XBX8X8XrX8XBX8XrXBXAXAXAXAXAXSXSXSXSXSXSXSXSXSXSXSXSXSXSXSXCXAXCXCXmXmXmXmXmXmXmXmXmXmXmXAXmXmXCXmXCXCXCXZXCXCXZXZXZXZXZXVXZXZXZXVXVXVXVXzXVXVXzXzXgXgXpXm b z 4 ; = O O O O = ; 4 l x m pXpXjXzXVXcXVXVXZXZXZXZXZXSXSXSXSXSXAXSXAXAXNXAXNXNXNXmXrXmX8XrXmX8XmX8XmX8XmX8X8XmXNXmXCXCXAXZXSXZXSXSXSXZXSXSXSXSXSXSXSXSXAXAXAXBXBXrXeXrXqXqXqX0X=X1X,X,X,XoXU.U.I.K.K.G.J.Z.G.Z.S.Z.Z.A.S.Z.S.Z.Z.G.Z.K.J.I.K.U.U.U.,X#X=X=X-X2X2X2XqXwXwXrXAXAXAXSXSXSXSXSXZXZXZXVXZXVXVXVXzXVXVXVXzXVXzXzXcXzXzXcXzXcXzXzXcXzXcXzXVXzXzXVXzXVXzXzXVXVXVXVXVXZXZXZXZXZXZXSXSXSXNXNXNXrXAXrX",
"AXNXBXAXAXSXSXSXSXZXZXZXZXVXVXVXVXVXVXzXVXzXVXzXzXzXzXzXjXjXzXzXgXzXjXjXgXzXjXzXgXzXjXzXzXzXzXzXcXcXVXzXVXVXVXZXZXZXZXSXSXSXSXSXAXAXAXBXBXBXeXeX0X0X0X0X9X9X9X9X@X@X@XOX+XOXOXOXOXOXOXOXOXOXOXOX+X+X+X+X+X+X9X9X@X9X9X9X9XeXqXqXeXeXBXBXBXAXAXAXSXSXZXZXZXVXZXVXVXnXZXnXVXZXbXZXmXZXZXmXCXmXCXCXAXmXAX8XNX8XBX8XNXCX8XCXNXNXNXmXNX7XCX8XmXmXCXbXbXMXbXxXxXxXhXhXdXiXtXv u 9 3 < - & & O = ; 1 7 z m m gXzXzXVXVXVXZXZXZXSXSXSXSXSXSXSXAXSXAXAXAXAXAXAXrXCXrXCXrXmXrX8XrX8XrXrX8X8X8XrX8X5XrX8XrX8XrXBXBXBXAXBXAXAXAXAXSXSXSXSXSXSXSXSXSXSXSXSXSXSXSXZXCXCXCXmXmXmXCXmXNXmXmXAXmXmXCXCXCXCXCXCXZXCXZXZXZXZXZXZXZXZXZXVXVXZXVXVXVXVXzXcXcXzXzXgXpXm b l 7 ; ; O O . O O 4 4 l x m pXgXjXzXcXVXVXVXVXZXZXZXSXSXSXSXSXSXAXAXAXAXAXAXAXrXCXrXmXrXCX8XBX8X8XmX8XmXrXmXmXNXmXNXNXCXCXAXZXSXZXSXZXSXSXZXSXSXSXSXSXSXAXAXAXBXBXBXeXeXeXqX0X1X1X=X=X,X,XXXU.R.I.K.I.K.G.G.Z.G.Z.S.A.Z.S.S.Z.G.Z.J.G.K.K.K.U.U.U.%X.X,X=X-X-X2X0XwXeXeXrXBXAXBXAXSXSXSXSXSXZXZXZXZXZXVXVXVXVXzXVXzXVXzXVXzXcXzXcXzXcXzXcXzXzXcXzXcXzXzXVXzXzXVXVXVXzXVXzXVXVXVXVXVXZXZXZXZXZXSXSXAXBXNXrXAX",
"NXAXAXAXSXSXSXSXZXZXZXZXVXVXVXVXVXVXzXVXzXzXzXzXzXzXzXjXjXzXgXjXjXjXgXjXjXgXjXgXgXjXjXjXzXjXzXzXzXzXzXVXVXVXVXVXZXZXZXSXSXSXSXSXSXAXAXAXBXBXBXeXeXeXeX0X0X0X9X9X9X9X@X@X@X@X+X+X@X+X+XOX+X+X+X+X+X+X@X@X9X9X9X9X9XeX9X9XeXeXeXeXBXBXBXBXAXAXSXSXZXZXZXZXVXVXVXcXVXVXcXnXnXnXVXnXVXZXmXZXCXCXCXCXCXmXCXCXCXCXCXCXCX8XCX8XNXmXNXNXmXNXCXbXCXMXbXMXMXxXxXzXvXhXfXfXiXk v z 5 3 ; * = O & ; ; 4 7 x m pXgXzXzXVXVXZXZXZXSXSXSXSXSXSXSXAXAXAXAXAXAXAXAXBXAXBXBXBXrXrXrXrXrXrXrXrX8XeXrXrXqXrXrXrXeXrXBXrXBXBXBXBXAXAXAXAXAXSXSXSXSXSXSXSXSXSXSXSXZXSXSXSXSXSXCXCXCXCXCXmXAXmXmXAXmXCXCXCXCXCXZXAXZXZXZXZXZXZXZXZXVXZXZXVXZXZXVXVXVXVXcXVXcXzXzXjXpXpXm b z 4 ; = O O O O ; ; 4 l b m m jXjXcXcXVXVXVXZXZXZXZXSXSXSXSXSXAXSXAXAXAXAXAXBXAXrXAXrXCX8XBX8XNX8XBX8XrXmXNXNXmXNXmXCXCXAXZXSXSXSXZXSXSXZXSXSXSXSXSXSXSXAXAXAXBXBXrXrXeXqXqXqX1X0X<X@X,X,XXX+XU.I.R.K.Y.K.S.G.Z.G.S.Z.S.S.Z.G.Z.D.G.K.K.K.I.U.U.XXoX,X=X<X=X0X0XeXqXqXrXrXBXAXAXSXSXSXSXSXZXZXZXZXZXVXVXVXzXVXVXzXVXcXcXcXcXzXcXzXcXzXzXzXcXzXzXcXzXzXVXzXzXVXzXzXzXVXVXVXVXVXVXVXVXZXZXZXZXSXSXAXAXAXAXAXNX",
"AXAXAXAXSXSXSXZXZXZXZXZXVXVXVXVXVXzXVXzXVXzXzXzXzXjXjXjXjXjXjXgXgXgXgXgXgXgXgXgXgXgXgXgXgXjXjXjXzXzXzXcXVXVXzXVXVXZXZXZXZXSXSXSXSXSXAXAXAXBXBXBXBXeXeXeXeX0X0X0X9X9X9X9X9X@X9X@X@X@X@X9X+X9X9X@X9X9X9X9X9X9X9X9XeX9XeXeXeXeXBXBXBXBXAXAXSXSXSXSXZXZXZXVXnXnXnXnXzXcXcXcXcXcXnXVXVXnXVXVXZXZXCXCXCXCXCXCXCXCXCXCXCXCXCXCXCXCXMXMXMXMXbXMXbXbXbXxXxXxXxXhXhXfXiXk b u r 3 < ; ; & O = = ; 4 7 x m N gXzXzXVXVXZXZXZXSXSXSXSXSXSXSXAXAXAXAXAXAXAXAXBXBXBXBXBXBXBXBXeXBXeXBXeXrXeXrXeXeXrXeXeXeXBXeXeXBXeXBXBXBXBXAXAXAXAXSXSXSXSXSXSXSXSXSXZXSXSXSXZXSXSXSXSXZXAXZXCXCXCXZXCXZXZXZXZXZXZXZXZXZXZXZXZXZXZXZXZXZXZXZXZXZXVXVXZXVXVXVXVXcXcXzXzXjXjXpXm b l 4 ; = O O . O ; ; 7 l b m gXjXzXzXVXVXVXVXZXZXZXSXSXSXSXSXSXSXAXAXAXAXAXBXAXBXAXBXBXrXrX8XrX8XNX8X8XCXrXmXNXNXmXAXCXCXAXSXSXSXSXSXSXZXSXZXSXSXSXSXSXSXSXAXAXAXBXrXeXeXeX0X0X0X<X<X@X@X@X+XR.XXR.I.K.K.G.K.S.G.S.G.G.Z.A.G.S.G.K.G.K.K.R.I.XXXX,X+X,X<X<X1X0XqXqXeXrXrXrXBXAXAXSXSXSXSXSXSXZXZXZXVXVXVXVXVXzXVXcXcXcXcXzXzXzXzXcXzXzXzXzXzXzXzXzXzXcXzXzXVXzXVXzXVXzXVXVXcXVXVXVXVXZXZXZXZXZXSXSXSXSXAXAXAX",
"AXSXAXSXSXSXSXZXZXZXZXVXVXVXVXzXVXzXVXzXzXzXzXjXjXjXgXjXjXgXgXgXgXgXgXpXgXgXpXgXgXpXgXgXgXgXgXgXgXzXzXzXzXzXVXVXVXVXZXZXZXZXSXSXSXSXSXAXAXAXAXBXBXBXeXeXeX0XeX0X0X0X0X0X9X9X9X9X9X9X9X9X9X9X9X9X9X9X9X9X9XeX0X0X0XeXeXeXeXBXBXBXBXAXAXSXSXSXSXZXZXZXnXVXcXnXzXzXzXjXzXjXzXzXzXcXcXnXnXVXVXVXVXVXVXZXVXCXMXCXMXCXCXMXCXMXMXMXMXMXMXMXMXbXnXbXxXxXcXhXfXhXiXyXk b u r 1 < ; & O O & = ; 4 7 x m N gXzXcXVXVXZXZXZXSXSXSXSXSXSXAXAXAXAXAXAXBXAXBXBXBXBXBXBXBXBXBXeXBXeXBXeXeXeXeXeXeXeXeXeXeXBXeXeXBXeXBXBXBXBXAXAXAXAXAXSXSXSXSXSXSXSXSXSXSXSXSXSXSXSXSXSXSXSXSXSXSXSXSXSXSXSXSXSXSXSXSXSXSXSXSXSXSXZXZXZXZXZXZXVXZXVXZXZXVXVXVXcXVXcXcXzXzXjXpXm m b l 7 ; = O . . O ; ; 4 x b pXpXjXzXcXVXVXVXZXZXZXSXSXSXSXSXSXSXAXAXAXAXAXBXAXAXBXBXBXBXBXBXBXBXrXBXNXNXrXmXrXNXNXNXCXAXSXAXSXSXSXSXSXZXSXZXSXSXSXSXSXSXSXAXAXAXBXrXrXrXeXeX0X0X0X9X9X<X<X+X+X+XR.R.R.R.Y.T.G.G.Y.S.G.A.G.Y.S.G.G.G.G.Y.R.R.XXR.+X+X@X@X9X9XqX9XqXqXeXeXrXBXAXAXSXSXSXSXSXSXZXZXZXZXVXVXVXVXVXVXcXcXcXcXjXcXcXzXcXjXzXzXzXzXzXzXzXzXzXzXcXzXcXzXzXVXzXVXcXVXVXVXVXVXVXZXZXZXZXSXSXSXSXSXSXAXAX",
"AXSXSXSXSXSXZXZXZXZXZXVXVXVXVXVXzXVXzXzXzXzXjXjXjXjXjXgXgXjXpXgXgXpXgXgXpXpXsXpXsXpXpXpXpXgXgXgXgXgXgXzXzXzXzXVXzXVXVXVXZXZXZXZXSXSXSXSXSXAXAXAXBXBXBXeXeXeXeXeX0XeX0X0X0X0X9X0X0X9X9X9X9X9X9X0X9X0X0X9XeX0XeXeXeXeXeXBXBXBXBXAXAXAXSXSXSXZXZXZXVXVXVXcXcXjXjXjXjXgXjXjXjXjXjXjXzXcXcXnXnXnXnXVXVXVXVXVXVXVXVXVXVXVXVXVXVXnXVXnXnXnXcXcXcXcXzXzXhXgXfXpXyXb x r 4 1 ; & & O O & & ; 4 7 x m m jXzXcXVXVXZXZXZXSXSXSXSXSXSXAXAXAXAXAXBXAXBXBXBXBXBXeXBXeXBXeXeXeXeXeXeXeXeXeXeXeXeXeXeXeXeXeXeXBXeXeXBXeXBXBXBXBXAXAXAXSXSXSXSXSXSXSXSXSXSXZXSXSXSXSXSXSXSXSXSXSXSXSXSXSXSXSXSXSXSXSXSXSXZXSXZXZXZXZXZXZXZXZXVXZXVXZXVXVXVXVXVXVXzXVXcXzXzXjXjXpXm x z 4 ; ; O O . O = ; 4 z b pXgXgXzXcXcXVXVXZXZXZXSXSXSXSXSXSXSXAXAXAXAXBXAXBXBXBXBXrXrXBXBXBXrXBXrXBXBXBXBXAXrXAXAXAXAXAXSXAXSXSXSXSXSXZXSXSXSXSXSXSXSXSXAXAXAXAXBXrXqXeXqXeX0X0X9X<X<X<X+X+XOXOXR.R.T.T.Y.Y.Y.A.Y.A.Y.A.Y.F.Y.Y.Y.T.T.R.R.OX+X+X+X<X@X9X9X0XeX0XeXeXBXBXBXBXAXAXSXSXSXSXSXZXZXZXZXVXVXVXcXVXcXcXcXcXzXcXjXzXcXjXzXjXzXjXzXzXzXzXzXzXzXzXcXzXcXcXzXcXcXcXcXVXVXVXVXVXVXZXZXZXZXZXSXSXSXSXSXSX",
"SXSXSXSXSXSXZXZXZXZXVXVXVXVXVXzXVXzXzXzXzXjXjXjXgXjXgXgXjXpXgXgXsXgXsXpXpXpXpXpXpXpXpXpXpXpXpXpXpXgXgXgXzXzXzXzXVXzXVXVXVXZXZXZXSXSXSXSXSXAXAXAXAXBXBXBXBXBXeXeXeXeX0XeX0X0XeX0X0X0X0X0X9XeX0X9XeX0X0XeXeXeXeXeXBXBXBXBXAXAXAXAXSXSXSXSXZXZXZXVXVXcXcXjXjXjXgXgXyXgXyXyXpXpXgXjXjXjXzXzXcXcXcXnXnXVXnXVXnXVXVXVXVXVXVXnXVXVXnXnXnXzXnXcXzXjXjXgXsXpXyXb b r r 1 ; ; = O O & & = ; 4 7 x m N jXzXcXVXVXZXZXSXSXSXSXSXSXAXAXAXAXAXBXBXBXBXBXBXBXeXBXBXeXBXeXeXeXeXeXeXqXeXeXqXeXqXqXqXeXeXeXeXeXeXeXBXeXBXBXBXAXAXAXAXSXSXSXSXSXSXSXSXSXSXSXSXSXZXSXSXSXSXSXZXSXSXSXSXZXSXSXSXSXZXSXZXSXZXSXZXZXZXZXZXZXZXZXZXZXZXZXZXVXVXVXVXcXVXVXcXzXzXjXjXpXm m b l 4 ; = O . O O ; ; 7 x b pXgXzXcXcXVXVXZXZXZXSXSXSXSXSXSXAXSXAXAXAXAXAXAXBXBXBXBXBXBXrXrXrXrXrXBXrXBXBXBXBXAXBXAXAXAXAXAXSXSXSXSXSXSXSXSXSXSXSXSXSXSXSXAXAXAXBXBXBXeXeXeXeX0X9X9X<X<X@X@X+XOXOXOXT.T.T.Y.Y.F.Y.Y.Y.A.Y.Y.Y.Y.Y.T.T.OXT.OXOXOX@X@X@X9X9X0X0X0XeXeXeXBXBXAXAXAXSXSXSXSXSXZXZXZXZXVXVXVXcXVXcXcXcXcXzXzXjXzXzXjXzXjXjXjXzXjXjXcXjXjXcXjXzXzXzXzXzXcXcXcXcXVXcXcXcXVXVXZXZXZXZXZXSXSXSXSXAXSXAX",
"SXSXSXSXSXSXSXZXZXZXVXVXVXVXzXVXzXVXjXzXjXzXjXjXjXgXgXgXpXgXpXgXpXpXpXpXpXpXm yXm m m m m pXm pXpXpXpXgXgXgXzXzXzXVXzXVXVXVXZXZXZXSXSXSXSXSXAXAXAXAXAXBXBXBXBXeXeXeXeXeXeXeX0XeX0XeXeX0XeX0XeXeXeXeXeXeXeXeXBXBXBXBXBXAXAXAXAXSXSXSXSXZXZXZXVXVXzXVXjXzXgXpXpXyXm b m m m m yXgXgXgXjXjXjXcXcXcXcXcXVXcXVXcXVXcXcXcXVXcXcXcXcXcXcXcXjXjXjXjXgXyXyXm b z l 7 1 ; ; O O O O & = ; 4 l x m N jXzXzXVXVXVXZXZXSXSXSXSXSXAXAXAXAXAXAXBXBXBXBXBXBXeXBXeXeXBXeXeXeXeXeXeXeXeXeXeXeXeXeXeXeXeXeXeXeXeXeXBXeXBXBXBXBXAXAXAXAXSXSXSXSXSXSXSXSXSXSXSXSXSXSXSXSXSXSXSXSXSXSXSXSXSXSXZXSXSXSXZXSXZXSXZXZXZXZXZXZXZXZXVXZXVXZXVXVXVXVXVXVXVXcXcXVXzXzXjXgXpXpXb x l 4 ; O O . O O ; 4 7 z m pXgXzXcXcXVXVXZXZXZXSXSXSXSXSXSXAXAXAXAXAXAXBXBXBXBXBXBXBXBXBXBXBXBXBXeXrXrXBXBXBXBXAXBXAXAXAXAXSXSXSXSXSXSXSXSXSXSXSXSXSXSXSXAXAXAXAXBXBXBXeXeX9XeX9X9X9X+X@X+X@XOXOXOXT.T.T.Y.Y.Y.A.Y.Y.Y.Y.j.Y.Y.Y.T.T.T.R.OXOX@XOX<X9X@X9X0X0XeXeXeXBXeXBXBXAXAXAXSXSXSXSXZXZXZXVXZXVXnXnXcXcXcXzXcXzXzXzXzXzXjXjXjXzXzXjXzXjXjXzXjXzXjXcXjXcXzXcXzXcXcXcXcXVXVXVXVXVXVXZXZXZXZXSXSXSXSXSXSXSX",
"SXSXSXSXSXSXZXZXZXVXVXVXVXzXVXzXzXzXzXzXzXjXjXjXgXgXjXpXgXgXgXpXpXpXpXpXpXyXm m m m m m m b m m m m pXpXpXgXgXzXzXzXVXcXVXVXZXZXZXZXSXSXSXSXSXAXAXAXAXBXBXBXBXBXBXeXBXeXeXeXeXeXeXeX0XeXeXeXeXeXeXeXeXeXBXBXBXBXBXAXAXAXAXSXSXSXSXSXZXZXZXVXVXVXVXzXzXgXpXm b b b b c c c b m m yXgXgXgXzXjXzXzXzXcXcXcXcXVXzXzXVXVXzXVXcXzXzXzXzXjXjXgXgXpXm m m b l l 4 1 ; ; O O O O O = ; 4 7 l m pXgXzXzXcXVXZXZXSXSXSXSXSXSXAXAXAXAXAXBXBXBXBXBXBXBXeXBXBXeXBXeXeXeXeXeXeXeXeXeXeX9XeXeXeXeXeXeXeXeXeXeXBXeXBXBXBXBXAXAXAXAXSXSXSXSXSXSXSXSXSXSXZXSXSXSXSXSXZXSXSXSXSXSXSXSXSXSXSXSXSXSXSXSXSXSXZXZXZXZXZXZXZXZXZXZXZXZXVXVXVXVXVXVXcXVXcXVXzXzXjXjXgXpXm b z l 4 = = O O O = ; 4 l b m pXgXzXcXVXVXZXZXZXSXSXSXSXSXSXAXAXAXAXAXAXBXBXBXBXBXBXBXBXBXBXBXeXBXBXBXBXBXBXBXBXBXBXAXAXAXAXSXSXSXSXSXSXSXSXSXSXSXSXSXSXSXSXAXAXBXBXBXBXeXeXeXeX0X9X9X@X9X@X@XOXOXOXT.T.T.T.Y.Y.Y.Y.T.j.Y.F.Y.Y.Y.Y.Y.T.T.R.OXOXOX@X@X@X9X9X0X0X0XeXeXeXBXBXBXAXAXAXSXSXSXZXZXZXZXZXVXVXnXnXcXnXzXnXzXzXzXzXzXzXjXjXzXjXjXzXjXjXjXjXjXjXzXjXcXjXzXzXcXzXcXcXcXcXcXcXVXVXVXZXZXZXZXSXSXSXSXSXSXSX",
"SXSXSXSXSXSXSXZXZXZXVXVXVXVXzXVXzXzXzXgXzXgXjXgXgXgXpXgXpXpXpXpXpXpXm m m m m m c m b m b m m c m m m pXpXgXgXgXzXzXzXVXVXVXVXZXZXZXZXSXSXSXSXAXSXAXAXAXBXBXBXBXBXeXeXBXeXeXBXeXeXeXBXeXeXBXeXBXeXBXBXBXBXBXBXBXAXAXAXAXAXSXSXSXSXSXZXZXZXVXVXzXzXjXgXpXpXb b x l l l l x x b b m yXpXgXgXgXjXzXzXzXzXzXzXzXVXzXzXzXzXzXzXzXzXjXgXgXgXgXpXpXm b x l l 4 1 ; & O O O O O O ; ; 7 l b m pXjXzXVXVXVXVXZXZXSXSXSXSXAXAXAXAXAXBXBXBXBXBXeXBXeXBXeXeXeXeXeXeXeXeXeXeXeXeXeXeXeXeXeXeXeXeXeXeXeXBXBXeXBXBXBXBXBXAXAXAXAXSXSXSXSXSXSXZXZXZXZXZXZXZXZXSXSXSXSXSXSXSXSXSXSXSXSXSXSXSXSXSXZXZXZXZXZXZXZXZXZXZXZXZXZXVXZXVXVXVXVXVXcXVXzXVXzXzXzXjXjXpXm m b l 4 ; ; O O . O = ; 7 z b pXgXzXzXcXVXVXZXZXZXSXSXSXSXSXAXAXAXAXAXBXBXBXBXBXBXBXBXBXBXeXBXBXBXBXeXBXBXBXeXBXBXBXBXBXAXBXAXAXAXSXSXSXSXSXSXSXSXSXSXSXSXSXAXAXAXAXBXBXBXeXeX0X0X0X9X9X9X+X@X+XOXOXOXT.T.Y.T.Y.j.Y.Y.j.Y.F.F.F.Y.F.Y.Y.Y.T.T.R.OXOX@X@X@X9X9X0X0XeXeXeXeXBXBXBXBXAXAXSXSXSXZXSXZXZXVXZXnXnXnXnXcXcXzXzXzXzXzXgXzXzXzXjXzXjXjXzXjXjXjXjXjXjXzXjXzXjXzXzXcXcXcXcXcXVXVXcXVXVXVXZXZXZXSXSXSXSXSXSXAX",
"SXSXSXSXSXSXZXZXZXZXVXVXVXzXVXzXzXzXzXzXgXzXgXgXgXpXgXgXpXpXpXyXpXm m m m b m b m c b c b b c m c m m m pXpXgXgXgXzXzXcXcXVXVXVXZXZXZXSXSXSXSXSXAXAXAXAXBXAXBXBXBXBXBXBXeXBXeXBXeXeXeXeXeXeXBXeXeXBXBXBXBXBXBXAXAXAXAXAXSXSXSXSXZXZXZXVXVXVXVXVXzXzXpXm b b x l l 7 7 7 7 l l c b b m pXpXgXgXgXgXgXzXjXzXzXzXjXzXjXzXjXjXjXjXgXgXgXpXm m b b x l 7 4 ; ; = O O . . O O ; ; 4 7 b m pXjXzXcXcXVXZXZXZXSXSXSXSXAXAXAXAXAXBXBXBXBXeXBXBXeXBXeXeXeXeXeXeXeX0XeXeXeXeXeX0XeXeXeXeXeXeXeXeXBXeXeXeXBXBXBXBXBXAXAXAXAXSXSXSXSXSXSXZXZXZXZXZXZXZXZXZXZXZXZXZXSXSXSXSXSXSXSXSXSXSXSXZXZXZXZXZXZXZXZXZXZXZXZXZXZXVXVXVXVXVXVXVXcXVXVXVXzXzXjXjXjXpXm m b l 7 ; ; O O . O O ; 4 l x pXpXzXzXzXVXVXZXZXSXSXSXSXSXSXAXAXAXAXBXBXBXBXBXBXeXBXBXeXBXeXBXeXeXeXeXBXeXBXeXBXBXBXBXBXBXBXAXAXAXAXAXSXSXSXSXSXSXSXSXSXSXSXSXAXAXBXBXBXeXeXeXeXeX0X9X9X9X@X@XOXOXOXT.T.Y.Y.T.j.Y.Y.A.F.A.A.A.A.A.A.F.F.Y.T.Y.T.T.OXOXOX@X@X@X9X9X0X0X0XeXeXBXBXBXBXAXAXSXSXSXSXZXZXZXZXVXnXVXcXcXcXzXzXzXzXzXjXzXgXzXgXzXgXjXjXjXjXjXjXjXjXzXjXzXjXzXzXzXzXzXcXzXVXzXcXVXVXVXZXZXZXZXSXSXSXSXSXSXSX",
"SXSXSXSXSXSXSXSXZXZXVXVXVXVXzXVXzXzXjXzXgXgXjXgXpXgXpXpXpXpXm pXm m n m c m c b b b c b c c c c m c m m m pXpXsXgXgXzXzXVXcXVXVXZXZXZXZXSXSXSXSXAXAXAXAXAXBXBXBXBXBXBXeXBXeXeXBXeXBXeXBXeXBXeXBXBXBXBXBXBXAXBXAXAXAXAXSXSXSXSXSXSXZXZXZXVXVXzXzXzXpXpXm b x l 7 7 6 4 7 7 7 l l x b m m pXpXgXgXgXgXgXzXgXzXgXjXjXjXgXzXgXgXgXgXpXpXm m b b l l 7 4 ; ; = O O O . O O = ; 4 7 l b pXpXjXzXcXVXVXVXZXZXSXSXSXSXAXAXAXAXBXBXBXBXBXBXeXeXBXeXeXeXeXeX0XeXeXeXeXeX0XeXeXeXeXeXeXeXeXeXeXBXeXBXBXBXBXBXBXAXAXAXAXAXSXSXSXSXSXZXZXZXZXZXZXZXZXZXZXZXZXZXZXZXZXZXZXZXZXZXZXZXZXZXZXZXZXZXZXZXZXZXZXZXZXVXVXVXVXVXVXVXVXVXcXcXVXcXzXzXzXzXjXjXpXpXm b z l 4 ; = O . . O ; ; 7 x m pXgXzXzXVXVXZXZXZXSXSXSXSXSXAXAXAXAXBXBXBXBXBXeXBXBXeXBXeXeXeXeXBXeXeXeXeXBXeXBXeXBXeXBXBXBXBXBXBXAXAXAXAXSXSXSXSXSXSXSXSXSXSXAXAXAXBXBXBXBXeXeX0X0X0X9X9X@X+X+XOXOXT.T.Y.Y.Y.A.Y.j.A.A.j.A.A.A.A.A.A.A.A.Y.j.Y.Y.T.T.R.OXOX@X@X9X@X0X0XeXeXeXeXBXBXBXAXAXAXSXSXSXSXZXZXZXVXnXnXnXcXcXcXzXzXzXzXjXjXzXjXzXgXzXgXjXgXjXjXjXzXjXjXjXjXzXjXzXzXzXzXzXVXzXVXVXcXVXVXVXZXZXSXSXSXSXSXSXSXSX",
"AXSXSXSXSXSXSXZXZXZXVXVXVXzXVXcXzXzXzXgXzXgXgXpXgXgXpXpXm pXpXyXn m m c m b b c c c c x c x c c c m c m m pXpXgXgXzXzXzXcXVXVXZXZXZXZXSXSXSXSXSXAXAXAXAXAXBXAXBXBXBXBXBXeXBXBXeXBXeXBXeXBXeXBXBXBXBXBXBXBXBXAXAXAXAXAXSXSXSXSXSXZXZXZXVXVXzXVXzXgXgXpXb x l l 7 4 4 4 4 4 7 6 l x b b m m pXpXpXgXgXgXgXgXgXgXzXgXgXjXpXgXjXpXpXpXm m b b l l l 4 1 ; ; O O O . O O O ; ; 4 l b m pXgXjXcXcXVXVXZXZXSXSXSXSXAXAXAXAXAXBXBXBXBXBXeXeXBXeXeXeXeXeXeXeXeX0XeX0XeXeXeXeXeXeXeXeXeXeXBXeXeXeXBXBXBXBXBXAXAXAXAXSXSXSXSXSXZXZXZXZXZXZXVXZXVXVXVXVXZXZXZXZXZXZXZXZXZXZXZXZXZXZXZXZXZXZXZXZXZXZXZXZXZXVXVXVXVXVXVXVXcXVXcXVXVXVXzXzXzXjXjXjXpXm m b z l 4 ; = O O . O ; ; 7 l b pXgXzXzXVXVXZXZXSXSXSXSXSXSXAXAXAXBXBXBXBXBXeXBXBXBXeXeXeXeXeXeXeX0XeXeXeXeXeXeXeXeXeXBXeXBXBXBXBXBXBXBXAXAXAXAXSXSXSXSXSXSXAXAXAXBXBXBXBXeXeXeXeX0X9X9X9X<X+X+XOXOXT.Y.Y.Y.A.Y.A.A.j.j.j.f.j.f.f.j.j.j.A.A.j.Y.A.Y.Y.Y.T.OXOXOX@X@X9X9X9X0X0XeXeXBXBXBXBXAXAXSXSXSXSXZXZXZXVXVXnXnXcXcXcXzXzXzXjXzXzXgXzXgXzXgXzXjXjXzXgXzXgXzXjXzXjXjXzXzXzXzXcXzXcXzXVXzXVXVXVXZXZXZXZXSXSXSXSXSXAXSX",
"SXAXSXSXSXSXSXSXZXZXZXVXVXVXzXcXzXzXjXjXgXgXgXgXpXpXpXpXpXm m n m c m c b c c c c x c c x c c x c b m b yXpXpXsXjXgXcXVXzXVXVXVXZXZXZXSXSXSXSXSXSXAXAXAXAXAXBXBXBXBXBXBXBXeXBXeXBXeXBXeXBXBXeXBXBXBXBXBXAXBXAXAXAXAXAXSXSXSXSXSXZXZXZXVXVXVXzXzXjXpXm m x l 7 6 4 4 4 4 4 4 7 l l x b b m m m pXpXgXgXgXgXgXgXpXjXgXgXgXpXpXpXm m m b b x l l 4 4 ; ; = O O . . O O O ; 4 7 l b m pXjXzXzXVXVXVXZXZXSXSXSXSXSXAXAXAXBXBXBXBXBXeXBXeXeXeXeXeXeXeXeXeXeXeXeXeXeXeXeXeXeXeXeXeXeXBXeXBXBXBXBXBXBXBXAXAXAXAXAXSXSXSXSXZXZXZXZXZXVXVXVXVXVXVXVXVXVXVXVXZXZXZXZXZXZXZXZXZXZXZXZXZXZXZXZXZXZXZXVXVXVXVXVXVXVXVXcXVXVXcXVXzXzXzXzXjXjXjXpXpXpXb b z l 4 ; = O O . O = ; 4 z m pXgXjXzXVXVXZXZXZXSXSXSXSXSXAXAXBXBXBXBXBXBXBXeXeXeXeXeXeXeXeXeXeXeXeXeXeX0XeX0XeXeXeXeXeXeXeXBXeXBXBXBXBXBXAXAXAXAXAXAXAXAXAXAXAXAXBXBXBXBXeXeX0X0X0X9X9X@X+X+XOXT.T.Y.Y.Y.A.A.j.j.f.f.d.d.d.d.d.d.d.d.d.d.j.j.j.F.A.Y.Y.Y.T.T.OXOX@X@X9X9X9X0XeX0XeXBXBXBXBXAXAXSXSXSXSXZXZXZXVXVXnXcXcXcXcXjXzXzXjXjXzXgXzXgXzXgXzXgXjXzXgXzXgXzXgXzXzXgXzXzXzXzXcXcXzXVXVXVXVXVXZXZXZXSXSXSXSXSXSXSXAX",
"AXSXSXSXSXSXSXZXZXZXZXVXVXcXVXcXcXzXjXjXgXgXgXpXpXpXpXpXpXn n m c m b b c c c x x c z x z c x c c b v m yXpXpXgXgXzXzXzXVXVXVXZXZXZXSXSXSXSXSXSXAXAXAXAXAXBXBXBXBXBXBXBXeXBXBXBXeXBXeXBXBXeXBXBXBXBXBXBXBXAXAXAXAXAXSXSXSXSXSXZXZXZXVXVXVXVXzXzXgXgXm b x l 6 7 4 4 1 4 4 4 6 7 l x b b b m pXpXpXgXpXgXpXgXgXgXpXgXpXpXpXpXm m b b b x l l 4 4 ; ; = O O O . . O O ; ; ; 7 x b N pXjXzXcXVXVXZXZXZXSXSXSXSXAXAXAXBXAXBXBXBXeXBXeXeXeXBXeXeXeXeXeXeXeXeXeXeXeXeXeXeXeXeXeXeXBXeXBXBXBXBXBXBXAXAXAXAXAXSXSXSXSXSXZXZXZXZXVXVXVXVXVXVXVXVXVXVXVXVXVXVXVXVXVXVXZXZXZXZXZXZXZXVXZXZXVXVXVXVXVXVXVXVXVXVXVXcXVXVXcXVXzXzXzXjXjXjXjXpXm m b b l 7 4 ; = O . . O = ; 4 x b pXgXzXzXVXVXZXZXSXSXSXSXSXAXAXBXBXBXBXBXBXBXeXeXBXeXeX0XeX0XeX0X0X0X0X0X0X0X0X0XeX0X0XeXeX0XeXeXeXBXeXBXBXBXBXBXBXAXAXAXAXAXAXAXAXBXBXBXBXBXeXeXeX0X0X9X<X@X+X+XR.T.Y.Y.Y.Y.j.j.j.j.d.d.4.4.6.4.6.4.6.4.4.6.d.d.d.j.d.A.A.A.Y.Y.T.T.OXOX@X@X9X9X0X0XeXeXeXBXBXBXAXAXSXSXSXSXZXZXVXZXVXnXnXnXcXcXcXcXjXzXzXjXjXzXgXzXgXgXzXjXgXzXgXjXjXjXjXjXzXzXzXzXzXcXcXVXnXVXVXVXVXZXZXZXSXSXSXSXSXSXAXAX",
"AXAXSXAXSXSXSXSXZXZXZXZXVXVXcXcXcXcXjXjXjXgXgXgXpXpXpXm n m m c m c c c c x c c z x c z c z c c c b b m m pXsXgXjXjXzXcXVXVXVXVXZXZXZXSXSXSXSXSXAXAXAXAXAXAXBXBXBXBXBXBXBXeXBXeXBXeXBXeXBXBXBXBXBXBXBXAXBXAXAXAXAXAXSXSXSXSXSXSXZXZXZXVXVXVXzXzXgXpXm b x l 7 4 4 4 1 ; 4 4 7 7 l x x b b m m m pXpXpXpXgXpXpXgXpXpXpXpXm m m m b b x l l 7 4 1 ; = = O O O . O O & ; ; 7 l x m pXgXjXzXcXVXVXVXZXZXSXSXSXSXAXAXAXAXBXBXBXBXBXeXBXeXeXeXeXeXeXeXeXeXeXeXeXeXeXeXeXeXBXeXBXBXBXBXBXBXBXBXAXAXAXAXAXAXSXSXSXSXSXZXZXZXZXVXVXVXzXVXVXcXcXcXVXcXVXVXVXVXVXVXVXVXVXVXVXVXVXVXVXVXVXVXVXVXVXVXVXVXVXVXcXVXcXVXcXzXzXzXzXzXjXjXjXpXpXpXm b z l 7 ; ; = O O . O = ; 4 z b pXgXjXzXVXVXZXZXZXSXSXSXSXAXAXAXBXBXBXBXBXeXeXeXeX0XeX0XeX0X0X0X0X9X0X9X9X9X9X0X9X0X0X0X0X0XeXeXeXeXeXeXeXBXBXBXBXBXBXBXAXBXBXBXBXBXBXBXBXeXeXeXeX0X9X9X9X@X+XOXR.T.Y.Y.A.A.j.j.d.d.6.4.4.4.4.<.4.<.2.2.2.4.2.4.4.4.d.d.d.j.A.A.Y.Y.Y.T.OXOX@X@X9X9X0X0XeXeXeXBXBXBXAXAXAXSXSXSXZXZXVXVXVXnXcXcXcXcXjXcXjXjXzXjXjXjXgXzXhXgXzXgXjXjXjXjXjXzXjXzXzXzXzXcXcXcXcXVXnXVXVXZXZXZXZXSXSXSXSXAXAXSXAX",
"AXAXSXAXAXSXSXSXSXZXZXVXVXVXVXcXcXjXcXjXgXgXgXpXgXpXpXm m m v m b c c c c x c z c c z c z z u c b b c m pXpXsXgXjXzXcXcXVXVXZXZXZXZXSXSXSXSXSXAXSXAXAXAXAXBXAXBXBXBXBXBXBXBXeXBXBXBXeXBXBXBXBXBXBXBXBXBXAXAXAXAXAXSXSXSXSXSXSXZXZXZXVXVXVXzXzXzXgXpXm b x l 7 4 4 ; 1 1 1 4 4 6 l l x b b m b m m m pXpXpXpXpXpXpXpXpXm m m b b b x l 7 l 4 1 ; ; = & O O . . O O & ; ; 7 l b m pXpXzXzXcXVXVXZXZXZXSXSXSXSXAXAXAXAXBXBXBXBXeXBXeXBXeXeXeXeXeXeXeXeXeXeXeXeXBXeXeXBXeXBXBXBXBXBXBXBXAXAXAXAXAXAXSXSXSXSXSXZXZXZXZXVXVXVXVXVXVXzXzXzXzXzXzXzXzXcXcXVXVXcXVXVXVXVXVXVXVXVXVXVXVXVXVXVXVXcXVXcXVXcXVXcXVXzXzXzXzXjXjXjXzXpXpXm m b b z l 7 ; ; = O O . O O ; 4 z b pXgXzXzXVXVXZXZXSXSXSXSXSXAXAXBXBXBXBXBXBXeXeXeXeXeXeX0X0X0X9X9X9X9X9X9X9X9X9X9X9X9X9X9X9X9X0X0X0X0XeX0XeXeXeXeXBXBXBXBXBXBXBXBXBXBXBXBXBXBXeXeXeX0X9X9X<X@X+XOXR.Y.Y.Y.Y.A.j.d.d.4.4.4.4.2.<.<.<.>.>.<.>.<.<.<.<.2.2.4.4.6.d.d.A.j.F.Y.T.T.OXOX@X@X9X9X0XeX0XeXBXBXBXBXAXAXSXSXSXSXZXVXCXVXnXnXnXcXcXzXzXzXzXjXzXjXjXzXgXjXjXgXjXjXjXgXjXzXjXjXzXzXzXcXcXcXcXVXnXVXVXZXVXZXZXSXSXSXSXAXAXAXAXAX",
"AXAXAXAXAXSXSXSXSXZXZXVXZXVXVXcXcXcXjXjXjXgXgXpXpXpXpXtXm n n c b c c x c c z u z z z u c z c z b b m m yXpXsXjXjXzXcXcXVXVXVXZXZXZXZXSXSXSXSXSXAXAXAXAXAXBXBXAXBXBXBXBXBXBXBXeXBXBXBXBXBXBXBXBXBXBXAXBXAXAXAXAXAXAXSXSXSXSXSXZXZXZXZXVXVXVXjXzXgXpXm b l l 6 4 1 1 ; 1 1 1 4 7 7 l x x b b m m m m m m pXm pXm m m m m b b b b z z l l 4 1 1 ; = = O O . . O O & ; ; 4 7 x b m gXjXzXzXVXVXVXVXZXZXSXSXSXSXSXAXAXAXBXBXBXBXBXeXBXeXBXeXeXeXBXeXeXBXeXeXBXeXeXBXBXBXBXBXBXBXBXBXAXAXAXAXAXAXSXSXSXSXSXSXSXZXZXZXVXVXVXVXzXzXzXzXjXjXgXzXjXjXzXzXzXzXVXVXVXVXcXVXVXVXVXVXVXVXVXcXVXVXcXVXcXVXcXcXcXzXzXzXzXjXjXjXgXpXpXpXm m b b l 7 4 ; ; = O . . O ; ; 4 z b m gXjXzXVXVXZXZXZXSXSXSXSXAXAXBXBXBXBXBXeXeXeX0XeX0X0X0X0X9X9X9X9X9X@X9X@X@X@X@X@X@X9X@X9X9X9X9X9X9X0X0XeXeXeXeXeXeXBXBXeXBXBXBXBXBXBXBXBXeXeXeXeX0X0X9X9X+X+XOXT.T.Y.Y.j.j.d.d.4.4.4.<.<.<.>.>.>.>.>.>.;.>.>.>.>.<.>.<.<.4.4.4.d.d.j.j.Y.F.Y.T.OXOX@X@X9X9X0XeXeXeXeXBXBXBXAXAXSXSXZXZXZXVXVXVXVXnXnXxXcXxXzXjXxXjXjXjXjXjXgXjXjXfXjXjXjXjXjXzXjXzXzXzXcXcXcXnXcXVXVXVXZXZXZXSXSXSXSXAXAXAXAXAXBX",
"BXAXAXAXAXAXSXSXSXSXZXZXVXVXcXVXcXcXzXjXgXjXpXgXsXpXn m n m n c c c c c z u z z z z z u z c x c b b n m pXsXsXjXjXcXcXcXVXVXZXZXZXZXSXSXSXSXSXSXAXAXAXAXBXAXAXBXBXBXBXBXBXBXBXBXBXBXBXBXBXBXBXBXBXAXBXAXAXAXAXAXSXSXSXSXSXSXZXZXZXZXVXVXVXzXVXgXgXpXm x x 7 7 4 4 ; 1 1 ; 1 4 4 7 l x x x b b b m m m m m m m m m m b b b b b z l l l 4 4 1 ; = = O O O . . O O & ; ; 4 l x m pXpXjXzXzXVXVXVXZXZXSXSXSXSXSXAXAXAXAXAXBXBXBXBXBXBXeXeXBXeXBXeXeXeXeXeXBXeXBXBXBXBXBXBXBXBXBXAXAXAXAXAXAXSXSXSXSXSXSXSXZXZXZXZXVXVXVXVXzXjXzXjXgXgXpXgXpXpXgXgXjXjXzXzXzXzXzXVXcXVXVXzXVXVXVXcXVXVXcXVXcXVXzXzXzXzXzXjXjXjXjXjXgXpXpXm m m b z l 4 4 ; ; O O O O O O ; 4 z b m gXzXzXVXVXZXZXSXSXSXSXAXAXAXBXBXBXBXBXeXeXeXeXeX0X0X9X9X9X9X9X9X9X@X@X@X@X@X@X@X@X@X@X@X@X@X@X@X9X9X9X9X9X9XeX9XeXeXeXeXBXBXeXBXBXBXeXBXeXeXeXeX0X0X9X<X@X+XOXT.Y.Y.Y.j.j.d.d.4.4.4.<.>.>.>.>.>.-.:.-.-.-.-.-.;.;.-.>.>.>.<.<.2.4.6.d.f.j.F.Y.Y.T.OXOX@X@X9X0X0X0XeXBXeXBXBXAXAXAXZXAXZXZXZXVXVXbXnXcXnXcXcXjXcXjXzXjXjXjXhXjXjXgXjXgXjXjXjXjXjXzXjXzXzXcXcXcXcXVXVXVXZXZXZXSXSXSXSXAXAXAXAXAXAXAX",
"AXBXAXAXAXAXSXSXSXSXSXZXZXVXVXcXcXcXcXjXjXgXgXsXpXpXiXn n n c b c c c z c z u z z z z z u u x c c b m m yXsXjXjXjXcXcXVXcXVXZXZXZXZXSXSXSXSXSXSXAXAXAXAXAXBXBXAXBXBXBXBXBXBXBXBXBXBXBXBXBXBXBXBXAXBXBXAXAXAXAXAXAXSXSXSXSXSXSXZXZXZXVXVXVXzXzXzXgXpXb b l 7 4 4 ; 1 ; ; 1 1 1 4 7 7 l l x x b b b b m b m b b m b b b b b z z z l 7 4 4 ; ; ; = & O O . . O O & ; ; 4 7 l b m pXgXjXzXVXcXVXVXZXZXZXSXSXSXSXSXAXAXAXAXBXBXBXBXBXBXBXBXeXBXeXBXBXBXBXBXBXBXBXBXBXBXBXBXAXAXAXAXAXAXAXAXSXSXSXSXSXSXSXZXZXZXZXVXVXVXzXzXzXjXpXpXpXm m m m m pXpXpXgXgXjXzXzXzXzXzXzXzXVXzXzXzXcXzXcXzXzXzXzXzXzXjXjXjXjXjXgXpXpXpXpXm m b z z l 4 4 ; = O O . . O ; ; 4 l b m gXzXzXVXVXZXZXSXSXSXSXAXAXAXBXBXBXBXeXeXeXeX0X0X0X0X9X9X@X9X@X@X+X+X+X+X+XOX+XOXOXOX@XOXOX@X+X@X@X@X@X9X9X9X9X9XeXeXeXeXeXeXeXBXeXBXeXBXeXeXeXeX0X9X9X9X+X+XOXT.T.Y.j.A.d.d.4.4.<.<.<.>.>.-.-.-.-.-.W W W -.W W W -.-.-.;.>.>.>.<.<.4.6.d.f.j.A.Y.Y.T.OXOX@X@X9X9X0XeXeXBXBXrXBXBXAXAXZXAXZXZXVXMXVXcXnXcXcXcXzXzXjXjXjXjXjXjXjXhXjXjXjXjXjXjXjXjXzXzXcXxXzXcXnXnXnXVXZXVXZXZXSXSXSXSXAXAXAXAXAXBXBX",
"BXBXBXAXAXAXAXSXSXSXZXZXZXZXnXVXcXcXzXjXjXgXgXpXpXiXyXn m c n c c c z u z z z u z u z z z z c c c n m m sXsXgXjXjXzXVXcXVXZXZXZXZXZXSXSXSXSXAXSXAXAXAXAXAXAXAXBXBXBXBXBXBXBXBXBXBXBXBXBXBXBXBXBXBXBXAXAXAXAXAXAXSXSXSXSXSXZXZXZXZXVXVXVXVXzXzXgXgXm b x l 7 4 1 1 ; ; ; ; 1 ; 4 4 7 l l x x x b b b b b b b b b b b b b z z l l l 4 1 1 ; ; = & O O . . O O O & ; ; 4 l x b m pXjXzXzXcXVXVXZXZXZXZXSXSXSXSXSXAXAXAXAXAXAXBXBXBXBXBXBXBXBXBXBXBXBXBXBXBXBXBXBXBXAXAXAXAXAXAXAXAXAXSXSXSXSXSXSXSXSXZXZXZXVXVXVXVXzXzXjXgXpXm m b b b x b b b b m pXpXgXpXjXjXjXzXjXzXzXzXzXzXzXzXzXzXjXjXjXjXjXjXjXjXgXpXpXpXm m m b x z 7 7 4 ; ; = O O . O O O ; 4 l b m gXzXzXVXVXZXZXSXSXSXSXAXAXBXBXBXBXBXeXeXeXeX0X0X9X9X9X9X@X9X+X+X+X+XOXOXOXR.OXT.OXT.OXT.OXOXOXOXOX+X+X@X@X@X9X@X9X9X9X0XeX0XeXeXeXeXeXeXeXeX0XeX0X9X9X<X@X+XOXT.Y.Y.Y.j.d.d.4.4.<.<.>.;.>.-.-.W W W W J W W J W W W W W W W -.-.>.>.<.<.2.4.d.d.A.j.Y.Y.T.OX+X@X9X9X0X0XeXeXrXrXBXAXAXBXAXZXCXZXCXVXVXVXnXnXcXxXxXzXzXxXjXjXjXjXjXjXjXjXjXhXzXjXjXjXzXcXjXcXcXnXnXnXnXVXVXZXZXSXSXSXSXSXAXAXAXAXBXBXAX",
"BXBXBXAXAXAXAXSXSXSXSXZXZXnXVXnXnXcXcXzXjXjXsXsXsXpXtXm n n c c c z c z c z z z z y z z z c u c b v m pXpXsXjXjXcXcXcXVXVXVXZXZXZXZXSXSXSXSXSXSXAXAXAXAXAXBXBXAXBXBXBXBXBXBXBXBXBXBXBXBXBXBXBXAXBXAXAXAXAXAXAXAXSXSXSXSXSXSXZXZXZXZXVXVXzXVXjXgXpXpXb x l 7 4 1 ; ; ; ; = ; 1 1 1 4 7 7 l x x x x b x b b b b b x x z z l l 7 4 4 4 1 ; ; = & O O O . . O O & ; ; 4 7 l b m pXgXjXzXcXcXVXVXVXZXZXZXZXSXSXSXSXSXSXAXAXAXAXAXAXBXBXBXBXBXBXBXBXBXBXBXBXBXAXAXAXAXAXAXAXAXAXAXSXSXSXSXSXSXSXSXSXZXZXZXZXVXVXVXVXzXzXjXpXpXm b x l z l l 7 l l z b b m m pXpXpXjXgXjXjXjXjXjXjXjXjXjXjXjXjXgXjXgXpXpXpXpXpXm m m b x z l 7 7 ; ; ; = O O . O . ; ; 4 l b m gXzXzXVXVXZXZXZXSXSXSXAXAXAXBXBXBXeXeXeXeX0X0X0X0X9X9X@X@X@X+X+XOXOXR.R.R.T.T.Y.T.T.T.Y.T.Y.T.T.T.OXR.OX+X+X+X@X9X9X9X9X9X0XeXeXeXeXeX0XeX0XeXeX9X9X9X9X+X+XOXT.Y.Y.A.j.f.d.4.4.<.>.>.;.-.W W W W J J J J D D D D J J K J W W W W -.-.>.<.<.2.4.6.f.A.Y.Y.Y.T.OX+X@X9X9X0X0XeXeXrXrXBXAXAXSXAXCXZXZXMXVXbXVXcXcXnXxXxXzXjXcXjXjXjXgXjXjXhXjXjXhXjXjXcXjXzXcXcXcXcXnXnXZXVXVXZXZXSXSXSXSXAXAXAXAXBXBXBXBX",
"BXBXBXBXAXAXAXAXSXSXSXZXZXZXZXnXnXcXzXzXjXgXjXgXpXiXyXm n c c c c c y c z z z r z z z z c z x b c m yXpXsXsXjXjXzXcXcXVXVXVXZXZXZXSXSXSXSXSXSXAXSXAXAXAXAXAXAXBXAXBXAXBXBXBXBXBXBXBXBXBXBXBXAXBXAXAXAXAXAXAXAXSXSXSXSXSXSXZXZXZXZXVXVXVXVXzXzXgXgXb b x 7 4 4 ; ; ; ; ; ; ; ; 1 1 4 7 7 l l l l x x x x b x x z z z l l l 7 7 4 4 1 ; = = & O O O . . O O O & ; ; 4 l x b m pXgXjXzXzXVXVXVXVXZXZXZXZXSXSXSXSXSXSXAXAXAXAXAXAXAXAXAXAXAXBXAXBXAXBXAXAXAXAXAXAXAXAXAXAXAXAXSXSXSXSXSXSXSXSXZXZXZXZXVXVXVXVXVXzXjXgXpXm b x l 7 7 4 4 ; 4 ; 4 7 7 x x b m m m pXpXpXgXpXgXgXgXjXgXgXgXgXpXgXpXpXpXpXm m m b b x z l 7 7 4 ; ; ; O O O . O . ; ; 4 l b m gXzXzXVXVXZXZXSXSXSXSXAXAXBXBXBXBXeXeXeXeX0X0X0X9X<X<X@X@X+XOXOXR.R.T.Y.Y.Y.Y.Y.Y.Y.Y.Y.Y.Y.Y.Y.Y.T.Y.T.R.R.OXOX+X@X@X@X9X9X9X0X0X0X0X0XeX0XeX0X9X9X9X9X<X+XR.R.Y.Y.A.j.d.4.4.<.>.>.;.;.W W W W K J D D D D D D D D D D D D J J W W W -.-.-.>.>.4.4.d.d.j.A.Y.T.R.OX+X@X9X0X0XeXeXeXrXrXAXAXAXCXSXCXCXVXMXVXnXnXbXcXcXcXjXxXjXjXxXjXxXjXjXjXjXjXjXjXzXjXzXcXcXcXcXnXnXVXVXVXZXZXZXSXSXSXSXAXAXAXBXBXBXBXBX",
"BXBXrXBXBXAXAXAXSXSXSXSXZXZXVXVXnXnXcXzXjXjXsXsXsXpXtXm n m c c c z c z y z y l z z z z u c u c m v yXyXsXgXjXzXcXcXVXVXVXZXZXZXZXZXZXSXSXSXSXSXAXAXAXAXAXAXBXAXBXBXBXBXBXBXBXBXBXBXBXBXAXBXBXAXAXAXAXAXAXAXSXSXSXSXSXSXSXZXZXZXZXVXVXzXVXzXgXgXpXm b l l 4 1 ; ; ; ; = ; ; ; ; 1 1 4 7 7 7 l l l z l z z z l l l l l 4 7 4 4 4 ; ; ; = = O O O . . . O O & ; ; 4 7 l x b pXpXgXzXzXcXcXVXVXVXVXZXZXZXZXSXSXSXSXSXSXSXAXAXAXAXAXAXAXAXAXAXAXAXAXAXAXAXAXAXAXAXAXAXSXSXSXSXSXSXSXSXSXSXZXZXZXZXZXVXVXVXVXzXVXjXjXpXm b l 7 4 ; ; ; ; ; ; ; ; ; 4 4 7 l x b b m m m m pXpXpXpXpXpXpXpXpXpXm m pXm b m b b x z l 7 7 4 ; ; ; O O O . . O O ; ; 7 l b pXgXzXzXVXVXZXZXSXSXSXSXAXAXAXBXBXBXBXeXeX0XeX0X9X9X<X@X@X+XOXOXOXT.T.Y.Y.Y.Y.F.F.Y.F.F.A.A.F.A.Y.F.F.Y.Y.Y.Y.Y.T.R.R.+X+X+X9X9X9X9X9X0X0X0X0X0X9X9X9X9X9X+X+XOXR.Y.Y.j.j.d.4.4.<.<.>.;.-.W W W D D D D D D D A D A D A D D D D D D D J W W W -.:.>.>.<.6.d.d.j.Y.A.T.R.+X+X<X<X0X0XeXeXrXrXrXAXBXSXCXCXCXZXVXMXVXnXnXcXbXcXxXjXcXjXjXjXjXjXjXjXhXjXjXzXjXzXxXzXcXcXnXnXnXnXVXVXZXZXSXSXSXSXSXAXAXAXBXBXBXrXBX",
"rXrXBXBXBXBXAXAXSXSXSXSXZXZXZXnXnXcXnXzXjXjXjXgXpXiXyXm c v c c z c z z z y l z 9 z z u z u c c b m yXsXsXgXjXzXcXcXcXVXVXZXZXZXZXSXSXSXSXSXSXSXAXAXAXAXAXAXAXBXAXBXAXBXAXBXBXBXBXBXBXAXBXBXAXAXAXAXAXAXSXAXSXSXSXSXSXSXZXZXZXZXVXVXVXVXzXzXzXgXm m x l 4 4 ; ; ; = & = = = ; ; ; 1 4 4 4 7 7 l l 4 l l l l l l 7 l 4 7 4 4 ; ; ; = = = O O O . . O O O O ; ; ; 7 7 x b m pXpXgXzXzXzXVXcXVXVXVXZXZXZXZXZXSXSXSXSXSXSXSXSXSXAXAXAXAXAXAXAXAXAXAXAXAXAXAXAXAXAXSXSXSXSXSXSXSXSXSXSXZXZXZXZXZXZXVXVXVXVXVXzXjXgXm m x 7 7 ; ; & ; O & O O & & & ; ; 4 4 7 l l z b b m b m m m m m m m m b m m b b b x z l l 7 7 4 ; ; ; ; O O O . O O O ; ; 7 l b m gXzXzXVXVXZXZXSXSXSXSXAXAXBXBXBXBXeXeXeXeX0X0X9X<X<X@X@X+XOXR.T.Y.Y.Y.Y.Y.Y.F.A.F.j.j.j.j.A.A.j.A.j.F.A.F.Y.A.Y.Y.T.T.R.OX+X@X@X@X9X9X9X0X9X9X9X9X9X9X<X@X+XOXT.Y.Y.j.j.d.4.4.<.<.:.-.W W W J D D D D D A A A A A A A A A A A V D D D D J J W W -.-.>.<.2.4.d.f.j.Y.Y.T.R.+X+X<X0X0XqXqXrXrXrXAXNXAXCXSXCXMXCXVXbXVXcXbXcXcXzXvXjXcXgXxXjXjXhXjXjXzXzXhXcXzXzXcXcXcXnXnXnXVXVXZXZXZXSXSXSXSXSXAXAXBXBXBXBXrXrX",
"rXrXrXBXBXBXAXAXAXSXSXSXSXZXVXZXnXcXcXcXjXjXsXgXsXpXm tXm c v c c z c y z z y y z z z z u u c v v m pXiXfXjXjXlXcXnXnXVXVXVXZXZXZXZXSXSXSXSXSXSXAXSXAXAXAXAXAXAXBXAXBXBXBXBXAXBXAXBXAXBXAXAXAXAXAXAXAXAXAXSXSXSXSXSXSXSXZXZXZXZXVXVXVXVXzXzXgXgXm b x l 7 4 ; ; = = = = & = = ; ; ; 1 1 4 4 7 4 l l l 7 7 7 4 7 4 4 4 4 ; 4 ; = = = O O O O O . . O O O = ; ; 4 7 l x b m pXpXgXzXzXzXcXVXVXVXVXVXZXZXZXZXZXZXSXSXSXSXSXSXSXSXSXSXSXAXSXAXSXAXSXSXSXSXSXSXSXSXSXSXSXSXSXSXSXSXZXZXZXZXZXZXVXVXVXVXVXzXzXzXgXpXm z l 4 ; ; O O O O O O O . O O O & ; ; ; 7 7 l l l z x b x b b b b b b b z x x z l l 7 7 4 4 ; ; ; ; O O O O . . O & ; ; 7 l b pXgXgXzXVXVXZXZXZXSXSXSXAXAXBXBXBXBXeXeX0XeX0X0X9X<X@X@XOXOXOXT.T.Y.Y.Y.A.j.j.j.j.j.d.j.d.d.f.d.d.f.d.j.d.j.j.j.F.Y.Y.Y.Y.Y.T.R.OX+X@X@X@X9X@X9X9X9X9X@X<X+X+XOXR.T.Y.j.j.d.4.2.<.>.;.-.-.W J D D D D A A A V A V V V V V V A V A A A A D D D D J W W -.-.>.>.2.6.d.f.A.Y.Y.T.OX+X<X<X0X0XqXeXrXrXrXAXNXAXCXCXMXMXMXVXbXVXnXcXnXxXcXcXjXvXjXjXxXjXjXjXhXzXzXhXcXcXcXcXbXcXnXZXnXZXZXZXZXSXSXSXAXBXSXBXBXBXBXrXrXrX",
"rXrXBXBXBXBXBXBXSXAXSXSXZXZXZXVXnXnXcXcXlXjXjXsXsXpXtXyXv m c c z c z z z y z z r u z z u c c c m tXyXsXgXfXjXcXcXcXVXVXVXZXZXZXZXZXSXSXSXSXSXSXSXAXAXAXAXAXAXAXAXBXBXAXBXAXBXAXBXAXBXAXAXAXAXAXAXAXSXAXSXSXSXSXSXSXSXZXZXZXZXVXVXVXVXzXzXzXgXpXm b x 7 4 ; ; ; = = = = = = = = ; ; ; 1 1 1 4 4 4 4 4 4 4 4 4 4 4 4 4 ; ; ; = = = = O O O . . . O O O O ; ; ; 7 7 z x b m pXgXgXgXzXzXcXcXcXVXVXVXVXZXZXZXZXZXZXZXSXSXSXSXSXSXSXSXSXSXSXSXSXSXSXSXSXSXSXSXSXSXSXSXSXSXSXSXSXZXZXZXZXZXZXVXVXVXVXVXzXjXzXpXm b z l ; ; O O O O . . . . . O . . O O O O ; ; ; ; 4 7 7 7 l l z l z z l l l l l 7 7 7 7 4 4 ; ; ; ; ; O O O . . O O & ; ; 7 x b pXpXzXzXVXVXZXZXSXSXSXSXAXAXBXBXBXBXeXeXeXeX0X9X9X@X@X@XOXOXT.T.Y.Y.Y.Y.A.j.j.j.d.d.d.d.4.d.4.4.4.d.4.4.4.d.d.d.f.j.j.A.j.Y.Y.Y.T.R.OX+X+X@X@X9X@X<X@X@X@X+X+XOXR.Y.Y.A.j.d.4.4.<.>.-.-.W W D D D A D V A A V V V V V V V V V V V V V V A V D D D D J J W W >.>.<.2.4.d.j.j.Y.Y.R.+X+X<X<X0XqXeXqXrXrXrXAXNXCXCXCXCXVXCXVXbXcXbXcXxXcXhXzXzXjXxXjXzXhXzXzXhXzXcXzXcXcXnXcXnXVXnXnXZXZXZXSXSXSXAXAXSXBXBXBXBXrXeXrXrX",
"eXrXrXBXBXBXBXBXAXSXSXSXSXZXZXVXZXnXnXlXlXjXjXgXsXiXiXm v b v c c z c z y z y z z z z u u c v v m yXsXsXfXzXjXzXnXcXnXVXVXZXZXZXZXZXSXSXSXSXSXSXAXAXSXAXAXAXAXAXAXAXAXBXAXBXAXBXAXAXAXAXAXAXAXAXAXAXAXSXSXSXSXSXSXSXSXZXZXZXZXVXVXVXzXVXjXjXgXpXm x l 7 1 ; ; & = = & O = & = = ; ; ; ; ; 1 ; 4 1 4 1 4 4 4 4 ; ; ; ; ; ; O = = O O O O . . . O O & = ; ; ; 4 4 l z x b m m pXgXgXzXzXzXcXcXVXcXVXVXVXVXZXZXZXZXZXZXZXZXSXSXSXSXSXSXSXSXSXSXSXSXSXSXSXSXSXSXSXSXSXSXSXZXZXZXZXZXZXZXVXVXVXVXVXcXzXzXjXpXm m l 7 ; ; O O O . O O O O O O O O O O . O O O O ; ; ; ; 4 4 4 7 4 7 7 7 l 7 7 4 7 4 4 ; ; ; ; ; & & O O O O . O O O ; ; ; 7 x b m gXzXzXVXVXZXZXZXSXSXSXAXAXAXBXBXBXeXeXeX0X0X9X9X@X@X@XOXOXT.Y.Y.Y.A.j.j.j.f.d.d.4.4.4.4.4.<.4.2.4.<.4.4.4.4.4.d.4.d.d.j.j.j.Y.Y.Y.Y.T.OXOX+X+X+X@X+X@X+X+XOXOXT.Y.Y.j.j.d.4.4.>.>.-.-.W J D D D A A V A V V V V V V V V B V B V V V V V V A V A D D D D W W W -.<.<.4.4.d.j.F.Y.Y.R.+X+X<X9X0XqXeXrXrXrXrXAXNXCXCXCXMXVXbXVXbXnXxXcXxXcXvXzXhXcXjXhXzXhXzXzXxXzXxXzXnXcXnXnXnXZXVXZXZXSXSXSXSXSXAXBXAXBXBXBXBXBXeXrX",
"rXeXBXBXeXBXBXAXAXAXAXSXSXZXZXZXnXVXcXcXcXjXjXsXsXsXpXtXn b b c u c u z z y z r y z u z c c c n m yXiXsXjXgXlXcXcXcXVXVXVXZXZXZXZXZXSXSXSXSXSXSXSXSXAXAXAXAXAXAXAXAXAXAXAXAXAXAXAXAXAXAXAXAXAXAXAXAXSXSXSXSXSXSXSXSXZXZXZXZXVXVXVXVXVXzXzXjXgXpXb x l 4 1 ; ; = = O O O O O & = & & ; ; ; ; 1 ; 1 ; 1 ; 1 ; ; ; ; ; ; = = = = O O O O . . . O O O O & = ; ; 4 7 l z x b b m pXpXgXgXzXzXzXcXcXVXcXVXVXVXVXVXVXZXZXZXZXZXZXZXZXZXSXSXSXSXSXSXSXSXSXSXSXSXSXSXZXSXZXZXZXZXZXZXZXZXVXVXVXVXVXVXzXzXjXjXpXm b l 7 ; ; O O . . O O O O & ; & & O & O O . . O O O O & = ; ; ; ; ; 4 ; 4 ; 4 ; ; ; ; ; ; ; ; & O O O O . . . O O O ; ; 4 l x b pXgXzXzXVXVXZXZXSXSXSXSXAXAXBXBXeXBXeXeXeX0X0X9X9X@X@X+XOXT.Y.Y.Y.Y.j.j.j.d.d.4.4.4.4.4.<.<.<.<.<.>.>.>.<.<.<.2.2.2.4.d.4.d.d.j.j.j.Y.Y.T.T.T.OXOXOXOX+XOXOXOXR.T.Y.Y.A.j.d.4.4.>.>.;.-.W W D D D A A A V V V V V V V V V V V V V V V V V V V V V V A A D D D W W -.-.>.<.4.6.f.j.Y.Y.R.R.+X<X<X0XqXqXqXrXrXNXNXNXNXCXCXCXbXMXVXbXcXnXxXcXxXzXxXzXhXlXlXlXzXlXlXzXlXcXcXxXcXnXVXVXnXZXZXZXZXSXSXSXAXAXAXBXBXBXBXrXrXeXrX",
"eXrXeXBXBXeXBXBXAXAXSXSXAXZXZXMXVXMXnXnXlXlXjXjXsXpXiXm n v c c c u u z z z y z z u z u u v c n tXpXsXsXfXzXzXzXnXnXnXVXVXZXZXZXZXZXSXSXSXSXSXSXSXAXAXSXAXAXAXAXAXAXAXAXAXAXAXAXAXAXAXAXAXAXAXSXAXSXSXSXSXSXSXSXSXZXZXZXZXZXVXVXVXzXVXzXgXgXpXm b l l 1 ; ; & = O O O O O O O O ; & ; O ; ; ; ; ; ; ; ; ; ; = ; = = = = O O O O O . . . O O O & O & ; ; ; 4 4 7 7 l x b b m m pXpXgXgXjXzXzXzXcXVXcXVXcXVXVXVXVXVXVXZXZXZXZXZXZXZXZXZXZXZXSXZXZXSXZXZXZXZXZXZXZXZXZXZXZXZXVXVXVXVXVXVXVXcXzXzXjXgXpXm x l 4 ; ; O O . O O & & ; ; ; ; ; ; ; & & & O O . . . O O O O & ; = ; ; ; ; ; ; ; ; ; & & & O O O O O . . O O O O = ; ; 4 7 x m pXgXzXzXVXVXZXZXSXSXSXSXAXAXBXBXBXBXeXeXeX0X0X9X<X@X@XOXOXT.T.Y.Y.j.j.j.d.d.4.4.4.2.<.<.<.<.>.>.>.>.>.>.>.>.>.>.>.>.<.<.<.4.4.4.d.d.j.j.Y.j.T.T.T.R.R.R.R.R.R.T.Y.Y.A.Y.j.d.4.4.>.>.;.W W J D D D V A V V V V V V V B B B B B B B B B B B V V B V V V V A A D D D J W -.;.>.<.6.d.f.A.Y.Y.R.+X+X<X1X0XqXqXrXqXrXrXNXNXCXMXCXCXbXMXnXbXbXcXxXcXxXjXxXzXhXzXlXlXlXlXlXcXlXnXcXnXnXbXVXZXVXCXZXAXSXSXAXAXAXBXBXBXBXeXBXqXrXeX",
"eXqXBXeXeXBXBXBXAXAXAXAXZXSXZXZXZXnXnXcXcXlXjXgXgXsXpXtXn m v c c u u z u z z z z u z c c c v n yXyXsXfXgXlXzXlXcXnXVXVXVXZXZXZXZXSXZXSXSXSXSXSXSXSXSXAXAXAXAXAXAXAXAXAXAXAXAXAXAXAXAXAXAXSXAXAXSXSXSXSXSXSXSXSXZXZXZXZXZXVXVXVXVXVXzXzXzXgXpXm b l 4 1 ; ; = & O O O O O O O O O & & ; & & = = ; = = = = = = = ; O = O O O O . . . . O O O O O O ; = ; ; ; 4 4 7 l l x b b m m pXpXgXgXgXjXzXzXzXzXzXVXcXVXVXVXVXVXVXVXVXZXZXZXZXZXZXZXZXZXZXZXZXZXZXZXZXZXZXZXZXZXVXZXVXVXVXVXVXVXVXzXzXjXjXpXm m z l 4 ; ; O . . O O ; & 4 ; 4 4 4 4 4 4 4 ; & ; O O O O . . O O O O O O O & O & O & O O O O O O O O . . . O O O O ; ; ; 7 l b m pXgXzXzXVXVXZXZXSXSXSXSXAXAXBXBXBXBXeXeXeX0X0X9X<X@X@XOXT.T.Y.Y.Y.j.j.d.d.4.4.4.2.<.>.>.>.>.-.>.;.;.-.-.-.;.;.;.;.;.>.>.>.<.<.<.4.4.d.d.d.j.Y.j.Y.Y.Y.Y.T.T.T.Y.Y.Y.Y.Y.j.d.4.4.>.>.:.W W D D D A A A V V V V V V B B B B B B B C B B B B B B B V V V V V V V D D D J W W -.>.<.2.4.d.j.j.Y.R.R.+X@X<X1X0XqXqXrXrXrXNXNXNXNXCXbXCXbXMXbXcXbXxXxXzXxXlXxXzXlXlXlXlXlXcXlXnXxXVXcXVXnXZXVXZXZXZXSXSXSXAXAXAXAXBXeXBXBXqXrXeXeX",
"eXeXqXBXeXBXBXBXAXAXAXAXSXZXCXZXZXnXnXnXlXcXjXdXsXsXiXpXn v b v u c u u z z z z u z c u c c v m tXsXsXfXjXjXzXlXnXnXnXVXVXZXZXZXZXZXSXSXSXSXSXSXSXSXAXAXSXAXAXAXAXAXAXAXAXAXAXAXAXAXAXAXAXAXSXSXSXSXSXSXSXSXSXZXZXZXZXZXZXVXVXVXzXVXzXjXgXpXm b x l 4 1 ; & & O O O O O O O O O O O O = = ; & = = = = = = = = O O O O O O O . . . . . O O & O O ; O ; ; ; ; 4 4 4 7 l l x x b b m m pXpXpXgXgXgXzXzXzXzXzXcXVXcXVXVXVXVXVXVXVXVXVXZXZXZXZXZXZXZXZXZXZXZXZXZXZXVXZXVXVXVXVXVXVXVXcXzXzXzXjXgXpXm m z l 4 ; = O . O O & ; ; 4 4 7 l l l l l 7 7 4 4 ; ; & & O O O . . . O O O O O O O O O O O O O . . . . O O O O & ; ; ; 4 7 l b m pXjXzXzXVXVXZXZXZXSXSXSXAXAXBXBXBXBXeXeXeX0X0X9X<X@X@XOXOXT.Y.Y.j.j.j.d.4.4.4.<.<.>.>.>.;.;.-.-.W W W -.W W W W W -.W -.;.>.;.>.>.<.<.4.4.d.d.j.Y.j.Y.Y.Y.Y.Y.Y.Y.A.Y.j.j.f.d.4.<.>.;.W W J D D A A V V V V V B B B B B B C B C C B C B C B C B B B B V B V V V V V D D J W W -.>.<.4.6.d.j.Y.Y.R.+X+X<X<X0XqXqXqXrXrXrXmXNXNXmXMXMXCXbXVXbXcXnXxXvXzXlXzXxXlXlXlXlXcXlXnXlXnXcXVXbXVXVXZXCXZXAXZXSXAXAXAXAXBXBXBXeXeXBXqXeXeX",
"qXqXBXeXBXeXBXBXrXAXAXSXAXZXSXSXnXZXnXnXnXlXjXjXjXsXsXtXn m v c c c u u z z z u u u u u c v n tXyXiXfXgXgXlXlXnXcXnXnXnXZXVXZXZXZXZXSXZXSXSXSXSXSXSXSXSXAXAXSXAXAXAXAXAXAXAXAXAXAXSXAXAXSXSXSXSXSXSXSXSXSXSXZXZXZXZXZXZXVXVXVXVXVXzXzXzXgXpXm b l l 1 ; ; = O O O O O . . O O O O O O O O O O & & & = & O O O O O O O O . . . . . O O O & O O = O ; & ; ; ; ; 4 4 4 7 7 l l x x b b b m m pXpXgXpXgXjXgXzXzXzXzXcXcXcXVXVXVXVXVXVXVXVXVXZXVXVXZXVXZXVXZXVXVXVXVXVXVXVXVXcXVXVXzXzXzXzXjXpXpXm b l l ; ; O O . O O ; ; ; 7 l l x b b b b b b l l 7 4 4 ; ; ; & O O O O . . . . . . . . . . . . . . O O O O O & & ; ; ; 7 7 x b pXpXjXzXzXVXVXZXZXSXSXSXSXAXAXBXBXBXBXeXeXeX0X0X<X<X@X+XOXT.Y.Y.Y.A.j.d.d.4.4.2.<.>.;.>.;.-.-.W W W W W W J W W J W W W W W W W -.-.>.>.>.<.2.4.d.d.d.A.F.j.Y.Y.j.Y.j.Y.j.j.d.4.4.<.>.:.W W J D D V A V V V V V B B B B C C C C C C C C C C C C B C B B B B V V V V V D V D D J W -.-.>.<.4.d.j.A.F.Y.R.+X@X<X1X0XqXwXqXrX8XrXNXmXNXNXCXbXbXbXnXbXbXxXcXxXxXxXxXlXlXlXlXxXxXlXnXxXMXxXVXVXCXZXZXZXZXSXAXAXAXAXBXBXeXBXeXBXqXrXqXeX",
"eXqXqXeXeXBXeXBXAXAXAXAXSXAXZXCXZXnXnXnXcXcXlXjXaXsXpXiXtXn c v c u c u u u u u u z c c c v n yXpXsXsXfXjXzXlXlXnXnXnXMXVXZXZXZXZXZXZXSXSXSXSXSXSXSXSXSXAXSXAXAXAXSXAXAXSXAXSXAXAXAXSXSXSXSXSXSXSXSXSXSXSXSXZXZXZXZXZXVXVXVXVXzXVXzXgXgXgXpXm x l 4 1 ; & & O O O . . . . . . . O O O O O O O O O O O O O O O O O O . . . . . . . O O O O O O O ; O ; O ; ; ; ; 4 4 4 4 7 7 7 l l l x b b b b m pXpXpXgXgXjXjXzXzXzXzXcXcXVXcXVXVXVXVXVXVXVXVXVXVXVXVXVXVXVXVXVXcXVXVXcXVXzXzXzXzXjXpXpXpXb x l 4 ; ; O O . O O ; ; 4 7 l b b m m pXm N m m m b b l 7 7 ; ; ; ; = O O O O O O O . . O . O O O O O O & O & ; ; ; ; 4 7 l b b pXpXzXzXzXVXVXZXZXSXSXSXSXAXAXAXBXBXBXeXeXeX0X0X9X<X+X+XOXT.T.Y.j.A.h.d.4.4.4.<.>.>.>.-.W W W W W J J J D D D D D D D D J J W W W W W -.;.>.>.>.<.4.4.d.d.j.j.A.j.Y.j.j.j.d.d.4.4.<.>.:.W W J D D A A V V V V B B B B B C C C C C Z C C C Z C C C C C C B B B B B V V V V A D D D J W -.>.>.<.4.d.j.Y.Y.R.R.+X<X<X1XqXqXqXrXrX8XrXmXmXmXMXCXbXbXbXnXbXcXbXxXcXxXhXcXxXlXxXlXnXxXxXnXnXMXMXVXVXCXZXAXZXAXSXAXAXBXAXrXBXeXeXeXeXqXeXqX",
"qXqXeXeXeXeXBXrXBXBXAXAXAXZXSXZXZXZXVXnXnXlXlXjXjXgXaXpXtXn m v c c u u c u u u z c d c v v tXyXuXsXfXfXhXzXlXnXcXnXnXnXVXZXZXZXZXZXZXSXSXSXSXSXSXSXSXSXSXSXAXSXAXAXAXAXAXAXAXAXSXSXSXSXSXSXSXSXSXSXSXSXZXZXZXZXZXZXZXVXVXVXzXVXzXzXzXgXpXm b x 7 1 ; ; & O O O . . . . . . . . . . O O O O O O O O O O O O O . . . . . . . . . O O O O O O O O O ; O ; & ; ; ; ; ; ; 4 ; 4 ; 7 4 7 7 l 7 x x x b b m m pXpXpXgXjXgXzXzXzXzXcXzXVXcXVXVXcXVXVXcXVXVXVXVXcXVXVXVXVXVXcXzXzXzXjXjXgXpXpXm b z l 4 ; ; O O O O O ; ; 4 l x m m pXpXpXpXgXpXjXpXN pXm b b l 7 7 7 ; ; ; ; ; & & O O O & O & O O & O & & & ; ; ; ; 4 7 l x b m pXgXzXzXcXVXVXZXZXSXSXSXSXAXAXBXBXBXBXeXeXeX0X0X<X<X@X+XOXT.Y.Y.j.Y.d.d.4.4.<.>.>.;.;.W W W W W J D D D D D D D D D D D D D D D D J J W W W -.;.>.>.>.4.4.d.d.j.d.j.d.j.d.d.d.4.4.<.<.;.W W J D A V A V V V V B B B C C C C C C Z C C Z C Z C Z C C Z C C C C B B B V V V V V V D D D W W -.>.>.4.d.d.A.Y.Y.R.+X,X<X1X1XqXwXqXwXrX8XrXmXNXNXbXCXbXbXbXcXbXxXcXxXxXcXxXxXlXxXxXlXnXnXxXnXMXVXCXZXZXCXZXAXSXAXAXBXAXrXBXBXeXeXBXqXeXqXqX",
"qXqXqXeXeXeXeXBXBXAXBXAXAXAXCXCXZXZXnXnXbXcXlXjXhXsXsXiXiXtXv v c c c u u u u u u c c c v n tXyXyXsXfXfXzXhXcXlXnXnXnXnXZXVXZXZXZXZXZXZXSXSXSXSXSXSXSXSXSXSXSXSXSXSXSXSXSXSXSXSXSXSXSXSXSXSXSXSXSXSXSXZXZXZXZXZXZXZXVXVXVXVXVXjXzXzXgXgXm m x l 7 1 ; & & O O . . . . . . . . . . . . . . . O . O O . . . . . . . . . . . . . O O O O O O O O O O O O O & & & & & & ; & ; ; ; ; ; ; 4 ; 7 4 7 l l l x b b m m pXpXgXgXgXjXzXzXzXzXzXzXcXVXcXVXVXVXcXVXcXVXzXcXzXzXzXzXzXjXjXgXpXpXm b x l 7 ; ; ; O . . O O ; ; 7 l b m m pXjXjXjXjXzXjXjXjXjXpXpXpXm m b l l 7 4 4 ; ; ; ; ; = ; & & & & ; & ; & ; ; ; 4 4 7 7 l b m m pXgXzXzXcXVXVXZXZXZXSXSXSXAXAXAXBXBXBXeXeX0XeX9X9X<X+X+XOXT.Y.Y.j.j.d.d.4.2.<.>.:.;.-.W W W J D D D D D D A A A A A A A A A A D D D D D D J W W W -.>.>.>.<.4.4.4.d.d.d.4.d.4.4.4.<.<.;.-.W J D D A A V V V V B B B C C C Z C C Z Z Z Z Z Z Z Z Z Z Z C Z C C C C B B B V V V V V D D D J W W >.>.<.4.d.j.A.Y.R.R.+X,X<X1X0XqXwXwXrXrXmXNXmXMX8XMXbXmXbXbXxXbXxXxXxXxXxXxXnXlXxXnXvXnXnXMXnXMXVXCXCXZXAXCXAXAXAXAXrXAXrXBXeXeXeXqXqXqXqX",
"qXqX0XeXeXeXBXBXrXBXAXAXAXCXSXSXZXMXZXnXnXnXlXlXjXjXsXsXtXm n v v c u c u u u u c d c c v n yXtXsXsXfXgXhXzXlXcXlXnXnXnXnXZXZXZXZXZXZXZXSXSXSXSXSXSXSXSXSXSXSXSXSXSXSXSXSXSXSXSXSXSXSXSXSXSXSXSXSXSXZXZXZXZXZXZXZXVXVXzXVXVXzXVXgXzXgXpXm b x l 4 ; ; & O O . . . . . . . . . . . . . . . . . O . . . . . . . . . . . . . . O O O O O O O O O O O O O O O O O O O O O & O & O & = & ; ; ; ; 4 ; 4 7 7 l x x b b m m pXpXpXgXgXzXgXzXzXzXzXzXzXzXzXzXzXzXzXzXzXzXzXjXjXgXgXpXpXm b b z 7 7 ; ; O O . O O O ; ; 7 x b pXpXgXjXzXzXzXcXzXcXzXcXzXjXzXgXpXm m m b x x 7 7 7 4 ; 4 ; ; ; ; ; 4 ; ; ; 4 4 4 4 7 l l b m m pXpXjXzXcXcXVXZXZXZXSXSXSXSXAXAXBXBXBXBXeXeXeXeX9X9X<X+X+XR.T.Y.Y.j.j.d.4.4.<.>.>.>.-.W W W J D D D D D A A V A A A A V A A V A A A A A A D D D J J W W -.;.>.<.<.2.4.4.4.4.4.4.4.<.<.>.;.-.W J D A A A V V B V B B C C C C C C Z Z Z Z Z Z Z Z P Z Z Z Z Z Z C Z C C C C B B V V V V V V D J J W -.>.>.4.6.f.j.Y.Y.R.+X+X<X1X0X1XqXwXwXrXwXNX8X8XCX7XCXbXbXbXbXxXbXxXxXxXxXxXxXxXnXxXnXnXMXnXMXVXCXCXZXCXZXAXAXAXAXrXAXBXrXrXeXeXqXqXqXqXqX",
"0XqXqXeXeXeXeXBXBXBXBXAXAXCXCXSXMXZXbXVXcXcXcXlXjXdXsXsXtXtXm v v v c d u u u c c c v v n n tXpXuXfXfXfXjXhXzXxXnXnXnXnXZXnXZXZXZXZXZXZXSXZXSXSXSXSXSXSXSXSXSXSXSXSXSXSXSXSXSXSXSXSXSXSXSXSXSXSXZXZXZXZXZXZXZXVXVXVXVXVXVXzXzXzXzXgXpXpXm x l 7 1 ; & O O O . . . . O O O O O O . . . . . . . . . . . . . . . . . . . . . . O O O O O O O O O O O O O O O . O O . O O O O O O O O O O O & & ; ; ; ; 4 4 4 l l l x b b m m m pXpXgXgXgXgXjXjXjXjXjXzXjXjXjXjXjXgXgXgXpXpXpXm b b z l 7 ; ; ; O O . O O O ; 4 7 x b pXpXzXzXzXcXcXVXcXVXcXVXcXcXcXzXzXjXgXpXpXm m b b x l l 7 7 4 7 4 4 4 4 4 7 7 7 7 l l b b b m pXpXjXjXzXzXVXVXVXZXZXSXSXSXSXAXAXAXBXBXBXeXeXeX0X0X9X@X@X+XR.T.Y.Y.j.j.d.4.4.<.<.:.;.W W W J D D D A A A A A V A V V V V V V V V V V A V A A A A D D D J W W -.;.>.>.>.<.2.4.<.4.<.<.<.>.;.;.W W D D A V V V V V B B C C C Z C Z Z C P C Z P Z P Z Z P Z Z Z Z Z Z C Z C C C B B B B V V V V D D J J W -.>.<.4.d.j.A.Y.R.R.+X,X<X1XqXqXqXwXwXrX6XNX8X7XCX7XbXmXbXbXxXxXbXxXxXxXxXvXnXlXbXnXbXnXMXMXMXVXCXCXCXAXCXAXAXrXAXrXrXrXrXeXqXeXqXqXqX0X",
"qX9XeX0XeXeXeXrXrXrXAXrXAXAXSXCXZXZXMXVXVXbXcXlXhXjXgXaXsXtXtXn v c v c c d c d c c c v v tXyXtXsXiXfXfXhXlXlXlXnXnXnXnXnXZXVXZXZXZXZXZXZXSXZXSXSXSXSXSXSXSXSXSXSXSXSXSXSXSXSXSXSXSXSXSXSXSXSXZXZXZXZXZXZXZXVXVXVXVXVXVXzXVXzXzXgXgXpXm b x l 1 ; ; & O O . . . O O O & O O O & O O O . O . O . O . O . . . . . . . . . . . . . . . . . . . . . . . . . . . . . . . . . . . . . . . O O O O O O O & ; ; ; ; ; 7 7 l l x b b b m m pXpXpXpXpXpXgXgXpXgXgXpXgXpXpXpXm m m b b z l 7 4 ; ; O O . . O O & ; 4 7 l m pXpXzXcXcXcXVXVXVXVXVXVXVXVXVXVXcXzXzXzXzXgXgXpXpXm m b b b x l l l l l 7 l l l l l b b m N pXpXpXjXzXzXcXVXVXZXZXZXSXSXSXSXAXAXBXBXBXBXeXeXeX0X0X<X<X@X+XR.T.Y.Y.j.j.d.4.4.<.>.;.;.W W J D D D A A A A A V V V V V V V V V V V V V V V V V V A A A A D D D J W W ;.;.>.>.>.>.<.>.>.>.>.;.-.W J D A A A V V V B B B C C C C C Z Z Z P Z P P Z P Z P P Z P Z P Z P Z Z Z C Z C C B B V V V V V D D D J W -.;.<.<.4.d.j.Y.Y.R.XX,X<X1X1X2XqXqXwXwXNX8X8XCX8XbXmXbXbXbXbXbXxXbXxXxXxXnXvXbXnXvXnXMXMXMXMXCXCXCXAXCXAXmXAXAXBXAXrXrXeXeXeXeXqX0XqX0X",
"0XqX0XeXeXeXeXrXrXBXAXAXAXAXCXSXmXZXZXnXbXnXcXlXjXhXaXsXiXiXtXv v v c c c c g c g v v v n n tXpXsXfXfXfXhXzXlXlXlXnXnXnXMXVXZXVXZXZXZXZXZXZXSXSXSXSXSXSXSXSXSXSXSXSXSXSXSXSXSXSXSXSXSXSXZXZXZXZXZXZXZXZXZXVXVXVXVXVXzXVXzXzXzXgXgXpXpXb x l 7 1 = = O O . . . O O O O O & O O O O O & O O O O O O O & O O O . . . . . . . . . . . . . . . . . . . . O . O O O O O O O O O O O O . O . . . . O O O O O O ; ; ; ; ; 4 7 7 l l x x x b m m m m m m pXpXpXm pXm m m b b b x l l 7 ; ; ; O O O . O O O ; ; 4 7 b m m jXzXzXcXVXVXVXVXZXZXZXZXZXVXVXVXVXVXcXzXzXzXzXgXgXpXpXpXm m m m b b b b b b b b m m m m pXpXjXgXzXzXcXVXVXVXZXZXZXSXSXSXSXAXAXAXBXBXBXeXeXeX0X0X9X<X@XOXOXT.Y.Y.j.h.d.4.2.<.:.;.-.W W D D D A A A A V V V V V V V V B V V V V V V V B V V V V V V A A A A D D J W W W ;.>.>.>.>.>.>.;.-.W W W D D A A V V V V B B C C C Z Z Z Z P Z Z P Z P P P P P P P P P P Z Z Z P Z Z C C Z B C B V B V V V V D J J W -.>.<.4.d.j.A.Y.R.R.+X,X<X1X2XqXqXwXwXwX8X8X8XbX8XbXmXbXbXbXbXbXxXbXxXxXxXnXvXnXmXnXnXmXMXCXMXCXCXCXAXAXAXrXAXrXrXrXrXeXeXeX0XqXqX0X0X",
"0X9XeX0X0XeXeXeXrXrXrXAXAXCXCXAXZXCXVXCXVXcXnXlXlXjXjXsXaXiXtXtXn v v v g c c c c v v v n tXyXuXiXiXfXhXjXhXlXlXnXcXnXnXnXVXZXZXVXZXZXZXZXZXZXSXZXSXSXSXSXSXSXSXSXSXSXSXSXSXSXSXSXSXSXZXZXZXZXZXZXZXZXZXVXVXVXVXVXVXzXVXzXzXgXgXgXpXb b l l 4 ; ; & O O . . O & O O & O O O O O O & O O O O O O O & O O O O O . . . . . . . . . . . . . O . O O O & O O & & O O & & & O & O O & O O O O O O . O . . O O O O & O ; ; ; ; ; 4 7 7 l z z x x b b b b b b b b x b x x z l l 7 ; ; ; ; O O O . O O & ; ; 7 l b m pXjXzXzXVXVXVXZXZXZXZXZXZXZXZXZXZXZXZXVXVXVXVXcXzXzXzXzXjXgXpXpXpXN pXm N N m N m pXpXN pXjXpXjXzXcXcXcXVXVXVXZXZXSXSXSXSXSXAXAXBXBXBXBXeXeXeX0X0X9X<X@XOXOXT.Y.Y.j.h.d.4.<.<.:.;.W W J D D D A A A V V V V V V B V V B V B B B B B V B V B V V V V V V V A A A D D J W W W -.-.;.;.-.-.W W W W D A A A V V V B B C C C C Z Z Z Z P Z P P P P ` P P P P P P P P Z P P P Z Z Z Z Z C C C B B V V V V D V J J W -.>.>.4.6.f.j.G.Y.R.XX,X,X1X1X2XqXwXwXwXwX8X8X8XmX8XbXbX7XbXbXxXbXxXxX7XnXvXnXbXnXbXMXMXMXMXCXCXCXAXCXAXAXAXrXAXrXrXeXeXeX0XqXqX0XqX0X",
"0X0X0XeX0XeXeXrXrXrXAXrXAXAXCXCXSXZXmXVXbXVXxXlXlXjXdXgXaXiXiXn v v n c c j u c v c v v tXtXtXpXaXsXfXfXhXzXhXlXxXnXnXnXnXZXnXZXZXZXZXZXZXZXZXZXSXSXSXSXSXSXSXSXSXSXSXSXSXZXSXSXZXZXZXZXZXZXZXZXZXVXZXVXVXVXVXVXVXzXVXjXzXjXgXgXm m b x l 4 1 ; & O O . . O O O O & & = = & ; & = O & O O & O O & O O O O O . . . . . . . . . . O O O O O & & O & & & & & & ; ; & ; & ; & ; ; & ; & & & O O O O O O . . . . O O O O & ; ; ; ; 4 4 4 7 7 7 l l l l l z l l l l 7 7 4 ; ; ; ; ; O O O . . O O & ; ; 7 l b m pXjXzXcXVXVXVXZXZXZXZXSXSXSXSXSXZXSXZXZXZXZXVXVXVXVXzXzXzXzXzXzXjXgXgXpXgXpXpXgXpXjXpXjXjXjXjXzXzXzXcXVXVXVXZXZXZXZXSXSXSXSXAXAXAXBXBXBXeXeX0XeX0X<X<X@X+XOXT.Y.F.j.j.4.4.2.<.;.;.W W J D D A A A V V V V V V V B V B B B B B B B B B B B B V B V B V V V V V V A A A D D W W W W W W W W W W J D D D A V V V B B B C C C Z C I Z P Z P P P P P P P ` P P ` P P ` P P P Z P Z Z Z Z C C C C C V B V V V D V D J W -.>.<.4.d.j.A.Y.R.R.+X,X1X1X1X2XwXqXwX8XwX7X8X7XbX8XbXbXbX7XbXxXbXbXxXxXMXvXnXmXnXmXMXMXCXCXCXCXCXNXCXBXAXBXrXrXrXrXeXqXeX0X0X0X1X0X",
"0X9XqX9XeXqXeXeXrXBXrXAXBXCXAXSXCXCXVXMXVXbXcXcXlXkXjXaXsXiXtXtXtXn v v v c c j c v v tXv tXyXtXaXiXfXfXhXhXlXlXnXlXnXnXnXnXVXZXVXZXZXZXZXZXZXZXZXZXZXZXSXSXSXSXSXSXSXSXSXSXZXZXZXZXZXZXZXZXZXZXZXZXVXVXVXVXVXVXzXVXzXzXzXgXgXpXm b b l 4 1 ; ; & O . . . O O O & = & = = ; & & = = O = O O O & O O O O O O . . . . . . . . O O O O O & & & & & ; & ; ; ; 4 ; ; 4 4 4 4 4 4 ; ; ; ; ; & ; ; & & & O O O O O . . O O O O O O = ; ; ; ; ; 4 ; 4 4 7 7 4 7 7 4 4 ; ; ; ; ; & O O O . . O O O ; ; 4 7 x b pXpXjXcXcXVXVXZXZXZXSXSXSXSXSXSXSXSXSXSXSXZXZXZXZXZXVXVXVXVXVXcXzXcXzXzXjXzXjXjXzXjXzXjXjXzXzXzXzXcXcXVXVXVXVXZXZXSXSXSXSXSXSXAXAXBXBXBXBXeXeXeXeX0X<X<X@X+XOXT.F.Y.j.d.4.4.<.<.;.-.W W J D A A A A V V V V V B V B B B B C B C B C C C C C C B C B B B B V V V V V V A A D D D J J W W W W W W J D D A A V V V B B C C C C Z Z P Z Z P P P P P P ` P ` P ` ` P ` P P ` P P P P Z P Z Z Z Z C C B B V V V V V D D J W W :.<.3.d.f.A.Y.K.R.XX,X,X1X0X2X0XwX5XwXwX8X8X8X8XbX8X7XbXxX7XbXbXxXvXMXvXnXmXnXMXmXMXMXMXCXCXCXCXAXBXCXrXNXrXrXrXeXqXeXqXqX0XqX0X0X",
"0X0XqXqXqXeXeXeXrXrXAXrXAXAXCXNXZXCXCXVXMXMXcXxXlXhXjXhXaXaXtXtXtXv v v v v v c v v v v n tXtXsXyXaXfXfXhXhXlXlXlXnXxXnXnXnXVXVXZXVXZXZXZXZXZXZXZXZXZXZXZXZXZXZXZXZXZXZXZXZXZXZXZXZXZXZXZXZXZXVXVXVXVXVXVXVXzXVXzXzXzXjXgXgXpXm m x l l 1 1 = & O O . . O O O = & ; ; ; ; ; ; ; & = = = O O & O O O O O . . . . . . . O O O O & & & & & ; & ; 4 ; 4 4 4 7 4 7 7 7 7 7 7 l 7 7 7 4 7 4 4 ; ; 4 & ; & & & O O O O O . . O O O O O O & ; ; ; ; ; ; ; ; ; ; ; ; ; ; & & O O O O . O O O O ; ; ; 7 7 x m pXpXzXzXcXVXVXZXZXZXSXSXSXSXSXSXSXSXSXSXSXSXSXSXSXZXZXZXZXVXVXVXVXVXcXcXcXcXzXcXzXzXzXzXcXcXzXcXcXVXVXVXVXVXZXZXZXZXSXSXSXSXSXAXAXBXBXBXBXBXeXeX0X0X0X<X@X+XR.T.Y.Y.j.f.d.4.<.>.;.-.W W D D A A A V V V V V B V B B B B C C C C C C C C C C C C C C C C B B B B V V V V V A A A D D D D J J J J D D D A A V V V V B B C C C Z Z Z Z P P P P P ` P ` P + P ` P ` ` P ` P P P ` P P P Z P Z Z Z C C C C B V V V V D D D J W -.>.<.6.d.j.F.G.R.XX+X,X=X1X1X2XwXqXwXwX8X8X7X8X4XbXbX8XbXbXbXbX7XxXxXmXvXnXmXbXMXMXNXMXCXNXCXNXCXBXBXAXrXrXrXeXrXeXqXqX0X0X0X1X0X",
"0X0X9X0XqX0XeXeXrXrXrXrXCXBXNXZXCXCXMXMXMXcXbXcXlXlXjXaXfXiXaXiXv tXn v v c j v v v v m v tXtXyXuXsXfXfXfXhXlXlXlXxXcXnXnXnXVXVXVXZXVXZXZXZXZXZXZXZXZXZXZXZXZXZXZXZXZXZXZXZXZXZXZXZXZXZXZXZXVXVXVXVXVXVXzXVXVXzXzXzXgXjXgXpXm m x x l 4 1 ; = O O . . O O O = & ; ; ; ; ; ; ; ; ; = = = = & O O O O O . . . . . . O O O & & & & & ; ; ; ; 4 4 4 7 l 7 7 l l l l l x l x l l l l l l 7 7 7 7 4 4 4 ; ; ; ; & & O O O O . . . . O O O O O O O & O & O & O & O O O O O O O . . O O O & ; ; ; 7 l b m pXpXzXzXVXVXVXZXZXSXSXSXSXSXSXSXSXSXSXSXSXSXSXSXSXSXSXSXZXZXZXZXZXVXVXVXVXVXVXVXcXVXcXcXVXcXcXVXVXVXVXVXZXZXZXZXSXSXSXSXSXSXAXAXAXBXBXBXBXeXeXeX0X0X9X<X@X+XOXT.Y.Y.j.d.4.4.<.>.;.-.W J D A A A A V V V V B V B B C C C C C C C C Z C C Z C Z C C Z C C C B C B V B B V V V V A A A A D D D D D D D D A A V V V V B B C C C Z Z Z Z P P P P P ` P ` P ` P ` ` ` ` P ` ` P ` ` P P ` P P I I Z Z Z C C C B V V V V V D D J W -.:.<.3.d.f.A.G.T.XXXX,X,X=X2X2X0X5X5X8X5X7XwX7X7X8X7X7XbXbX7XbXxXvXmXvXnXmXbXmXMXNXMXNXCXNXCXNXNXBXCXrXrXrXrXrXeXqXeX0XqX0X0X0X0X",
"0X1XqX0XqXeXqXeXeXrXBXAXBXCXCXNXAXZXMXMXMXVXxXxXlXlXhXjXaXaXiXtXtXv v v v v v c v v v k tXtXtXtXsXuXfXfXfXhXhXlXlXlXxXnXnXnXnXVXVXVXZXZXVXZXZXZXZXZXZXZXZXZXZXZXZXZXZXZXZXZXZXZXZXZXZXVXVXVXVXVXVXVXzXVXVXzXzXzXzXjXjXpXpXm b b x l 4 1 ; ; O O O . O O O = = ; ; ; 4 ; ; 4 ; ; ; = = = O O O O O O . . . . O O O O O O & & ; ; ; ; 4 7 7 7 l l l l b b b b b m m m m m m m m b b b b x l l l 7 7 7 4 4 ; 4 & ; & & & O O O O . . . . O O . O O O O O O O O . O . . . O O O O & ; ; ; 7 7 x b m pXjXzXzXcXVXVXZXZXSXSXSXSXSXSXSXAXAXAXAXAXSXSXSXSXSXSXSXSXSXSXZXZXZXZXZXZXVXVXVXVXVXVXVXVXVXVXVXVXVXZXZXZXZXZXZXSXSXSXSXSXSXSXAXAXBXBXBXBXeXeXeX0X0X0X<X@X+XOXT.Y.Y.j.f.d.4.<.>.;.-.W J D D A A V V V V V B V B C C C C C Z C C Z C Z Z Z Z C Z Z Z C Z C C Z C C C V B V V B V V V A A A D D D D A D V A A V V V B B C C C Z Z Z I P P P P P ` P ` ` ` ` ` ` ` ` ` ` ` ` ` P ` ` P P P P P I Z Z Z Z C C V B B V V V D V J J W -.<.2.6.f.j.S.Y.I.XX+X,X=X1X2X2X0X5X5X8X5X8X8X7X7X7X7X7X7XbX7XbXbXxXmXbXbXmXnXmXMXmXZXmXAXNXNXNXNXBXNXrXrXeXeXeXqXqX0X0X0X0X9X1X",
"1X0X9X0XqX0XeXeXrXrXrXBXNXBXNXAXZXCXMXMXMXxXnXnXlXkXjXdXaXaXiXtXtXtXv v j v v v v v k v v yXtXyXuXsXuXdXfXhXhXlXlXlXnXlXnXnXVXVXVXVXZXVXZXVXZXZXZXZXZXZXZXZXZXZXZXZXZXZXZXZXZXZXZXZXVXVXVXVXVXVXVXzXVXVXzXzXzXzXgXzXpXpXm b b x l 7 1 ; = & O O . . O O = & ; ; ; ; ; 4 4 ; ; ; ; = = = O O O O . . . . . O O O & & & ; & ; ; 4 4 7 7 7 l l x b b m m N N N pXN pXN pXpXpXpXpXN N pXm m m m b b b l l 7 7 4 4 4 ; ; & ; & O O O O O O . . O . . . . . . . . O . O O O & O & ; ; ; 4 7 l b m pXpXjXzXzXVXVXZXZXSXSXSXSXSXSXAXAXAXAXAXAXAXAXAXAXAXAXSXSXSXSXSXSXSXSXSXZXZXZXZXZXZXZXZXZXVXZXVXZXZXZXZXZXZXZXZXSXSXSXSXSXSXSXAXAXAXBXBXBXBXBXeXeXeX0X9X<X@X+XOXT.Y.Y.j.j.4.4.<.>.;.-.W J D A A A V V V V B V B B C C C C C C C Z Z Z Z Z Z Z Z I Z Z Z Z Z Z Z C C Z C C C B B V V V V V A A A A A A A A A V V V V B B C C C Z Z Z Z P P P P ` ` P ` ` ` ` ` + ` + + ` + ` ` ` ` + P ` P ` P P I I I Z C Z C C B V V V V V D D J W -.:.<.3.d.A.A.G.T.XXXX,X=X=X-X0X5XqX5X5X8X5X4X8X4X7X7X7XbX7XbX7XbXvXmXbXmXbXmXmXmXmXmXAXmXNXNXNXBXNXrXrXrXrXrXeXeX0XeX0X0X9X1X0X",
"0X1X0X0XqXqXqXeXeXrXrXrXAXCXNXAXmXCXMXMXMXMXxXxXlXlXhXjXaXaXaXtXtXk tXv v v v g v v v k yXk tXtXyXaXsXfXfXfXhXlXlXlXlXnXxXnXcXVXVXVXVXVXZXZXZXVXZXZXZXZXZXZXZXZXZXZXZXVXZXZXVXVXVXVXVXVXVXVXVXVXzXVXzXzXzXzXjXgXgXpXpXm m b z l 4 4 1 = = O O . . O O O = ; ; ; 4 ; 4 ; ; 4 ; ; ; O = O O O O O . . . O O O & & & ; ; ; 4 4 7 7 7 l b b b m m m m pXN pXpXgXpXjXpXjXpXjXpXjXpXjXpXpXpXpXpXpXm m m m b b l l l 7 4 4 4 ; ; ; ; & & O O O O O O O O O O O O O O & O O & & ; ; ; 4 7 l x b m pXgXzXzXcXVXVXZXZXZXSXSXSXSXSXAXAXAXAXAXBXAXBXAXAXAXAXAXAXSXSXSXSXSXSXSXSXSXSXSXZXZXZXZXZXZXZXZXZXZXZXZXZXSXSXSXSXSXSXSXSXSXSXAXAXAXBXBXBXBXeXeXeX0X0X9X<X<X+XOXR.Y.Y.j.d.d.4.<.>.;.-.K J D D A A V V V V B B B C C C C C Z Z Z Z Z Z Z I Z I Z I Z I Z I Z Z I Z Z Z C C C C C B B B V V V V V A V A V A V V V V V B B B C Z C Z Z P P P P P ` P ` ` ` ` + + + + + + + + + + + ` ` ` ` P ` P P P P P Z I Z C C C B B V V V V D D D W -.:.<.3.6.f.A.S.G.R.XXoX,X=X1X-X2X5X5X5X5X7X8X4X8X4X7X7X7XbX7X7XbXmXvXmXbXmXmXmXmXmXNXmXAXmXNXNXrXBXNXeXrXeXeXqXqXqX0X0X0X0X9X1X",
"1X0X9XqX0X0XeXeXeXrXrXBXBXNXNXCXCXCXMXMXMXcXbXnXlXkXjXdXhXaXiXtXtXtXv v v v v v g v v v v k yXtXuXiXfXuXfXfXjXfXlXkXlXcXcXcXVXVXVXVXVXVXVXVXVXZXVXZXZXZXZXVXZXZXZXZXVXZXVXVXVXVXVXVXcXVXVXzXVXzXVXzXzXjXzXgXjXgXpXm m m x x l 7 1 ; ; = O O O . O O O = = ; ; 4 ; 4 ; ; 4 ; ; ; = = = O O O . . . O O O O & & ; ; ; 4 7 7 7 l l b b m N N N N pXgXpXjXgXjXjXjXzXjXjXzXzXzXzXjXjXjXjXjXjXjXpXjXpXpXpXN m m b b x x 7 7 7 4 4 ; ; ; ; ; & ; & & & & O O & & & & & ; ; ; ; 4 4 7 l l b m pXpXgXzXcXcXVXVXZXZXSXSXSXSXSXAXAXAXAXAXBXBXBXBXBXBXBXBXBXAXAXAXAXAXSXSXSXSXSXSXSXSXSXSXSXSXSXSXSXSXZXSXSXSXSXSXSXSXSXSXSXSXSXAXAXAXBXBXBXBXeXBXeX0XeX0X9X<X<X+XR.R.Y.Y.j.j.d.4.<.>.;.-.K J D A A V V V V B V B B C C C C C Z Z Z Z I Z I Z I Z I I I I I I I I I Z I Z Z Z Z C Z C B B B B V V V V V V V V V V V V V B B B C Z C Z P Z P P P P ` P ` ` ` ` + + + + + + + + + + + + + ` ` ` ` ` P ` P P I I Z Z Z C C C B V V V V V D D J W ;.<.<.5.d.A.A.Y.K.XXXX,X,X=X2X-X2X5X5X3XwX5X4X4X8X4X7X7X7X7XxX7XvXmXbXmXbXmXmXmXCXmXNXNXNXNXNXNXNXeXNXeXrXeXeXeX0XqX0X9X0X1X0X",
"0X1X0X9XqXqXqXeXeXrXrXrXNXNXNXNXCXmXCXMXbXMXxXcXkXlXhXjXaXaXaXtXtXtXk v v j v v v g k v k yXk yXuXyXuXfXdXfX|.jXlXjXlXlXnXnXcXcXVXcXVXVXVXVXVXVXVXVXVXVXVXZXVXVXVXVXVXVXVXVXVXVXVXVXVXVXzXVXzXzXzXzXjXjXjXgXpXpXm m b x z l 4 4 1 = = & O O . . O O = = = ; 4 ; ; 4 ; 4 ; ; ; = = O O O O . . . O O O & & ; ; ; 4 4 7 7 l b b m m N pXpXpXjXgXjXjXjXzXzXzXzXzXcXcXcXzXzXcXzXcXcXzXcXzXzXzXzXjXjXjXgXpXpXpXN m m b b x l l 7 7 4 4 4 ; ; ; ; ; ; & ; ; ; & ; ; ; ; 4 4 7 7 l x b m m pXgXjXzXcXcXVXVXZXZXZXSXSXSXSXAXAXAXBXBXBXBXBXBXBXBXBXBXBXBXBXBXAXAXAXAXAXSXSXSXSXSXSXSXSXSXSXSXSXSXSXSXSXSXSXSXSXSXSXSXSXSXSXAXAXAXBXBXBXBXBXeXeX0XeX0X9X<X<X+XOXR.Y.Y.j.j.4.4.<.<.;.-.W J D A A A V V V V B B C C C C Z Z Z Z Z Z I Z P I P P P P P P P P P P I I I I I Z I Z Z C C Z C B B B V V V V V V V V V V V B B B C C C Z Z Z P P P P ` P ` ` ` + + + @ @ @ @ @ @ @ @ + @ + + + ` ` ` ` ` P ` P P I I Z Z Z C C C V V V V D D D J W -.:.<.3.d.f.A.G.Y.U.XX,X&X=X1X2X2X5X5X5X5X4XwX4X4X7X4X4X7X7X7X7X7XvXmXbX8XbXmXmXmXmXmXNXNXNXrXNXrXBXeXrXeXeXqXqXqX0X0X0X9X9X1X",
"1X0X9X0X0X0XeXqXrXeXBXrXBXNXNXAXmXCXMXMXMXbXnXbXlXkXjXdXfXaXaXtXtXk v v v v v v g v g k b k k tXtXuXuXsXuXfXfXfXjXlXlXlXlXcXcXVXcXVXVXVXVXVXVXVXVXVXVXVXVXVXVXVXVXVXVXVXVXVXVXVXzXVXVXzXVXzXzXzXjXjXjXjXpXpXm m b b x l l 4 4 ; ; = & O O . . O O O = = ; ; ; ; 4 ; 4 ; ; ; = = = O O . . . O O O O & ; 4 ; 4 7 l l l b m m N N pXpXpXgXjXjXzXzXzXzXcXzXcXcXcXcXcXcXVXVXcXVXVXcXVXcXcXcXcXcXzXzXzXzXjXjXjXgXpXpXpXm m b b b x l l 7 7 7 4 4 ; 4 4 4 ; 4 4 4 4 4 7 7 l l x b m m pXgXgXzXcXcXVXVXZXZXZXSXSXSXSXSXAXAXBXBXBXBXBXBXeXBXeXBXBXeXBXBXBXBXBXBXAXAXAXAXAXAXSXSXSXSXSXSXSXSXSXSXSXSXSXSXSXSXSXSXSXSXSXAXAXAXAXBXBXBXBXeXeXeXeXeX0X9X9X@X+XOXT.Y.Y.j.h.d.4.2.>.;.-.K D D A A V V V B V B B C C C C Z Z Z Z I Z I I P P P P P P P U P P U P U P U P P I I I Z Z Z Z C C C B B V B V V B V V B V V B B B C C C Z Z Z P P P P ` P ` ` + + + @ @ @ @ @ @ 7.@ @ @ @ + + + + + ` ` ` P ` P U P I I I Z C Z C B B V V V V V J D K -.;.<.3.6.f.A.S.K.T.XXoXoX=X=X-X-X-X5X5X3XwX3X4X4X4X7X7X4X7X7X7XvXmXvX8XbXmXmXmXmXmXNXmXNXrXNXrXNXBXwXrXeXeXeXqX0X0X0X9X0X1X0X",
"0X1X9XqX0XqXqXeXeXrX8XBXBXNXNXNXZXmXCXbXMXxXbXcXvXlXdXjXdXaXiXtXtXtXk v v v g k v g v v k b k k yXuXyXuXfXuXfXfX|.jXlXlXlXcXcXcXcXcXVXVXzXVXVXVXVXVXVXVXVXVXVXVXVXVXVXVXVXzXVXzXVXzXzXzXzXzXjXjXgXgXpXpXpXm m b b z l l 4 4 ; ; = & O O O . . O O O = = ; ; ; ; ; ; ; ; ; = = O O O O . . O O O ; ; ; ; 4 7 l l l m b m m pXpXgXgXjXjXzXzXzXcXcXcXcXcXVXVXVXVXVXVXVXVXVXVXVXVXVXVXVXVXVXVXcXVXcXcXcXzXzXzXzXjXgXgXpXpXpXpXm m b b b l l x l l 7 7 7 7 7 7 l l l l b b b m pXpXpXjXjXzXcXcXVXVXZXZXZXSXSXSXSXSXAXAXBXBXBXBXBXBXeXBXeXeXeXeXBXeXBXBXBXBXBXBXBXAXAXAXAXAXAXSXSXSXSXSXSXSXSXSXSXSXSXSXSXSXSXSXAXAXAXAXBXBXBXBXBXeXBXeXeX0X0X9X<X@X@XOXR.Y.Y.j.j.d.4.2.>.:.W W J D A A V V V V V B C C C Z Z Z Z Z I I I I P P P P P P U P ` P U U U U U P U U U P P I I I Z Z Z C C C C B B V B V V B V B V B B C C C Z Z Z P P P P ` P ` ` + + + @ @ @ @ @ @ @ @ @ @ @ @ @ @ + + + + ` ` ` P ` P P P I Z Z Z C C C B V V V V D V D W K :.,.1.3.f.A.C.G.K.XXXX,X=X=X*X-X5X>X5X5X3XwX3XwX7X4X7X7X4X7X7XvX7XmXvXmX8XbXmXmXrXmXrXmXNXNXrXrXwXBXeXwXeXeXqX0X0X0X0X9X9X1X",
"1X9XqX9XqXqXqXeXeXeXeXNXrXNXNXAXmXCXMXMXMXbXcXbXlXkXhXhXaXaXuXtXtXk v v k g v g g v g v g k v yXk tXuXuXiXsXdXaXjXdXjXlXlXzXcXcXcXVXzXVXVXzXVXVXzXVXVXVXVXVXzXVXVXVXzXVXzXVXVXVXzXzXzXzXjXjXjXjXgXpXpXm b m b z l l 7 4 4 ; ; = & O O . . . O O O O = = = ; ; ; ; ; ; = ; = O O O . . O O O & ; ; ; 4 7 7 l l b m m pXN gXpXjXjXzXzXzXcXcXcXcXcXVXVXVXVXVXVXVXZXVXZXVXZXZXZXVXZXZXVXZXVXVXVXVXVXVXcXVXcXcXzXzXzXzXzXjXjXpXpXpXN m m m m b b x b b x b x b b b m m m m pXpXpXgXzXzXzXcXVXVXVXZXZXSXSXSXSXSXAXAXAXBXBXBXBXBXeXeXeXeXeXeXeXeXeXeXeXeXBXBXBXBXBXBXBXBXAXAXAXAXAXAXSXAXSXSXSXAXSXSXAXSXAXAXAXAXAXAXBXBXBXBXBXBXeXeXeXeX0X0X9X9X@X@XOXR.Y.Y.Y.j.d.4.2.>.:.W K J D A A V V V V V B C C C C Z Z Z Z I I I P P P P P ` P ` P ` P ` U ` U ` P + U U U P U P P I Z I Z Z Z C C C B B B V B V B B B C B C C Z Z Z P P Z ` P P ` ` + + + @ @ @ @ @ @ @ @ @ @ @ @ @ @ + @ + + ` + ` ` ` ` P U P I I Z Z Z C C B V V V V V D D J -.-.:.<.3.d.s.A.G.Y.L.XXoX.X=X=X-X-X-X>X5X3X5X4X4X3X4X4X4X7X7X7X4XmXvXbX8XbX8XmX8XmXmXmXrXNXwXNX8XBXeXrXeXeXqX0XeX0X0X9X0X1X0X",
"0X1X9XqX9XqXqXeXeXeXBXrXNXNXNXNXNXmXCXbXMXMXbXkXlXkXjXdXaXaXaXtXtXk v v v g g g u g g g k g k k yXk yXuXuXiXaXdXsXjXdXjXlXlXzXcXcXcXVXcXVXVXzXVXVXVXzXVXzXVXVXzXVXzXVXVXzXzXzXzXzXzXjXgXjXgXpXpXpXm m m b z z z 7 4 4 ; ; = = & O O O . . . O O O O = = = ; = ; ; = = = O O O O . . O O & ; ; ; 4 7 7 l b b m m pXpXpXjXjXjXzXzXzXcXcXcXVXVXVXVXVXVXZXZXZXZXZXZXZXZXZXZXZXZXZXZXZXZXZXZXZXZXZXVXZXVXVXVXVXVXcXcXzXzXzXzXzXjXgXgXpXpXpXpXm pXm m m m m m m pXm pXpXpXgXgXjXzXzXzXcXVXVXVXVXZXZXSXSXSXSXSXAXAXAXBXBXBXBXeXeXeXeX0XeX0XeXeXeX0XeXeXeXeXBXBXBXBXBXBXBXBXBXAXAXAXAXAXAXAXAXAXAXAXAXAXAXAXAXAXBXBXBXBXBXBXBXeXeXeXeX0X0X0X9X<X@X@XOXR.Y.Y.j.j.d.4.4.>.;.-.W J D A A V V V V B B C C C Z Z Z Z I I I P P P U U P ` P ` P ` ` ` U + U ` U + U U U U ` U U P P I Z Z Z Z C C C B B C B B B B B C B C C C Z Z P Z P ` P ` ` ` ` + + @ @ @ @ @ @ @ @ @ @ @ 7.@ @ @ @ + + + + ` + P ` P ` P P I I I Z Z C C C B V V V V D D D W -.:.<.3.5.f.A.S.K.T.XXXX,X%X=X-X-X>X5X>X5X;X5X3X4X4X4X4X4X7XvX7X4XmX4XmX8XbX8XmX8XNXrXmXNXrXrXrXwXrXeXeXeXqXqX0X0X0X0X1X0X1X",
"1X0XqX1XqXqXqXeXeXrXrXrXrXNXNXAXmXCXMXMXMXbXkXnXkXjXkXaXdXaXyXuXk k v k g g g g g g g g g g j v v k tXtXtXuXaXaXaXdXjXfXlXlXjXcXzXcXcXzXVXzXVXcXVXzXVXzXVXVXzXVXzXVXzXzXzXzXjXjXjXjXjXjXpXpXpXm b m b x z l l 4 4 4 ; ; = = = O O O . . . . O O O O = = = = = = = = = O O O . . O O O & ; ; ; 7 7 7 b b m N N pXpXgXjXjXzXzXcXcXcXcXVXVXVXVXVXVXZXZXZXZXZXZXZXZXZXZXSXZXZXSXZXZXSXZXZXZXZXZXZXZXZXZXZXZXVXVXVXVXVXVXcXcXcXzXzXjXzXgXjXgXgXpXgXpXpXpXpXpXpXpXgXpXgXjXjXzXzXzXcXVXVXVXZXZXZXSXSXSXSXSXSXAXAXAXBXBXBXeXeXeX0XeXeXeX0XeX0X0X0XeX0XeXeXeXeXeXeXeXBXBXBXBXBXBXBXBXBXBXAXBXAXBXAXAXBXAXAXAXBXBXBXBXBXBXBXBXeXeXeXeXeX0X9X9X<X@X@XOXT.Y.Y.Y.j.d.4.2.<.;.-.W J D A A V V V B V B C C C Z Z Z Z I I P P P P ` P P ` P ` ` ` ` ` ` + U + ` ` + U + U + U U U U P P P P Z Z Z Z C C C B C B B B C C C C Z Z Z Z P P ` P P ` ` + + + @ @ @ @ @ 7.@ @ 7.@ @ @ @ @ @ @ + @ + + + + ` ` ` ` U P U P I Z I C Z C B B V V V V V D J K W :.<.1.3.s.A.A.S.T.L.XX.X=X&X=X-X-X-X>X;X5X3X4X3X4X4X3X7X X6X4XmX4XmX6XbX8XmXrXmX8XmXNXwXNXrXrXrXwXeXeXeXeX0X0X0X0X1X0X0X1X",
"0X1X0XqX0XqXqXeXeXrXwXNXNXNXNXNXmXmXmXMXMXxXbXkXlXkXdXhXaXuXuXyXk v v v g g g g g u u g g g g k k v k tXtXtXuXsXaXaXdXfXfXjXlXzXcXzXcXzXcXcXcXcXcXVXzXVXzXzXVXzXzXzXzXzXjXjXjXjXjXpXpXpXm m m m b z z l l 4 4 4 ; ; = = = O O & O O . . . . O O O O O O & & & & O O O O . . . O O O ; ; ; 7 7 l b b m m pXpXjXjXjXzXzXcXcXcXcXVXVXVXVXVXVXZXZXZXZXZXZXZXZXSXSXSXSXSXSXSXSXSXSXSXSXSXSXSXSXSXSXZXZXZXZXZXZXZXZXVXVXVXVXVXcXcXcXcXcXzXzXzXzXzXjXjXjXjXjXjXjXjXzXzXzXzXcXcXcXVXVXVXVXZXZXZXZXSXSXSXSXSXAXAXAXBXBXBXBXeXeXeXeX0X0X0X0X9X0X9X0X0X0X0XeX0XeXeXeXeXeXBXBXBXBXBXBXBXBXBXBXBXBXBXBXBXBXBXBXBXBXBXBXBXBXeXeXeXeXeXeX0X0X0X9X9X@X+XOXR.T.Y.A.j.d.4.2.<.;.;.W J D A A V V V V B B C C Z Z Z Z I I I P P U P ` P ` ` ` ` ` ` + + + + + + + + + ` + ` + U + U + U U U P P I Z Z Z C Z C C C C C C C C C Z C Z P Z P P P ` ` ` ` + + @ @ @ @ @ @ @ @ 7.@ @ @ 7.@ @ @ @ @ + + + + ` ` ` P ` U U P P I I Z Z C C C B B V V V D V D K -.-.<.&.5.d.f.Z.G.K.T..XoXoX=X&X*X-X*X>X5X;X3X3X3X3X4X4X4X7XvX4XvX6XvXmX6XmX8XmX8X8XrX8XNXwXrXrXrXeXwXeXqXqXeX0X0X0X0X1X1X0X",
"1X0X0X1XqXqXqXqXrXwXrXrXrXNXAXmXAXmXCXbXbXbXbXlXvXdXjXaXaXsXuXk k k k g g g g d u s d d u g g g g k k v tXtXuXtXaXaXaXfXfXjXjXjXjXjXzXzXcXzXzXcXzXzXzXzXzXzXzXzXjXzXjXjXjXgXjXpXpXpXm m b m b x z l 7 7 4 4 ; ; = = = & O O O O O . . . . . . O O O O O O O O O O O . . . O O O ; ; ; 4 7 l x b m N pXpXpXjXjXzXzXcXcXcXcXVXVXVXVXVXZXZXZXZXZXZXZXZXSXSXSXSXSXSXSXSXSXSXSXSXSXSXSXSXSXSXSXSXSXSXSXSXSXSXZXZXZXZXZXZXVXVXVXVXVXVXcXVXcXcXzXcXzXzXcXzXzXzXcXzXzXzXcXcXcXVXVXVXVXZXZXZXZXSXSXSXSXSXAXAXAXBXBXBXBXeXeXeXeXeX0X0X0X9X9X9X9X9X9X9X9X0X9XeX0XeXeXeXeXeXeXeXBXBXeXBXBXBXBXBXBXBXBXBXBXBXBXBXBXBXBXBXeXeXeXeXeXeX0X0X9X9X9X@X+XOXR.Y.Y.Y.j.d.4.4.<.;.;.W J D A A V V B V B C B Z C Z Z Z I I P P P U U ` P ` ` ` ` + + + + + + + + @ + @ @ @ + + + + ` + U ` U U U P P Z I Z Z C Z C C C C C C C C C Z P Z P P P ` P ` ` + + @ @ @ @ @ @ 7.@ 7.@ @ 7.@ @ @ @ @ @ @ @ + + + ` ` ` ` ` U U P Y I I Z Z Z C C B V V V V V D D J W ;.:.<.3.a.s.A.S.F.L.I.XX#XoX&X=X-X-X>X;X;X5X3X3X4X3X4X3X X6X4X6XvX8X4XmX6XmX6XmXrXmX8XrXNXrXwXrXwXeXeXeXeX0XqX0X0X0X0X0X0X",
"0X0X0XqX0XqXqXeXeXrXrXrXNXrXmXNXmXmXmXCXbXbXcXkXlXkXdXdXaXuXtXtXk v g g g u t u t u d d d u d g g g k k k k tXtXuXsXaXaXsXfXfXjXjXjXjXjXjXzXzXzXzXzXzXzXzXzXjXjXjXgXjXjXpXgXpXpXm m b m b z z l l 4 7 4 ; ; ; = = = & O O & O O O . . . . . . . . O . O O O . O . . . O O O O ; ; 4 7 7 x b b N pXpXjXjXjXzXzXzXcXcXVXVXVXVXVXZXZXZXZXZXZXZXSXSXSXSXSXSXSXSXSXSXSXSXSXSXSXSXSXSXSXSXSXSXSXSXSXSXSXSXSXSXSXSXSXZXZXZXZXZXZXZXVXVXVXVXVXVXVXcXVXcXcXcXVXcXcXVXVXVXVXVXVXVXZXZXZXZXZXSXSXSXSXSXSXSXAXAXBXBXBXBXeXeXeXeX0X0X9X9X9X9X@X9X@X@X9X@X9X9X9X9X0X0XeX0XeXeXeXeXeXeXBXBXBXBXBXBXBXBXBXBXBXBXeXBXBXeXeXeXeXeXeXeX0XeX9X0X9X@X@X@XOXR.T.Y.A.j.d.4.4.>.:.;.W J J D A A V V V B B C Z C Z Z I I I P U U U U U ` ` ` ` + + + + + @ @ @ @ @ @ @ @ @ @ @ @ @ + + ` + ` U ` U U P P Z Z Z Z C C C Z C C Z C Z Z Z Z P P P P ` ` ` + + + @ @ @ @ @ @ @ 7.@ @ @ @ 7.@ @ @ @ @ + + + + + ` ` ` P ` U U P I I I Z Z C C C C B V V V V D D F W -.:.<.1.5.s.A.A.K.K.I..XoX#X=X&X*X-X*X-X3X;X3X;X3X4X3X4X4X X6XvX6XvX8X4XmX6XmX8X8XrXmXwXrX7XrXwXrXwXeXeXqXqX0X0X0X1X0X1X0X",
"0X1XqX1XqXqXqXeXwXeXrXNXrXmXrXAXmXmXCXbXbXbXvXxXdXkXhXaXuXuXuXk k v g g d d d d u t d q d d u s g g g g v tXk tXtXtXtXaXsXsXfXsXjXjXgXjXjXjXzXgXzXzXzXgXjXgXjXjXjXjXpXpXpXm m m b b b z l l l 4 4 4 ; ; ; = = = = & O & O O & O O O . . . . . . . . . . . . . . . O O O O ; ; ; 4 7 l b b m pXpXpXjXjXzXzXcXcXcXVXVXVXVXVXZXZXZXZXZXZXZXSXSXSXSXSXSXSXSXSXSXSXSXSXSXSXSXSXAXSXSXSXSXSXSXSXSXSXSXSXSXSXSXSXSXSXSXSXSXSXZXZXZXZXZXZXZXVXVXVXVXVXVXVXVXVXVXVXVXVXVXVXZXZXZXZXZXZXSXSXSXSXSXSXSXAXAXAXBXBXBXBXeXeXeXeX0X0X9X9X@X@X@X@X@X@X@X@X@X@X@X9X9X9X9X9XeX0XeX0XeXeXeXeXeXeXeXeXeXBXeXBXeXBXeXBXeXeXeXeXeXeXeXeX0X0X9X9X9X@X@X@XOXT.Y.Y.Y.j.d.4.4.>.>.;.W K D A A V V V B B C C C C Z Z I I P P U U U U + U ` ` + + + + @ @ @ @ @ @ @ @ @ @ @ @ @ @ @ + @ @ + + ` + U ` U P P I I Z Z Z Z Z C C Z C Z Z Z Z P P P P ` ` ` + + + @ @ @ @ @ 7.@ @ @ @ @ @ 7.@ @ @ @ @ @ @ + + + ` ` ` ` ` U U U U U I I Z Z Z C C B B V V V V V D J K W _ <.1.5.d.g.S.S.K.L.I..XoX#X&X=X*X-X;X*X;X;X3X3X:X4X3X X6X4X4X4X6X4XmX6XmX6X8XmX6XrXmXrXrXrXwXrXeXwXeXqXqX0XqX0X0X0X0X0X",
"0X0X0X0XqXqXeXeXeXrXwXrXNXNXNXmXNXmXbXCXbXxXbXkXlXdXdXdXsXtXtXk v s v d d d q d q y t d q r d t d g g g g v v k tXtXtXtXsXaXsXsXsXsXgXgXgXgXgXjXgXgXgXzXgXgXpXpXpXpXm m m b m b z z l 7 7 4 4 4 ; ; ; = = = = = O O O O & O O & O & O O O O O . O . O . . O O O O O O ; ; ; 4 7 l x b m pXpXgXgXjXzXzXcXcXcXVXVXVXVXVXZXZXZXZXZXZXSXSXSXSXSXSXSXSXSXSXSXSXAXSXSXAXSXAXAXAXSXAXSXAXSXAXAXSXSXAXSXSXSXSXSXSXSXSXSXSXSXSXSXSXSXZXZXZXZXZXZXZXZXZXVXZXZXVXZXZXZXZXZXZXZXZXZXSXSXSXSXSXSXSXSXAXAXAXBXBXBXBXBXeXeXeXeX9X0X9X@X9X@X@XOX@XOX+XOXOX@X@X@X@X@X9X9X9X9X0X0XeX0XeXeX0XeXeXeXeXeXeXeXeXeXeXeXeXeXeXeXeXeX0XeX9X0X9X9X@X@X@XOXOXT.T.Y.j.j.f.4.4.<.>.-.W J D D A A V V V V B C C Z Z Z I I P P U U U U ` U + + + + + @ @ @ @ @ @ @ 7.@ @ 7.@ @ @ 7.@ @ 7.@ @ @ @ + ` + U U ` P P I I Z Z Z Z Z Z Z Z Z Z I Z P P P ` P + ` + + + @ @ @ @ 7.@ @ @ @ 7.@ 7.@ @ @ @ @ @ + + + + + ` ` ` ` ` U U P P I I I I Z C Z C B B V V V V D D F K -.) <.<.5.s.f.S.S.D.I.L.oX.X%X&X&X*X*X-X;X3X;X;X3X3X3X X3X:X7X4X4XvX6X4XmX6XmX8XrXmX6XrX8XrXrXrXqXrXqXeXqXqXqX1XqX1X0X0X0X",
"0XqX1XqXqXqXqXqXrXwXrXrXNXrXmXNXmXmXCXbXbXbXkXkXkXdXdXaXuXuXk k v g d d u q d t 9 q q q q i t t d t d g c s v v v v tXtXtXyXpXpXsXsXsXgXgXgXgXgXgXgXgXpXpXpXpXm m m m m b b z l l l 7 7 4 4 ; ; ; = = = = = O O & O O & O & O O O O O & O O O O O O O O O O O & & ; ; ; 4 4 l x x m m gXpXgXzXzXcXzXcXcXVXVXVXVXZXZXZXZXZXZXZXSXSXSXSXSXSXSXSXSXSXSXSXAXSXSXAXAXAXAXAXAXAXAXAXAXAXAXAXAXAXAXAXAXAXAXSXSXSXSXSXSXSXSXSXSXSXSXSXSXSXSXSXZXZXZXZXZXZXZXZXZXZXZXZXZXZXSXSXSXSXSXSXSXSXSXSXAXAXAXBXBXBXBXBXeXeX0XeX0X0X@X9X@X+X@XOXOXOXR.R.OXOXOXOXOX+X@X@X@X9X9X9X9X0X9XeX9XeXeX0XeX0XeXeXeXeXeXeX0XeXeX0XeXeX0XeX0X9X9X9X9X@X@XOXOXT.Y.Y.Y.j.f.4.4.<.>.;.W W D A A V V V B V C C C Z Z Z I P P P U U U U + ` + + + @ @ @ @ @ @ @ 7.@ 7.@ 7.7.7.7.7.7.7.7.7.@ 7.@ @ @ @ + ` + ` U U P U Z P Z I Z Z Z Z Z Z P Z P P P ` P ` ` + + + @ @ @ @ @ @ @ 7.@ 7.@ @ @ @ @ @ @ @ + + + ` + ` ` ` ` + U U U U U I I I Z Z Z C C B B V V V V V F D K ^ ) ,.1.5.5.s.g.S.H.L.I.P.oX#X#X&X&X*X*X*X*X;X;X3X:X:X3X:X7X:X4X4X6X4XmX6X6XmX6XmX6XrX8XrXwXrXwXrXwXwXeXqXqXqXqX0XqX0X0X0X",
"0X0XqXqXqXqXeXwXeXrXrXNXrXmXrXmXmXmXbXbXbXvXkXkXkXdXaXuXuXtXk k v g d d t d 9 t i q 0 0 0 0 0 0 0 t d t s u g v v v v n tXyXtXyXyXpXpXpXpXpXpXpXpXpXpXpXm m m m b b b z z z l 7 7 4 4 ; ; ; ; = = = = = O & O O O & O O O O O O O O O O O O O O O O O & = = ; & ; ; 4 4 l l x b m pXpXgXzXzXzXcXcXVXVXVXVXVXZXZXZXZXZXZXSXSXSXSXSXSXSXSXSXSXSXSXSXAXSXAXAXAXAXAXAXAXAXBXAXBXBXBXBXBXBXAXBXAXAXAXAXAXAXAXAXAXSXSXSXSXSXSXSXSXSXSXSXSXSXSXSXSXSXSXSXZXSXSXSXSXSXSXSXSXSXSXSXSXSXSXSXAXAXAXAXBXBXBXBXeXeXeX0XeX9X9X@X9X+X@XOXOXOXT.T.T.T.Y.T.T.R.OXOXOX@X@X@X@X9X9X9X9X9XeX9XeXeX0XeXeX9XeXeX0XeXeXeX9XeX0X0X0X9X9X9X9X@X@X+XOXOXT.Y.Y.j.j.f.6.4.<.>.-.W W D D A A V V V V B C C Z Z I Z P P P U U + U + U + + + @ @ @ @ @ @ 7.@ 7.7.7.7.7.7.7.7.7.7.7.7.7.7.[ [ @ @ @ @ + ` ` ` U U P P Z I Z Z Z Z I Z I Z P P P P ` ` ` + ` + + @ @ @ @ @ @ @ @ 7.@ @ @ @ @ @ @ + + + + + + ` ` ` ` ` U U U U P P P I Z I Z C Z C B B B V V V V D D K W ) :.<.&.s.s.g.S.D.K.L.I..X.X%X#X*X*X*X*X;X;X;X}.3X:X:X3X:X6X:X4X4X4X6X7X7XwXmXwXmX6XrX8XrXwXrXwXrXqXqXeXqXqXqXqX1X0XqX0X",
"qX0XqXqXqXqXeXeXeXrXNXwXNXrXmXNXmXmXmXbXbXbXkXkXhXdXdXaXuXk k v s d d t y q i 8 8 8 8 8 8 8 8 0 0 0 q t q d d d d j v v v v m m m m yXm m m pXm m m m m b m b b b z z l 7 7 7 4 4 ; ; ; ; ; = = = = & & O O & O & O O O O O . ; O O = O ; & ; = ; ; ; ; ; ; ; 4 4 7 l l x b m pXpXgXzXzXzXcXcXcXVXVXVXVXZXZXZXZXZXZXSXSXSXSXSXSXSXSXSXSXSXSXSXSXAXAXAXAXAXAXAXAXBXBXBXBXBXBXBXBXBXBXBXBXBXBXBXBXBXAXBXAXAXAXAXAXAXAXSXSXSXSXSXSXSXSXSXSXSXSXSXSXSXSXSXSXSXSXSXSXSXSXSXSXSXSXSXAXAXAXAXBXBXBXBXBXBXeX0XeXeX0X9X9X9X+X+XOXR.T.Y.Y.Y.Y.Y.Y.Y.Y.Y.Y.R.R.OXOX+X@X@X@X@X9X9X9X9X9X9X9XeX9XeX0X0XeX9XeX9XeX9X9X9X9X9X9X@X@X+X+XOXR.T.Y.F.Y.j.f.6.4.<.>.-.W W D D A A V V B V B C C Z Z Z Z P U P U + U U ` + + + @ @ @ @ @ 7.@ 7.7.7.7.7.7.8.7.8.8.8.8.8.8.7.7.7.7.7.7.[ @ @ @ + + U ` U P P P P Z P Z P Z I Z P P P P ` P ` ` ` + + @ @ @ @ @ @ @ @ @ @ @ @ @ @ @ @ + + + + + + ` ` + U + U U U U P U P I I I Z Z Z C C B B V V V V D D D K W ) $.%.5.1.s.s.g.D.D.L.L.oX.X#X&X#X&X_.*X*X*X;X:X3X}.3X:X:X:X7X:X4X6X4X6X6X7XwXmX6XrX8XrX6XrXwXrXqXrXwXqXqXqXqX1XqXqX0XqX",
"0XqXqXqXqXqXeXwXrXwXNXrXNXmXNXmXmXmXbXbXbXkXvXkXdXdXaXuXuXk k v u d d q 9 0 8 8 8 8 2 8 8 2 8 8 5 8 0 8 0 q q d y u u g v c b b m b b m b m b m b b b b b z x z z l 7 4 7 4 ; ; ; ; = ; & & = = O & O O & O O O O O & O ; O ; O ; ; ; ; ; ; ; ; ; 4 4 4 ; 7 7 7 l l x b m m pXgXgXzXzXzXcXVXVXVXVXVXZXZXZXZXZXZXSXSXSXSXSXSXSXSXSXSXSXSXAXAXAXAXAXAXAXAXBXBXBXBXBXBXBXBXBXBXBXBXBXBXBXBXBXBXBXBXBXBXBXBXBXAXBXAXAXAXAXAXAXSXSXSXSXSXSXSXSXSXSXSXSXSXSXSXSXSXSXSXSXSXSXSXSXAXAXAXAXAXBXBXBXBXBXeXeXeXeX0X9X9X9X@X+X+XOXT.T.Y.Y.Y.A.F.A.F.F.F.Y.Y.Y.T.T.OXOXOX@X@X@X@X9X@X9X9X9X9X9X9X9X9X9X9X9X9X9X9X9X9X9X@X@X@X@X+X+XOXR.Y.Y.Y.A.j.h.4.4.<.>.>.W W D D A A V V V V C C C C Z Z P P P P U ` U + + ` + @ @ @ @ 7.@ 7.7.7.7.7.8.8.8.8.8.8.8.8.8.8.8.8.8.8.7.8.7.7.7.@ @ @ @ + + U ` P U P P P Z P Z I I P P P P ` P + ` + + + + + @ @ @ @ @ @ @ @ @ @ @ @ @ + + + + + + + ` ` + U + U U U U U U I Y P I Z Z Z C Z C C B V V V V V D F J L ) _ <.3.s.s.s.Z.C.D.L.L.P..X.X#X&X$X*X*X_.;X*X}.3X3X}.3X:X:X:X6X4X4X4X6X7X6X7XwXNX6XrX8XrXwXrXwXrXqXqXwXqXqXqXqX0X0X0X0X",
"qXqXqXqXqXqXeXqXrXrXwXrXNXrXNXmXmXmXbXbXbXvXkXdXdXdXaXuXk m.v g s d q r i 8 8 8 2 8 8 2 2 8 2 2 2 8 5 8 8 0 8 q z q d u u c u c c b b b b b b x b x x z z z l 7 4 7 4 4 ; ; ; ; ; O ; & & ; = O & O & O O O O O & = O = O ; ; ; ; ; ; ; 4 7 4 7 7 7 7 7 l l l x x b m pXpXpXgXzXzXzXzXcXVXVXVXVXZXZXZXZXZXSXSXSXSXSXSXSXSXSXSXSXSXAXSXAXAXAXAXAXAXAXBXBXBXBXBXBXBXBXBXBXBXBXeXBXBXBXBXBXBXBXBXeXBXBXBXBXBXBXBXBXBXAXAXAXAXAXAXAXAXSXAXSXSXSXSXSXSXSXSXSXSXSXSXSXSXSXAXAXAXAXAXBXBXBXBXBXBXeXeXeXeX0XeX9X9X9X@X+X+XR.Y.Y.F.F.F.A.A.A.A.A.A.A.F.F.F.Y.Y.T.T.R.OXOXOX@X@X@X@X@X9X9X@X9X9X9X9X9X9X9X@X9X9X9X@X@X@X@X+XOXR.T.Y.Y.F.F.j.d.4.4.<.>.-.W W J D A A V V B V B C C Z Z Z P P P U U ` U ` ` + + @ @ @ @ 7.@ 7.7.7.7.8.8.8.8.9.9.9.9.9.9.9.0.8.9.8.8.8.7.8.7.7.7.@ @ @ @ + U ` ` P U P P P P P P P P P P P ` ` P ` + + + @ + @ @ @ @ @ @ @ @ @ @ @ + + + + + + + ` ` ` ` U + U U U U P U I U I I Z I Z Z Z C C B V V V V V V A D K E ^ _ &.1.&.s.s.Z.Z.D.L.L.P.P.#X#X$X&X*X_.*X*X}.3X_.}.:X:X:X:X:X4X:X4X6XvX6X7XwX7X6XNX6XrX6XrXwXrXwXqXrXqXwXqXqXqXqXqXqXqX",
"qXqXqXqXrXqXwXrXwXrXrXmXrXmXNXmXmXmX7XbXkXkXkXkXdXdXuXuXm.v h u t d 9 i 5 8 8 2 8 2 8 : 2 2 2 2 e : 2 5 5 5 0 8 q q 9 q z r z z z z x x x x l x l l l l l 4 4 7 4 ; ; ; ; ; & ; & ; & ; O O O O O O O O O ; O ; O ; ; ; ; ; ; 4 4 4 7 7 7 l l l x l x x b x b m m m pXpXgXzXzXzXzXVXVXVXVXVXZXZXZXZXZXSXSXSXSXSXSXSXSXSXSXAXSXAXAXAXAXAXAXAXBXBXBXBXBXBXBXBXBXBXBXBXBXeXBXeXBXeXeXeXeXeXBXeXBXBXBXBXBXBXBXBXBXBXBXBXBXAXAXAXAXAXAXAXAXAXAXSXAXSXAXSXSXAXSXAXAXAXAXAXAXAXAXBXBXBXBXBXBXeXeXeXeX0XeX0X9X9X9X@X+XOXR.T.Y.F.F.A.h.j.h.h.d.h.h.j.j.j.F.F.Y.Y.Y.T.T.OXOXOXOX@X+X@X@X@X9X+X@X9X9X9X9X@X9X@X@X@X@X+XOXOXOXR.T.Y.Y.F.A.h.d.4.4.<.<.-.-.W J D D A V V V V B C C Z Z I Z P P U U ` ` ` + + + @ @ @ 7.7.7.7.7.7.8.8.8.9.9.9.9.9.9.0.9.w.0.0.0.0.9.9.8.8.7.7.7.7.7.@ @ @ + + U ` ` P P P P P P P P P P P ` P + ` + ` + + + @ + @ @ @ @ @ @ @ + + + + + + + + ` ` ` ` ` ` U U U U U U U P P I I I I Z Z Z C C C B B V V V V V D D F W ^ _ %.&.s.&.Z.s.Z.D.J.J.P.P..X#X(.&X$X*X_.*X}.*X:X_.:X}.:X:X:X:XvX:X6X4X6X6X7X8XwX6XrX6XrXwXrXwXrXwXwXqXqXqXeXqXqXqXqXqX",
"qXqXqXqXqXqXrXwXrXrXrXrXmXNX8XmXmXbXbXbXvXkXkXdXdXuXuXtXk k u d d q i 8 8 8 2 8 8 2 : e 2 2 2 2 : 2 2 5 2 2 5 2 5 5 9 9 r r r z r r r l r l l l 7 l 4 7 4 4 4 ; ; ; ; = ; O ; O & = O O O O O O O O & = = & = ; ; ; ; 4 ; 4 4 7 7 l l x x x x b b m b m m m pXpXpXgXpXzXzXzXzXzXVXVXVXVXZXZXZXZXZXSXSXSXSXSXSXSXSXSXSXSXSXSXAXAXAXAXAXAXBXBXBXBXBXBXBXBXBXeXBXeXBXeXeXeXeXeXeXeXeXeXeXeXeXeXeXeXeXeXeXBXeXBXBXBXBXBXBXBXBXBXBXBXBXAXAXAXAXAXAXAXAXAXAXAXAXAXAXAXAXAXAXBXBXBXBXBXBXBXeXeXeXeXeXeX0X9X9X@X@X+XOXR.Y.F.F.F.A.h.h.d.4.4.4.4.4.4.4.h.j.A.j.F.Y.Y.Y.Y.T.T.OXOXOX+X+X+X+X+X9X+X+X+X+X+X+X@X+X+XOXOXOXR.T.Y.Y.F.F.A.h.d.4.4.<.>.-.-.W J D D A V V V B V C C C Z Z Z P P U U ` U ` + + @ + 7.@ 7.7.7.7.7.8.8.9.9.9.9.9.9.w.9.w.0.w.0.w.0.w.0.0.9.9.9.8.8.7.7.7.@ @ @ + + + ` P ` P U P P P U P P P ` P ` P ` ` + + + + + @ + @ @ + @ + + + + + + + ` + ` ` ` ` ` ` U U U U U U U I P Y I Z P Z Z C Z Z C C B V V V V V D A D J W ^ _ $.&.&.s.s.s.Z.Z.J.L.L..X(..X&X(.*X_.*X_.*X}.}.3X}.}.:X:X:X:X:X6X:X4X6X7X6X6X6XmX6XrX6XrX6XrXqX8XqXrXqXwXqXqXqXqXqXqX",
"eXqXqXrXqXrXqXrXwXNXrXmXrXNXmXmXmX7XbXbXkXkXkXdX^.aXQ.m.j g s u q t 8 8 8 2 8 : 2 2 % 2 : 2 : 2 2 : 2 : 2 2 2 2 2 2 3 3 5 3 r 4 r 7 7 4 7 7 4 4 4 4 4 ; ; ; ; ; = ; O = = ; O ; O O O O O O O O ; & = = ; ; ; ; ; ; 4 4 7 7 l l x x b b b m m m m m pXpXpXpXgXgXgXzXzXzXzXcXVXVXVXVXZXZXZXZXZXSXSXSXSXSXSXSXSXSXSXSXAXAXAXAXAXAXAXAXBXBXBXBXBXBXBXBXeXBXeXBXeXeXeXeXeXeXeXeXeX0XeXeXeXeXeXeXeXeXeXeXeXeXeXeXBXBXBXBXeXBXBXBXBXBXBXBXBXAXBXBXAXAXAXBXAXAXBXAXBXBXBXBXBXBXBXBXBXBXeXBXeXeXeX0X0X9X9X@X9X@X+XOXR.Y.Y.F.A.h.h.4.4.4.4.4.4.4.4.4.4.4.4.h.A.h.F.F.F.Y.Y.Y.T.R.R.OXR.OX+X+X+X+X+X+X+X+X+XR.OXOXR.R.T.Y.Y.F.F.F.h.h.4.4.4.>.>.;.-.W J D D V V V V V B C C Z Z Z I P P U U ` ` + + + @ @ 7.@ 7.7.7.7.8.8.8.9.9.9.9.9.e.e.e.e.e.e.e.e.w.w.w.w.0.0.9.9.8.8.8.7.7.7.@ @ @ + + ` ` P ` P U P P P U P ` P ` ` ` ` + + + ` + + + + + + + + + + + + + + ` ` ` ` ` ` ` U U U U U P U I P U I I I I Z Z Z Z C C C C B V V V V V V D D J W ^ _ $.&.&.s.s.Z.s.k.Z.J.k.L..XE.(.&X(._._.*X_._.}.}.}.:X}.:X:X:X:X:X4X4X4X6X7X6X8X6XrX8XrX6XrXwXrXqXrXqXwXqXqXeXqXqXqXeX",
"qXqXqXeXwXqXrXwXrXwXNXrXNXmXmX8XbXbXbXvXkXkXdXdXaXuXuXv v s d q i 8 8 8 2 8 2 2 2 2 2 : 2 : 2 : : : : : : : : : < < : 2 1 1 4 4 1 4 4 4 4 1 1 ; 1 ; ; ; ; = ; O ; O ; = = O O O O O O O O ; O ; & = ; ; ; ; ; ; 4 7 7 l l x x b b b m m pXpXpXgXpXgXpXgXgXzXgXzXzXzXcXzXVXVXVXVXZXZXZXZXZXSXSXSXSXSXSXSXSXSXSXSXSXAXAXAXAXAXAXBXBXBXBXBXBXBXBXBXBXeXBXeXeXeXeXeXeXeXeXeXeX0XeXeXeX0XeX0XeX0XeX0XeXeXeXeXeXeXeXeXeXeXBXBXeXBXBXBXBXBXBXBXBXBXBXBXBXBXBXBXBXBXBXBXBXBXBXBXBXBXeXBXeXeX0XeXeX0X9X9X9X9X+X+XR.T.Y.Y.F.A.h.4.4.4.2.4.4.<.<.>.2.>.4.4.4.4.4.h.j.j.F.F.F.Y.Y.Y.Y.T.R.R.OXR.R.+XR.+XR.+XR.R.R.R.T.Y.Y.Y.F.F.F.j.d.4.4.4.>.>.-.-.W J D D D V V V V B C C C Z Z Z P P U U + U + + @ @ @ @ @ 7.7.7.7.8.8.9.9.0.9.9.e.e.e.e.e.e.e.e.e.e.e.e.w.w.w.w.0.9.9.8.8.8.7.7.7.@ @ + + ` ` ` ` P U U U U U U P ` ` P ` + ` + + + + + + + + + + + + + ` + ` ` ` ` ` U + U U U U U U U U P U Y I I Z P Z Z Z Z Z C C C B V V V V V V D A D K H / / &.$.s.&.s.s.Z.Z.J.J.L.k..X(.#X(.$X#X_._._.}._.}.}.}.:X}.:X:X:X:X4X4X6X4X6X7X6X8X8XwX8XrXwXrXwXrXqXrXqXeXwXqXqXqXqXqX",
"eXqXrXqXeXrXwXrXrXrX8XmXrXmX8XbXmXbXbX4XkX XdX{.aX~.k m.v d d 9 0 8 8 2 8 2 2 8 2 : 2 : : : : : : : : % : : : : : : - : : < ; 1 1 ; ; ; ; 1 ; ; ; = ; & = = = ; O = O O O O O O O O & = & & ; = ; ; ; ; ; 4 7 7 7 7 z x b b m m pXpXpXgXpXgXgXgXzXzXzXzXzXzXzXzXzXVXcXVXVXVXVXZXZXZXZXSXSXSXSXSXSXSXSXSXSXAXAXAXAXAXAXAXAXBXBXBXBXBXBXBXBXeXBXeXeXeXeXeXeXeXeXeX0XeX0XeX9XeX9XeX9XeX0XeX9XeX0XeX0X0XeX0XeXeXeXeXeXeXeXeXBXeXBXBXBXBXeXBXBXBXBXBXBXBXBXBXBXBXBXBXBXBXBXeXeXeXeXeXeXeXeX0X0X9X9X9X+X+X+XR.R.Y.F.F.h.h.4.4.4.<.<.>.>.>.>.>.>.>.>.<.2.4.4.4.4.h.h.A.F.F.F.Y.F.Y.Y.Y.Y.Y.R.Y.R.Y.R.Y.Y.R.Y.Y.Y.Y.F.F.A.A.h.d.4.4.4.>.>.;.-.W J D D A V V V V V B C C Z Z I I U U U ` U + + @ @ @ 7.7.7.7.7.8.8.9.9.0.0.w.e.e.e.e.e.e.e.e.e.e.e.e.e.e.e.e.w.w.w.9.9.8.8.8.7.7.7.7.@ @ + + ` ` U ` U U U U U U U P ` ` ` ` + ` + + + + + + + + + + + ` + ` ` ` ` ` ` U U U U U U U P P U I I I I I I Z Z Z Z Z C C C C V V V V V V V V D D J W ~ / $.&.&.s.s.s.Z.Z.D.J.k.P.P..X(.#X$X_.(._._._.}.}._.}.}.:X}.:X:X:X:X6X:X6X4X6X7X6X8X8X6X8XeX6XrXqXrXwXrXqXeXqXwXqXeXqX",
"qXrXqXqXrXwXrXrXrXrXmXrXmXmXmXmX7XbXvXkXkXhXdXaX~.tXk v d d r i 8 8 2 8 2 2 2 : : 2 : : : % : % : % % : % % $ : $ - : - ; ; - ; ; ; ; ; ; O ; ; = = = = = & & O & O O O O O O & & = & & & ; ; ; ; ; ; 4 7 7 l l x b b b m pXpXpXpXgXgXgXjXzXzXzXzXzXzXzXcXzXVXzXVXVXVXVXVXZXZXZXZXSXSXSXSXSXSXSXSXSXSXSXAXAXAXAXAXAXAXBXBXBXBXBXBXBXBXBXeXBXeXeXeXeXeXeXeXeXeX0XeX0XeX0XeX9XeX9X0X9X9X9X9X9X9X9X9XeX9XeX9XeX0X0XeXeX0XeXeXeXeXeXeXeXBXeXBXBXBXeXBXBXBXeXBXBXBXeXBXeXeXeXeXeXeX0XeX0X0X0X9X@X9X+X+X+XR.T.Y.F.F.h.h.4.4.2.<.>.>.;.;.-.-.-.;.;.;.>.<.<.<.4.4.4.d.h.h.h.A.A.F.F.F.Y.Y.Y.Y.Y.Y.Y.Y.Y.Y.Y.F.F.Y.A.A.A.j.h.4.4.4.4.>.>.;.-.W J D D A V V V V B B C C Z Z I I P P U ` U + + @ @ @ @ 7.7.7.8.8.9.0.0.w.0.e.e.e.e.e.e.e.e.e.e.e.e.e.e.e.e.e.e.w.w.w.0.9.0.8.7.8.7.7.@ @ @ + + ` ` ` U ` U U U U U ` ` P ` ` ` ` + + + + + + + + + + ` ` ` ` ` ` ` ` ` U U U U U U U P U Y I I I I Z P Z Z Z Z Z C C C C B V V V V V V V A D J K H / o.$.&.5.5.s.s.s.Z.J.J.L.P.k.E.#X(._.(._.)._._.}._.[.}.}.}.:X[.:X:X:X:X4X4X6X4X6X6X6X8X8XrX8XrX6XrXrXwXqXwXwXeXqXrXqXrX",
"rXqXrXrXwXrXwXrXrXmXrXmXrXmXmXmXbXvXvXkX{.hX{.aXQ.k j s u t i 5 8 8 5 2 2 : : 2 : : : : : : % % % % % % $ $ $ $ $ $ * * * ; - & & = = = = ; O & & & & O & O & O O O O O O O ; O ; & ; ; ; ; ; ; 4 4 7 7 l l x b b b m pXpXpXgXgXjXgXzXzXzXzXzXzXcXzXzXVXzXVXVXVXVXVXVXZXZXZXZXZXSXSXSXSXSXSXSXSXSXAXAXAXAXAXAXAXBXBXBXBXBXBXBXBXeXBXeXeXeXeXeXeXeXeXeXeX0XeX9XeX9X0X9X9X9X9X9X9X9X9X9X9X9X9X9X9X9X9X9X9XeX9XeX0X0XeXeXeXeXeXeXeXeXeXeXeXeXeXeXBXeXBXeXBXeXeXeXeXeXeXeXeXeXeX0XeX0X0X9X9X@X9X+X+X+XR.Y.Y.F.F.h.h.4.4.<.>.>.;.-.-.-.-.-.-.W -.-.-.>.>.>.<.4.4.4.4.h.h.j.j.A.A.A.F.F.Y.F.Y.Y.Y.Y.F.Y.F.F.F.h.F.j.h.d.d.4.4.2.>.>.-.-.W J J D A A V V V V V C C C Z I I I U U ` ` + + @ @ @ 7.7.7.7.8.8.8.0.0.w.w.w.e.e.e.e.e.e.e.e.e.e.e.e.e.e.e.e.e.e.w.w.w.w.9.9.8.8.7.7.7.7.@ @ + + + U + U U U U U U U U ` ` ` ` ` ` ` ` + ` + ` ` ` ` ` ` ` ` ` ` U U U U U U P U P P U I I I I I I I Z Z Z Z Z C Z C C C V V V V V V V V V D D D K ^ ^ _ %.&.&.s.s.Z.Z.Z.J.J.L.k.P.E.(.#X(.*X)._._._._.}.}.}.[.}.[.:X}.:X|.:XvX4X4X6X7X6XmX6X8X8X8XrXrX6XwXrXrXqXrXqXrXqXrXqX",
"eXrXrXwXrXrXrXmXrXNXNXrXmXmX8XbXbXvXkXkXhX{.aXtXk m.d d i 0 8 8 8 2 2 : 2 2 2 : : % : : % % % % % % % $ $ $ $ # $ & o & * o & . = O O O O O O O O O O & O O O O O O O O ; & & ; & ; ; ; ; 4 4 4 7 l l l x b b m pXpXgXpXgXgXgXzXzXzXzXzXzXzXzXVXzXVXVXVXVXVXVXVXVXZXZXZXZXZXSXSXSXSXSXSXSXSXSXAXAXAXAXAXAXAXBXBXBXBXBXBXBXeXBXBXBXeXeXeXeXeXeXeXeXeX0X0XeX9XeX0X9X9X9X9X9X9X@X9X@X9X@X9X@X9X9X@X9X9X9X9X9X9X9X0X0X0X0X0X0XeX0XeXeXeXeXeXeXeXeXeXeXeXeXeXeXeXeXeXeXeXeXeXeX0XeX0X0X9X9X@X9X+X+X+XR.T.Y.Y.A.A.h.4.4.<.>.>.-.-.-.W -.W W J -.W -.-.-.-.>.>.<.2.2.4.4.4.h.h.h.A.F.h.F.j.Y.j.Y.j.F.F.F.j.F.A.A.j.h.d.h.4.<.4.>.>.>.-.W W J D A A V V V V B C C C Z Z I P P U ` U ` + + @ @ 7.7.7.7.8.8.9.9.0.w.w.w.e.e.e.e.e.e.e.e.e.e.e.e.e.e.e.e.e.e.e.w.w.w.9.w.8.8.8.7.7.7.@ @ @ + + + + U + U U U U U U U U ` ` ` ` ` ` ` ` ` ` ` ` ` ` ` + U + U U U U U U Y U U P U Y I I I I I Z I Z Z Z Z C Z Z C C C V V V V V V V V V V A D J E ^ ^ $.&.$.s.s.s.s.Z.D.D.L.k.P.P.(.#X(._.).)._._._.}.[._.[.}.[.:X[.|.|.:X X:X4X4X4X4X8X6X6X8X8X8XrX6XrXrXrXwXrXqXrXwXrXqXrX",
"rXrXrXrXrXrXNXrXmXrXmXmXmXmXbXbXvXvXkXdX{.aX~.Q.j d d t 0 0 5 5 5 5 2 5 : : : : : : % : % * $ $ # # # # # $ o $ o * & o & & o & O O O O O O O O O & O O & O O O O O & ; O = ; ; ; ; ; 4 4 4 7 l l x b b m m m pXpXgXgXjXzXzXzXzXzXVXzXzXVXVXVXVXVXVXVXVXVXVXZXZXZXZXZXZXSXSXSXSXSXSXSXSXSXAXAXAXAXAXAXAXBXBXBXBXBXBXBXeXBXBXeXeXeXeXeXeXeXeXeX9XeX0XeX9X0X9X9X9X9X9X9X@X9X+X9X@X9X@X@X@X9X+X9X@X9X+X9X9X@X9X9X9X9X0X0X0X0X0XeX0XeX0XeXeXeXeXeXeXeXeXeXeXeXeXeXeXeXeX0XeX0X0X0X0X9X9X9X@X@X+X+XR.R.Y.Y.j.F.d.4.4.<.<.>.-.-.-.W W J W J W J W J -.-.-.>.>.>.<.2.4.4.4.4.h.h.h.j.F.h.F.j.F.j.Y.j.F.j.F.h.A.h.h.h.4.4.4.4.>.>.>.-.-.W J J D A A V V V V V B C Z Z Z I I U U ` ` + + @ @ 7.@ 7.7.8.8.8.0.0.w.w.w.e.e.e.e.e.e.e.e.e.e.e.e.e.e.e.e.e.e.w.w.w.w.w.9.9.8.8.8.7.7.@ 7.@ @ + + U ` U U U U U U P U U U U U ` ` ` ` ` ` ` ` ` ` ` ` ` U U U U U U U U P U I U I I I I I I Z Z I Z Z Z C Z C C C C C V V V V V V V V A V D D D J W ^ _ $.1.5.&.s.s.Z.Z.D.J.k.L.k.#X#X(.*X(._._._._.[._.}.[.}.[.[.[.[.[.:X[.|.:X X4X4X4XvX8X8X6X8X8X8XrX8XrXrX8XrXrXwXrXrXrXrX",
"rXrXrXNXrXNXrXrXNXNXmXmXmXbXbXvXkXkXhX{.aXQ.j j d d q q 8 8 5 5 5 : 2 : : : : : : % % % % % * * * * * # # o # o o o o o     . . O . O O O O O & O O & O O O O O & & & & ; ; ; ; ; 4 4 7 7 l l x b b m pXm pXgXgXgXgXzXzXzXzXzXzXzXzXVXVXVXVXVXVXVXVXVXZXZXZXZXZXZXZXZXSXSXSXSXSXSXSXSXSXAXAXAXAXAXAXBXBXBXBXBXBXBXBXBXBXeXeXeXeXeXeXeXeXeX0X0XeX0X0X0X9X9X9X9X@X9X9X@X9X@X9X@X@X@X+X+X+X+X+X+X@X+X9X+X@X9X9X@X9X9X9X9X0X0X0X0X0XeX0XeX0XeXeXeX0XeXeXeXeXeXeXeX0XeXeXeX9XeX0X0X9X9X9X@X9X+X+XOXR.T.Y.F.Y.h.h.4.4.<.>.;.-.-.J -.J J J J J J J W W W -.;.-.>.<.>.4.2.4.4.d.h.h.h.j.j.F.j.j.F.j.F.j.j.j.A.h.h.h.d.h.4.<.4.<.>.>.-.-.W J D A A A V V V V B C Z C Z I I P U U U + + @ @ @ @ 7.7.8.8.8.9.9.w.w.w.w.e.e.e.e.e.e.e.e.e.e.e.e.e.e.e.e.e.w.w.w.w.9.w.0.8.8.8.7.7.7.7.@ @ + + U + + U U U P U U U U U U U U ` U U ` ` ` ` ` ` ` U U U U U U U U P U I U I P I P I Z I I Z Z I Z Z C Z Z Z C C C V V V V V V V V V A V D D D J K ^ / $.&.&.&.s.s.C.Z.D.L.L.L.k..X#X(.#X(._._._._.}._.}.[.}.[.[.[.[.[.|.'.|.|.|.|.|.vX4X4X4XvX8X7X8X8XmXrXmX8XrXrXrXNXrXrXrXrX",
"rXNXNXrXNXNXNXmXNXmXmXmXbXbXvXkXkXdXaXaXQ.Q.j d d q 0 5 5 5 5 5 : 2 : : 2 : 2 : : 2 : : : : : : % % * * * * o & o o o o       . . . . . O O O O & O O O O O & ; & ; ; ; ; ; ; 4 4 7 l 7 x x b m m m pXpXgXgXgXzXzXzXzXcXcXzXVXVXVXVXVXVXVXVXZXZXZXZXZXZXZXZXZXZXSXSXSXSXSXSXSXSXSXSXAXAXAXAXAXAXBXBXBXBXBXBXBXeXBXeXeXeXeXeXeXeXeXeX0XeX9XeX9X0X9X9X9X9X9X@X9X9X@X@X@X@X+X+X+X+X+X+X+X+X+X+X+X+X+X+X9X+X+X9X9X@X9X9X9X9X9X0X0X0X0XeX0XeX9XeXeXeXeXeX9XeX0XeXeXeX9XeX9XeX9X0X9X9X9X@X@X@X+XOXR.R.Y.Y.F.h.j.4.4.4.>.>.-.-.W W J J J J D J J J J W W -.-.>.>.>.<.<.4.4.4.4.d.h.h.h.j.j.A.j.A.j.j.A.F.j.j.j.h.h.4.4.4.4.<.<.>.;.;.W W J J D A A V V V V V B C Z Z Z I U Y U + U + + @ @ 7.7.7.7.8.8.9.0.0.w.w.e.w.e.e.e.e.e.e.e.e.e.e.e.e.e.w.w.w.w.w.w.w.9.8.8.8.7.7.7.7.@ @ @ + + ` + U U U U U U P P P U P U Y U U U U U U U U U U U U U U U U U P U Y P P I I I I Z I I Z Z I Z C Z C Z C C C C V V V V V V V V V V A A A D D J K -.^ _ 1.&.1.s.s.C.C.D.D.L.L..X.X#X(.#X_.&X_.*X}._.}.}.}.[.[.[.[.[.|.'.|.[.|.^.|.|.|.|.vX4X4X4XmX8X8XmX8X8XrXmXrXmXrXrXrXNXrXrX",
"rXNXrXNXrXAXmXAXmXmXmXbXbXbXkXkXdX{.aXQ.j g d y q 5 q 5 5 2 5 : 2 2 2 5 : 2 : 2 2 : 2 : : : : : : : % % * * * * & * o &   o O . . . . . . O O O O O O O O & & & & ; ; ; 4 4 7 7 7 l l b b m m m pXgXpXgXgXzXzXzXzXzXzXzXzXVXVXVXVXVXVXZXZXZXZXZXZXZXZXZXZXZXSXZXSXSXSXSXSXSXAXSXSXAXAXAXAXAXBXBXBXBXBXBXBXBXBXBXeXeXeXeXeXeXeXeX0X0XeX9XeX0X9X9X9X9X9X9X@X9X@X@X@X+X+X+X+X+XOX+XOX+XOX+XOXOX+X+X+X+X+X+X9X+X@X9X@X9X9X9X9X0X0X0X0X0XeX0XeXeXeXeX9XeXeXeXeXeX9XeXeX9XeXeX9X0X9X9X9X@X9X+X+X+XR.R.Y.F.F.A.h.4.4.<.<.;.-.W W J J J J D J D J J J W W W -.-.-.>.<.>.4.4.4.d.d.h.h.j.j.j.j.A.j.A.j.j.j.j.j.j.h.h.h.4.4.4.<.<.>.>.-.-.W J J D A A V V V V V C C C Z I I I U U U + + @ @ @ 7.7.7.8.8.8.0.9.w.w.w.w.e.e.e.e.e.e.e.e.e.e.e.w.e.w.w.w.w.w.w.w.8.8.8.8.7.7.7.7.7.@ @ @ + ` + ` U U U P P P P P Y I U I U P P U U U U U U U U U U U P U P P U I I P I I I I I I Z Z Z Z C Z Z C Z C C C B V V V V V V V V V V A A V D D J J W -.:.1.1.1.s.d.C.C.D.D.L.L..X.X#X#X&X*X*X}.*X}._.:X}.:X[.|.|.[.{.[.[.{.[.^.'.|.'.{.{.|.|.kXvXvX4XvXmX4XmX8XmXrXmXrXNXrXNXrXrXAX",
"AXBXAXAXmXNXNXmXmXmXbXbXkXkXkXdXaXtXQ.j d d q q 9 8 5 5 5 2 2 5 5 2 5 3 9 2 9 3 5 3 3 3 5 < < < : < < : < % - % * * & o * & O . . . . . . . O O O O O O & = ; ; ; ; ; 4 4 7 l l b b b m m m gXpXgXgXzXzXzXzXzXcXzXVXVXVXVXVXVXVXZXZXZXZXZXZXZXSXZXSXZXZXZXSXSXSXSXSXSXSXSXSXSXAXAXAXAXAXBXBXBXBXBXBXBXeXBXeXeXeXeXeXeXeXeX0XeX9XeX0X0X0X9X9X9X9X@X9X@X@X@X@X@X+X+X+X+XOXOXOXOXR.R.R.R.R.OXOXOX+XOX+X+X+X+X9X+X@X9X@X9X9X9X9X0X0X0X0X9XeX9XeX9XeXeX9XeXeXeX9XeXeX9XeX9X9XeX9X0X9X9X@X@X@X+XR.R.Y.Y.Y.j.h.h.4.4.>.>.>.-.-.W J J J J J D J D J J J W -.-.>.>.>.<.4.2.4.4.4.h.h.h.A.j.j.A.j.A.j.Y.j.A.j.j.j.j.j.h.4.h.4.4.>.<.>.-.-.W J J J D A V V V V V B C Z Z Z I I U U U U + + @ @ @ 7.7.7.8.8.8.0.0.w.w.w.w.e.e.e.e.e.e.e.w.e.w.w.w.w.w.w.w.9.8.8.8.8.8.7.7.7.@ [ @ @ + + + + U U U U I Y P I I I I P I I P U Y U U I U U U U Y P U P U P Y P I I I I Z I Z Z Z Z Z Z Z C Z C C C C C V V V V V V V V V V V V A V A D J J J -.-.:.<.1.1.d.s.C.C.D.D.I.P.oX#X#X&X*X&X*X>X*X3X:X:X:X:X:X X|.|.|.|.dX^.{.{.[.dX'.dX'.dX{.{.|.|.kXvX4XbXmX8XbXmXNXNXNXNXNXNXNXAXrX",
"AXmXAXmXCXCXmXmXbXbXnXvXkXhXaXaXtXm.g d y q 0 9 5 5 5 5 5 9 5 9 9 9 9 9 q 9 q q r q q q 5 q q 5 r 5 5 < < < < < : - * - & o O & O . . O . . O O O O O ; = ; ; ; 4 4 7 7 l l l b m m N pXN gXpXgXjXzXzXzXzXzXVXzXVXVXVXVXVXZXZXZXZXZXZXZXSXSXZXZXZXZXSXSXSXSXSXSXSXSXSXSXSXSXAXAXAXAXAXBXBXBXBXBXBXeXBXBXeXeXeXeXeXeX0XeX9XeX0XeX0X9X9X9X9X@X9X@X9X@X@X@X+X+X+X+XOX+XOXR.R.R.R.R.R.R.R.R.R.R.R.R.+XR.+X+X+X+X+X9X@X9X@X9X9X9X9X0X0X9XeX9XeXeXeX9XeXeXeX9XeXeXeX9XeXeX9XeX9X9X9X9X9X@X@X+X+X+XR.R.Y.F.F.A.h.4.4.4.>.;.-.W W J J J J D J D J J W J W -.-.-.>.>.2.<.4.4.4.h.h.j.j.j.j.A.j.Y.j.Y.j.Y.j.Y.A.j.j.j.h.h.4.4.4.4.<.>.>.-.-.W J J A A A V V V V V C C Z Z Z I U U U + ` + + @ @ 7.7.7.8.8.8.9.9.w.w.w.w.w.w.w.w.w.w.w.w.w.w.w.w.w.w.w.8.8.8.8.8.7.7.7.7.7.@ @ @ + + U + U U U P U I I I I I Z P Z I I I I I I I U P Y U I U P P Y I I I I I I P Z P Z Z Z Z Z Z Z C Z C C C C B V V V V V V V V V V V A A A D D J J W W -.:.,.1.1.d.g.g.C.H.L.L.P..X%X#X=X*X=X3X2X3X3X3X3X3X3X X X X X X|.hX|.|.|.^.^.^.^.'.dX'.dX^.{.dXkX|.kXvXvXbXmXmXmXmXmXmXAXmXAXmXAX",
"CXAXmXAXmXMXmXnXmXbXkXkXhXdX~.n j d d y 0 q 9 8 8 9 9 9 9 9 q y q y y d u u c d u u g u u y u q y y r q q 5 2 < < < < * - & O & . O . . . . O & O O ; & ; ; ; 4 4 7 l l b b m m N pXpXgXjXgXzXzXzXzXcXzXcXVXVXVXVXVXVXZXZXZXZXZXZXZXZXZXZXZXSXSXSXSXSXSXSXSXSXSXSXSXSXSXSXAXAXAXAXAXBXBXBXBXBXBXeXBXeXeXeXeXeXeXeXeXeX9XeX9X9X9X9X9X9X@X9X9X@X@X@X+X+X@X+XOXOXR.R.R.R.R.R.T.R.T.R.T.R.R.R.T.R.R.R.+XR.+X+X+X+X+X9X@X9X9X9X9X0X0X0X0XeX9XeX9XeXeXeX9XeXeX9XeXeXeX9XeXeX9XeX9X9X9X9X9X@X@X+XR.+XY.R.F.F.h.h.d.4.<.>.>.W -.W J J J J D J J J J J W W W -.>.>.>.<.4.4.4.d.h.h.j.j.A.A.j.Y.A.Y.j.Y.A.A.A.A.Y.h.j.j.j.h.4.4.4.<.<.>.;.-.W J J J A A A V V V V V C C Z I I I U U U + + + @ @ @ 7.7.7.8.8.8.0.9.0.9.w.w.w.w.w.w.w.w.w.0.w.w.0.8.8.8.8.8.7.7.7.7.@ 7.@ @ @ @ + + + + U U U U I I I I Z I Z Z Z Z Z I I I I I I I I I P I I P I I I I Z I I Z Z Z Z Z Z C Z C Z C C C C C V V V V V V V V V V V V V A A A A D J J J W ;.:.<.2.6.6.g.g.S.H.D.I.oXoX%X%X-X-X2X3X2X3X3X6X3X7X7X7X7X X7X XvX X|.hX|.hX|.dX^.dX~.^.^.'.dX~.dX{.dXkXkXvXvXnXmX7XMXmXmXmXAXmXAXCX",
"AXZXCXmXZXmXnXmXnXkXhXdXaXuXn j d d y q 9 8 9 8 9 9 q 9 y d u u u c v v v v v yXk b v yXk yXg yXg g u u y r r 6 5 < < - - & & O O O . . . O O O O & ; ; ; 4 4 7 l x l b m m pXpXpXpXgXjXjXzXzXzXcXcXzXVXVXVXVXVXVXZXZXZXZXZXZXZXZXZXZXSXSXSXSXSXSXSXSXSXSXSXSXSXSXAXSXSXAXAXAXAXAXBXBXBXBXBXBXeXBXeXeXeXeXeXeX0XeX0X9XeX9X9X9X9X9X9X@X9X@X@X@X+X+X+X+XOXOXR.R.R.R.R.T.T.T.T.Y.Y.Y.Y.T.Y.T.R.R.R.R.R.+XOX+X+X+X+X9X@X@X9X9X9X9X0X0X9X9XeX9XeXeXeX9XeXeXeXeXeXeX9XeXeX9XeX9XeX0X9X9X@X9X@X+X+XR.R.Y.F.F.F.h.4.4.<.>.-.-.-.W J J J J J J J J J J W -.-.>.>.>.>.4.4.4.4.h.h.h.j.Y.j.j.Y.A.Y.Y.Y.Y.Y.Y.Y.Y.j.Y.A.A.j.h.h.4.4.4.>.>.>.-.-.W J J D A A V V V V V C Z C Z I I P U U U + + + @ @ 7.7.7.7.8.8.8.8.9.w.9.0.w.w.w.w.0.w.w.w.9.8.8.8.8.8.8.7.7.7.7.7.7.@ @ @ + + ` + + U U U U I P I I Z Z Z C Z Z Z Z Z Z Z Z I Z I I I I I I I Z I I I I Z Z Z Z Z Z Z Z Z Z C C C C C B V V V V V V V V V V V V A A A A D J J J W W ;.:.<.2.6.d.g.A.C.H.L.I.oX%X%X=X-X2X2X2X5XwX6XwX8X7X7X7X7X7X7XbX7XxXvXxX XlX|.hXdXdX^.dXuXuXaX~.aX'.aX{.dX|.kXlXvXvXnXmXmXmXZXmXZXCXCX",
"ZXmXZXmXbXmXnXkXlXkXdXaXtXj v d d y 9 0 9 9 9 y y y y c u c v n tXm yXyXpXsXyXsXpXsXiXiXiXiXiXiXyXk k g g u y r 6 6 < ; - - & & O . . O . O O O ; ; ; ; 4 7 l l l b m m N pXpXpXjXjXjXzXzXcXcXcXcXVXVXVXVXVXVXZXZXZXZXZXSXZXZXSXSXSXSXSXSXSXSXSXSXSXSXSXSXSXSXSXSXSXSXAXAXAXAXAXBXBXBXBXBXeXBXeXeXeXeXeX0XeX0XeX9XeX9X9X9X9X9X@X@X9X@X@X@X+X+X+XOXOXOXR.R.R.R.T.T.Y.Y.Y.Y.Y.Y.Y.Y.Y.Y.Y.Y.T.Y.R.R.R.R.+XOX+X+X9X+X9X@X@X9X9X9X0X0XeX9XeXeX9XeXeXeXeX9XeXeX9XeXeXeX9XeXeX9X9X9X9X9X9X@X@X+X+XR.R.Y.Y.F.h.j.4.4.4.>.>.-.W W W J J J J J J J J W W W -.-.>.>.4.2.4.4.h.h.h.A.j.A.Y.Y.Y.Y.Y.Y.Y.Y.Y.Y.Y.Y.Y.A.A.j.A.j.j.h.4.4.4.>.>.>.-.W W J J D A A V V V V V C Z Z Z I Y U U U U + + + @ @ 7.@ 7.7.8.8.8.8.8.0.9.9.9.9.9.9.8.8.8.8.8.8.8.7.7.7.7.7.7.@ [ @ @ + + + ` + U U U U U I I Z Z Z Z Z C Z C C Z C Z Z Z Z Z I Z I Z I Z I Z I Z Z Z Z Z Z Z Z C Z C C C C C C V V V V V V V V V V V V V V A A A A A D J J J -.-.;.>.>.2.6.d.f.A.S.H.T.I.oXoX=X=X-X1X5X5XwXwXwX8X8X8XNX8XMXmXMXMXbXbXbXbXxXxXxXhX|.hXdXfXdXdXuXuXuXuXuXuXaXaXdXdXkXkXkXbXnXmXMXmXMXmXZXCX",
"CXnXmXnXbXnXlXkXkXaXaXtXv g d y y 9 q 9 y r y y y c c v n yXyXpXpXsXsXsXjXsXjXsXjXjXgXgXgXfXgXiXaXtXyXyXb g u y r 5 1 1 < & = O O O . . O O O & ; ; ; 7 7 7 l b m m pXpXpXpXjXjXjXzXzXcXcXcXcXVXVXVXVXVXZXZXZXZXZXZXZXZXZXSXSXSXSXSXSXSXSXSXSXSXSXSXSXSXSXSXSXSXAXSXAXAXAXAXAXBXBXBXeXBXeXBXeXeXeXeX0XeXeX9XeX0X0X9X9X9X@X9X9X@X9X@X+X+X+X+XOXOXR.R.R.R.T.R.Y.Y.Y.Y.Y.Y.Y.F.Y.F.Y.F.Y.Y.Y.Y.R.Y.R.R.R.R.+X+X+X+X+X@X@X9X9X9X9X9X0X9X9XeX9XeXeX9XeX9XeXeXeXeXeXeX9XeXeX9XeX9XeX9X9X9X@X@X+X+XR.R.R.Y.F.A.h.d.4.<.<.;.-.-.W J J J J J J J J J W W -.-.>.>.<.<.4.4.d.h.h.j.j.Y.A.Y.Y.Y.Y.Y.Y.R.Y.R.Y.Y.Y.Y.Y.Y.Y.j.A.j.h.h.4.4.4.<.>.;.-.W J J D A A V V V V V C C Z Z I I I U U + U + + @ @ @ 7.7.7.7.7.8.8.8.8.8.8.8.8.8.8.8.8.8.8.8.7.7.7.7.7.7.7.[ @ @ @ + + + + + ` U U U U I P P Z Z C Z C C C C C C C C C C Z Z Z Z Z Z Z Z Z Z Z Z Z Z Z Z C Z C Z C C C C C B V V V V V V V V V V V V V V A A A A D J J J J W ;.;.>.>.4.6.f.f.F.S.H.I.XXoX%X=X<X-X0X5XeX5XeX8X8X8X8XNXCXCXCXCXCXMXMXVXMXVXxXnXxXxXlXlXlXdXdXaXdXuXuXuXuXuXtXuXuXdXdXdXkXlXvXbXbXMXbXZXmXZX",
"nXmXnXbXnXkXlXhXaXiXQ.v g d y y 9 y 9 y y y u c c n yXyXpXsXgXgXgXjXjXjXjXzXjXcXjXjXjXjXjXjXgXgXaXsXiXiXyXv c u y 6 3 < ; - & O O . . O O O ; ; ; 4 7 7 l b b m m pXpXpXjXjXjXzXzXcXcXcXVXVXVXVXVXVXZXZXZXZXZXZXZXSXSXSXSXSXSXSXSXSXSXSXSXSXSXSXSXSXSXSXSXSXSXSXSXAXAXAXAXAXBXBXBXBXBXBXeXeXeXeXeX0XeX0XeX0X9X9X9X9X9X@X9X@X@X@X+X+X+X+XR.OXR.R.R.R.Y.Y.Y.Y.Y.F.F.F.F.F.F.F.F.F.F.F.F.Y.Y.Y.Y.R.R.R.R.R.R.+X+X+X9X+X9X@X9X9X9X9X0XeX9XeXeX9XeXeXeXeXeX0XeXeXeXeXeXeX9XeX9XeX9X9X9X9X9X@X@X+X+XR.Y.Y.F.F.h.d.4.4.>.>.-.W W W W J J J J J J J W -.-.;.>.>.2.4.4.4.h.h.j.j.F.A.Y.Y.Y.Y.Y.R.Y.Y.R.Y.R.Y.R.Y.Y.Y.Y.Y.j.j.j.j.h.4.4.<.<.>.;.-.J J J D A A V V V V V C C Z Z I I U U U ` + + + + @ @ 7.7.7.7.7.8.8.8.8.8.8.8.8.7.8.7.7.7.7.7.7.7.7.@ @ @ @ @ + + + + + U ` U U U P I P Z Z Z Z C C A B V V V V B A C C C C C Z Z Z C Z Z C Z Z C Z Z C Z C C C C C B V V V V V V V V V V V V V V V A A V A D D J J J J -.;.;.>.<.4.4.d.f.A.F.T.I.I.oX%X=X<X2X0X5XeX5XrX8XBX8XAXCXAXCXZXZXSXZXZXZXVXVXnXVXnXnXcXnXzXlXlXfXdXaXaXaXtXuXtX~.tXuXuXuXdXdXhXlXlXnXbXnXbXnXmX",
"nXnXbXcXlXlXdXaXiXQ.c g g y r y r y y y y c c m m pXpXgXgXjXjXjXzXzXcXcXcXcXcXcXzXcXcXzXcXjXzXjXgXfXfXiXiXyXg c r r 3 < - ; O O O . O O O & ; ; 4 7 l l x m N N pXpXgXjXzXzXzXcXcXcXcXVXVXVXVXVXZXZXZXZXZXZXZXSXSXSXSXSXSXSXSXSXSXSXSXSXSXSXSXSXSXSXSXSXSXSXSXAXAXAXAXAXAXBXBXBXBXeXBXeXeXeXeXeX0XeX0X0X0X9X9X9X9X@X9X9X@X@X+X+X+XOX+XR.R.R.R.R.T.Y.Y.Y.Y.F.F.F.F.F.F.F.A.A.A.A.A.F.F.F.F.Y.Y.Y.Y.R.R.R.+XOX+X+X@X+X@X9X9X9X9XeX9X9XeXeX9XeXeXeX0XeX0XeXeX0XeXeX9XeXeX9XeX9XeX9X9X9X@X9X@X+XOXR.R.Y.F.F.h.h.4.4.<.>.-.-.-.W J J J J J J J W W W -.;.>.<.<.4.4.d.h.h.j.Y.A.Y.Y.R.Y.Y.R.Y.R.R.R.R.R.R.R.Y.R.Y.Y.Y.Y.A.j.j.h.4.4.4.>.>.;.-.-.J J D A A V V V V V C C Z Z Z I I U U ` U ` + + @ @ 7.@ 7.7.7.7.7.7.7.7.7.7.7.7.7.7.7.7.7.7.@ 7.@ @ @ @ + + + + + + U U U U U U I I Z Z Z C C A V V V V V V V A V V V V C Z C C C Z Z C Z Z C Z C C C C C C B V V V V V V V V V V V V V V V V A A A A D D J J J J W -.;.;.>.>.4.4.f.f.A.F.T.I.XXoXoX=X<X2X0X5XeX5XrX8XrX8XAXCXAXSXSXSXSXZXZXZXZXZXVXZXVXnXnXVXcXnXcXzXjXjXfXaXaXaXuXtXtXQ.tXQ.tXtXdXfXdXlXkXlXbXnXbXnX",
"nXkXcXhXhXaXaXtXj c g y y y y y y y x c c n pXpXgXgXgXjXjXzXzXzXcXcXcXcXcXVXcXcXVXcXcXcXcXcXjXzXzXgXgXiXiXyXb g y 6 6 < - & & O . O O O & ; ; 4 7 l x b m m pXpXjXjXjXzXzXcXcXcXVXVXVXVXVXVXZXZXZXZXZXZXSXSXSXSXSXSXSXSXSXSXSXSXSXSXSXSXSXSXSXSXSXSXSXSXSXAXAXAXAXAXAXAXBXBXBXBXBXBXeXeXeXeX0XeX0X0X0X9X9X9X9X9X+X9X+X@X+X+X+XOXR.OXR.R.R.Y.Y.Y.Y.Y.F.Y.F.F.F.F.F.A.j.A.A.A.A.A.A.A.F.F.F.F.Y.Y.Y.Y.R.R.R.+XOX+X@X9X@X9X@X9X9X9XeX9X9XeXeX9XeXeXeXeXeXeXeXeXeXeXeX0XeXeX9XeX9XeX9X9X9X@X@X+X+XR.R.Y.Y.F.h.h.4.4.<.>.>.W W W W J J J J J W W W -.-.>.>.<.4.4.4.h.h.F.j.A.Y.Y.Y.Y.R.R.R.R.R.OXR.R.R.R.R.R.R.Y.Y.Y.Y.Y.j.j.j.h.4.4.4.>.>.;.-.W J J D A A V V V V V C C Z Z I I U I U ` + ` + + + @ @ 7.7.7.7.7.7.7.7.7.7.7.7.7.7.7.@ 7.@ @ @ @ @ + + + + + U + U + U U U I I I I Z Z C C V V V V V V V V V V V V V A V V C C C C C C C C C C C A B V V V V V V V V V V V V V V V V V V A A V A D D D J J J J -.-.;.;.>.4.4.4.d.j.A.Y.T.T.XX+X%X<X<X2X0X5XqX8XrX8XBXNXAXAXSXSXZXSXSXZXZXZXZXZXZXZXVXZXVXVXcXVXcXcXcXcXzXjXjXaXaXiXtXtXtXtXtXtXtXtXuXdXdXjXkXlXlXcXnX",
"jXlXjXfXaXaXtXn c g x y y y y y y c c n pXpXpXgXgXgXzXzXcXcXcXVXcXcXVXcXVXcXVXcXcXVXVXcXcXcXcXzXzXjXgXgXiXk yXu y r 4 ; ; = O O . O O O ; ; ; 7 l l b m N pXpXjXjXzXzXcXcXcXcXVXVXVXVXVXZXZXZXZXZXSXZXSXSXSXSXSXSXSXSXSXSXSXSXSXSXSXSXAXAXAXAXAXAXAXAXAXAXAXAXAXAXAXAXAXBXBXBXBXBXeXeXeXeXeXeX0X0X0X9X9X9X@X9X+X9X@X+X+X+X+XOXR.R.R.R.R.Y.Y.Y.Y.F.F.F.j.Y.j.A.A.A.j.j.j.j.j.h.A.A.F.h.F.F.F.F.Y.Y.R.Y.R.OXR.+X+X@X@X@X@X9X9X9XeX9XeXeX9XeXeX0XeXeXeXeXeXeXeXeXeXeXeXeX9XeXeX9X9XeX9X9X9X@X@X+XOXR.Y.Y.F.F.h.4.4.<.>.-.-.-.W W J W J J W W W W -.-.>.<.<.4.4.h.h.j.j.A.Y.Y.Y.Y.R.R.R.OXR.OXOXR.OXOXOXOXR.R.R.R.Y.Y.Y.Y.A.j.j.h.4.4.4.>.>.-.-.J J J A A V V V V V V C Z Z Z I I U U U U ` ` + + + @ @ @ @ 7.@ 7.7.7.7.7.7.7.@ 7.@ @ @ @ @ @ + + + + ` + U + U U U Y U I I I I Z Z C A V V V V V V V V V V V V V V V V V V V V V V V V V V V V V V V V V V V V V V V V V V V V V V A A A V D D D J J J J W -.;.;.>.>.4.4.d.d.j.j.Y.T.T.OXoXoX<X1X-X0X5XqX8XrXrXrXmXAXAXSXSXSXSXZXSXZXZXZXZXVXVXZXVXVXVXVXVXVXcXVXcXcXzXzXjXgXsXsXaXtXtXtXv tXm.tXtXtXaXaXaXhXjXkXjX",
"jXaXaXaXiXn j c g y y y z y y x c b m pXpXgXgXjXzXzXcXzXcXcXVXcXVXVXVXVXVXVXVXVXVXcXVXVXVXzXcXcXjXzXgXgXiXyXg c r 6 < 1 & & O . O O O = ; 4 7 l l b m N gXgXgXjXzXzXcXcXcXVXVXVXVXVXZXZXZXZXZXZXSXSXSXSXSXSXSXSXSXSXSXSXSXSXSXAXAXAXAXAXAXAXAXAXAXAXAXAXAXAXAXAXAXAXBXBXBXBXBXBXeXeXeXeXeX0X0X0X0X0X9X9X@X9X@X@X+X+X+X+XR.R.R.R.R.Y.Y.Y.Y.Y.F.F.F.F.A.F.h.F.h.h.h.h.h.h.j.j.j.h.j.A.A.F.A.F.F.Y.Y.Y.R.R.R.+X+X+X+X9X@X9X9X9X9X9X9X9XeXeX9XeXeXeXeXeXeXeXeXeXeXeXeXeXeXeXeX9XeX9X9X9X9X@X@X@X+XOXR.R.Y.F.j.h.d.4.<.<.>.-.W W W W J W J W W W -.-.>.>.<.4.4.4.h.h.A.A.Y.Y.Y.R.R.R.R.OXOX+X+X+X+X+X+X+XOX+XR.R.R.R.Y.R.Y.Y.j.j.h.h.4.4.<.>.>.-.-.J J D A A V V V V V V C Z Z Z I I U U U + ` + + + + @ @ @ @ @ @ @ @ @ @ @ @ @ @ @ @ @ + + + + + + ` ` ` ` U ` U I U I P I Z Z C C C V V V V V V V V V V V V V V V V V V V V V V V V V V V V V V V V V V V V V V V V V V V V A A A V A A D D J J J J J -.-.-.;.>.>.4.4.d.h.A.F.Y.Y.R.OXOX<X=X<X-XqX5XqXwX8XrXNXNXAXAXSXSXZXSXSXZXZXZXZXVXVXZXZXVXVXVXVXVXVXcXVXcXcXcXcXzXzXjXjXgXpXaXiXtXn v tXv tXtXtXuXaXaXsXjXjX",
"aXaXiXtXn g c g x y y y y u x c m pXpXpXjXgXzXzXcXcXzXVXcXVXcXVXVXVXVXVXVXVXVXVXVXVXVXVXzXVXcXcXzXzXgXgXyXyXyXx r 4 1 ; & = . O O O = ; 4 4 7 l b m pXpXpXjXzXzXcXcXcXVXVXVXVXVXZXZXZXZXZXZXSXSXSXSXSXSXSXSXSXSXSXSXSXSXAXAXAXAXAXAXAXAXAXAXAXAXAXAXAXAXAXAXAXAXAXAXBXBXBXBXBXeXeXeXeXeX0X0X0X0X9X@X9X@X9X@X+X+X+X+XOXR.R.R.R.T.Y.Y.Y.F.F.F.F.F.F.h.F.h.h.h.h.h.h.h.h.d.h.d.h.j.j.j.A.h.F.F.F.F.Y.R.Y.R.R.R.+X+X+X@X@X9X9X9X9X9XeXeX9XeXeXeXeXeXeXeXeXeXeXBXeXeXeXeXeXeX9XeXeX9XeX9X9X9X9X@X+X+XR.R.Y.F.F.j.h.4.4.>.>.;.-.W W W W W W W W W -.-.>.<.<.4.4.h.h.j.j.Y.Y.Y.Y.R.R.R.OXOX+X+X+X+X+X+X+X+X+X+X+X+XR.OXR.Y.Y.Y.Y.j.F.h.4.4.4.>.>.;.;.J J J D A V V V V V V C C Z Z I I I U U U ` U + + + + + + @ @ @ @ @ @ @ @ @ @ @ + + + + ` + + U + ` + U U U I U U I I Z Z Z Z C A V V V V V V V V V V V V V V V V V V V V V V V V V V V V V V V V V V V V V V V V V V V A A A A V D D D J J J J J W -.-.;.>.>.>.4.4.d.h.h.A.Y.T.R.OX+X<X<X<X-XqX5XqXwXrXrXNXNXAXAXSXSXSXSXSXZXZXZXZXVXZXZXVXVXVXVXVXcXVXcXVXcXcXcXcXcXzXzXzXgXgXgXpXiXn tXtXv v n j n n tXiXaXiXaX",
"tXn k c g c u z y z y x x c n m m pXgXjXgXzXzXzXcXcXVXcXVXnXVXVXVXVXVXVXVXZXVXVXVXVXVXVXVXzXVXzXcXjXjXsXsXb b u 6 1 < - O . . O & O ; ; 4 l l b m N pXjXjXzXzXcXcXcXVXVXVXVXZXZXZXZXZXZXSXSXSXSXSXSXSXSXSXSXSXSXSXAXAXAXAXAXAXAXAXAXAXAXAXAXAXAXBXAXAXAXAXAXBXAXAXBXBXBXBXBXeXBXeXeXeX0XeX9X0X9X9X9X@X@X@X+X+X+XR.OXR.R.R.Y.Y.Y.Y.F.F.F.F.h.F.h.h.j.h.h.h.4.h.h.4.4.h.h.4.h.d.h.d.j.j.A.A.F.F.F.Y.Y.R.Y.R.+XOX+X+X9X@X@X9X9X9XeX9XeXeX9XeXeXeXeXeXeXBXeXeXeXeXeXeXeXeXeXeX0XeXeX9XeX9X9X@X@X@X+XR.R.R.Y.j.h.h.4.4.<.>.-.-.-.W W W W W W W -.-.>.>.<.4.4.4.h.F.j.Y.Y.Y.R.R.R.R.+X+X+X+X+X+X+X9X+X@X+X@X+X+X+X+XR.R.R.R.Y.Y.F.j.j.h.h.4.4.>.>.-.-.W J J D A A V V V V V C C Z Z I I I U U U + ` + ` + + + + + + + + + + + + + + + + + ` + + U + U U U U U P U I I I I Z Z Z C C V V V V V V V A V A A A A A A V V V V V V V V V V V V V V V V V V V V V V V V V V A A V A A A A D D J J J J W W W -.;.;.>.>.4.4.4.h.j.j.Y.Y.T.T.+X+X@X<X1X2X0X5XqX8XrX8XNXNXNXSXSXSXZXSXZXSXZXZXZXVXZXVXVXVXnXnXnXnXnXcXnXcXcXcXzXcXcXzXzXzXzXjXgXgXpXpXn n n v v v v v n k n tXtX",
"n b c c x g z y y y x x b b m pXgXgXjXgXzXzXzXcXcXnXcXnXnXnXVXnXVXVXVXVXZXVXVXVXVXVXVXVXVXVXcXcXjXjXgXsXyXyXx r 4 1 - & & O O & O ; ; ; 7 l b m N pXpXjXzXzXcXcXVXVXVXVXZXZXZXZXZXZXSXSXSXSXSXSXSXSXSXSXAXSXSXAXAXAXAXAXAXAXAXBXAXAXAXAXAXAXAXBXAXBXAXBXAXBXAXAXBXBXBXBXBXBXBXeXeXeXeX0X0X0X9X9X@X@X9X+X+X+X+XOXR.R.R.T.Y.Y.Y.F.F.Y.A.F.h.F.h.h.h.h.4.h.4.h.4.4.4.h.4.4.4.h.4.h.h.d.j.j.h.F.F.F.Y.Y.Y.R.R.R.+X+X@X@X@X9X9X9X9XeX9X9XeXeXeXeXeXeXeXeXeXeXeXeXBXeXeXeXeXeXeXeXeX9XeX9X9X9X9X9X@X+X+XR.Y.Y.F.F.h.4.4.<.>.>.-.-.W W W W W W W -.-.>.<.<.4.h.h.h.j.A.Y.Y.Y.R.R.R.+X+X+X+X+X9X+X9X@X@X+X9X+X@X+X+X+X+X+XR.R.R.Y.Y.Y.j.j.h.4.4.2.>.>.-.W J J D A A V V V V V A C Z Z Z I I P P U U U U + U + + + + + + + + + + + + + + ` ` ` + U + U U U U U Y U I I I Z Z Z Z C V V V V V V V A A A A D A A D A A A V A V V V V V V V V V V V V V V V V V V V V A A A A V A A A D J J J J J J W W -.-.;.;.>.>.4.4.d.h.h.h.Y.Y.T.OXOX+X@X1X1X0XqX5XqXrX8XrXNXNXAXAXSXSXSXSXZXZXZXZXVXVXVXVXVXnXnXnXnXnXnXcXcXzXcXcXzXcXcXzXzXzXzXzXgXzXgXgXpXpXtXn n v c c n g c v b n ",
"c c u g x r y x x x c c b pXpXgXgXgXjXzXzXzXcXcXcXcXnXcXnXnXnXZXnXZXVXZXnXZXVXZXVXVXVXVXVXzXVXzXcXjXgXsXyXb z r 1 1 & & O . O & & ; ; 7 l l m m pXjXjXjXzXcXcXVXVXVXVXZXZXZXZXZXSXSXSXSXSXSXSXSXSXSXSXSXSXAXAXAXAXAXAXAXAXAXAXAXAXBXBXBXBXBXBXAXAXAXAXAXAXAXBXBXBXBXBXBXeXBXeXeXeXeX9XeX9X0X9X@X9X@X+X+X+XOXR.R.R.T.Y.Y.Y.F.F.F.A.h.F.h.h.h.h.h.h.4.h.4.h.4.4.4.4.4.4.4.4.4.h.4.h.h.h.j.A.h.F.F.F.Y.T.R.R.OX+X+X@X9X@X9X9X9XeX9XeXeX9XeXeXeXeXeXeXBXeXBXeXeXeXBXeXeXBXeXeXeX0XeX9XeX9X9X9X@X@X@X+XR.R.Y.Y.j.j.h.4.<.>.>.>.-.-.W W W W -.-.-.>.>.<.4.4.4.h.F.j.Y.Y.Y.R.R.OX+X+X+X@X9X+X@X9X@X9X9X9X@X9X@X@X9X+X+X+X+XR.R.R.Y.Y.Y.j.h.h.4.4.<.>.>.-.W J J D V A V V V V V V C Z Z Z I I Y U P U U + ` + U + + + ` + + + ` + U + ` ` ` ` U U U U U P U I I I I I Z Z Z C C A V V V V V V A A A D D D J D D D D D D V A A V V V V V V V V V V V V V V V A A A A V A A D D D J J J J J J W W -.-.-.>.>.>.4.4.4.4.h.h.F.Y.Y.T.R.OX@X@X<X9X0X0XqXwX5X8XrXNXmXAXCXSXSXZXZXZXZXZXVXVXVXVXVXnXnXnXnXzXcXzXzXzXzXzXjXlXjXjXjXjXzXjXzXgXzXgXgXgXgXpXyXn n c v c c c c c g c ",
"x y x z y z z x x x c m pXpXsXgXgXjXjXzXzXcXzXcXcXcXcXnXnXnXnXnXnXnXMXVXVXZXVXVXVXVXVXVXVXVXcXcXjXjXsXyXyXx z 6 1 ; = = . O & O ; ; 4 l l b m pXpXjXzXzXcXcXVXVXVXZXZXZXZXZXZXSXSXSXSXSXSXSXSXSXSXSXAXAXAXAXAXAXAXAXAXBXAXBXBXBXBXBXBXBXBXBXBXBXBXBXBXBXBXBXBXBXBXBXBXBXBXeXeXeXeX9XeX0X9X9X@X9X@X+X+X+XOXR.R.R.Y.Y.Y.F.F.Y.A.A.F.A.h.h.h.h.h.4.h.4.4.4.2.4.4.4.4.<.4.4.4.4.4.4.h.d.h.j.h.F.j.F.Y.Y.Y.R.R.R.+X+X+X@X@X9X9X9X9X9XeX9XeXeXeXeXeXBXeXeXBXeXBXeXBXeXBXeXeXeXeXeXeXeXeX9XeX9X9X9X9X+X+X+XR.Y.Y.F.h.h.4.4.<.<.-.>.W -.-.-.-.-.-.>.>.<.<.4.4.h.j.j.Y.Y.Y.R.R.OX+X+X+X@X@X@X9X9X9X9X9X9X9X9X9X9X9X@X9X+X@X+X+XOXR.R.Y.Y.Y.F.h.h.4.4.<.>.-.-.J J D D V V V V V V V C C Z Z Z I I I U U U U U U ` U + U + ` + U + U + U ` ` U U U U U U Y U I I I P Z Z Z Z C C V V V V V V A V A D D J J J J J J J J J D D A A A V A A A V A V A V A A A A A V A A V D D D D J J J J J J J W -.-.;.;.>.>.>.4.4.4.h.h.h.F.Y.Y.R.OXOX@X9X<X9X0XqXqXwXqX8XrXrXmXAXmXAXSXZXZXZXZXVXVXVXVXVXnXnXnXnXzXzXzXzXjXjXjXjXsXjXsXjXgXgXjXgXgXgXjXgXgXgXgXpXsXpXm n n c c x c x g x x ",
"y z l z l x x x c b m pXpXsXgXgXgXjXjXjXjXjXcXcXlXcXcXcXnXcXnXnXnXnXnXnXMXnXZXVXnXVXVXcXVXcXcXzXjXjXgXm b z r 4 1 ; O = O O & & ; 4 7 l b m N pXjXjXzXcXcXVXVXVXVXZXZXZXZXSXSXSXSXSXSXSXSXSXSXSXAXAXAXAXAXAXAXAXAXBXAXBXBXBXBXBXBXBXBXBXBXBXBXBXBXBXBXBXBXBXBXBXBXBXBXeXBXeXeXeX0XeX9X9X9X9X@X@X@X+X+XR.R.R.R.Y.Y.Y.F.F.F.h.F.h.h.h.h.h.h.4.4.4.4.4.4.2.4.2.2.4.<.4.4.<.4.4.4.4.4.h.d.h.j.A.F.F.F.Y.Y.T.R.+XOX+X9X@X9X9X9X9XeX9XeXeX0XeXeXeXeXeXBXeXeXBXeXBXeXBXeXBXeXeXBXeXeXeX0XeX9XeX9X9X@X@X+X+XR.Y.Y.F.j.h.h.4.>.>.>.;.>.W -.-.-.-.>.;.>.<.4.4.h.h.j.F.Y.Y.R.R.R.+X+X+X9X@X9X9X9X9X9X9X9X9X9X9X9X9X9X9X9X9X+X@X+X+X+XR.Y.Y.Y.Y.j.h.h.4.4.>.>.-.-.W J J D V V V V V V V C C Z Z Z Z I I U Y P U U U U U ` U ` U ` U ` U U U U U U U P U I I P I I I Z Z Z Z C A V V V V V V V V D D J J J J W J W W J J J J J J D D D V A A A V A V A A V V A A D A D D D J J J J J J J W -.-.-.-.>.>.>.>.4.4.4.4.h.h.F.F.Y.Y.R.R.+X+X@X9X9X0XqXqXeXrX8XrXNXmXNXNXZXZXZXZXZXZXVXVXVXVXcXVXcXnXzXzXzXzXgXgXfXsXsXsXsXpXsXpXsXpXsXsXgXsXgXgXgXgXgXgXpXpXpXm n b c c x x x z y ",
"l l z l x x x c c m pXpXsXsXgXgXjXjXjXjXjXjXjXjXlXjXlXlXlXcXlXcXnXxXnXnXnXnXnXnXVXVXcXVXVXcXcXzXjXgXpXm b z r 4 ; = = O O & O ; ; 4 l l b N pXjXjXzXzXcXVXVXVXZXZXZXZXZXSXSXSXSXSXSXSXSXSXSXAXAXAXAXAXAXAXAXAXBXBXBXBXBXBXBXBXBXeXBXBXBXBXBXBXBXBXBXBXBXBXBXBXBXBXeXBXBXeXeXeXeXeX9X9X9X9X9X@X+X+X+XOXR.R.T.Y.Y.F.F.F.F.j.F.h.h.h.h.4.4.4.4.4.4.2.4.<.4.2.<.4.<.<.4.<.4.2.4.4.4.4.d.d.j.h.A.h.F.Y.Y.T.R.R.R.+X+X@X@X@X9X9XeX9XeXeX0XeXeXBXeXeXBXeXeXBXeXBXBXBXeXBXeXBXeXeXeXeXeXeX9XeX9X9X9X9X9X+X+XR.R.Y.Y.F.A.4.4.4.<.>.>.-.>.-.-.-.-.>.>.>.4.4.4.h.h.F.Y.Y.Y.R.R.+X+X+X@X@X9X9X9X9X9X9X9XeX9X9X9XeX9X9X9X9X9X9X@X9X+X+XOXR.R.Y.Y.j.F.h.4.4.2.>.>.-.W J J D A A V V V V V V C C Z Z Z I I I I U P U U U U U U U U U U U U U U Y U U Y U I I P I P Z Z Z Z Z C V V V V V V V A V D J J J W W W W W -.W W W W J J J J J D D D D A D V D D V D D D D D D J J J J J J J W W W -.;.;.;.>.>.>.>.4.4.4.4.h.h.F.F.Y.T.R.OX+X+X9X9X9X0XqXqXqX8XrXrXNXmXNXZXmXZXZXZXVXVXVXVXVXVXcXVXcXzXzXgXzXgXsXsXsXiXyXyXtXn tXn tXn tXtXn iXiXiXpXpXpXpXpXpXpXpXm m c b c x x z z l ",
"l l z l x x c b m m pXpXpXsXsXsXsXsXjXsXjXhXgXhXhXjXjXhXlXkXlXlXlXnXnXnXnXnXnXnXnXnXVXcXVXzXzXgXgXgXyXb c r 4 1 ; = = O O O ; ; 4 7 l b m pXpXjXzXzXcXVXVXVXVXZXZXZXZXSXSXSXSXSXSXSXSXSXAXAXAXAXAXAXAXAXBXBXBXBXBXBXBXBXBXBXBXBXBXBXBXBXBXeXBXBXBXBXBXBXBXBXBXBXBXBXeXeXBXeXeXeX9XeX9X9X9X@X@X+X+XR.R.R.T.Y.Y.F.F.F.A.j.j.h.h.4.h.4.h.4.2.4.2.2.2.2.2.<.<.<.<.<.<.<.2.2.2.2.4.4.4.4.h.d.j.A.A.F.F.Y.Y.R.R.+X+X+X@X9X9X9X9X9XeX9XeXeXeXeXeXeXBXeXBXBXBXBXBXBXBXBXBXBXeXBXeXBXeXeXeXeX0XeX9X9X9X@X@X+X+XR.Y.Y.A.j.h.4.4.>.<.>.>.-.>.-.>.>.>.>.<.4.4.h.h.F.F.Y.Y.R.R.+X+X9X+X9X9X9X9X9X9XeX9XeX9XeX9XeX9X9X0X9X9X9X9X9X@X@X+X+X+XR.Y.R.Y.j.j.h.4.4.<.>.;.-.W J J D V A V V V V V V C C Z Z Z Z I I I Y P U U U P U U U U U I U U P U I I I I I I Z Z Z Z Z C C C V V V V V V V V V D J J J W W -.-.-.-.;.-.-.-.-.W W W J J J J J J J D J D D J D J J J J J J J J J W W W W -.;.;.;.>.>.>.>.4.4.4.4.h.h.j.F.Y.Y.R.R.R.@X+X9X@X9X9XeXeXqXrXeXrXmXNXCXmXmXZXZXVXVXVXVXVXVXcXcXcXjXzXjXgXgXpXiXiXyXb v v v c c c c c c c b n c n n n tXiXpXpXpXpXpXm m m c c x x x l l ",
"l l l x x c b b m yXyXpXsXpXsXiXsXsXsXaXaXaXaXhXaXhXdXjXhXjXhXlXlXlXlXxXlXnXnXnXnXnXcXcXcXzXzXzXgXpXm b x r 4 ; ; = O O O = ; ; 4 l l m pXpXjXzXzXcXVXVXVXVXZXZXZXZXSXSXSXSXSXSXSXSXSXAXAXAXAXAXAXAXBXBXBXBXBXBXBXBXBXeXBXBXBXeXBXBXBXeXBXBXeXBXBXBXBXBXeXBXBXBXBXeXBXBXeXeXeX0XeX0X9X9X@X@X+X+X+XR.R.T.Y.Y.F.F.A.F.j.j.h.4.h.h.4.4.2.4.4.2.2.2.2.<.>.<.>.>.>.>.<.<.<.<.2.4.2.4.4.4.d.h.h.F.h.F.F.Y.Y.R.OXR.+X+X@X@X9X9X9XeX9XeX0XeXeXeXeXBXeXBXBXBXBXBXBXBXBXBXBXBXBXBXBXeXeXeXeXeX0XeX9X9X9X9X9X+X+XR.R.Y.Y.j.h.4.4.4.2.>.>.>.>.>.>.>.<.<.4.4.4.h.F.A.Y.Y.R.R.+X+X@X+X9X9X9X9X9X0X0X0X0X9XeX9XeX0X9XeX9XeX9X9X9X9X9X9X@X+X+XOXOXY.Y.Y.F.h.h.4.4.<.>.-.W W J J D V V V V V V V V A C Z Z Z Z I I I I I P P Y U U I U I U P P Y I I I I I P Z Z Z Z Z C C A V V V V V V V V D D J J J W -.-.;.-.>.>.;.>.>.-.-.-.-.W W W W J J J J J J J J J J J J J J J W J W W W -.-.;.;.;.>.;.<.>.4.4.4.4.h.h.h.F.F.Y.Y.R.R.+X@X+X9X9XeX9XeXeXeXrXBXBXNXNXNXmXmXZXZXZXVXVXVXVXVXcXcXzXjXjXjXgXiXyXyXb b b u u z z z z y z z z x y y c c c c b b b n n n m m m b b b b x l l l ",
"r l l x b c b m n m yXtXyXpXyXsXtXsXiXaXaXaXaXaXaXaXdXdXsXhXjXdXlXjXlXlXlXlXcXcXcXcXcXcXzXzXzXgXgXpXm b l 7 4 ; = = O O ; & ; 4 7 l b m pXpXzXzXcXcXVXVXVXZXZXZXZXSXSXSXSXSXSXSXSXAXAXAXAXAXAXAXBXBXBXBXBXBXBXBXBXBXBXBXeXBXeXBXeXeXeXBXeXBXBXeXBXBXBXBXBXBXBXeXBXBXeXeXeXeXeXeX9X9X9X9X@X@X+X+XR.R.R.Y.Y.F.F.A.F.h.j.h.4.h.4.4.4.2.4.<.2.2.<.>.>.>.>.>.>.>.>.>.>.<.<.<.<.2.4.2.4.4.d.d.h.j.F.F.F.Y.Y.R.R.+X+X@X9X@X9X9X9X9XeXeXeXeXeXeXeXBXeXBXBXBXBXBXBXBXBXBXBXBXBXBXBXBXeXBXeXeXeX0XeX9X9X9X@X+X+X+XR.Y.Y.F.h.h.4.4.<.2.>.>.>.>.>.<.<.<.4.4.h.F.h.Y.Y.R.R.+X+X+X@X9X9X9X9X9XeX9XeX0XeXeX0XeXeXeXeX9XeX9XeX9X9X9X9X9X9X+X+X+XOXR.R.Y.Y.j.h.h.4.4.>.>.-.W W J J D V A V V V V V V V C C Z Z Z Z I I I I I I I I P P I I I I I I I I Z Z Z Z Z Z C Z C V V A V V V V V V V D J J J -.-.;.>.>.>.>.>.>.>.>.>.>.>.-.-.-.-.W W W J W J W J W J W W J W W W W -.-.-.-.-.;.>.>.>.>.4.<.4.4.4.h.h.h.F.F.F.Y.Y.R.R.+X+X@X9X9X9X9XeXeXeXBXBXBXBXAXCXCXmXZXZXnXVXnXnXVXcXcXzXzXjXgXgXyXyXyXb b u z r z r r 9 r 9 9 9 q r q z y y y z c u c c b b c n n b m b c x x x l l ",
"l l x x x b b b n n n n n yXtXtXyXtXtXaXiXiXaXaXaXaXdXaXdXfXdXjXdXlXdXlXlXlXlXlXcXcXzXzXzXjXjXgXgXm b b r 4 4 ; = = O O & ; ; 4 l l m pXpXjXzXzXcXVXVXVXZXZXZXZXSXSXSXSXSXSXSXSXAXAXAXAXAXAXBXBXBXBXBXBXBXBXeXBXBXeXBXeXBXeXBXeXBXeXBXeXBXBXeXBXeXBXBXeXBXeXBXBXBXeXBXeXeXeXeX9X9X9X9X9X@X@X+XR.R.R.Y.Y.F.F.F.F.j.h.h.4.h.4.4.2.4.4.<.2.<.>.>.>.>.>.>.>.>.>.>.>.>.>.>.<.<.2.2.4.4.4.d.d.j.j.h.A.Y.Y.R.R.R.OX+X@X@X9X9X9X9XeXeX0XeXeXBXeXBXeXBXBXBXBXBXBXAXBXBXBXBXBXBXBXBXBXBXeXBXeXeXeX0XeX9X9X9X9X+X+XOXY.Y.F.F.h.4.4.4.<.<.>.>.<.<.>.<.4.4.4.j.h.Y.Y.Y.R.R.+X+X@X9X9X9X9X9XeX9XeX0XeXeX0XeXeXeXeX0XeXeXeX0X0XeX9XeX9X9X9X9X+X+X+XR.Y.Y.F.F.h.4.4.4.>.>.-.W J J D D V V V V V V V V V C C Z Z Z Z I Z I Z I I I P Z I I I I Z I Z Z Z Z Z C Z C C V V V V V V V V V V D D J J J -.-.>.;.<.>.4.<.4.4.4.4.4.<.>.>.>.;.-.-.-.-.-.W -.W W W W W W W -.-.-.;.;.;.;.>.>.>.>.>.>.4.4.4.4.h.h.h.h.j.F.Y.Y.R.R.OX+X+X@X9X9X9X9XeXeXeXBXBXBXBXAXCXAXmXZXZXVXVXnXVXVXcXzXzXzXjXgXgXyXyXb x z r r 6 r 5 r 4 r 5 9 9 9 9 9 9 9 9 r y y r y y u x x c c c b c c c c x z l l ",
"r l z x x c b b b b n n n v n tXtXtXtXtXaXiX^.iXaXaXaXaXdXaXdXfXfXfXlXfXlXlXjXjXlXjXcXjXzXjXgXgXpXm b l l 4 ; ; = O O ; & ; 4 7 l b m pXpXzXzXcXcXVXVXVXZXZXZXSXSXSXSXSXSXSXAXAXAXAXAXAXAXBXBXBXBXBXBXBXBXBXBXeXBXBXeXBXeXeXeXeXeXBXeXeXeXeXBXeXBXBXeXBXBXBXeXeXBXeXeXeXeXeX0XeX9X9X9X@X@X+XOXOXR.T.Y.F.F.F.h.j.h.h.4.h.4.4.<.4.<.2.<.>.>.>.>.>.>.;.>.;.>.;.>.;.>.>.>.<.<.<.2.2.4.4.4.h.h.j.F.F.F.Y.R.R.+X+X+X@X@X9X9XeX9X9XeXeXeXeXeXeXBXBXBXBXBXBXBXAXBXBXAXBXAXBXBXBXBXBXBXeXeXeXeXeX0X0XeX9X9X9X+X+XOXR.Y.Y.j.j.h.4.4.4.<.4.>.<.<.4.4.4.4.h.h.F.Y.Y.R.R.+X+X9X@X9X9X9XeX9XeXeX0XeXeXeXeXeXeXeXeXeXeXeXeXeX0X0XeX9X9X9X9X9X+X+X+XR.R.R.Y.F.j.h.4.4.4.>.>.-.W W J D D V V V V V V V A V C C C Z C Z Z Z I Z Z I Z P Z Z Z I Z Z Z Z C Z Z C C A V V V V V V V V V V D D J J J -.-.>.;.4.<.4.4.4.4.4.4.4.4.4.4.>.>.>.>.>.>.;.-.-.-.;.-.-.-.-.-.;.-.;.;.;.>.>.>.>.>.<.4.4.4.4.4.d.h.h.h.F.F.Y.Y.Y.R.R.+X+X+X9X9X9X9XeXeXeXeXBXBXBXAXAXAXAXZXZXZXnXVXcXnXzXzXzXzXgXgXpXyXb b z z z r 4 4 6 4 4 4 3 4 3 3 6 3 3 9 6 9 6 9 9 r y r y r y x z x x x c x x x z z l 6 ",
"l l l x x c x c c v b v n n tXn tXtXtXiXQ.iXiXaXaXaXaXdXsXdXaXfXfXhXfXhXfXjXfXjXjXjXjXjXjXgXgXgXm m b x 7 4 ; = O = O & ; ; 4 7 x m N pXjXzXcXzXVXVXVXZXZXZXSXSXSXSXSXSXSXAXAXAXAXAXAXBXBXBXBXBXBXBXBXeXBXeXeXBXeXeXeXeXeXeXeXeXeXeXeXeXeXBXeXeXBXeXBXeXBXeXBXBXeXBXeXeXeX0XeX9X9X9X9X@X+X+XR.R.R.Y.Y.F.F.A.j.h.h.4.h.4.4.<.4.<.<.>.>.>.>.>.>.;.;.;.;.;.;.;.;.>.;.>.>.>.>.<.>.4.4.4.d.d.h.A.h.F.Y.Y.Y.R.R.+X@X+X9X9X9X9XeXeX0XeXeXeXeXBXBXBXBXBXAXBXBXBXBXAXBXAXBXBXAXBXBXBXBXBXBXBXeXeXeXeX9XeX9X9X@X+X+XOXY.Y.F.F.h.4.4.4.4.<.4.<.4.4.4.4.h.h.F.Y.Y.R.R.+X+X+X@X9X9X9X0X0X0X0XeXeXeXeXeXBXeXeXeXeXBXeXeXeXeXeXeXeX9XeX9X9X9X9X9X+X+XOXR.Y.Y.F.F.h.4.4.2.>.;.-.W J J D D V V V V V V V V V V C C Z C Z Z C Z Z Z Z Z Z Z Z Z C Z Z C Z C C A V V V V V V V V V A V D D J J W -.;.>.>.4.4.4.4.d.d.h.h.h.4.h.4.4.4.4.4.<.>.>.;.>.>.>.;.>.;.>.;.>.;.>.>.>.>.>.>.<.>.4.4.4.4.d.d.h.h.h.j.F.F.Y.Y.R.R.OX+X+X+X9X9X9XeX9XeXeXeXBXBXBXBXAXSXAXZXZXVXVXVXcXVXzXzXzXzXgXgXyXm b c z z 6 4 4 1 3 1 4 < 3 3 3 3 3 3 9 6 9 9 9 8 9 9 9 9 9 r y r l y l z x l x z z z l l l ",
"r l z z z x c c c c v v v v n tXtXtXtXaXiXaXaXaXaXaXaXaXdXaXjXdXfXfXfXfXjXfXjXjXgXjXgXgXgXgXpXpXm b x l 7 4 ; = = O = & ; ; 7 l x m pXpXzXzXcXVXVXVXVXZXZXZXSXSXSXSXSXSXAXAXAXAXAXAXBXBXBXBXBXBXBXBXeXBXeXBXeXeXeXeXeXeXeXeXeXeXeXeXeXeXeXeXeXeXBXeXeXBXeXBXeXBXeXeXeXeXeXeX9XeX9X9X@X@X@XOXOXR.Y.Y.F.F.A.A.h.h.d.4.4.4.<.4.<.<.>.>.>.>.;.;.;.;.;.-.;.-.-.;.;.;.>.>.;.>.<.<.<.4.2.4.4.h.h.F.F.F.Y.Y.R.R.OX+X@X9X@X9XeX9X9XeXeXeXeXeXBXBXBXBXBXBXBXAXAXAXAXAXAXAXAXAXBXAXBXBXBXBXBXeXeXeXeXeX0X9X9X9X9X+X+XOXR.Y.Y.j.j.h.4.4.4.4.4.4.4.4.4.h.h.F.j.Y.Y.R.OX+X@X9X9X9X9XeX0XeXeXeXeXeXeXeXBXeXBXBXBXBXeXBXeXeXeXeXeXeXeX0XeX9X9X9X9X9X+X+XR.R.Y.Y.A.j.h.4.4.2.>.;.-.W W J J D V V V V V V V V V V V C C C C Z Z Z Z C Z Z C Z C Z C C C C V V V A V V V V V V V A V D D J J W W ;.>.>.4.4.4.h.h.h.j.h.h.j.h.h.h.d.d.4.4.4.4.>.4.>.>.>.>.>.>.>.>.>.>.>.>.<.4.<.4.4.4.4.4.d.h.h.h.h.F.F.F.Y.Y.R.R.R.+X+X@X@X9X9X9XeX9XeXeXeXBXBXBXAXAXAXSXSXZXZXVXnXnXnXzXzXzXgXgXyXyXm x x r 4 4 1 1 1 < 1 < 1 4 3 4 3 6 6 9 6 9 9 9 r r r r r r r r 9 y 9 z y l z y z l z l r l r ",
"l l l y x x x u c c c v v n tXtXtXtXiXiXaXaXaXaXaXaXdXjXdXjXdXjXdXfXhXfXfXfXjXgXgXgXgXgXgXpXgXm m b x 7 4 ; ; = = O & & ; 4 7 x b N pXjXzXcXcXVXVXZXZXZXSXSXSXSXSXSXSXAXAXAXAXAXAXBXBXBXBXBXBXBXeXBXeXBXeXeXeXeXeXeXeXeXeXeXeX0XeXeXeXeXeXeXeXeXeXBXeXBXeXBXeXBXeXBXeXeX9XeXeX9X9X9X@X@X+XOXR.T.Y.Y.F.F.A.j.h.h.4.4.4.<.4.<.>.>.>.>.>.;.;.;.-.-.-.-.-.-.-.-.;.>.-.-.>.>.>.>.4.<.4.4.d.d.j.h.j.F.Y.Y.R.R.+X@X@X@X9X9X9X9XeX0XeXeXeXBXBXBXBXBXBXBXAXAXAXAXAXAXAXAXAXAXAXAXBXAXBXBXBXBXBXeXeXeX0XeX9X9X9X9X+X+XOXY.Y.A.F.h.h.4.h.4.4.4.4.4.h.h.j.j.Y.Y.R.R.+X@X@X9X9X9X0X0X0XeXeXeXeXBXeXBXBXBXBXBXBXBXBXBXBXBXBXeXeXeXeXeX0XeX9X9X9X9X9X+X+XR.R.Y.Y.F.j.h.4.2.<.>.;.-.W J J D D V A V V V V V V V V V V C A C C C C C C C Z C C C C A V V V V V V V V V V V A A A D J J J W -.>.>.<.4.4.4.h.A.h.F.h.F.F.A.A.A.F.h.h.h.h.4.4.4.4.4.4.4.4.<.4.>.4.<.4.4.4.4.4.4.4.4.d.d.h.h.h.h.j.F.F.Y.Y.Y.R.R.R.+X+X+X@X9X9X9XeX9XeXeXeXBXBXAXAXAXSXSXSXZXZXVXnXVXcXzXzXzXgXgXyXm b x z 4 1 1 1 1 1 ; 1 1 4 4 4 4 6 6 r r r r y r y y r y r y y y y y r y r r r r z r z r l l l r ",
"r l l z y x u c g c n n n tXtXtXiXaXaXaXaXaXfXhXhXdXjXdXjXdXjXdXjXfXfXjXfXjXsXjXgXgXgXsXpXsXm m b x l 7 4 ; = = O O = ; 1 4 7 x b pXpXjXzXcXcXVXVXVXZXZXZXSXSXSXSXSXSXAXAXAXAXBXBXBXBXBXBXBXeXBXBXeXeXeXeXeXeXeXeXeXeX0XeX0XeXeX0XeX0XeXeXeXeXeXeXeXBXeXBXeXeXeXeXeXeXeXeX9XeX9X9X9X@XOX@XR.R.T.Y.F.F.h.j.h.d.d.4.4.2.2.<.<.>.>.>.;.;.;.-.-.-.-.-.-.W -.-.-.W ;.>.-.>.>.>.<.<.4.2.4.4.h.h.A.F.F.Y.R.R.R.+X+X@X9X9X9XeX9XeXeXeXeXBXeXBXBXBXBXAXAXAXAXAXAXAXAXAXAXAXAXAXAXAXAXBXBXBXBXBXeXBXeXeX0XeX9X9X9X@X+XOXR.Y.Y.j.j.j.h.4.4.4.4.h.h.h.j.F.F.Y.R.R.+X+X+X9X9X9XeX9XeXeXeXeXBXeXBXBXBXBXBXBXBXBXBXBXBXBXBXBXBXBXeXeXeXeX0XeX9X9X9X9X@X+X+XR.R.Y.Y.A.h.h.4.4.>.>.-.-.W J J J D A V V V V V V V V V V V V V V A B A B B V V V V V V V V V V V V V V V V A V A D J J J -.-.-.>.<.4.4.h.h.F.j.F.Y.Y.Y.Y.Y.Y.A.F.F.h.h.h.h.h.4.d.4.4.4.4.4.4.4.4.4.4.4.4.4.d.d.h.h.h.h.A.h.F.F.F.Y.Y.Y.R.R.OX+X+X+X@X9X9X9XeX9XeXeXeXBXBXBXAXAXAXAXSXSXSXZXZXZXcXVXzXzXgXgXyXyXb x l 7 4 1 1 ; 1 ; ; 1 1 1 4 4 r 6 r z l z z x x c z x y x c y y y y z y y y y y r r l r l r l 9 l ",
"r z y z x x c c c v n n tXtXtXaXaXaXaXfXhXhXhXhXjXlXjXjXlXjXjXlXjXjXjXjXjXgXjXgXgXgXpXsXpXyXm m b x l 4 1 ; ; = O O ; ; ; 7 l b m pXgXzXzXzXVXVXVXZXZXSXSXSXSXSXSXSXAXAXAXAXBXBXBXBXBXBXBXeXBXeXeXeXeXeXeXeXeXeXeX9XeXeX0XeXeX0XeX0XeX0XeXeXeXeXeXeXeXeXeXeXBXeXBXeXeX9XeXeX9X9X9X@X@X@XOXOXT.Y.Y.F.F.A.j.h.h.4.4.2.4.<.>.>.>.>.;.;.-.-.-.-.W -.-.W -.W -.-.-.-.-.>.;.>.>.>.2.>.4.4.d.h.h.F.A.Y.Y.Y.R.OX+X+X9X9X9X9X9XeX0XeXeXBXeXBXBXBXBXBXAXAXAXAXAXAXAXAXAXAXAXAXAXAXAXAXAXAXBXBXBXBXeXeXeXeX9XeX9X9X@X+X+XOXY.Y.Y.j.j.h.h.h.h.h.h.h.j.j.F.Y.Y.R.+XR.9X9X9XeX9X0XeXeXeXeXeXBXBXBXBXBXBXBXBXAXBXAXBXBXBXBXBXBXBXBXeXeXeXeX0XeX0X9X9X9X9X@X+XR.R.Y.F.A.h.h.4.4.>.>.-.-.W J J D A A V A V V V V V V V V V V V V V V V A V V V V V V V V V V V V V V A A V D J J J W W -.;.>.>.4.4.h.h.A.A.Y.Y.Y.Y.T.Y.T.Y.Y.Y.Y.F.F.A.A.h.h.j.h.h.h.d.d.d.d.d.d.d.d.h.h.d.j.h.h.j.j.A.F.Y.Y.Y.Y.R.R.OXOX+X+X+X9X9X9XeX9X9XeXeXeXBXBXBXAXAXAXSXSXSXZXZXVXVXcXVXzXzXgXgXyXm b x l 6 1 1 ; ; ; ; ; ; 1 1 4 7 r r z z x x c b b b b m c m b c c c c c c z c z z z z z l l l l l z r ",
"x z x x x x c b b n n iXpXsXsXsXfXjXjXjXjXcXzXcXcXcXcXcXlXcXlXzXcXzXzXjXjXgXgXgXgXgXgXpXpXyXm b x x 7 4 1 ; O = O ; O ; 4 7 l b m pXjXzXzXVXVXVXVXZXZXZXSXSXSXSXAXSXAXAXAXAXBXBXBXBXBXeXBXeXBXeXeXeXeXeXeXeX0XeX0XeXeX9XeX0XeXeX0XeXeXeX0XeX0XeXeXeXeXeXBXeXeXeXeXeXeXeXeX9XeX9X9X9X@X+XOXR.R.Y.F.F.h.j.h.d.4.4.4.2.<.<.>.>.>.;.;.-.-.-.-.W -.W W -.W -.W -.-.W ;.;.>.;.>.>.>.4.4.4.4.h.j.h.F.Y.Y.R.R.OX+X@X@X9X9X9XeXeXeXeXeXeXBXBXBXBXAXAXAXAXAXAXAXAXAXSXAXAXAXSXAXAXAXAXAXAXAXBXBXBXBXeXeXeXeX0X9X9X9X+X+XOXR.Y.Y.Y.j.j.j.j.j.h.j.j.A.A.Y.Y.R.R.+X9X+X9X9X9XeX0XeXeXeXBXBXBXBXBXBXAXAXAXAXAXAXAXAXAXAXBXAXBXBXBXBXBXeXeXeXeX0XeX9X9X9X+X+X+XR.R.Y.Y.j.h.h.4.4.>.>.-.-.W W J J D D V A V V V V V V V V V V V V V V V V V V V V V V V V V V V A A A A D J J J W W -.>.>.4.4.4.h.F.A.Y.Y.Y.R.R.R.R.R.R.R.R.R.Y.Y.Y.Y.F.F.F.h.h.h.j.h.j.h.h.h.j.h.j.h.h.F.h.F.F.F.Y.Y.Y.Y.T.R.R.R.+XOX+X@X@X9X@X9XeX9XeXeXeXeXBXBXBXAXAXAXSXSXSXSXZXZXVXVXVXzXzXgXgXyXm x l 7 4 ; 1 = ; ; ; ; 1 4 4 7 r l z b b b m m m pXpXm pXpXpXm pXm m m m n c v c x c x x x x z z z z z x ",
"x c c x b b b m m pXpXpXsXgXgXjXjXjXzXcXcXcXcXcXcXcXcXcXnXcXcXnXcXcXzXzXzXzXjXjXgXgXpXpXpXm b b x l 7 4 ; = ; O O & ; ; 4 l x m m jXjXzXcXcXVXVXZXZXSXSXSXSXSXSXSXAXAXAXAXBXBXBXBXBXBXBXeXBXeXeXeXeXeXeXeX0XeX0XeXeX9XeX9XeX0X0X0XeX0X0XeX0XeXeXeXeXeXBXeXeXeXeXeXeXeXeX9XeX9X9X9X@X@XOXOXR.Y.Y.F.A.A.j.h.d.4.4.2.2.<.>.>.>.;.;.-.-.-.-.W -.W W W W W W -.-.W -.-.;.;.>.>.>.4.>.4.4.d.d.h.F.F.Y.T.R.OX+X@X@X9X9X9XeX9X0XeXeXBXBXBXBXBXAXAXAXAXAXAXAXAXAXSXAXSXSXSXAXSXAXAXAXAXAXAXAXBXBXBXBXeXeXeX9XeX9X9X9X+X+XR.R.Y.Y.j.Y.j.j.j.j.j.j.j.Y.Y.R.R.+X+X+X9X9X9XeX0XeXeXeXBXBXBXBXBXBXAXAXAXAXAXAXAXAXAXAXAXAXAXAXBXBXBXBXBXBXeXeXeX9XeX9X9X9X9X+X+XR.R.Y.Y.j.j.4.4.4.>.>.-.-.W J J J D V A V A V V V V V V V V V V V V V V V V V V V V V V V A A A A D J J J J W -.-.>.>.<.4.4.h.h.A.Y.Y.R.R.R.OXOX+XOXOX+XR.R.R.R.T.Y.Y.Y.F.F.F.F.A.A.h.F.h.F.h.F.h.F.F.F.F.Y.Y.Y.Y.Y.T.R.R.R.OX+X+X+X9X@X9X9XeX9X9X0XeXeXeXBXBXAXAXAXAXSXSXSXZXZXZXVXVXcXcXzXgXgXyXb x l 6 1 ; ; = ; = ; ; 1 4 7 r l x b b m m pXpXgXpXpXpXjXpXgXpXgXpXgXpXpXpXm pXm m m b b x c x x x x x x c ",
"b b b b b m m m pXpXgXgXgXjXzXzXcXcXcXcXcXVXcXcXVXcXVXVXcXVXVXcXcXcXVXcXcXzXzXjXjXpXjXpXpXm m x x r 4 1 ; = O O = O ; ; 4 l x m pXpXzXzXVXVXVXVXZXZXZXSXSXSXSXSXAXAXAXAXBXBXBXBXBXeXBXeXeXeXeXeXeXeX0XeX0XeX0XeX0X9XeX9XeX9XeX0X0X0XeX0XeXeX0XeXeXeXeXeXeXBXeXeXeXeX0XeXeX9X0X9X@X9XOX@XOXT.T.Y.F.A.A.h.d.4.4.4.2.<.<.>.>.>.-.;.-.-.-.W W W W W W W W W W W -.-.-.;.;.>.>.>.4.4.4.4.h.j.A.j.Y.Y.Y.R.R.+X@X@X9X9X9XeXeXeXeXeXeXBXBXBXBXAXAXAXAXAXAXSXSXSXSXSXSXSXSXSXSXSXAXAXAXAXAXAXAXBXBXBXBXeXeXeX0X9XeX9X@X+XOXR.Y.Y.Y.A.j.j.j.Y.j.Y.Y.Y.Y.R.+X+X9X9X9X9XeX0XeXeXeXBXBXBXBXBXAXAXAXAXAXAXAXAXAXAXAXAXAXAXAXAXAXAXBXBXBXBXeXeXeXeX0X9X9X9X9X@X+X+XR.R.Y.Y.h.j.h.4.4.>.>.-.-.W W J J J D D V A A A V V V V V V V V V V V V V V V V V A A V A A D D J J J J -.-.;.>.>.4.4.4.h.F.F.Y.Y.R.R.+XOX+X+X@X@X+X@X+X+XOXOXR.R.T.T.T.Y.Y.Y.Y.Y.Y.F.Y.F.Y.Y.Y.F.Y.Y.Y.Y.T.T.R.R.R.R.+X+X+X@X@X9X@X9X9XeX9XeXeXeXeXBXBXBXBXAXAXAXSXSXSXSXZXZXZXVXVXcXzXjXpXyXb x 7 4 ; ; = = = = ; ; 4 4 7 l x b b m pXpXgXpXgXgXjXjXjXzXjXzXjXzXjXjXjXgXgXgXpXpXpXpXpXm m b b c c b x b b ",
"m m m m m m pXpXpXgXgXjXzXzXcXcXcXcXVXcXVXcXVXVXVXVXVXVXVXVXVXcXVXVXcXcXcXcXzXzXjXgXpXgXpXm b x x 7 4 ; ; = = O O & & 4 7 l b m N jXzXcXcXVXVXZXZXZXSXSXSXSXSXAXAXAXAXBXBXBXBXBXBXBXeXeXeXeXeXeX0XeXeX0XeX0X0X0X9XeX9XeX9X0X0X0X0X0X0XeX0X0XeX0XeXeXeXeXeXeXeXeXeXeXeXeX0XeX9X9X9X@X@XOXR.T.Y.F.F.F.j.d.d.4.4.2.2.<.>.>.>.;.;.W -.-.W W W W W W W W W W W -.W -.-.;.;.>.>.<.>.4.4.4.d.h.h.F.F.Y.R.R.+X+X+X9X9X9XeX9X0XeXeXBXBXBXBXBXAXAXAXAXAXAXSXSXSXSXSXSXSXSXSXSXSXSXSXSXAXAXAXAXAXAXBXBXBXeXeXeX0XeX9X9X+X9X+XOXR.Y.Y.Y.Y.Y.Y.j.Y.Y.Y.Y.R.+X+X+X@X9XeX0X9XeXeXeXBXBXBXBXAXAXAXAXAXAXAXAXSXAXSXSXSXSXSXAXAXAXAXAXAXAXBXBXBXBXeXeXeXeX9XeX9X9X@X+X+XR.Y.Y.Y.j.j.4.4.4.<.>.>.-.W W J J J D D A A A V A A V V V V V V V V V V V A V A A V D D D J J J W W -.-.>.>.>.4.4.h.h.j.F.Y.R.R.R.+X+X@X@X@X@X@X@X@X@X@X@X+X+XOXR.OXR.T.T.T.T.T.Y.T.Y.T.Y.Y.Y.T.T.T.R.R.R.R.OXOX+X+X@X@X@X@X9X9X9XeX9X9XeXeXeXeXBXBXBXAXAXAXSXSXSXSXZXZXZXVXVXVXcXzXjXpXm b l l 1 ; = = O = = ; ; 4 7 l x x m m pXpXgXgXgXjXzXzXzXzXcXzXcXzXcXzXzXzXzXzXzXjXzXgXgXgXpXpXpXpXm m m b m m m ",
"pXpXpXpXpXgXpXjXgXjXzXzXcXcXcXcXVXcXVXVXVXVXVXVXVXVXVXVXVXVXVXVXVXcXVXcXcXcXzXzXzXjXgXpXpXm b b l 7 4 ; = O O O O ; ; ; 7 z b pXgXjXzXcXVXVXVXZXZXZXSXSXSXSXSXAXAXAXAXBXBXBXBXBXeXBXeXeXeXeXeXeXeX9XeX0X0X0X0X0X9X0X0X9XeX9X0X0X0X0X0X0XeX0XeXeX0XeXeXeXeXeXeXeXeXeXeX0XeX9X0X9X9X@X+XOXOXT.Y.Y.A.h.j.h.d.4.4.2.2.>.>.>.-.;.-.-.-.W W W W W J W J W W W W W -.W -.;.>.;.>.<.4.>.4.d.h.j.F.F.Y.Y.R.R.+X+X9X@X9X9X9XeXeXeXeXeXBXBXBXAXAXAXAXAXSXSXSXSXSXSXSXSXSXSXSXSXSXSXSXSXSXAXAXAXAXAXAXBXBXBXeXeXeX9X9XeX9X+X+X+XR.R.Y.Y.Y.Y.Y.Y.Y.Y.R.R.R.+X+X9X9X9X9XeXeXeXeXBXBXBXBXAXAXAXAXAXSXSXSXSXSXSXSXSXSXSXSXSXSXAXAXAXAXAXAXAXBXBXBXeXeXeXeX9X9X9X9X+X+X+XR.R.Y.Y.j.h.h.4.<.<.>.>.-.-.W W J J J D D V D V A A V A A A V A V A V A V A A D D D J J J J W W -.-.>.>.<.4.4.h.h.A.F.Y.T.R.OX+X@X@X@X9X9X9X9X9X9X@X@X@X@X@X@X+XOXOXOXOXR.OXT.R.T.R.T.R.R.R.R.R.R.R.+XOX+XOX+X@X@X@X9X9X9X9X9XeX9XeXeXeXeXeXBXBXBXAXAXAXAXSXSXSXZXZXZXVXVXVXzXzXgXgXm b x 6 ; ; = & O = = ; ; 4 7 l x b m pXpXgXgXzXzXzXzXzXzXVXzXcXcXcXcXcXVXcXcXcXcXcXzXzXzXzXjXgXgXpXpXpXpXm pXpXpXpX",
"gXgXgXgXjXpXjXjXzXzXcXcXcXcXcXVXVXVXVXVXVXVXVXZXVXZXVXZXVXVXVXVXVXVXVXVXcXcXVXzXzXzXgXgXpXm b c l 7 , ; ; O O O & & ; 4 7 x b pXpXjXzXcXVXVXZXZXZXSXSXSXSXSXAXAXAXAXBXBXBXBXeXBXBXeXeXeXeXeX0XeX0XeX0X0X0X0X0X0X0X9X9X9X9X9X9X0X0X0X0X0X0X0XeX0XeXeXeXeXeXeXeXeXeXeXeXeX0XeX9X9X@X9XOXOXR.T.Y.F.F.A.j.d.4.4.2.2.<.>.;.>.>.-.-.-.W W W W W J W J W W J W W W W -.-.;.;.>.>.2.>.4.4.d.h.h.h.Y.Y.T.R.R.+X@X@X9X9X9XeXeXeXeXBXBXBXBXAXAXAXAXAXSXSXSXSXSXSXSXSXSXSXSXSXSXSXSXSXSXSXSXSXAXAXAXAXBXBXBXBXeXeXeXeX9X9X9X+X+XOXR.R.Y.R.Y.Y.Y.R.Y.R.R.+X+X@X9X9XeX9XeXeXeXBXBXBXBXAXAXAXAXSXSXSXSXSXSXSXSXSXSXSXSXSXSXSXSXSXSXAXAXAXAXBXBXBXBXeXeXeX9XeX9X9X9X@X+X+XR.Y.Y.Y.j.h.h.4.4.<.>.>.-.-.W W J J J J J D D D A D A A V A V D V D V D D D J J J J J W W -.-.>.>.>.<.4.4.h.h.j.Y.Y.T.OXOX+X9X@X9X9X9X9X9X9X9X9X9X9X9X@X@X@X@X@XOX@XOXOXOXOXOXOXOXOXOXOXOXOXOX+X+X+X+X@X@X@X@X@X9X9X9X9X9XeX9XeXeXeXeXBXBXBXAXAXAXAXSXSXSXZXZXZXZXVXVXVXVXzXzXgXm b l 6 1 = = O O O = = 1 4 7 x b m pXpXgXgXzXzXzXzXzXVXVXVXcXVXcXVXVXVXVXcXVXcXcXcXcXcXcXcXcXzXzXjXjXgXgXgXgXgXgXgXgX",
"jXgXgXgXjXjXzXzXzXcXcXcXcXVXcXVXVXVXVXVXZXVXZXVXVXVXZXVXZXVXZXVXVXVXVXcXVXcXcXVXzXzXgXgXpXpXb x z 7 , ; = O O . O ; ; 4 l x m pXgXjXzXVXcXVXZXZXZXSXSXSXSXSXAXAXAXAXBXBXBXBXBXeXeXeXeXeX0XeXeX9XeX9X0X0X0X0X9X9X9X9X9X9X9X9X9X9X0X0X0X0X0XeX0XeX0XeXeXeXeXeXeXeXeXeX9XeX0X0X9X9X@X@X@XOXR.T.Y.F.A.h.d.h.4.4.4.>.2.>.>.;.;.-.W -.W W W W J -.J -.J W W W W W -.W -.;.;.>.>.2.4.4.4.d.j.A.F.F.Y.R.R.+X+X9X@X9X9XeX9XeXeXBXeXBXBXBXAXAXAXAXSXSXSXSXSXSXSXSXSXSXSXSXSXSXSXSXSXSXSXSXSXSXAXAXAXAXAXBXBXBXeXeXeX0X9X9X9X+X+XOXOXR.Y.Y.R.Y.R.R.R.+X+X+X9X9XeX9XeXeXeXBXBXBXBXAXAXAXAXSXSXSXSXSXSXSXSXSXSXSXSXSXSXSXSXSXSXSXSXAXAXAXAXAXBXBXBXeXeXeX9XeX9X9X9X@X+X+XR.Y.Y.Y.j.j.h.4.4.<.<.>.>.-.-.W W J J J J J J D D D D D D D D D D J J J J J J W W W -.-.;.>.>.<.4.4.4.h.j.A.Y.Y.R.R.OX@X@X@X9X9XeX9XeX9X9XeX9XeX9X9X9X9X@X@X@X@X@X@X@XOX@XOX@XOX+X+XOX@X@X@X@X@X@X@X@X9X9X9X9X9X9X9XeX9XeXeXeXeXeXBXBXBXAXAXAXAXSXSXSXSXZXZXZXVXVXVXzXzXjXpXm b l 7 ; = O O O O = = 4 4 l x b m yXgXjXzXzXzXcXcXVXcXcXVXVXVXVXVXVXVXVXVXVXVXVXVXVXcXVXcXcXcXcXcXzXzXzXgXgXgXgXgXjXjX",
"zXzXzXzXzXzXzXzXcXcXcXcXVXVXVXVXVXVXVXZXVXZXVXZXZXZXVXZXVXZXVXZXVXVXVXVXVXcXcXcXzXzXzXgXpXm m x l 7 , ; O O . O O & ; 4 l x m pXjXzXcXcXVXVXZXZXSXSXSXSXSXAXAXAXAXBXBXBXBXBXeXBXeXeXeXeXeXeX9XeX0X0X0X9X0X9X9X9X9X9X9X9X9X9X9X9X9X0X0X0X0X0X0X0XeXeXeXeXeXeXeXeXeXeXeXeX0X0X9X9X9X@XOXOXR.Y.Y.F.A.j.j.4.4.4.2.2.>.>.;.;.-.-.-.W W W W J -.J W J J W J W W W W -.-.;.>.>.2.>.>.4.4.h.h.h.F.Y.Y.R.R.+X@X@X9X9XeX9XeXeXeXeXBXBXAXAXAXAXAXSXSXSXSXSXSXSXSXSXSXSXSXSXZXSXSXSXSXSXSXSXSXSXSXAXAXAXAXBXBXBXeXeXeX9XeX9X9X9X+XOXOXR.OXR.R.R.R.OX+X+X+X9X9X9X9XeXeXeXBXBXBXAXAXAXAXSXSXSXSXSXSXSXSXSXSXSXSXSXSXSXSXSXSXSXSXSXSXSXSXAXAXAXAXBXBXBXBXeXeXeX9XeX9X9X@X+X+XR.Y.Y.Y.j.j.h.4.4.<.<.>.>.;.-.-.W W W J J J J J J J J J J J J J J J W J W W W -.-.-.>.>.>.<.4.4.h.h.h.A.Y.Y.R.R.+X@X@X9X9XeX9X9XeX9XeXeXeXeX9XeX9XeX9X9X9X9X9X@X9X@X@X@X@X@X@X@X@X@X@X@X@X@X@X@X9X9X9X9X9XeX9X9XeXeXeXeXBXeXBXBXBXBXAXAXAXSXSXSXSXZXZXZXZXVXVXVXVXzXjXgXm b l 6 ; = O O O O = = 4 4 l c m yXgXjXjXjXzXcXcXcXVXcXVXVXVXVXVXVXVXVXVXZXVXVXVXZXVXVXVXVXcXVXcXcXcXcXcXzXzXzXjXjXzXzXzX",
"cXzXzXzXzXzXcXcXcXVXcXVXcXVXVXVXZXVXZXVXZXZXZXVXZXZXZXZXZXVXZXVXZXVXVXVXVXVXcXcXcXzXzXgXgXpXm b l 7 1 ; O O O . O ; ; 4 l b m gXgXzXcXVXVXVXZXZXZXSXSXSXSXSXAXAXBXBXBXBXBXBXeXeXeXeXeX0XeX9XeX9X0X0X0X9X9X9X9X9X9X9X9X9X9X9X@X9X9X9X0X0X0X0X0XeX0XeXeXeXeXeXeXeXeX0XeX0XeX9X9X9X@X@X@XOXR.T.Y.F.A.h.h.d.4.4.<.>.>.>.>.;.-.W W -.W W J W J J J W J W W J W W -.-.-.;.;.>.>.4.4.4.4.h.j.F.F.Y.Y.R.+X+X@X@X9X9X9XeXeXeXeXBXBXBXBXAXAXAXSXSXSXSXSXSXSXSXSXZXSXSXZXSXSXSXSXSXZXSXSXSXSXSXSXSXAXAXAXAXBXBXBXeXeXeX0X9X9X9X@X9XOX+XOXOXOXOXOX+X+X9X+X9X9XeX9XeXBXeXBXBXBXAXAXAXSXSXSXSXSXSXSXSXSXSXZXZXZXZXZXSXSXSXSXSXSXSXSXSXSXSXSXAXAXAXAXBXBXeXeXeXeX9X9X9X9X@X+X+XR.R.Y.Y.j.h.h.h.4.<.<.<.>.;.;.-.-.-.W W W J J J J J J J J W W J W W -.-.-.-.;.>.>.>.<.4.4.4.h.h.j.Y.Y.Y.R.R.+X@X9X9X9XeX9XeXeXeXeXeXeXeXeXeXeXeX9XeX9X9X9X9X9X9X9X9X9X9X@X9X9X@X9X9X9X9X9X9X9X9X9X9X9XeX9XeXeXeXeXeXeXeXBXBXBXAXAXAXAXSXSXSXSXSXZXZXZXVXVXVXzXzXjXpXm b l 4 ; = O O . O O ; 1 r z b yXyXgXjXjXzXcXcXnXVXVXVXVXVXZXVXZXZXZXZXZXZXZXZXZXZXVXZXVXVXVXVXVXVXVXcXcXcXcXcXzXzXzXzXzXcX",
"cXcXcXcXcXcXcXzXVXcXcXVXVXVXZXVXVXVXZXZXVXZXZXZXZXZXZXVXZXZXVXZXVXZXVXVXVXcXVXcXcXzXjXjXgXpXm c l 7 , ; ; O . O O & ; 7 l b m pXjXzXcXVXVXZXZXZXSXSXSXSXSXAXAXBXAXBXBXBXBXeXeXeXeX0XeXeX0XeX9X9X0X9X9X9X9X9X9X@X9X9X@X9X9X9X9X9X<X9X0X9X0X9XeX0XeX0XeXeXeXeXeXeXeXeXeXeX0X0X9X9X9X@XOXOXT.T.F.F.A.j.h.4.4.2.2.2.>.>.;.-.-.-.-.W W J W J W J W J J W J W W W W -.;.;.>.>.>.4.4.4.d.h.h.F.F.Y.R.R.+X@X@X9X9X9XeXeXeXeXBXBXBXBXAXAXAXAXSXSXSXSXSXSXSXSXZXSXZXZXZXZXZXZXZXZXSXSXSXSXSXSXSXSXSXAXAXAXBXBXBXBXeXeX0XeX9X9X9X+X@X+X+X+X+X+X+X+X+X@X9X9XeX9XeXeXeXBXBXAXAXAXAXSXSXSXSXSXSXSXSXSXZXZXZXZXZXZXZXZXZXZXZXZXSXSXSXSXSXSXSXSXAXAXAXBXBXBXBXeXeX9XeX9X9X9X@X+X+XR.Y.Y.Y.Y.j.h.h.4.4.2.<.>.>.>.;.-.-.-.W -.W W W W W W W W W -.-.-.-.;.;.>.<.>.<.<.4.4.h.h.j.j.Y.Y.Y.R.OX+X@X@X9X9X9X9XeXeXeXBXeXeXeXeXeXeXeXeXeXeXeXeX9XeX9X9X0X0X9X9X9X9X9X9X9X9X9X9X9X9XeX9XeX9XeXeXeXeXeXeXeXeXBXBXBXBXAXAXAXAXSXSXSXSXZXZXZXVXVXVXVXzXzXjXpXm x l 4 ; = O . O O = ; 1 r z b yXyXgXjXzXzXzXnXnXnXnXVXVXVXZXZXZXZXZXZXZXZXZXZXZXZXZXZXZXZXVXVXZXVXVXcXVXnXnXcXcXcXcXcXcXcXcX",
"cXcXcXcXcXcXcXVXcXVXnXVXVXVXVXZXZXZXVXZXZXZXVXZXZXVXZXZXVXZXZXVXZXVXVXVXVXVXcXcXcXzXzXjXpXpXm b l 6 1 ; & O . O O ; ; 4 z b pXpXzXzXcXVXVXVXZXZXSXSXSXSXAXAXAXAXBXBXBXBXBXBXeXeXeXeX0X0X0X9XeX9X9X0X9X9X@X9X9X9X@X@X9X@X9X@X9X9X9X9X9X0X0X0X0XeX0XeXeXeXeXeXeXeXeXeX0XeX0X0X9X9X@X@X+XOXT.T.Y.F.h.j.d.d.4.4.<.>.>.;.>.-.-.W W W W W W J J W J J W J W W W W -.-.;.>.>.>.4.>.4.4.h.j.A.F.Y.Y.R.R.+X@X@X9X9XeX9XeXeXeXBXBXBXAXAXAXAXSXSXSXSXSXSXSXZXZXZXZXZXZXZXZXZXZXZXZXZXZXSXZXSXSXSXSXSXSXAXAXAXAXBXBXBXeXeX9X9X9X9X9X+X+X@X+X@X+X9X+X9X9X9XeX9XeXeXeXBXBXBXAXAXAXSXSXSXSXSXSXSXZXZXZXZXZXZXZXZXZXZXZXZXZXZXZXZXZXZXSXSXSXSXSXSXSXAXAXAXBXBXBXeXeX0X9XeX9X9X+X+X+XR.Y.Y.Y.A.j.h.h.4.4.4.<.<.<.>.>.;.;.;.-.-.-.-.-.W -.-.-.-.-.;.;.>.>.>.>.<.4.4.4.4.h.h.j.F.Y.Y.Y.R.+X+X+X9X9X9XeXeXeXeXeXeXeXBXBXBXBXeXBXeXeXeXeXeXeXeX9XeX9X9X9X9X9XeX9X9X9X9XeX9X9X9XeX9XeXeXeXeXeXeXeXeXBXBXBXBXBXAXAXAXAXSXSXSXSXSXZXZXZXZXVXVXVXzXzXjXpXm b l 4 ; & & . O O = ; 4 r z b yXpXjXjXzXzXnXcXnXVXVXVXZXZXZXZXZXZXZXSXSXZXZXZXZXZXZXZXZXZXZXZXZXVXVXZXVXVXVXnXnXcXcXcXcXcXcXcX",
"nXcXcXcXcXcXnXcXnXVXVXVXVXVXZXVXZXVXZXZXZXZXZXZXZXZXZXZXZXZXVXZXVXVXVXVXVXcXVXcXcXcXjXgXgXpXm c x 6 1 ; = O O O O & ; 7 z b m gXjXcXcXVXVXZXZXSXSXSXSXSXSXAXBXAXBXBXBXeXBXeXeXeXeX0XeXeX9XeX9X9X9X9X@X9X9X@X9X@X@X9X@X9X@X9X9X9X9X<X9X0X0X0X0X9XeXeX0XeXeXeXeXeXeXeXeX0XeX0X9X9X9X@XOXOXR.Y.F.F.A.h.h.4.4.<.2.>.>.>.;.-.-.-.W W J W J W J J J W J W J W W W -.;.;.;.>.>.>.4.4.d.h.h.F.F.Y.R.R.+X+X+X9X9XeX9XeXeXeXBXBXBXAXAXAXAXSXSXSXSXSXSXSXSXZXZXZXZXZXZXZXZXZXZXZXZXZXZXZXSXSXSXSXSXSXSXSXAXAXAXBXBXBXeXeXeXeX9X9X9X9X9X@X@X+X+X+X9X9X9X9X9XeXeXeXBXBXAXAXAXAXSXSXSXSXSXSXZXZXZXZXZXZXZXZXZXZXZXZXZXZXZXZXZXZXZXZXZXSXSXSXSXSXSXAXAXAXBXBXBXBXeXeXeX9X9X9X9X9X+X+XR.R.Y.Y.Y.F.j.h.h.4.4.4.<.<.<.<.>.>.;.>.-.>.-.>.;.-.>.;.>.>.<.>.<.<.4.<.4.4.h.h.j.j.A.Y.Y.R.R.OX+X+X9X9X9X9XeXeXeXeXBXBXBXBXBXBXBXBXBXBXBXBXeXeXeXeXeXeXeXeXeXeXeX9XeX9XeXeX9XeXeXeXeXeXeXeXeXeXeXeXBXBXBXBXBXAXAXAXAXSXSXSXSXSXZXZXZXZXVXVXVXVXzXjXjXm m x l 4 ; & & . O O = ; 4 r x b yXpXjXzXzXzXnXcXVXVXVXVXZXZXZXZXZXZXZXSXZXZXZXZXZXSXZXZXZXSXZXZXZXZXZXZXVXZXnXVXnXnXnXcXnXcXnXcXcX",
"cXnXcXcXcXnXcXnXnXnXVXVXVXZXVXZXVXZXZXZXZXZXZXZXZXZXZXZXZXZXZXVXZXVXVXVXcXVXcXcXcXcXjXjXgXpXm b z 6 1 , = O . O = ; ; 4 z m m gXzXzXcXVXVXZXZXZXSXSXSXSXAXAXAXBXBXBXBXBXeXeXeXeXeX0X0X9XeX9X9X9X9X9X9X@X9X@X@X9X@X@X@X@X9X@X9X@X9X9X9X9X0X0X0XeX0XeXeXeXeXeXeXeXeXeXeXeX0X0X0X9X@X@X+XOXT.T.Y.F.A.h.d.4.4.4.<.>.>.;.;.;.-.W W W W W J J W J W J J W W W W W -.;.;.>.>.<.2.4.4.h.h.h.F.Y.Y.R.R.+X@X9X9X9X9XeXeXeXeXBXBXBXAXAXAXSXSXSXSXSXSXSXZXZXZXZXZXZXZXZXZXZXZXZXZXZXZXZXZXZXZXSXSXSXSXSXSXSXAXAXAXBXBXBXeXeXeX0X0X9X9X9X9X9X9X9X9X9X9X9X0X0XeXeXBXBXBXAXAXAXSXSXSXSXSXSXZXZXZXZXZXZXZXZXZXZXZXZXZXZXZXZXZXZXZXZXZXZXZXZXSXSXSXSXSXSXAXAXAXBXBXBXeXeXeX9XeX9X9X@X+X+XR.R.Y.Y.Y.A.j.h.h.h.4.4.4.<.<.<.<.<.<.<.>.>.<.>.<.<.<.<.<.<.4.<.4.4.h.h.h.h.j.Y.Y.Y.Y.R.R.+X+X@X9X9X9XeXeXeXeXBXBXBXBXBXBXBXBXBXBXBXBXBXBXBXBXeXBXeXeXeXeXeXeXeXeXeXeXeXeXeXeXeXeXeXeXeXeXBXeXBXBXBXBXBXBXAXAXAXAXSXSXSXSXSXZXZXZXZXVXVXVXzXzXzXjXpXm z l 1 ; = & . O O = 1 4 r x b yXgXgXzXzXcXnXcXVXVXVXVXZXZXZXZXZXZXZXZXZXZXZXSXSXSXZXSXZXSXZXZXSXZXZXZXZXVXZXZXnXVXVXnXnXcXnXcXnXnX",
"nXcXcXnXcXcXnXnXnXnXVXVXZXVXVXZXZXZXZXZXZXZXZXZXZXZXZXZXZXVXZXVXVXVXVXVXVXVXnXcXcXzXjXgXgXpXm c z l 1 , = & O O O & 4 7 z b pXgXzXzXVXVXZXZXZXSXSXSXSXAXAXAXAXBXBXBXeXBXeXeXeX0X0XeX0XeX9X9X9X9X9X9X@X9X+X9X@X@X+X9X@X9X@X9X@X9X9X9X<X9X0X9XeX9XeXeXeXeXeXeXeXeXeXeXeX0XeX0X9X9X9X@X+XOXT.T.F.F.A.h.d.4.4.4.>.>.>.>.;.-.-.W W W W J W J J W J J W W W W W -.;.;.;.>.<.>.4.4.4.d.h.F.F.Y.T.R.+X+X@X@X9X9XeX9XeXeXBXBXBXAXAXAXSXSXSXSXSXSXSXZXZXZXZXZXZXZXZXZXZXZXZXZXZXZXZXZXZXZXZXZXSXSXSXSXSXSXSXAXAXAXBXBXBXeXeX0X0X0X9X9X9X9X9X9X9X9X9X0X0XeXeXBXBXBXAXAXAXSXSXSXSXSXZXZXZXZXZXZXZXZXZXVXZXVXVXVXVXVXVXVXVXZXZXZXZXZXZXZXZXSXSXSXSXSXAXAXAXAXBXBXBXeXeXeX9X9X9X9X9X+X+XOXOXY.Y.Y.F.F.j.h.h.h.4.4.4.4.<.4.<.<.<.<.<.4.<.<.<.4.<.4.4.4.h.h.h.h.j.j.Y.Y.Y.R.R.OX+X+X9X9X9X9XeXeXeXeXBXBXBXBXBXAXAXAXAXAXAXAXBXBXBXBXBXBXBXBXeXBXeXeXeXeXeXeXeXeXeXeXeXeXeXeXBXeXBXBXBXBXBXBXBXAXAXAXAXSXSXSXSXSXSXZXZXZXVXVXVXVXVXzXzXpXm m z 7 1 ; & O O O O ; 1 4 z x yXpXgXgXjXcXcXcXnXVXVXVXZXZXZXZXZXZXZXZXSXZXSXZXSXSXSXZXSXSXSXSXZXAXZXSXZXZXZXZXZXVXVXVXxXVXcXnXnXcXnXcX",
"cXnXnXzXnXnXlXnXnXnXnXZXVXZXZXVXZXZXCXZXZXZXZXZXZXZXVXZXVXZXVXZXVXVXVXVXnXnXcXcXcXzXjXjXsXpXm m z 6 4 , & & O O & ; , 7 z m pXgXzXcXcXVXVXZXZXSXSXSXSXSXAXAXAXBXBXBXBXeXeXeXeXeXeX9X0X0X9X9X9X9X9X@X9X@X9X+X9X@X9X+X@X@X@X@X9X+X9X9X9X9X0X0X9XeX9XeXeXeXeXeXeXeXeXeXeXeX0X0X0X9X@X@X+XOXOXT.Y.F.h.j.d.4.4.>.4.>.>.;.;.;.W -.W W W W J W J J J W J W W W W -.;.;.>.>.>.2.4.4.d.h.h.F.Y.Y.R.R.+X@X9X9X9X9XeXeXeXeXBXBXBXAXAXAXSXSXSXSXSXSXZXZXZXZXZXZXZXZXVXZXZXVXZXZXZXZXZXZXZXZXZXZXZXZXSXSXSXSXSXSXAXAXAXBXBXeXeXeXeX9X0X9X0X9X9X9X9X9XeX0XeXeXeXBXBXBXAXAXSXSXSXSXSXZXZXZXZXZXZXZXVXVXVXVXVXVXVXVXVXVXVXVXVXVXVXVXZXZXZXZXZXZXZXSXSXSXSXSXAXAXAXBXBXBXeXeXeX9X9X9X9X9X+X+XOXOXY.Y.Y.Y.A.F.h.j.h.h.h.4.4.4.4.4.4.4.<.4.4.4.4.4.h.4.h.h.j.j.j.Y.Y.Y.Y.Y.R.R.OX+X+X9X9X9X9XeXeXeXeXBXBXBXBXAXAXAXAXAXAXAXAXAXAXAXBXBXBXBXBXBXBXBXBXBXeXBXeXBXBXeXBXeXBXBXBXBXBXBXBXBXBXBXAXAXAXAXAXSXSXSXSXSXSXSXZXZXZXVXVXVXVXzXzXjXgXpXb z l ; ; = O O O O ; ; 7 r c b pXpXjXjXcXcXcXVXnXZXVXZXVXZXZXZXZXSXZXSXZXSXZXSXSXSXSXSXZXSXZXSXZXZXZXSXZXZXZXZXZXMXVXVXVXcXVXcXcXnXcXnX",
"nXnXlXnXnXlXnXnXnXMXnXZXnXZXVXZXVXZXZXVXZXZXZXVXZXZXZXCXZXZXVXVXZXVXZXnXnXnXcXnXzXzXjXjXsXpXm c x l 4 ; ; & O O & ; 4 l l m pXgXzXcXVXVXZXZXZXSXSXSXAXSXAXAXBXBXBXBXeXBXeXeXeXeX9XeX0X9X9X9X9X9X@X9X@X@X+X9X+X+X@X+X9X+X@X9X@X9X@X9X9X9X0X9XeX9XeX0XeXeXeXeXeXeXeXeXeX0XeX0X9X9X9X@X+XOXT.Y.Y.A.F.j.d.4.4.4.2.>.>.>.;.;.-.W -.W W J W J W J W J W W W -.-.-.;.;.>.2.>.4.4.4.d.h.F.F.Y.T.R.OX+X@X@X9XeX9XeXeXeXBXBXAXAXAXAXSXSXSXSXSXSXZXZXZXZXZXVXZXZXZXZXZXVXZXVXVXVXZXZXZXZXZXZXZXZXZXSXSXSXSXSXSXAXAXAXBXBXBXeXeX0XeX0X0X9X0X9X0X9XeX0X0XeXeXBXBXAXAXAXSXSXSXSXSXZXZXZXZXZXZXVXVXVXVXVXVXVXVXVXVXVXVXVXVXVXVXVXVXVXVXVXZXZXZXZXZXSXSXSXSXAXAXAXAXBXBXBXeXeXeXeX9X9X9X9X@X@XOXOXR.R.Y.Y.A.Y.j.j.j.h.h.h.h.h.4.h.4.h.4.h.4.h.h.h.j.h.j.j.j.Y.Y.Y.Y.Y.OXOX+X+X+X9X9X9X9XeXeXeXBXBXBXBXAXAXAXAXSXSXSXSXSXSXSXSXAXAXAXAXAXBXBXBXBXBXBXBXBXBXBXBXBXBXBXBXBXBXBXBXBXBXBXBXAXAXAXAXSXSXSXSXSXSXSXZXZXZXVXVXVXVXVXzXjXjXpXm b l 7 ; ; O O O = & ; ; 7 z c yXpXgXjXjXcXcXnXnXnXZXVXnXZXZXZXSXZXZXZXSXZXCXZXSXSXSXSXSXSXSXAXSXZXAXZXAXZXCXZXZXZXZXVXMXVXVXnXnXnXnXcXnXnX",
"cXnXcXcXxXnXcXnXnXnXMXnXZXnXCXVXCXZXVXCXZXCXZXZXZXVXZXVXZXVXCXVXVXVXnXnXnXnXnXzXzXlXjXsXsXpXn c z 9 4 1 & = & & & ; , 7 b b pXgXzXcXcXVXVXZXZXSXSXSXSXAXAXAXBXBXBXBXeXeXeXeXeX0XeX9X0X9X9X9X9X@X9X@X@X9X+X+X9X+X@X@X+X9X+X@X@X9X@X9X9X9X0X0X0XeXeXeXeXeXeXeXBXeXeXeXeXeX0XeX0X9X9X@X+XOXOXT.Y.F.h.j.d.d.4.4.<.<.>.;.>.-.;.W W W W W W W J W W W W W W W -.;.;.>.>.>.>.4.4.d.h.A.A.F.Y.T.R.+X@X@X9X9X9XeXeXeXBXBXBXBXAXAXSXSXSXSXSXSXZXZXZXZXZXZXZXZXVXVXVXVXVXVXVXVXVXVXVXZXZXZXZXZXZXZXZXZXSXSXSXSXSXAXAXAXAXBXBXeXeX0XeX0XeX9XeX9XeX0XeXeXeXBXBXBXAXAXAXSXSXSXSXZXZXZXZXZXZXVXVXVXVXVXVXVXVXVXVXzXVXzXVXVXVXVXVXVXVXVXVXVXVXZXZXZXZXZXSXSXSXSXAXAXAXBXBXBXeXeXeX0XeX9X9X9X@X+XOXOXOXY.R.Y.Y.Y.Y.j.A.j.h.j.h.j.j.h.j.h.h.j.h.j.j.j.Y.A.Y.Y.Y.Y.Y.OXOXOX+X+X9X9X9X9X9XeXeXeXeXBXBXBXAXAXAXSXSXSXSXSXSXSXSXSXSXSXSXAXAXAXAXAXBXBXBXAXBXBXBXBXBXBXBXBXBXBXBXBXAXAXAXAXAXAXAXSXSXSXSXSXSXSXZXZXZXZXZXVXVXVXzXVXzXjXpXm b l 7 ; ; O O O O O ; 4 7 x b yXpXgXgXjXcXcXcXnXnXZXnXZXZXZXZXZXZXSXZXAXZXAXZXAXSXSXSXSXCXSXSXZXAXAXZXAXZXCXZXAXZXMXSXMXVXMXVXnXcXxXnXnXlXnX",
"nXlXnXxXcXnXxXnXnXnXnXZXVXCXVXCXZXVXCXZXCXZXVXCXVXCXVXZXVXCXVXVXVXMXnXnXnXcXcXcXlXjXjXjXpXpXm c l l 4 , ; & & O ; ; 4 7 x m pXjXzXcXVXVXZXZXZXSXSXSXSXAXAXAXBXBXBXBXeXBXeXeX0XeX9X0X9X9X9X9X9X9X@X@X9X+X+X9X+X@X+X@X@X@X@X@X9X@X9X@X9X9X9X0X9XeX0XeXeXeXBXeXeXeXeXeXeXeXeX0X0X9X9X+X@XOXT.T.Y.F.A.j.h.d.4.2.2.>.>.>.;.;.W -.W W W W W J W J W W W W W -.-.;.>.>.>.>.4.4.4.h.h.h.F.Y.T.R.+X+X@X9X9X9XeXeXeXeXBXBXBXAXAXAXSXSXSXSXSXZXZXZXZXVXZXZXZXVXVXVXVXVXVXVXVXVXVXVXVXVXVXZXVXZXZXZXZXZXZXSXSXSXSXSXAXAXAXBXBXBXeXeXeXeX0XeX0XeX0XeXeXeXBXBXBXAXAXAXSXSXSXSXZXZXZXZXZXVXVXVXVXVXVXVXVXVXzXVXzXVXVXVXzXVXzXVXzXVXVXVXVXVXVXVXZXZXZXZXZXSXSXSXSXAXAXAXBXBXBXeXeXeX9XeX9X9X9X9X@X@XOXOXR.OXY.Y.Y.Y.A.Y.Y.j.Y.j.j.j.j.j.j.j.Y.j.Y.Y.Y.Y.Y.Y.Y.R.OXOX+X+X+X9X9X9XeX9XeXeXeXeXBXBXBXAXAXSXSXSXSXSXSXSXSXSXSXSXSXSXSXSXSXSXAXAXAXAXAXBXAXAXBXAXBXBXBXAXBXAXAXAXAXAXAXAXSXSXSXSXSXSXSXSXZXZXZXZXZXVXVXVXVXVXzXzXpXpXm b l 7 ; ; O . . O = 1 4 l z m yXpXgXjXjXcXcXcXnXZXnXnXZXZXZXZXZXAXZXZXAXZXAXZXAXCXSXNXSXCXSXAXSXAXAXZXCXSXAXZXAXZXMXSXMXMXMXVXVXbXnXnXnXxXnXcX",
"nXlXlXnXxXlXnXnXnXmXnXnXCXVXCXVXCXCXVXCXVXCXCXVXCXVXMXZXbXVXMXVXVXnXnXnXcXnXlXzXlXjXjXsXsXiXn c z r 1 , ; & & & & ; 4 7 x m pXgXzXcXVXVXVXZXZXSXSXSXSXAXAXAXBXBXBXBXeXeXeXeXeX9XeX9X9X9X9X9X@X@X@X@X@X@X@X+X@X+X@X+X@X@X@X@X@X9X@X9X9X9X0X9XeX9XeXeXeXeXeXeXeXBXeXeXeXeXeX0X0X0X9X9XOX+XR.T.Y.Y.A.h.d.d.4.4.>.<.>.>.>.-.-.;.W W W W W W W W W W W W -.-.;.;.;.>.<.>.4.4.4.h.A.F.F.Y.T.OXOX@X@X9X9XeX9XeXeXBXBXBXAXAXAXSXSXSXSXSXZXZXZXZXZXZXZXVXVXVXVXVXVXVXVXVXVXVXVXVXVXVXVXVXZXZXZXZXZXZXZXZXSXSXSXSXSXAXAXAXBXBXBXeXeXeXeXeXeXeXeXeXeXBXBXBXAXAXAXSXSXSXSXZXZXZXZXVXVXVXVXVXVXcXVXcXVXzXVXzXVXzXzXVXVXzXVXzXVXzXVXVXVXVXVXVXVXZXZXZXZXZXSXSXSXSXAXAXAXAXBXBXBXeXeX9X0X0X9X9X9X@X@X+XOXOXR.R.Y.R.Y.Y.Y.Y.Y.Y.Y.Y.Y.Y.Y.Y.Y.Y.Y.Y.Y.Y.R.OXOXOX+XOX@X9X9X9X9XeX9XeXeXeXBXBXBXBXAXAXSXSXSXSXSXSXSXSXSXSXSXSXSXSXSXSXSXSXSXSXSXAXSXAXAXAXAXAXAXAXAXAXAXAXAXSXAXSXSXSXSXSXSXSXSXSXSXZXZXZXZXVXVXVXVXVXzXzXzXgXpXm x l 4 ; ; O . . O = ; 4 l x m pXsXgXjXzXcXcXcXnXnXnXZXZXVXCXZXmXZXZXCXCXCXCXCXAXCXAXCXSXNXSXNXSXNXSXmXAXSXmXAXmXZXNXZXCXMXMXMXMXxXVXxXnXxXnXlXnX",
"lXnXnXlXlXnXxXxXnXnXMXMXnXCXVXMXCXVXMXMXMXMXVXCXVXZXMXVXZXnXZXnXnXnXnXnXnXcXcXlXlXjXsXsXsXyXn c z 6 6 ; ; & & & ; , 4 l x m gXgXzXcXVXVXZXZXSXSXSXSXAXAXAXBXBXBXeXBXeXeXeX9XeXeX9X0X9X9X9X@X9X@X9X@X@X@X+X@X+X@X+X@X+X@X@X@X9X+X9X<X9X9X9XeX9XeXeXeXeXeXeXBXeXeXeXeXeXeX0XeX0X9X9X@X@XOXOXT.Y.F.A.A.j.4.4.4.4.<.>.>.;.;.;.W ;.W W W W W W W W W W -.-.;.;.>.>.>.>.4.4.d.d.h.h.F.Y.T.R.OX+X@X9X9X9X9XeXeXeXBXBXAXAXAXSXSXSXSXSXZXZXZXZXZXZXZXVXVXVXVXVXVXVXVXVXVXVXVXVXVXVXVXVXVXVXVXVXZXZXZXZXZXZXSXSXSXSXSXAXAXBXBXBXBXeXeXeXeXeXeXeXeXBXBXBXAXAXAXSXSXSXZXZXZXZXZXVXVXVXVXVXcXVXVXcXVXzXVXzXVXzXzXVXzXzXzXzXVXzXVXzXVXzXVXVXVXVXVXVXZXZXZXZXSXSXSXSXAXAXAXBXBXBXeXeXeXeX0X0X9X9X9X@X@X@X+X+XOXOXY.OXY.Y.Y.Y.Y.Y.Y.Y.Y.Y.Y.Y.Y.Y.Y.R.OXOXOX+X+X+X9X9X9X9X9X0X9XeXeXeXBXBXBXAXAXSXSXSXSXSXSXSXZXSXZXZXZXZXSXSXSXSXSXSXSXSXSXSXSXSXSXSXSXSXSXSXAXSXSXSXSXSXSXSXSXSXSXSXSXSXSXSXZXZXZXZXVXVXVXVXVXzXzXzXzXpXm m z l 4 ; O O . O O ; ; 4 l x m pXsXgXzXxXcXcXcXbXnXZXnXCXVXmXZXZXZXCXCXCXCXAXCXAXCXCXCXNXCXCXNXSXmXAXmXAXAXmXAXmXSXNXZXNXMXCXMXMXMXVXxXnXxXnXlXnXcX",
"nXlXlXnXxXxXnXnXxXnXnXMXMXnXmXZXbXCXMXMXMXMXMXVXCXbXZXbXVXCXnXnXbXnXnXlXnXlXlXlXjXfXjXpXpXtXn x z 9 6 ; - & & & = ; 4 7 x m pXjXzXcXVXVXVXZXZXSXSXSXSXAXAXAXBXBXBXeXBXeX0XeX0X9XeX9X9X9X9X9X@X@X@X@X@X+X@X+X+X+X+X@X@X+X@X@X@X9X@X9X9X9X0X9XeX9XeXeXeXeXeXeXBXeXeXBXeXeXeX0XeX9X9X@X@X+XOXT.T.Y.A.h.h.d.d.4.4.>.>.>.>.;.;.-.W W ;.W W W -.W W -.-.-.;.;.>.;.>.4.>.4.4.4.j.A.F.F.Y.R.R.OX@X9X@X9XeXeXeXeXBXBXBXAXAXAXSXSXSXSXSXZXZXZXZXZXVXVXVXVXVXVXVXVXVXcXVXVXVXVXVXVXVXVXVXVXVXVXVXVXZXZXZXZXZXZXSXSXSXSXSXAXAXAXBXBXBXeXeXeXBXeXBXBXBXBXBXAXAXSXSXSXSXZXZXZXZXVXVXVXVXVXcXVXcXcXVXzXzXzXzXzXzXzXzXzXzXzXzXzXzXzXVXzXVXcXVXVXzXVXVXVXZXZXZXZXZXSXSXSXSXAXAXAXBXBXBXeXeXeX0X0X0X0X9X9X@X@X@X+XOXOXOXOXOXR.Y.OXY.Y.R.Y.OXR.R.OXOXOXOXOX@X+X@X@X9X9X9X9X0X0XeXeXeXeXBXBXBXAXAXAXSXSXSXSXSXZXZXZXZXZXZXZXZXZXZXZXSXSXSXSXSXSXSXSXSXSXSXSXSXSXSXSXSXSXSXSXSXSXSXSXSXSXSXSXZXZXZXZXZXZXVXVXVXVXVXzXVXgXjXpXm b z l 4 ; = O O . O = ; 7 l b m pXgXjXzXzXcXcXnXnXnXVXnXZXnXCXZXmXCXCXCXCXAXCXmXAXCXNXCXNXCXNXNXNXNXNXNXNXmXAXNXmXAXmXSXmXSXmXMXMXMXMXxXMXxXnXlXnXlXnX",
"lXlXnXlXlXcXxXxXnXnXmXnXbXmXZXbXZXbXMXMXMXCXMXCXbXZXbXZXbXnXbXnXnXxXnXnXcXlXlXlXjXjXsXsXiXn c c z 6 1 ; - - & & & , 4 7 b m pXgXzXcXVXVXZXZXSXSXSXSXSXAXAXBXBXBXBXBXeXeXeXeX0XeX0X9X9X9X9X@X@X@X@X+X@X@X+X+X+X+X+X+X+X@X@X@X@X@X@X9X9X9X9XeX9XeXeXeXeXeXeXBXeXBXeXeXBXeXeXeX0X0X9X9X@X+XOXR.T.Y.F.A.j.h.4.4.<.4.<.>.;.>.;.-.-.-.W W -.W W W W W -.;.;.;.;.>.>.<.4.4.d.h.h.h.F.Y.T.R.OX@X@X@X9XeX9XeXeXeXBXBXAXAXAXSXSXSXSXZXZXZXZXZXZXZXVXVXVXVXVXVXVXVXVXVXVXVXcXVXVXVXcXVXVXVXVXVXVXVXVXZXZXZXZXZXSXSXSXSXSXAXAXAXBXBXBXBXBXBXBXBXBXBXBXAXAXAXSXSXSXSXZXZXZXZXVXVXVXVXcXVXVXcXcXVXzXzXzXzXzXzXzXzXjXzXzXzXgXzXzXzXzXzXzXzXcXzXVXVXVXVXVXZXZXZXZXSXSXSXSXAXAXAXAXBXBXBXeXeXeX0X0X0X9X9X9X9X@X@X@X@X@XOXOXOXOXOXOXOXOXOXOXOXOXOXOX@XOX@X@X@X9X9X9X9X9X0X0XeXeXeXBXBXBXAXAXAXSXSXSXSXSXZXZXZXZXZXVXVXVXVXVXVXVXZXZXZXZXZXSXSXSXSXSXSXSXSXSXSXSXSXSXSXSXSXSXSXSXSXSXSXZXZXZXZXZXVXVXVXVXVXVXVXzXzXgXjXm m b l l ; ; O O . O O ; ; 4 l b pXpXgXjXzXcXcXcXcXnXbXVXbXCXnXCXMXCXCXCXCXAXmXCXCXCXNXCXCXNXCXNXNXNXmXNX8XNXmXrXCXmXNXmXNXmXNXMXMXMXMXMXbXMXxXnXxXnXlXcXcX",
"cXcXlXnXlXxXnXxXnXvXnXmXnXnXmXZXbXZXCXMXbXVXbXCXnXmXnXbXnXbXnXbXnXnXlXxXlXlXlXjXhXgXsXiXpXn c y r 9 4 1 = & & & ; ; 4 l x m pXjXzXcXcXVXZXZXZXSXSXSXSXAXAXAXBXBXBXeXeXeXeXeX0X0X9X9X9X9X@X9X@X@X@X@X+X+X+X+X+X+X+X+X@X+X@X@X@X9X@X9X9X9X0X9XeX0XeXeXeXeXBXeXBXeXBXeXeXeXeX0X0X0X9X9X@X+XOXT.T.Y.F.A.h.d.d.4.4.<.<.<.>.;.>.;.;.-.-.W W -.W -.-.-.W >.;.>.>.>.4.>.4.4.d.h.A.F.F.Y.T.OXOX@X@X9X9X9XeXeXeXBXBXBXAXAXAXSXSXSXSXSXZXZXZXZXVXVXVXVXVXVXVXVXzXVXcXVXVXzXVXVXcXVXVXVXcXVXVXVXVXVXVXVXZXZXZXZXZXZXSXSXSXSXAXAXAXAXBXBXBXBXBXBXBXBXAXAXAXAXSXSXSXSXZXZXZXVXVXVXVXVXVXcXcXcXzXzXzXzXzXjXzXjXzXgXzXgXgXgXzXgXzXgXzXzXzXzXzXzXcXVXzXVXVXVXVXZXZXZXZXSXSXSXSXAXAXAXBXBXBXeXeXeXeX0X0X0X9X9X9X9X@X@X@X@X@XOX@X+X+X+X+X+X+X+X+X@X+X@X9X@X9X9X9X9X9X0X0XeXeXeXeXBXBXBXBXAXAXAXSXSXSXSXZXZXZXVXVXVXVXVXVXVXVXVXVXVXZXZXZXZXZXSXZXSXSXSXSXSXSXSXSXSXSXSXSXSXSXZXZXZXZXZXZXZXZXVXVXVXVXVXzXVXzXzXzXgXgXm m z z 4 ; ; O O . O O ; ; 7 x b pXpXjXzXcXcXnXcXnXVXbXVXbXVXbXCXMXCXbXCXCXCXmXAXCX8XCXNX8XNXNX8XNXNXNXrXmXNXmXrXmXrXmXNXmXNXmXmXNXMXmXMXMXMXxXMXxXlXxXcXcXlX",
"cXlXcXlXlXxXlXnXvXnXmXnXnXmXVXbXCXbXbXbXCXbXmXnXmXbXnXbXbXnXbXnXcXxXxXlXlXlXhXjXgXaXsXpXtXn c x r 6 1 ; - ; & & = , 4 7 z m pXgXzXcXVXVXZXZXSXSXSXSXAXAXAXBXBXBXeXBXeXeXeXeX9X0X0X9X9X@X9X9X@X@X@X+X@X+X+X+X@X+X+X+X+X+X@X@X9X@X9X9X9X9X9XeX0XeXeXeXBXeXBXeXBXBXeXBXeXeXeXeXeX0X9X9X@X+XOXOXT.Y.F.A.A.j.d.4.4.2.2.>.>.>.;.;.;.-.-.-.;.W -.-.-.-.>.;.;.>.>.2.>.4.4.4.h.h.j.F.Y.T.OXOX+X@X9X9X9XeXeXeXeXBXBXAXAXAXSXSXSXSXZXZXZXZXZXZXVXVXVXVXVXVXcXVXVXVXVXzXVXVXVXcXVXVXcXVXVXzXVXVXVXVXVXVXVXZXZXZXZXZXSXSXSXSXSXAXAXAXAXAXAXBXBXBXAXAXAXAXSXSXSXSXZXZXZXZXVXVXVXVXcXVXcXcXcXzXzXjXjXjXjXzXgXjXgXgXgXgXgXzXgXgXgXgXgXgXgXzXzXzXzXzXVXzXVXVXVXVXZXZXZXSXSXSXSXSXAXAXAXBXBXBXBXeXeX0XeX0XeX9X9X9X9X9X9X9X@X9X@X@X+X@X+X@X@X+X9X@X9X9X9X9X9X0X0X9XeX0XeXeXeXeXBXBXBXAXAXAXSXSXSXSXZXZXZXVXVXVXVXVXcXVXcXVXVXVXVXVXVXVXVXZXZXZXZXZXZXZXSXSXSXZXSXSXSXZXSXZXZXZXZXZXZXZXZXVXVXVXVXVXVXVXVXzXzXjXgXpXm b z l 4 ; ; O O . O & ; ; 7 l b pXpXjXzXcXnXcXcXVXnXbXVXMXMXbXCXbXCXmXCXmXCX8XCXmX8XCXNXNXNXNX8XNXNX6XNXmXrXmXrX8XmX8XNXmXrXmXmXNXMXNXMXmXMXxXMXxXnXxXnXlXlXcX",
"lXcXlXlXnXlXxXxXnXxXnXbXmXnXmXnXbXCXnXmXnXmXnXbXbXbXbXnXbXnXkXnXvXlXlXlXlXhXjXdXgXsXiXtXn v c y r 6 < 1 = = & & = ; , 7 b m pXjXzXcXVXVXVXZXZXSXSXSXSXAXAXAXBXBXBXeXeXeXeX0XeX9X0X9X9X9X@X@X@X@X@X@XOX@X+X+XOX@X+X+X@X@X@X@X@X9X@X9X9X0X9X0XeX0XeXeXeXBXeXBXeXBXBXeXBXeXeXeX0XeX9X9X9X@XOXOXT.T.Y.A.h.h.d.4.4.4.<.<.>.>.>.;.;.-.;.-.-.-.-.W ;.;.;.>.>.>.<.<.4.4.4.d.h.A.A.Y.Y.T.OXOX@X@X9X0X9XeXeXeXBXBXBXAXAXSXSXSXSXSXZXZXZXZXZXVXVXVXVXVXVXVXVXcXVXzXVXVXzXVXzXVXzXVXVXzXVXVXVXzXVXVXVXVXVXVXZXZXZXZXZXZXSXSXSXSXSXAXAXAXAXAXAXAXAXAXAXAXSXSXSXSXZXZXZXVXVXVXVXVXVXzXcXzXzXzXzXjXjXjXgXgXgXgXgXgXgXgXgXpXgXgXgXgXgXgXgXgXgXzXzXzXzXzXVXzXVXVXVXVXZXZXZXSXSXSXSXAXAXAXAXBXBXBXeXeXeXeX0XeX0X0X0X9X9X9X9X9X9X9X9X9X9X9X9X9X9X9X9X9X9X0X0X0X0XeX0XeXeXeXBXBXBXBXAXAXAXSXSXSXSXZXZXZXVXVXVXVXcXcXcXcXzXzXcXcXVXcXVXVXVXVXVXVXZXZXZXZXZXZXZXZXZXZXZXZXZXZXZXZXZXVXVXVXVXVXVXVXVXVXzXzXzXzXgXgXm m x z 7 1 ; = O O . O O ; ; 7 l m m gXzXzXcXcXnXVXVXbXVXMXbXMXMXMXmXCX7XCX8XCX8XCX8XCX8X8X8X8X8X8XNX8X8XNX6XNX6XNXmXrX8XmX8XmXmXmXNXmXmXmXMXMXMXMXxXMXxXlXxXnXlXlX",
"cXlXlXlXlXlXxXnXvXnXbXMXnXmXbXbXCXbXmXbXbXbXbXbXnXvXnXvXnXvXnXvXlXlXlXlXdXjXhXgXsXaXiXtXn g c y 6 6 1 - - - & & = ; 4 7 x b pXgXzXcXVXVXZXZXSXSXSXSXAXAXAXBXBXBXeXBXeXeX9XeX9XeX9X9X9X@X9X@X@X@X@X+X@XOX@XOX+X+X+X+X+X+X@X@X9X@X9X9X9X9X9XeX0XeXeXeXBXeXBXeXBXBXeXBXeXBXeXeXeX0X0X9X@X@X+XOXT.T.Y.F.A.j.h.d.4.4.2.2.<.>.>.>.-.>.-.;.-.-.-.>.-.;.>.>.>.<.>.4.4.4.d.h.A.j.Y.Y.T.OXOX@X@X9X9X9XeXeXeXBXBXBXAXAXSXSXSXSXZXZXZXZXZXZXVXVXVXVXVXzXVXVXzXVXzXVXVXzXVXzXVXzXVXVXzXVXzXVXcXVXVXVXVXVXVXVXVXVXZXZXZXZXSXSXSXSXSXAXAXAXAXAXAXAXAXAXSXSXSXSXZXZXZXZXVXVXVXVXcXVXcXcXzXzXjXjXjXjXjXgXgXgXgXgXpXgXpXpXpXpXpXpXpXpXpXgXpXgXgXjXgXgXzXzXzXVXzXVXVXVXVXZXZXZXSXSXSXSXAXAXAXAXBXBXBXBXeXeXeX0XeX0X0X0X0X0X0X9X9X9X9X9X9X9X9X9X9X9X0X9X0X0X0X0XeXeXeXeXBXBXBXBXAXAXAXAXSXSXSXSXZXZXVXVXVXVXcXcXzXzXzXzXzXzXzXzXzXcXcXcXVXVXVXVXVXVXVXVXVXVXVXZXVXZXVXZXVXZXVXVXVXVXVXVXVXVXVXcXVXzXzXzXjXgXpXm b x l 4 1 ; O O . . O O ; ; 7 l m m gXzXzXcXVXnXVXVXMXVXVXbXCXbXCX7XCXbXNXbXNX8XCX8X8X8X8X8X8X8X8X8XwX8XNXwXNXwXNX6XrX8XmXrXmXrXmXrXmXmXmXMX7XMXmXxXMXxXlXnXlXlXlXcX",
"lXlXlXlXlXxXlXxXnXxXnXvXbXnXbXbXbXnXbXbXnXbXbXvXbXnXvXxXxXxXxXlXkXlX|.jXjXdXsXaXaXiXtXn v c y r 9 6 < > - & & * = ; , 7 x m pXgXzXcXcXVXZXZXZXSXSXSXSXAXAXBXBXBXBXeXeXeXeXeX9X0X9X9X9X9X@X9X@X@X+X+X+X@XOX@XOX@X+X+X@X@X@X@X@X@X9X9X9X9XeX9XeXeXeXeXeXBXeXBXBXBXBXeXBXeXeXeXeX0X0X9X9X@X+XOXR.T.Y.A.F.h.d.d.4.4.4.<.>.<.>.>.>.;.>.-.>.-.>.-.>.>.>.>.>.2.2.4.4.d.d.j.h.F.Y.Y.R.OXOX@X@X9X0X0XeXeXeXBXBXAXAXAXAXSXSXSXSXZXZXZXZXVXVXVXVXVXVXVXVXzXVXcXVXzXcXVXzXVXzXVXzXcXVXzXVXzXVXzXVXVXVXzXVXVXVXVXVXZXZXZXZXSXSXSXSXSXSXAXAXAXAXAXSXSXSXSXSXSXZXZXZXVXVXVXVXcXVXzXzXzXzXzXzXgXgXjXpXjXpXgXpXpXpXpXpXpXm m m m m m m m pXpXpXpXgXgXgXzXzXzXzXVXVXVXVXVXZXZXZXZXSXSXSXSXAXAXAXBXBXBXBXeXeXeXeXeX0XeX0X0X0X0X9X0X0X0X0X9X0X9X0XeX9XeX0XeXeXeXeXeXBXBXBXBXBXAXAXAXSXSXSXSXSXZXZXZXVXVXVXcXzXzXzXgXjXgXjXjXgXzXjXzXzXcXcXcXcXVXVXVXVXVXVXVXVXVXVXVXVXVXVXVXVXVXVXVXVXVXcXcXcXzXzXzXgXgXpXm m x x l 4 ; = = O . O . ; ; 4 7 x m m gXzXzXcXVXcXZXnXVXVXCXbXCXbXMX7XMX7XNX7XNX7X8X8X7X8X8X8X8X8X8X8X8X8X8XwX8XwXmXwX8X8X8X8XmX8XmX8XmXmXmXmXmXMXmXMXMXvXnXxXxXlXlXlXlX",
"cXlXlXlXlXlXxXxXxXnXvXnXnXvXmXnXbXbXbXbXbXbXvXnXxXxXvXxXxXlX|.lXlXfXkXfXhXaXaXaXtXtXtXn g c y r 6 1 < - - - & = = = 4 4 z m pXgXzXcXVXVXZXZXSXSXSXSXAXAXAXBXBXBXBXeXeXeXeX9XeX0X9X9X9X@X9X@X@X@X@X+X@XOX@XOX@X+XOX@X+X@X@X@X9X9X@X9X9XeX9XeXeXeXeXeXBXBXBXBXBXBXBXBXBXeXBXeXeXeX0X9X9X9X@XOXOXT.Y.Y.F.A.j.h.d.4.4.<.4.<.>.>.>.>.;.>.-.>.;.>.>.>.>.<.2.2.4.4.d.d.h.h.F.Y.Y.T.OXOX@X@X9X0X9XeXeXeXeXBXAXAXAXSXSXSXSXSXZXZXZXZXVXVXVXVXVXzXVXVXzXVXVXcXVXzXVXzXVXzXcXcXzXVXzXVXzXVXzXVXzXVXzXVXVXVXVXVXVXZXZXZXZXZXSXSXSXSXSXSXSXSXSXSXSXSXSXSXSXZXZXZXVXVXVXVXzXVXcXzXzXjXzXgXgXgXjXpXjXpXpXpXpXpXm m m m m m m m b m m m m m m pXpXpXgXgXgXzXzXzXzXVXVXVXVXZXZXZXSXSXSXSXSXAXAXAXAXBXBXBXBXBXeXeXeXeX0XeXeX0XeX0X0X0X9XeX0XeX0X0XeXeXeXeXeXeXeXBXBXBXBXAXAXAXAXSXSXSXSXZXZXZXVXVXVXVXcXzXzXjXgXgXyXpXyXyXpXyXgXjXgXzXzXzXcXcXcXcXVXcXVXVXVXVXVXVXVXVXVXcXVXVXcXVXcXcXzXzXzXzXgXgXpXpXb b x l 4 ; ; = O O . O . ; ; 4 7 x m N jXzXzXVXVXVXZXVXCXVXCXbXCXbXCXbXNX7X8X8X7X8X8X7XwX8X8X7XwX8X8XwX7XwX8XwX7XwX7XwXmX6X8X8X8X8X8X6XmXmXmXmXMX7XMXMXMXxXnXnXxXlXnXlXlXcX",
"lXlXlXlXlXlXlXxXnXxXnXvXnXnXvXbXbXbXvXbXbXbXnXvXxXvXlXkXkXkXlX|.jXdXfXdXaXaXaXtXtXtXv g c y y 9 5 1 < - - * & & ; ; 1 7 l b pXgXzXzXcXVXVXZXZXSXSXSXSXAXAXAXBXBXeXBXeXeX0XeX9X9X9X9X9X9X@X@X@X@X@X@XOX@XOX@XOX@X@XOX@X@X@X@X@X9X9X9X9X9XeX0XeXeXeXBXeXBXBXBXBXBXBXBXBXBXeXeXeXeX0X0X9X@X@X+XOXOXT.Y.j.F.h.d.d.d.4.2.<.<.<.<.>.>.>.>.>.>.>.>.>.>.<.2.2.4.4.d.d.h.h.F.F.Y.T.R.OX+X@X9X9X0X0XeXeXBXBXBXBXAXAXSXSXSXSXZXZXZXZXZXVXVXVXVXVXVXVXzXVXzXVXcXzXVXzXVXzXVXzXcXVXzXVXzXVXzXVXzXVXzXVXcXVXcXVXVXVXVXVXZXZXZXZXSXSXSXSXSXSXSXSXSXSXSXSXSXZXZXZXZXVXVXVXzXVXzXzXzXjXjXjXgXgXgXpXpXpXpXm pXm m m m m b m b b b m b b b m b m m m m pXpXgXgXzXjXzXzXcXVXVXVXVXZXZXZXSXSXSXSXSXAXAXAXAXBXBXBXBXeXeXeXeXeXeXeXeXeXeXeXeX0XeXeXeXeXeXeXeXeXBXBXBXBXBXBXAXAXAXAXSXSXSXSXZXZXZXZXVXVXVXzXzXgXgXyXyXm m b m b m m m yXgXgXjXzXzXzXcXzXcXcXcXcXcXcXVXcXcXcXVXcXcXcXcXzXcXzXzXzXgXgXpXpXm b x l 4 4 ; ; O O O . O & ; ; 4 7 b m N jXzXzXVXVXVXZXZXZXVXCXMXCXbXCX7XNX7XNX7X7XwX7X7X8X7X8X5X8X4X8X5X8XwX7X5X8XwX7XwX8XwXmX6X8X8XmX8XmX8XmXmXmXmXMX7XMXxXMXxXxXnXlXlXlXlXlX",
"lXjXlXlXlXlXlXlXxXxXvXnXxXbXnXvXnXvXnXbXbXxXvXvXkXkXlXkXkXhXkXfXdXdXdXaXsXuXtXtXtXv g c g y 9 6 6 < < - - & & * & , , 7 z b pXgXzXzXVXVXZXZXSXSXSXSXAXAXAXBXBXBXBXeXeXeXeXeX9XeX9X9X9X@X9X@X@X@X@X+X@X+X@XOX@X@XOX@X@X@X9X+X9X9X9X9XeX9X9XeXeXeXeXeXBXBXBXBXBXBXBXBXBXeXBXeXeXeX0X0X9X9X@X+X+XT.T.Y.Y.A.A.j.h.4.4.4.4.4.2.<.<.<.>.<.>.>.<.>.<.2.2.2.4.4.4.d.d.h.A.F.Y.Y.R.OXOX@X@X9X0X9XeXeXeXeXBXAXAXAXSXSXSXSXZXZXZXZXZXVXVXVXVXcXVXVXcXVXzXVXcXzXVXzXVXzXVXzXVXcXcXcXcXcXzXVXzXVXcXzXVXcXVXVXcXVXVXVXVXZXZXZXZXZXSXSXSXSXSXSXSXSXSXSXSXZXZXZXZXVXVXcXVXVXzXzXjXjXjXzXpXgXgXpXpXpXm m m m m m m b b b b b b b x b x b x b b b b b m pXpXpXpXjXjXzXcXcXVXVXVXVXZXZXSXSXSXSXSXSXAXAXAXAXBXBXBXBXBXBXBXeXeXeXeXeXeXeXeXeXeXeXeXeXeXeXBXBXBXBXBXBXAXAXAXAXSXSXSXSXSXZXZXZXVXVXVXVXzXzXgXgXm m b c x z x z x c b m m yXyXgXjXgXgXzXzXzXzXzXzXzXzXzXzXzXzXzXzXzXzXzXgXgXgXpXpXm m b x l l 1 1 ; = O O . . O O ; ; 4 l b m N jXzXzXVXVXZXZXZXZXZXCXCXCXbXCX7XNX7X8X7X7X6X7X6X8X3X8X5X8X3X8X5X7XwX4X5X8X5X8X6X6X6X6X8X6XmX8X6XmX8X7XmXmXMX7XMXMXxXMXMXxXnXxXlXlXlXlXlX",
"jXlXjXhXjXlXlXlXxXxXnXvXnXvXxXnXvXnXvXxXxXvXlXkXkXkX|.lXdXhXdXdXdXsXaXuXuXtXtXk v j c d y r 9 5 6 > > - - & & & ; ; , 7 z b pXgXzXzXVXVXVXZXZXSXSXSXSXAXAXBXBXBXBXeXeXeX0XeX9X9X9X9X@X9X@X9X@X@X+X@XOX@XOX@XOX@X+X@X@X@X@X9X@X9X9X9X0XeXeX0XeXeXBXeXBXBXBXBXBXBXBXBXBXBXeXBXeXeX0X0X9X9X@X+XOXOXT.T.Y.j.A.h.d.d.d.4.2.2.2.<.<.<.>.>.>.<.>.<.<.<.2.2.4.4.d.d.j.A.A.F.Y.T.T.OX@X@X@X9X0XeX0XeXBXBXBXBXAXAXSXSXSXSXSXZXZXZXZXVXVXVXVXVXVXzXVXzXVXzXVXzXzXVXzXcXcXcXzXcXcXzXcXcXzXcXzXcXcXVXzXcXzXVXVXVXzXVXVXVXVXZXZXZXSXSXSXSXSXSXSXSXSXSXSXZXZXZXVXVXVXVXzXcXzXzXjXjXjXpXjXpXpXpXm m m m m b b b b b b x b x b x x x x x x x x x b b b b m m pXpXjXjXzXzXcXVXVXVXVXZXZXZXSXSXSXSXSXAXAXAXAXAXBXBXBXBXBXBXBXeXeXBXeXeXeXBXeXBXBXBXBXBXBXBXBXBXAXAXAXAXAXSXSXSXSXSXZXZXZXVXVXVXzXzXzXgXpXm b c x l 7 l 6 l 6 l z x b m m yXpXgXgXgXgXjXzXzXzXzXzXzXzXzXgXzXgXgXgXgXgXpXpXm m b x x l 4 1 1 = = O O . O O O = ; 7 l b m pXjXzXcXVXVXVXZXZXZXSXZXCXMXCXNX7XNX7X8X7X6X6X6X6X6X3X8X3X8X3XwX3X8X5X3X8X4X5X7X5X8X6X6X7X6XmX6XmX8X7XmXmX7XmXmXMX7XMXMXxXxXnXxXlXlXlXjXlXjX",
"jXhXjXjXkXjXlXlXlXxXkXnXvXlXnXxXbXlXvXxXkXlXkXkXkXkXkXhXfXdXdXdXsXuXuXuXtXtXk v g c d y r 9 5 6 < < % - - & & ; = , 4 7 z m pXgXzXcXVXZXZXZXSXSXSXSXAXAXBXBXBXeXBXeXeXeXeX9XeX9X9X9X9X9X@X@X@X+X@XOX@XOX+X+X@XOX@XOX@X@X@X@X@X9X9X9X9X0X9XeXeXeXeXBXeXBXBXBXBXBXBXBXBXBXBXeXeXeXeX0X9X9X@X@XOXOXT.Y.Y.F.A.j.j.d.4.4.4.4.2.<.<.<.<.<.>.<.<.<.<.2.2.4.4.4.d.d.j.h.A.F.Y.T.OXOX+X@X9X9X0X9XeXeXeXBXBXAXAXSXSXSXSXSXZXZXZXZXVXVXVXVXVXVXzXVXzXVXzXcXzXzXVXcXcXcXcXzXcXcXzXcXcXzXcXcXcXzXcXzXVXzXVXzXVXcXVXVXVXVXZXZXZXZXZXSXSXSXSXSXSXSXSXSXZXZXZXVXVXVXzXVXVXzXzXjXjXzXpXgXpXpXpXm m m m m b b b b b x b x x x z z l z z l l l l x x x x b b m m pXgXgXzXzXzXcXVXVXVXZXZXZXSXSXSXSXSXAXAXAXAXAXAXBXBXBXBXBXBXBXBXBXBXBXBXBXBXBXBXBXBXBXBXBXBXAXAXAXAXAXSXSXSXSXSXZXZXZXZXVXVXVXVXzXjXpXm b x l 7 6 4 4 1 1 4 4 6 7 x x b b m yXyXpXgXgXgXgXgXgXgXgXgXgXgXgXgXgXpXpXm m m b b z l 4 1 1 ; = O O O . O O O ; 4 4 l b m pXgXzXcXcXVXZXZXZXZXSXZXSXCXNXmXNX8XmXwX7X6X6X7X3XwX3XwX3X5X3X5X5X4X5X3X8X3X5X7X5X7X6X6X7X6X8X8X4XmX6XmXbXmXmX7XMX7XMXbXbXMXnXxXlXlXlXjXkXjXjX",
"jXjXfXjXfXjXjXkXjXlXlXlXlXvXlXkXlXvXlXkXkXkXkXkXdXhXhXdXdXaXaXuXuXuXtXk k v j u d d y r 8 6 5 < < > - - * & = = ; , 4 7 b m pXjXzXzXVXVXZXZXSXSXSXAXAXAXBXBXBXBXeXeXeX0XeX9X9X9X9X@X9X+X9X+X+X+X+X+XOXOXOXOXOX@XOX@XOX@X@X@X9X@X9X9X9X0XeX9XeXeXeXBXBXBXBXBXBXBXBXBXBXBXeXBXeX0X0X0X9X9X@X+XOXOXT.Y.A.A.A.h.d.d.4.4.2.2.2.<.<.<.>.>.<.>.<.<.<.<.4.2.4.4.4.j.f.A.A.F.Y.T.R.OX@X@X@X9X0XeXeXeXeXBXBXBXAXAXSXSXSXSXSXZXZXZXZXVXVXVXVXcXVXcXVXzXVXzXVXzXcXcXzXcXzXcXzXcXcXzXcXcXzXzXcXcXzXcXzXVXzXVXzXVXVXcXVXVXVXZXZXZXZXZXSXSXSXSXSXSXSXZXZXZXZXZXVXVXVXzXzXzXzXjXjXpXjXpXpXpXm m m m b b b b b x x x x x z z z l l 7 l l l l 7 l l l x x b b m m pXgXgXzXzXcXVXVXVXVXZXZXZXSXSXSXSXSXAXSXAXAXAXAXAXBXBXBXBXBXBXBXBXBXBXBXBXBXBXBXBXBXBXAXAXAXAXAXAXSXSXSXSXSXSXZXZXZXVXVXVXzXzXzXpXpXb x l 6 4 1 ; ; ; 1 ; 1 1 6 6 l x c b b m m m yXpXgXpXgXpXgXpXgXpXpXpXyXm m m b x x l l 4 1 1 ; & & O . . O O O ; ; 4 l x m pXgXzXzXcXVXVXZXZXZXSXSXSXSXSXCXNX7X8X8X7X6X6X6X3X6X3X3X3X3X3X3X3X3X3X3X4X3X8X3X3X7X3X7X6X6X6XvX6XmX6XbX8XmXvXmXnX7XMXxXMXxXxXxXxXlXlXlXjXjXjXjX",
"fXsXaXsXfXsXdXjXjXhXlXlXkXlXkXlXkXlXkXdXlXkXhXhXhXdXdXaXdXuXuXuXtXtXk j v v d d d y 9 5 6 5 < < - : - & & & = ; , , 7 z b pXgXzXzXVXVXZXZXSXSXSXSXAXAXBXBXBXBXeXeXeXeXeX0X9X9X9X9X9X@X@X+X+XOX+XOXOXOXOXOXOXOXOXOXOX+X+X+X@X@X@X9X9X9X9X9XeX0XeXeXeXBXBXeXBXBXBXBXBXBXeXBXeXeXeXeX9X9X9X@X+XOXT.Y.Y.Y.A.A.f.d.6.4.2.4.2.<.<.>.>.>.>.>.>.>.>.<.<.2.2.4.4.d.d.h.A.A.Y.Y.T.R.OX+X@X9X9X0X0XeXeXBXBXBXBXAXAXSXSXSXSXSXZXZXZXVXVXVXVXcXVXVXcXcXVXzXVXzXVXcXzXcXzXcXcXcXcXzXcXzXzXzXcXzXzXcXzXcXzXVXzXVXzXVXVXVXVXVXZXZXZXZXSXSXSXSXSXSXSXSXZXZXZXZXVXVXcXVXVXzXzXjXjXjXpXpXpXpXm m b m b b b x x x x x x z l l 7 7 7 7 7 7 4 4 l 7 7 l l l x x b b m pXpXgXjXzXcXzXVXVXVXZXZXZXSXSXSXSXSXSXAXAXAXAXAXBXBXAXBXBXBXBXBXBXBXBXBXBXBXBXBXBXBXAXAXAXAXAXAXSXSXSXSXSXZXZXZXZXVXVXcXVXzXjXgXpXm b l 7 4 ; ; ; = ; = ; ; ; 1 6 6 l l x c b b m m m m yXyXpXyXm yXm m m b m b x x l l 7 4 1 ; ; & & O O . O O O ; ; 4 l x b pXpXjXzXcXVXVXZXZXSXSXSXSXSXAXCXNXNX8XNX7X6X6X6X3XwX3X3X3X3X3X3X3X3X3X3X3X3X3X3X3X4X4X6X3XvX6XvX6XbX6XvXmXbXvXmXbXvXMXvXMXxXxXxXlXlXlXfXfXfXsXsXsX",
"pXsXpXaXyXaXsXfXfXjXdXjXhXlXjXkXlXhXjXkXdXjXdXdXdXaXaXaXuXuXtXtXm.v v v d d y y q 9 9 5 5 < < < - % - = # - - ; 1 7 z b m pXzXzXVXVXVXZXZXSXSXSXAXAXAXBXBXBXBXeXeXeX0X0X0X9X9X@X9X+X@X+X+X+XOXOXR.R.R.R.R.T.OXT.OXOXOXOX+X+X+X@X@X9X9X9X9X0XeXeXeXeXeXBXBXBXBXBXBXBXeXBXeXeXeX0X0X9X9X@X+XOXOXT.Y.Y.A.j.j.d.d.4.4.2.2.<.>.>.>.>.>.>.;.>.>.>.>.<.<.2.2.4.4.4.d.j.A.A.Y.Y.T.OX+X@X@X9X0XeX0XeXeXBXBXBXBXAXSXSXSXSXSXZXZXZXZXVXVXVXVXVXcXVXzXcXVXzXcXzXcXcXcXcXzXcXzXzXzXzXcXzXzXzXcXzXzXcXzXcXcXVXzXVXzXVXVXVXVXZXZXZXZXZXSXSXSXSXSXSXSXSXZXZXZXZXVXVXzXcXzXzXjXjXpXjXN pXm m m b b b b x b x x l l l l l 7 7 7 7 4 7 4 7 7 4 l 7 4 l l l x x b b pXpXgXgXzXzXVXVXVXVXVXZXZXZXSXSXSXSXSXAXAXAXAXAXAXAXBXBXBXAXBXBXBXBXBXBXBXBXBXAXBXAXAXAXAXAXAXSXSXSXSXSXSXSXZXZXZXVXVXVXcXzXjXgXm b x l 4 4 ; ; = = & ; & = ; ; 4 4 7 l l x x c b b b m b m m m m b m b b b x x x l l 4 4 1 ; ; & O O O . O O O & ; 4 4 z b m pXgXzXzXcXVXVXZXZXZXSXSXSXSXSXAXNX7XNX7XwX6X6X3X6X3X6X3X3X3X3X3X3X3X;X3X3X3X4X3X4X3X4X4X7X3XvX6XvX7X7XmXvXmXbXbXbXmXxXxXxXxXlXxXlXfXfXfXfXsXsXaXpX",
"tXn tXm tXpXtXtXaXfXsXdXjXdXhXjXdXhXdXjXdXdXdXaXaXuXuXuXtXtXk m.v v s d d y q q 9 8 2 2 < < : : - = = # - - ; 1 4 7 z m pXjXzXzXVXZXZXSXSXSXSXAXAXAXBXBXBXeXeXeXeX0X0X9X9X9X9X9X+X+X+X+XOXR.R.R.T.T.T.T.Y.T.T.T.T.R.T.R.OX+X+X+X@X@X9X9X9X9X0X0XeXeXeXeXBXeXBXeXBXeXBXeXeXeXeX0X9X9X9X@X+XOXT.Y.Y.F.j.j.d.d.4.2.4.<.>.>.>.>.>.-.>.-.>.-.>.>.>.>.>.>.2.2.4.4.d.d.A.A.Y.Y.T.OXOX@X@X9X9X9XeXeXeXBXBXBXAXAXAXSXSXSXSXZXZXZXZXVXVXVXVXcXVXVXzXVXzXVXzXcXcXzXcXzXcXzXcXzXcXzXzXzXcXzXzXzXcXzXcXzXcXzXVXzXVXVXVXVXZXZXZXZXSXSXSXSXSXSXSXSXSXSXZXZXZXVXVXVXVXcXzXzXjXpXjXpXpXpXm m b b m z b x x l l l l 7 7 4 7 7 7 1 7 1 7 4 4 4 4 4 7 6 l l x x b m m pXpXjXzXzXzXVXVXVXZXZXZXSXSXSXSXSXAXSXAXAXAXAXAXBXAXBXAXBXBXBXBXBXBXBXAXBXAXBXAXAXAXAXAXAXAXSXSXSXSXSXZXZXZXZXVXVXVXVXzXjXzXpXm b l 7 4 ; = = = & = & = = = ; ; 4 4 6 l l z c x b b b m b b b b b b b x x x l l 7 4 1 1 ; = & & O O . . O O & ; ; 4 l x b pXpXjXzXcXVXVXZXZXZXSXSXSXSXAXAXAXNXNXNXwX7X6X6X6X3X3X3X3X3X>X3X3X_.3X3X3X:X3X3X X3X4X:X7X3XvX6XvX4XvXvXvXvXxXvXvXvXlXvXxXxXlXlXfXfXfXsXaXyXtXtXm tX",
"c n c v v v n tXtXtXaXsXaXsXaXdXsXsXdXaXaXaXaXuXuXtXtXtXk v k c d d u d q q 9 9 2 6 2 < < - : - % $ - - - - 1 4 l x m pXgXzXcXVXVXZXZXSXSXSXSXAXAXBXBXBXBXeXeXeX0X0X0X9X9X@X@X+X+XOXOXR.R.Y.Y.Y.Y.Y.Y.Y.Y.Y.Y.Y.T.Y.T.T.T.R.OXOX+X+X@X9X9X9X9X0X0XeXeXeXeXBXeXBXeXBXeXeXeXeX0X0X9X9X+X+XOXT.T.Y.j.A.j.d.6.4.2.<.>.>.>.>.-.;.-.-.-.-.-.-.-.-.>.-.>.>.>.<.4.4.4.6.f.A.A.Y.Y.T.OX+X@X@X9X0XeX0XeXeXBXBXBXAXAXSXSXSXSXSXZXZXZXZXVXVXVXVXVXcXVXzXVXzXVXzXzXcXzXcXzXzXzXzXzXcXzXzXzXcXzXzXzXzXcXzXzXVXzXVXcXVXVXVXVXZXZXZXSXSXSXSXSXSXSXSXSXSXSXZXZXZXVXVXVXzXzXzXjXjXpXgXpXm m m b b x b z x l l l l 7 7 7 7 4 7 1 7 1 4 1 4 4 4 4 4 7 7 7 l l x b b m pXgXgXzXzXVXcXVXVXZXZXZXZXSXSXSXSXSXAXSXAXAXAXAXAXBXAXBXAXBXAXBXAXBXAXBXBXBXAXAXAXAXAXAXAXAXSXSXSXSXSXSXZXZXZXZXVXVXcXzXzXgXpXm x l 4 4 ; ; = = & O O & = = ; ; 4 4 4 7 l l l x x x b x b b b x b x b x l l 7 7 4 1 1 ; ; = & O O . . O O & & ; 4 7 l b m pXgXzXzXcXVXVXVXZXZXZXSXSXSXSXAXAXAXNX8X7XwX6X6X6X3X3X3X3X3X:X3X:X3X:X:X:X:X:X3X:X X3X4X X4X XvXvXvXvXvXvXvXvXxXvXlXvXlXkXlXhX|.jXsXuXpXtXm n n v c ",
"c z c c c c c v n v yXtXtXuXaXtXuXuXuXuXtXuXtXQ.tXtXk v j j u d d u q q q 5 9 2 3 2 < < : : - = % - - - 1 1 6 l x m pXjXzXcXVXZXZXZXSXSXSXAXAXAXBXBXBXBXeXeXeX0X0X9X9X9X@X@X+XOXOXR.T.Y.Y.Y.Y.Y.Y.F.Y.A.Y.A.Y.Y.j.Y.Y.Y.Y.Y.T.R.OX+X+X@X@X9X9X9X0X0XeXeXeXeXeXeXeXeXeXeXeX0X0X9X9X@X+XOXR.Y.Y.Y.j.f.d.4.4.<.<.>.>.>.-.-.-.W W -.W W W W W W -.-.-.>.>.>.>.2.4.4.d.d.A.A.Y.Y.T.OX+X@X9X9X9XeXeXeXBXBXBXBXAXAXSXSXSXSXZXZXZXZXZXVXVXVXcXVXcXVXzXVXzXcXcXcXcXcXzXcXzXcXzXzXzXcXzXzXzXzXzXcXzXzXVXzXVXcXVXVXVXZXZXZXZXSXSXSXSXSXSXSXSXSXSXSXSXZXZXZXVXVXcXVXzXzXzXpXjXpXpXm m b b b b x z l l 7 l 7 7 7 4 4 1 1 1 4 1 1 1 4 4 4 4 4 4 7 7 l z x b m pXpXgXjXzXcXzXVXVXVXZXZXZXSXSXSXSXSXSXSXAXAXAXAXAXAXAXBXAXBXBXBXAXBXBXBXAXBXAXAXAXAXAXAXSXAXSXSXSXSXSXSXSXZXZXZXVXVXcXVXzXzXgXpXm x l 7 ; ; = = & & O O & = = = ; ; 1 4 6 7 7 l x x x x x x x x x x x l l l 7 7 4 1 1 1 ; & & O O O . . O O O ; ; 4 7 x b pXpXgXzXcXcXVXVXZXZXZXSXSXSXSXSXAXAXAXNX8XNXwX7X6X3XwX3X3X3X3X3X:X3X:X:X:X:X:X:X:X X:X X X X X XvX XxX XxX XlXvXkXkXkXkXlXhXdXfXsXuXsXtXv m v c c c c ",
"z z z z z u c u v v v v n v tXtXtXtXtXtXtXn j n j v v d c d d d q q r q 5 5 3 2 2 : < : : - % % - - - < 1 6 l x m m jXjXzXVXVXZXZXSXSXSXSXAXAXBXBXBXeXeXeXeX0X0X9X9X@X@X@XOXOXR.T.Y.Y.Y.F.Y.F.A.A.A.j.F.j.A.A.j.Y.A.A.Y.Y.Y.Y.Y.T.R.OX+X+X@X9X9X9X0X0XeX0XeXeXeXeX0XeX0XeX9X9X9X@X+XOXR.Y.Y.A.j.j.d.4.4.<.<.>.>.-.-.W W W W W J K K K W W W W W W -.-.>.>.>.2.4.4.6.f.A.F.Y.Y.R.OX@X@X9X9X0XeXeXeXBXBXBXAXAXSXSXSXSXSXZXZXZXZXVXVXVXVXVXVXcXVXzXVXzXzXcXzXcXzXzXzXzXcXzXzXzXcXzXcXzXcXzXcXVXzXVXcXVXVXVXVXVXZXZXZXSXSXSXSXSXSXSXAXSXSXSXSXSXZXZXZXVXVXzXcXzXzXjXpXpXpXm m b b x b z z l l l l 4 4 4 7 1 7 1 1 1 ; 1 1 1 ; 4 4 4 7 4 7 l x x b m m pXgXzXzXcXVXVXVXVXZXZXZXSXSXSXSXSXSXAXAXAXAXAXAXAXBXAXBXAXBXAXBXAXBXAXBXAXBXAXAXAXAXAXAXAXSXSXSXSXSXSXZXZXZXZXVXVXVXcXzXjXgXpXb b l 4 4 = = = & O & O O & = = ; ; 4 4 4 7 7 l l l x x x x x x x l l l l 7 7 4 1 1 ; ; O ; O O O . . O O O & ; ; 7 l x b pXgXgXzXcXcXVXVXZXZXZXSXSXSXSXSXSXAXAXAXNX8X8X6X7X6X3X3X4X3X3X:X3X:X:X:X:X:X:X X}. X X X X X XvXhXvX|.xX|.lX|.lXkXhXhXdXfXdXfXuXsXtXk m v c c c z z z ",
"l r l l l z z z u u u j c v v v v v n j v j v j c j d d d u q r q r 5 5 5 3 2 2 < < : - - % - - - < < 6 6 x x m pXjXzXzXVXVXZXZXSXSXSXAXAXAXBXBXeXBXeXeXeX0X9X9X<X@X@X+XOXOXT.Y.Y.Y.Y.F.F.A.j.j.j.f.j.d.j.d.f.j.d.j.A.A.j.Y.F.Y.Y.T.T.R.+X+X@X9X9X9X9X0X0XeX0XeX0XeX0X0X9X9X9X@X@XOXR.Y.Y.Y.j.d.d.6.2.<.>.>.-.-.W W W W K K J K J J J J J J K K W W -.-.>.>.>.2.4.4.d.h.A.F.Y.T.OX+X@X@X9X0X0XeXeXeXBXBXBXAXAXSXSXSXSXSXZXZXZXZXVXVXVXVXcXVXzXVXcXzXVXzXcXzXcXzXcXzXzXzXcXzXzXzXzXzXzXcXcXzXVXcXVXVXVXVXZXZXZXZXSXSXSXSXSXSXSXSXSXSXSXSXSXSXZXZXZXVXVXVXcXzXjXgXjXpXpXm m b b b z z l l 4 l 4 7 4 7 1 7 ; 1 1 ; 1 ; 1 ; 4 ; 4 4 4 6 7 l z x b m pXgXgXjXzXzXVXVXVXZXZXZXZXSXSXSXSXSXAXSXAXAXAXAXAXAXAXBXAXBXAXBXBXBXAXBXBXAXAXAXAXAXAXAXAXSXSXSXSXSXSXZXZXZXZXVXVXVXVXzXzXzXgXm m x 7 6 ; ; = = O O O & O O = = = ; ; 4 4 4 7 7 7 l l l l x l l l l 7 l 7 4 4 1 1 ; ; O ; O O O . . . O O = ; ; 4 l z b m pXpXzXzXcXVXVXZXZXZXZXSXSXSXSXSXAXAXAXAXBXNX8X8XwX7X3X7X3X:X3X3X:X:X:X:X:X:X|.:X X X|. X XhX X|.|.|.hX|.hXhX|.hXdXdXdXaXdXsXiXuXyXn m v c c z z l l l ",
"6 l 6 l r l r z z z d z c d c g g c g c g c d g d z d y q q r q 5 5 5 5 3 : 3 1 : : - : - - < < < < 6 6 z c m pXgXzXzXVXVXZXZXSXSXSXSXAXAXBXBXBXBXeXeX0X0X0X9X<X@X@XOXOXT.T.Y.Y.Y.j.A.j.j.f.d.d.d.d.6.6.6.d.6.d.d.d.d.j.j.j.F.F.Y.Y.Y.T.R.OX+X@X9X9X9X9X0X0X0X0X0X0X0X9X9X9X@X@XOXR.T.Y.j.F.d.d.4.2.<.>.>.-.-.W W W J J J D D D D D D D D J J J J W W W -.-.>.>.2.4.4.d.j.A.Y.Y.T.OX+X@X9X9X0X0XeXeXBXBXBXBXAXAXSXSXSXSXSXZXZXZXZXVXVXVXVXcXVXcXVXzXzXcXcXcXcXzXzXcXzXcXzXzXcXzXzXcXcXzXzXVXzXVXcXVXVXVXVXZXZXZXSXSXSXSXSXAXSXSXSXSXSXSXSXSXSXZXZXVXVXVXzXzXzXjXpXjXN N m b b x x z l l l 4 7 4 4 4 1 ; 1 ; 1 1 , 1 , 1 ; 4 1 4 4 7 7 l x b b m pXpXjXzXzXVXcXVXVXVXZXZXZXZXSXSXSXSXSXAXSXAXAXAXAXAXAXAXBXBXBXAXBXAXBXAXAXAXAXAXAXAXAXAXAXSXSXSXSXSXSXSXZXZXZXZXVXVXVXzXzXjXpXpXb l 7 4 ; ; = = O O O O & O = = = ; ; ; 4 4 4 7 7 7 7 7 7 7 l 7 7 7 7 4 4 4 1 1 ; ; & ; O O O O . . O O = O ; 4 4 l z b pXpXjXzXzXcXVXVXVXZXZXZXZXSXSXSXSXSXSXAXAXAXCX8X8X8XwX7X6X3X7X:X4X3X:X:X X X X X{. X|. X X{. XhX XhX|.|.fX|.fXdXdXfXdXuXsXuXuXyXtXk b v c c z z l l r 6 ",
"6 6 7 7 r r l r r z z y y z y y c d y g y d y y z q y 9 q 9 q 5 5 5 5 3 3 2 1 : : - : - : < < < 1 6 9 x c m pXgXzXzXVXVXZXZXSXSXSXSXAXAXBXBXBXBXeX0XeX0X0X<X<X@X+XOXOXT.T.A.Y.Y.j.j.j.d.d.6.4.d.4.4.4.4.4.4.4.4.4.d.d.d.d.f.j.j.j.Y.Y.Y.T.R.OXOX@X@X9X9X9X9X0X9X0X9X9X9X9X@X@X+XR.Y.Y.Y.A.d.d.d.<.<.>.>.-.W W K K J J D D D D D D D D D D D D D J J K W W -.-.>.2.2.4.d.d.A.F.F.T.R.OX@X@X9X9X0XeXeXeXBXBXBXAXAXSXSXSXSXSXZXZXZXZXVXVXVXVXVXcXVXcXcXVXzXzXcXzXcXzXzXzXzXzXcXzXzXcXcXzXzXVXzXVXcXVXVXVXZXZXZXZXSXSXSXSXSXSXSXSXAXAXSXSXSXSXSXSXZXZXVXVXcXVXzXjXjXjXpXpXm b b x x z l l l 4 7 4 4 4 1 ; 1 1 1 1 ; , ; , , 4 ; 4 4 4 6 l l x x m pXpXgXjXzXcXzXVXVXVXZXZXZXZXSXSXSXSXSXSXSXAXAXAXAXAXAXAXAXAXAXAXBXAXBXAXAXAXAXAXAXAXAXAXAXSXSXSXSXSXSXZXZXZXZXZXVXVXVXzXVXzXgXgXm b x 7 4 ; = = & O & O & O & O & = = ; ; 1 1 4 4 4 4 7 7 7 7 4 7 7 4 4 1 1 1 ; ; ; O ; O O O O . . O O O O ; ; 4 7 z x m pXgXgXzXcXcXVXVXVXZXZXZXSXSXSXSXSXSXSXAXAXAXBXNXNX8X7X7X6X7X3X7X3X X4X X X X X X X|.hX|.|.hX|.^.hX|.dXdXdXdXdXdXdXuXaXsXuXuXyXk yXb v c c x z l l 7 6 6 ",
"4 6 6 7 l r r l r r l z y y y r y y y y y y y q q q 9 q 9 9 5 5 5 3 3 3 : 3 : < : 1 : < < 1 < 6 6 r z c m pXgXjXzXVXVXZXZXSXSXSXSXAXAXBXBXBXeXeXeXeX0X9X9X<X@XOXOXR.T.Y.Y.Y.j.j.f.d.d.4.4.4.4.<.2.<.2.<.2.<.<.2.4.<.4.4.d.4.d.f.j.j.Y.Y.Y.Y.R.OX+X@X@X9X9X9X9X9X9X9X9X9X@X@XOXOXT.Y.Y.j.f.d.6.<.<.>.-.-.W W W J D D D D V D D V D V D V D D D D D J J J W W -.-.>.>.2.4.4.d.A.Y.F.T.OXOX@X9X9X0XeX0XeXBXBXBXBXAXAXSXSXSXSXSXZXZXZXZXVXVXVXVXVXcXVXcXcXVXzXzXcXzXcXcXzXzXzXzXzXcXzXzXzXVXzXVXcXVXVXVXVXVXZXZXZXSXSXSXSXSXAXAXAXAXAXAXSXSXSXSXSXSXZXZXVXVXzXcXzXjXjXpXpXN m b b x z l l l 4 4 4 4 4 ; 1 , , ; ; ; = ; ; ; ; 1 ; 4 4 7 7 l x b b m pXjXjXzXcXVXVXVXVXZXZXZXZXSXSXSXSXSXSXSXAXAXSXAXAXAXAXAXAXAXAXAXAXAXAXAXAXAXAXAXAXAXAXSXSXSXSXSXSXSXSXZXZXZXZXVXVXVXzXzXzXgXpXm b l 4 4 ; = = O O O O O O O O = = = ; ; ; 1 1 1 4 4 4 4 4 7 4 4 4 1 1 1 ; ; ; ; & ; O O O O . . O O O = = ; 4 4 l z m m pXgXjXzXcXVXcXVXVXZXZXZXZXSXSXSXSXSXSXSXSXAXAXAXNX7XNX7X7X7X7X4X X4X X4X X X X|. X X|.|.hX|.hX|.hX^.|.fXdX^.dXuXsXaXuXuXyXtXtXb k b c c x x z l l 7 6 4 ",
"1 4 6 l 6 l l l z l l r 9 z r y y r y 9 y q q 9 9 9 9 9 5 5 5 5 3 3 3 : 3 : 1 : < : < < 1 3 6 9 y z m m gXgXjXVXVXVXZXZXSXSXSXSXAXAXBXBXBXBXeXeXeX0X9X9X@X@X+XOXR.Y.Y.Y.A.j.f.d.d.6.4.4.4.<.<.>.<.>.>.>.>.>.>.>.>.<.<.<.<.4.4.4.d.f.j.j.Y.Y.T.T.OXOX@X@X@X@X9X@X9X@X@X@X@X+XOXT.Y.Y.j.f.d.6.<.<.>.-.-.W W J D D D D V D D A A A V S V D V D V D D D D J J W W -.-.>.<.2.4.d.j.j.Y.Y.T.OX@X@X9X9X0XeXeXeXBXBXAXAXAXSXSXSXSXSXZXZXZXZXZXVXVXVXVXcXVXzXVXzXVXzXcXcXcXzXcXzXcXzXcXcXzXzXVXzXVXcXVXVXVXVXVXZXZXZXSXSXSXSXSXAXAXAXAXAXAXAXAXSXSXSXSXZXZXZXVXVXVXcXzXzXpXjXpXm m b x x l l l 4 7 4 4 1 ; 1 1 , ; ; ; ; ; ; ; ; 1 1 1 4 4 6 l l x b m pXpXgXzXzXcXcXVXVXVXZXZXZXSXSXSXSXSXSXSXAXSXAXAXAXAXAXAXAXAXAXAXAXAXAXAXAXAXAXAXAXAXAXSXSXSXSXSXSXSXSXZXZXZXZXVXVXVXzXVXzXzXgXpXm x l 4 1 ; = = O = O O O = O O O = = & ; ; ; ; 1 4 1 1 4 4 4 1 1 1 1 1 ; ; ; = ; & O O O O . . . O O = O ; ; 4 l l b b pXpXgXzXzXcXcXVXVXVXZXZXZXZXSXSXSXSXSXSXSXSXSXAXAXCXNXNXmX7X7X7X7X7X7X X XxX|. X X XhX|.hX|.|.fX|.^.dXdXdXuXdXuXsXuXuXtXtXtXyXv v b c c c x z l l 7 6 6 1 ",
"1 6 6 6 l l l l l z l l l 9 9 r 9 y 9 9 9 9 9 q 9 9 9 3 9 5 3 3 3 3 : 3 : 1 : 3 1 1 2 3 6 9 r y c m m pXgXzXcXcXVXZXZXZXSXSXSXAXAXBXBXBXBXeXeX0X0X0X9X@X@XOXOXT.Y.Y.A.j.j.f.d.4.4.<.<.<.<.>.>.>.;.>.-.;.;.>.-.>.>.>.>.>.<.<.4.4.4.d.d.j.j.Y.A.T.T.OXOX@X@X@X@X@X@X@X@X+XOXOXT.T.Y.j.j.d.4.2.<.>.;.-.W W J J D D D V D V V V V V V V V V V V S V D V D D D J W W -.>.>.<.4.4.d.A.A.Y.Y.R.OX@X@X9X0XeX0XeXBXeXBXBXAXAXSXSXSXSXSXZXZXZXZXVXVXVXVXVXcXVXzXVXzXVXzXzXzXcXzXcXzXcXzXcXzXVXzXVXcXVXcXVXVXVXZXZXZXZXSXSXSXSXSXAXAXAXAXAXAXAXAXAXSXSXSXSXZXZXZXVXVXzXzXzXjXpXpXpXm b b x l l l 4 4 4 4 4 ; 1 ; ; ; ; ; = ; ; ; ; , 1 ; 4 4 7 7 x x b m pXpXjXzXzXzXVXcXVXVXZXZXZXZXZXSXSXSXSXSXSXAXSXAXAXAXAXAXAXAXAXAXAXAXAXAXAXAXAXAXSXAXAXSXSXSXSXSXSXSXSXZXZXZXZXVXVXVXVXzXzXzXpXpXm x l 4 ; ; O O O O O O O O O = O O = = = ; ; ; ; ; 1 1 1 1 ; 1 ; ; ; ; ; ; & & & O O O O . . . O O O & ; ; 4 4 l x b m pXgXgXjXzXzXcXVXVXVXVXZXZXZXZXSXSXSXSXSXSXSXSXSXSXAXSXNXNXmX7X7X7XxX7X7XvX XvX|.hX X|.hX{.hX{.|.aXdXdX^.dXaXaXaXuXsXtXtXtXv tXb v b c c x x x l r 7 6 4 4 ",
"4 6 6 6 r l z z z l l z l l z 9 r 9 9 9 9 9 9 2 9 9 3 9 3 3 3 3 3 : 3 3 3 3 3 3 3 3 6 9 9 y x c m pXpXzXzXcXcXVXZXZXZXSXSXSXAXAXBXBXBXBXeXeXeX0X9X9X@X@XOXR.T.Y.Y.Y.j.j.d.4.4.4.<.<.<.>.;.>.-.-.-.-.-.W -.W -.-.-.-.-.>.>.>.>.<.4.6.6.d.j.j.Y.Y.T.T.OXOXOXOX@X@X+X+X+XOXOXT.Y.Y.Y.j.d.4.2.<.<.-.W W K J D D D D V S V V V V V V V V V V V V V V D V D D D J J J -.-.;.>.2.4.4.d.A.F.Y.T.OX@X@X9X9X0XeXeXeXBXBXBXAXAXSXSXSXSXSXZXZXZXZXZXVXVXVXVXVXcXVXzXVXzXzXVXcXzXcXcXcXzXzXzXVXzXVXcXVXcXVXVXVXVXZXZXZXZXSXSXSXAXAXAXAXAXAXAXAXAXAXAXSXSXSXSXZXZXVXVXcXVXzXjXjXjXpXm m b x x l l 4 l 4 4 4 ; 1 ; ; ; = ; ; ; ; ; ; ; ; ; 1 4 6 7 l x x m m m jXgXzXzXVXcXVXVXVXZXZXZXZXSXSXSXSXSXSXSXSXAXSXAXAXAXAXAXAXAXAXAXAXAXAXAXAXAXAXAXAXSXSXSXSXSXSXSXZXZXZXZXZXZXVXVXcXVXzXzXgXgXm b x 7 4 ; ; = = O O O O O O O O O O O = = = = ; ; ; ; ; ; ; ; ; ; ; ; = ; = & & O O O O . . . O O & O ; ; 4 4 7 z x b m pXpXgXjXzXzXVXzXVXVXVXZXZXZXZXZXZXSXSXSXSXSXSXSXSXSXSXSXMXNXMX7XMX7X7XxX XxX|.xX XhX XhXhX{.hXaXdXdXuXdXaXaXaXtXuXtXtXtXn tXb k b b c c x x z l l 7 6 6 4 ",
"6 6 6 l l l z x x x z l z l l l 9 r r 9 9 6 9 6 2 6 2 2 3 3 3 3 3 9 3 3 3 3 3 6 9 9 9 l z u c pXpXgXgXzXcXcXVXVXZXZXSXSXSXSXAXAXBXBXBXeXeX0X0X0X9X@X@XOXOXT.Y.Y.j.j.f.d.6.4.<.<.>.>.-.;.-.-.W W W W W W W W W W W W -.-.-.>.>.>.<.<.4.6.d.d.j.j.T.Y.T.R.OXOXOXOXOXOXOXR.T.Y.Y.A.j.d.d.4.<.>.-.-.W W D D D V D V V V V V V V V V V V V V V V V V V F V D D D D K W W -.>.>.2.4.d.j.A.Y.Y.T.OX@X@X9X0XeX0XeXBXeXBXBXAXAXSXSXSXSXSXZXZXZXZXVXVXVXVXVXVXcXVXzXVXzXcXzXcXzXzXzXcXVXzXzXVXzXVXcXVXVXVXVXZXZXZXZXSXSXSXSXSXAXAXAXAXAXAXAXAXAXAXAXSXSXSXSXZXZXVXVXzXcXzXjXpXpXpXm b b x l l l 4 4 4 4 ; 1 ; ; ; ; ; = ; ; ; ; ; ; 1 1 1 4 7 l x x b m gXpXjXzXzXcXVXVXVXVXZXZXZXZXSXSXSXSXSXSXSXSXAXAXSXAXAXAXAXAXAXAXAXAXAXAXAXAXAXSXAXSXSXSXSXSXSXSXSXSXZXZXZXZXVXVXVXVXzXzXzXgXpXm b l 7 1 ; O = O O O O . . . O O O O O = = = = = = ; ; ; ; ; ; ; ; O ; & & & O O O O O . . . O O O & = ; ; 4 4 l z b b m pXpXjXgXjXzXzXVXVXzXVXVXVXZXZXZXZXZXZXSXSXSXSXSXSXSXSXZXSXZXmXMX7XbXbX7XxXvXvX|.xXvXfX|.hXhX|.fXaXdXdXiXaXuXyXaXtXtXtXtXtXv yXb b b c c c z z l 6 6 6 6 6 ",
"6 r r l z z z x x x x x x z z l l r r r r r 9 9 9 6 9 9 6 9 3 9 3 3 3 6 3 9 6 9 9 9 l c c m pXpXpXjXzXcXcXVXZXZXZXZXSXSXSXAXAXBXBXBXeXeXeX0X0X9X@X@XOXOXT.Y.Y.j.j.d.6.4.<.<.>.>.>.-.-.W W W W W J W D K D W D W K W W W W -.-.;.>.<.<.<.4.d.d.Y.j.Y.Y.T.T.OXT.OXR.R.T.Y.Y.Y.Y.j.d.6.4.<.>.-.W W W D D D D D V V V V V V V V V V B V V B V V V V V V V V A A D J J W -.-.>.<.4.4.d.A.F.Y.T.OX+X@X9X9X9XeXeXeXBXBXBXAXAXAXSXSXSXSXSXZXZXZXZXVXVXVXVXcXVXcXVXzXVXzXVXzXcXzXVXzXcXzXVXcXVXcXVXVXVXZXVXZXZXZXSXSXSXSXSXAXAXAXAXAXAXAXAXAXAXAXAXSXSXSXSXZXZXVXVXVXzXzXjXjXgXpXm m x x z l 4 4 4 4 ; 1 ; ; ; = ; ; ; ; & ; ; ; ; 1 1 4 6 7 l x b m pXpXgXzXzXcXcXVXVXVXZXZXZXZXZXSXSXSXSXSXSXSXSXAXSXAXAXAXAXAXAXAXAXAXAXAXAXAXSXAXAXSXSXSXSXSXSXSXSXSXZXZXZXZXZXVXVXVXVXzXzXjXgXpXm x l 4 1 = ; O O O O . . . . . . O O O O O O ; O ; O ; O = & = ; O ; & & O O O O O . . . . O O O = O ; ; ; 4 7 l z x b m pXpXgXjXjXzXzXVXzXVXVXVXVXZXZXZXZXZXZXZXZXZXSXZXSXSXSXSXZXSXMXMXMXMXbXxXbXxXvXxXhXhXvXhX|.hXfX|.fXdXiXdXaXuXaXuXsXtXtXyXv yXb b b b c c x z l r r r 6 r 6 ",
"r l y l z z z c x c c c x x z z z z r r r r r 9 9 6 9 6 6 6 9 6 9 6 9 9 9 9 l y z c c c yXpXsXgXzXzXcXcXVXVXZXZXZXSXSXSXSXAXBXBXBXrXeXeX0X0X<X<X@XOXOXT.Y.Y.j.j.d.6.4.<.<.>.;.-.-.W W W K J J D D D D D D D D D D K J K W W W -.-.>.>.<.4.4.d.d.j.Y.A.Y.Y.Y.T.T.T.Y.Y.Y.Y.j.A.f.d.4.<.<.;.-.W W D D D V A V V V V V V V V V V B V B V V V V B V V V V V F D D D J K W -.>.>.2.4.4.j.A.Y.Y.T.OX@X@X9X0XeX0XeXBXeXBXBXAXAXSXSXSXSXSXZXZXZXZXZXVXVXVXVXVXVXcXVXzXVXzXVXzXVXzXVXzXVXzXVXcXVXVXVXVXVXZXZXZXZXSXSXSXSXSXAXAXAXAXAXBXAXBXAXAXAXAXAXSXSXSXSXZXZXVXVXzXzXzXpXpXpXN m b x l l 7 4 4 4 4 ; ; ; ; ; ; = ; ; ; ; ; ; ; ; 1 4 7 7 l x b m pXpXgXjXzXcXcXcXVXVXVXZXZXZXZXZXSXSXSXSXSXSXSXSXAXSXAXAXSXAXSXAXSXAXAXSXAXAXAXSXSXSXSXSXSXSXSXSXSXZXZXZXZXZXVXVXVXzXcXzXzXjXgXpXb b l 4 ; ; O O O O . . . . . . . . O O O O O O = & ; O ; = = & O & O O O O O O O . . . O O O O & & ; ; ; 4 7 7 l z b b m m pXpXjXgXjXzXzXzXVXzXVXVXVXVXZXZXZXZXZXZXZXZXZXZXZXZXZXZXZXZXVXMXMXMXbXxXxXxXxXvXhXhXxXhXhXhXfXdXfXdXiXaXaXaXtXtXiXtXtXm n m b b b c c z l r r r r r 9 l ",
"z z z z z z x z c c c c c c c c x z z z r y r r r r r 9 r 9 9 9 9 r 9 r z z z z c c m pXpXpXgXzXzXcXcXVXVXZXZXSXSXSXAXAXBXBXBXrXeXeXeX0X0X<X<X@XOXT.T.Y.Y.j.d.d.d.2.<.>.>.-.-.W W W K J D D D D D D D D D D D D D D D D J K W W W -.>.>.<.<.4.d.d.j.F.A.Y.Y.Y.Y.Y.Y.Y.Y.F.F.f.d.6.<.>.-.-.W W D D D V S V V V V V V V B B B B B B B B B B B V V V V V V V V D D D J W W -.>.>.4.4.d.h.F.Y.T.OX+X@X9X9X9XeXeXeXBXBXBXAXAXAXSXSXSXSXSXZXZXZXZXVXVXVXVXVXcXcXVXVXcXcXzXVXzXVXzXVXcXVXcXcXVXVXVXVXVXZXZXZXZXSXSXSXSXAXAXAXAXAXBXAXBXAXAXAXAXAXSXSXSXSXZXZXVXVXVXVXzXjXjXjXpXm b x x l l 4 7 4 4 ; 1 ; & ; ; = ; ; ; ; ; ; ; ; 1 4 4 6 l l b b m pXpXjXzXzXcXcXVXVXVXVXZXZXZXZXSXZXSXSXSXSXSXSXSXSXAXSXAXAXAXAXAXAXAXAXAXAXSXSXSXSXSXSXSXSXSXSXSXZXZXZXZXZXVXVXVXVXVXVXzXjXjXpXm b l 7 1 ; = = O O . . . . . . . . . . O O O O O O O O O O O O O O O O O O O . . . . . O O O & & O = ; ; 4 4 4 7 l z x b b m pXpXpXjXjXjXzXzXzXVXcXcXVXVXVXVXVXZXZXZXZXZXZXZXZXZXZXZXZXZXZXZXVXVXnXnXnXxXxXxXlXxXhXhXhXfXfXfXfXsXfXsXsXyXsXpXyXyXm m yXb b m c c u z z r z 9 z z z z ",
"c x x c z u x c x c c b m b b c c c c z x z r x r y r y r l z l l z z z z c c m m m pXpXgXjXzXzXcXVXVXVXZXZXZXSXSXSXAXAXAXBXrXrXeXeX0X0X<X<X@XOXOXT.T.j.j.j.d.4.<.<.>.>.-.W W W D D D D D D A A A V S V V D A V D D D D D D J W W W -.-.>.<.<.6.d.d.j.A.A.Y.F.F.F.Y.A.A.j.f.d.6.<.<.>.-.W W D D D V A V V V V V V V B V B B B B B B B B B B B V V B V V V V V D D D J W -.-.>.2.4.4.j.A.F.Y.R.OX@X@X9X0XeX0XeXBXeXBXBXAXAXSXSXSXSXSXSXZXZXZXZXVXVXVXVXVXVXcXVXVXVXcXcXVXzXVXcXVXcXVXVXVXVXVXVXZXZXZXZXSXSXSXSXSXAXAXAXAXAXAXBXAXBXBXAXAXAXAXAXSXSXSXZXZXVXVXVXzXzXjXpXpXpXm b x l l 4 4 4 4 ; ; ; ; ; ; ; ; ; ; ; ; ; & 1 ; 1 4 7 l l x b m pXgXgXjXzXcXVXcXVXVXVXZXZXZXZXZXSXSXSXSXSXSXSXSXSXSXAXSXAXAXAXAXAXAXSXAXSXSXSXSXSXSXSXSXSXSXSXZXZXZXZXZXZXVXVXVXVXzXzXzXjXgXpXm b l 4 1 ; & O O O . . . . . . . . . . . O O O O O O O O O O O O O O O O O . . . . . O O O O O & ; = ; ; ; 7 4 7 7 l z b b b m m pXpXpXjXjXjXzXzXzXcXcXcXVXVXVXVXVXZXZXZXZXZXZXZXZXZXZXZXZXZXVXnXZXnXnXnXcXzXxXzXlXhXhXlXfXfXjXsXsXsXsXsXpXpXpXyXpXyXm m b b c z z z r z r z z u c c ",
"n n v c c c u x c c c b b b m c m c c c c c c x x x x z x z z x c x x c c m m m pXpXgXgXzXzXcXcXcXVXVXZXZXSXSXSXSXAXAXAXAXrXrXeXeX0X0X9X<X@XOXR.T.Y.j.Y.d.d.6.<.>.>.>.W W W W D D D D A A S V S V S V V S V V S V S V D D D D D J W W -.-.>.<.<.4.d.d.j.A.A.A.A.A.A.F.j.f.d.6.2.<.>.-.W K D D D V A V V V V V B B B B B C B B B B B B B B B B B B V V V V V V D A D J W W -.>.>.4.4.d.A.F.Y.T.OX+X@X9X0X9XeXeXeXBXBXBXAXAXAXSXSXSXSXSXZXZXZXZXZXVXVXVXVXVXcXVXcXcXcXVXcXVXcXVXcXVXVXVXVXVXVXZXZXZXZXSXSXSXSXSXAXAXAXAXBXAXBXAXBXBXAXAXAXAXAXSXSXSXSXZXZXVXVXcXcXzXjXjXpXm b b b z 7 l 4 4 ; 4 ; ; ; ; ; ; & ; ; ; ; ; ; 1 1 4 6 7 l x b m m pXgXjXzXzXcXcXcXVXVXZXZXZXZXZXZXSXSXSXSXSXSXSXSXSXSXSXSXSXSXSXSXSXSXSXSXSXSXSXSXSXSXSXSXSXSXSXZXZXZXZXZXZXVXVXVXzXVXzXjXzXpXm b x 7 4 ; ; = O O . . . . . . . . . . . . . . O O O O O O O O O O O O . . . . . . O O & O O O O ; O ; ; ; 4 ; 4 7 7 7 l z z b b b m m pXpXpXgXgXjXzXzXzXcXcXcXcXnXVXVXVXVXVXZXZXZXZXZXVXZXZXVXZXZXnXnXnXnXcXnXcXzXzXzXzXjXjXjXsXjXgXgXpXgXpXsXpXpXyXm m m b c u z z r r r z u u c c n ",
"tXtXn tXv c v u x c c c b m b yXm m n n c b c c c c c c c c c c c b m m m m pXpXgXgXgXzXzXcXcXVXVXVXZXZXZXZXSXSXSXAXAXAXrXrXrXqXeX0X<X<X@XOXOXT.Y.Y.j.d.d.4.<.<.>.-.W W J J D D D D V S V V V V V V V V V V V V V V S V A V D D D J W W W -.>.<.<.6.6.d.f.j.j.A.A.j.d.f.d.4.4.<.>.-.-.W J D D D V V V V V V B V B B B C B C C C C C C B C B B B B V V V V V V V D A D J W W -.>.2.4.4.j.A.Y.Y.R.OX@X@X9X0XeX0XeXBXBXBXBXAXAXAXSXSXSXSXSXZXZXZXZXZXVXVXVXVXVXcXVXVXcXVXcXVXcXVXcXVXVXVXVXVXZXZXZXZXZXSXSXSXSXSXAXAXAXAXAXBXBXBXBXAXBXAXAXAXAXAXSXSXSXSXZXZXVXVXzXzXzXjXpXpXm b x x l 7 4 4 4 ; ; ; ; ; ; ; & & ; ; ; ; ; ; 1 4 4 7 l x b b pXpXgXgXzXzXzXVXcXVXVXVXVXZXZXZXZXZXSXSXSXSXSXSXSXSXSXSXSXSXSXSXSXSXSXSXSXSXSXSXSXSXSXSXSXSXZXZXZXZXZXZXVXVXVXVXVXzXzXzXzXpXgXm b z l 1 ; & O O . . . . O O O O . . . . . . . . . . . O O O . . . . . . . . . O O O O O & O = ; O ; = ; ; ; 4 4 4 4 7 7 l l l x b b b m m m m pXpXgXgXzXjXzXcXcXcXnXnXVXnXVXVXVXZXVXZXZXZXVXZXVXVXVXVXnXnXnXcXnXcXcXzXzXjXjXjXjXgXgXgXsXpXsXpXpXpXyXyXm c c x z r z r z z u c v yXtXtX",
"sXsXsXyXyXk v b v c c c v b m m m m m m m m m m b m b m m b m m m pXpXpXpXgXgXgXgXzXzXcXcXcXVXVXVXZXZXZXSXSXSXSXAXAXAXrXrXeXeXqX0X<X<X@X+XR.T.Y.Y.j.d.d.4.<.>.>.-.W W W D D D V A V S V V V V V V V V V V V V V V V V V V S V D D D D K W -.-.>.<.<.4.4.d.d.j.d.d.f.d.4.4.4.<.>.-.-.W J D D A V A V V V V B B B C B C C C C C C C C B C B C B B B B B V V V V V A A D J J W -.>.>.4.4.h.h.F.Y.T.OX@X@X9X9X0XeXeXeXeXBXBXAXAXAXSXSXSXSXSXZXZXZXZXZXVXVXVXVXVXVXVXcXVXcXVXcXVXcXVXVXVXVXVXVXZXZXZXZXSXSXSXSXSXAXAXAXAXAXBXBXBXBXBXBXBXBXAXAXAXAXSXSXSXZXZXVXVXVXVXzXjXjXpXpXm b x z l 7 7 4 ; 4 ; ; ; = ; ; ; & ; & ; ; ; 1 1 4 6 l l x b m pXpXpXjXzXzXcXzXVXVXVXVXZXZXZXZXZXSXZXSXSXSXSXSXSXSXSXSXSXSXSXSXSXSXSXSXSXSXSXSXSXSXSXSXSXZXZXZXZXZXVXZXVXVXVXzXVXVXzXzXgXgXm m x l 4 1 ; = O O . . . . O O O O O O O O . . . . . . . . . . . . . . . . . O O O O & O & O & O O ; O ; ; ; ; ; ; ; 4 4 7 4 7 7 l l z z z b b b m m m pXpXgXgXjXzXzXzXcXcXnXnXVXVXVXVXVXVXVXVXVXVXVXVXVXVXVXcXnXcXcXcXzXzXzXjXjXjXgXgXgXgXgXsXsXpXyXyXyXb c z z z r r z u u v v yXiXsXsX",
"jXjXfXfXsXiXyXk v b v v b b v m yXpXpXpXpXpXpXm pXpXpXm pXpXm pXpXpXpXgXgXgXgXzXzXzXcXcXVXcXVXVXZXZXZXZXSXSXSXAXAXAXrXrXrXeXqX0X1X<X@X+XOXT.Y.j.j.j.4.4.<.>.:.-.W W J D D D V S V V V V V V V V V V V V V V V V V V V V V V S V V D D D K W W -.>.<.<.4.6.4.6.d.d.4.6.4.4.<.>.>.-.W J J D D V V V V V B B B B C B C C C C C C C C C Z C C C C B B B B V V V V V V D D D J W -.;.<.2.4.4.j.F.Y.Y.R.OX@X9X9X0XeX0XeXBXBXBXBXAXAXAXSXSXSXSXSXSXZXZXZXZXVXVXVXVXVXVXVXcXVXcXVXVXVXVXVXVXVXVXZXZXZXZXZXSXSXSXSXSXSXAXAXAXAXBXBXBXBXBXBXBXBXAXAXAXAXSXSXSXSXZXZXVXVXcXzXzXjXgXpXm m x x l 7 4 4 4 ; 4 = ; ; ; = & ; ; ; ; ; ; 1 1 4 7 7 x x b m m gXgXgXzXzXzXVXcXVXVXVXZXVXZXZXZXZXSXZXSXSXSXSXSXSXSXSXSXSXSXSXSXSXSXSXSXSXSXSXSXSXSXZXZXZXZXZXZXZXZXVXVXVXVXVXzXzXzXjXgXpXm b x l 4 ; & & O O . . . O O O O O O O O O O . . . . . . . . . . . . O . O O O O O & O O O O O = ; O ; O ; & ; ; ; ; ; ; ; 4 4 4 7 4 7 7 l l l z x b b b m pXyXsXsXjXjXzXzXcXcXnXcXnXnXVXVXVXVXVXVXVXVXVXcXVXVXcXcXcXcXcXzXzXzXjXjXjXgXgXgXpXsXpXpXyXb b c z z z r r r u u v yXiXfXsXjXjX",
"cXlXlXzXfXfXiXiXyXk v v b v m n tXyXpXpXpXpXpXsXpXpXpXpXpXpXgXpXgXgXgXgXgXgXzXzXzXcXcXcXnXVXVXZXZXZXZXSXSXSXAXNXAXrXrXrXeXqX0X0X<X<X+XOXT.Y.Y.Y.d.d.4.<.>.:.-.W W D D D A V S V V V V V V V V B B B B B B B B B B V V V V V V V S V D D D J W -.-.>.<.<.<.4.4.4.4.4.2.4.<.>.>.-.W J J D D V S V V V V B B B B C C C C C C Z C Z C Z C C Z C C C C B B B V V V V V V D D J J W -.;.>.4.4.d.A.F.Y.R.OX@X@X9X9X0XeXeXeXBXBXBXAXAXAXSXSXSXSXSXZXZXZXZXZXVXZXVXVXVXVXVXVXVXVXVXVXVXVXVXVXVXZXZXZXZXZXSXSXSXSXSXAXAXAXAXAXBXBXBXBXBXBXBXBXAXBXAXAXAXSXSXSXZXZXZXVXVXVXcXzXzXpXpXpXb b x l l 4 4 4 4 ; ; ; ; ; ; ; ; ; ; ; ; ; 1 4 4 7 l l b b m pXpXgXjXjXzXVXcXcXVXVXVXVXZXZXZXZXZXZXSXSXSXSXSXSXSXSXSXSXSXSXSXSXSXSXSXSXSXSXSXSXSXSXZXZXZXZXZXZXZXVXVXVXVXVXzXzXzXjXjXpXpXb b z 4 1 ; ; O O . . . O O O O O O O O O O O O O . O . O . O . O O O O O O O & O & O O O O O O O & & O ; O ; & ; & ; ; ; ; ; ; ; ; ; ; 4 ; 4 7 7 7 7 l x c c m yXyXsXsXsXjXjXzXzXcXcXnXnXnXcXVXVXcXVXVXcXVXVXcXcXcXcXcXzXzXzXjXjXjXgXjXsXsXsXpXyXyXb b x u u r r r r u u v yXiXfXfXlXlXlX",
"nXnXlXlXzXhXfXiXiXyXyXv b v b yXn yXpXpXsXpXgXpXsXsXgXsXgXgXgXgXgXgXjXzXzXzXzXcXcXcXVXVXVXVXVXZXZXZXZXAXZXAXAXAXrXrXrXeXqXqX1X<X<X+XOXR.Y.Y.j.d.d.4.<.>.:.W W J D D D V S V V V V V V B B B B B B B B B C B B B B B B V V B V V V S V D D D K W W -.>.>.<.<.2.2.2.2.2.<.>.>.-.-.W J J V D V V V V B B B B C C C C C Z C Z C Z C Z C C Z C C C C C C B B B V V V V V V D D J W W >.>.4.4.d.j.F.Y.T.OXOX@X9X9X0XeXeXeXeXBXBXBXAXAXAXSXSXSXSXSXZXZXZXZXZXVXVXZXVXVXVXVXVXVXVXVXVXVXVXZXVXZXZXZXZXZXSXSXSXSXSXSXAXAXAXAXBXBXBXBXBXBXBXBXBXAXAXAXAXAXSXSXSXZXZXZXVXVXzXzXzXjXpXm m b x l l 7 4 4 ; ; ; ; ; = ; ; ; = ; ; ; 4 ; 4 7 6 l x x m m pXpXgXjXzXzXzXcXVXVXVXVXVXZXZXZXZXZXZXZXSXZXSXSXSXSXSXSXSXSXSXSXSXSXSXSXSXSXSXSXZXZXZXZXZXZXZXZXZXVXVXVXVXVXzXVXzXzXgXjXpXm b x l 4 ; ; O O . . . O O O O O O O O O O O O O O O O O O O O O O O O O O & O O O O O O O O O O O O O O O O O O O & O & O & O & ; O ; ; = ; ; ; ; 4 4 4 7 7 l c c b yXyXsXsXsXjXjXjXzXzXcXcXnXcXcXnXcXnXcXcXcXcXcXcXzXcXzXzXjXjXjXjXgXsXsXsXpXyXm b c x z r r r r y u c v iXiXhXzXzXxXnXnX",
"nXnXnXnXxXcXzXhXaXiXk yXk v m v n tXyXyXpXsXpXgXgXgXgXgXgXjXgXjXjXjXzXzXzXcXcXcXVXnXnXVXVXVXZXZXZXZXSXZXAXAXrXmXrXrX6XqXqX0X1X<X+XR.R.Y.Y.j.d.d.4.<.>.:.W W W D D A V S V V V V V B B B B C B B C B C C B C C B B B B B B V V V V V V V D D D J W -.-.>.>.>.<.<.<.<.>.>.>.-.W W J D V D V V V V V B B B B C C C Z C C Z C Z Z Z Z Z Z Z C Z C C C C B B B V V V V V A A D J W -.-.>.>.4.4.h.j.Y.Y.R.+X@X@X9X0X9XeXeXeXBXBXBXAXAXAXSXSXSXSXSXSXZXZXZXZXZXZXVXVXVXVXVXVXVXVXVXVXZXVXVXZXZXZXZXZXSXSXSXSXSXSXAXAXAXAXBXBXBXBXBXBXBXBXBXBXBXAXAXAXSXSXSXSXZXZXVXVXcXVXzXjXgXgXpXm b x z l 4 4 4 ; 4 ; ; ; ; ; ; ; ; ; ; ; ; 1 4 4 l l x b b m pXpXgXgXzXzXzXVXcXVXVXVXVXZXVXZXZXZXZXZXZXSXSXZXSXSXSXSXSXSXSXSXSXSXSXSXSXSXSXZXZXZXZXZXZXZXZXZXVXVXVXVXVXzXVXzXzXgXzXpXm m b z 4 1 1 & O O . . O O O O O = & = & = = O O O O O O O O O O O O O O O & O O O O O O O O O O O O O O O O O O O O O O O O O O O O O O O O O & & = & ; , ; 1 6 6 z z z v b yXyXsXsXgXfXjXjXzXzXzXcXcXcXcXcXcXcXcXcXcXcXzXjXjXjXjXsXsXsXsXpXyXyXb b c u z r r r r y y u g iXiXhXzXxXxXnXnXnX",
"MXMXMXMXnXxXxXzXhXfXiXiXyXk k yXtXn tXpXpXpXsXsXgXgXgXjXgXjXjXjXzXzXzXcXcXcXcXVXcXVXVXVXZXVXZXZXZXNXSXCXNXNXNXrXwXwXqXqX1X1X<X+X+XR.Y.F.A.j.d.4.<.>.;.-.W K D D A S V V V V V B V B B C C B C C C C C C C C C C C C B B B B V V B V V S V D D D K W W -.>.>.>.>.>.>.>.>.-.-.W J J D D V V V V V B B B C C C C Z C Z Z Z Z Z Z Z Z Z Z Z Z C Z C C C C C B B V V V V V A A D J W -.>.>.4.4.d.A.F.Y.T.OX+X@X9X9XeXeXeXeXBXeXBXBXAXAXAXSXSXSXSXSXSXZXZXZXZXZXZXVXVXZXVXVXVXVXVXVXVXZXZXZXZXZXZXZXSXSXSXSXSXAXAXAXAXAXAXBXBXBXBXBXBXBXBXBXBXBXAXAXAXSXSXSXSXZXZXVXVXzXcXzXjXpXpXm b x x l 7 4 4 4 ; ; ; ; ; ; = ; ; ; ; ; 1 1 4 7 7 x x b b m pXpXgXgXzXzXzXzXVXcXVXVXVXVXZXZXZXZXZXZXZXZXSXSXSXSXSXSXSXSXSXSXSXSXSXSXZXZXZXZXZXZXZXZXZXVXZXVXVXVXVXVXzXVXzXzXjXjXpXpXm b x l 4 1 = & O O . . O O O & = = = = = = = = = O O O O O O O O & O O O & O O O O O O O O O O O O O O O O O O . . O . . . . . . . . . O . O O O O O O & & ; ; ; , 4 4 r z z c v b yXiXsXsXfXjXgXzXjXjXzXzXjXzXjXjXjXjXjXjXjXjXgXsXjXsXpXpXyXm c c u z r r r r r y u u yXyXiXhXzXxXcXVXVXMXMX",
"ZXZXMXVXMXMXcXxXxXhXfXiXuXtXtXyXv tXyXtXpXtXsXsXsXgXjXgXjXjXzXjXzXzXcXcXcXcXcXnXnXVXnXZXnXZXZXSXMXSXmXNXNXmXrXrX6XqXqX1X1X,X,X+XR.Y.Y.A.j.d.4.<.<.;.-.W D D D V S V V V V V B B B C C C C C Z C C Z C C Z C C Z C C C C B B B B V V V V V V D D J J W -.-.-.-.>.;.>.-.-.W W W D D D V S V V V B B B C C C Z C C Z Z Z I Z Z I Z Z Z Z Z Z Z C Z C C C B B B V V V V V A D D J J -.;.;.4.4.d.h.A.Y.T.R.+X@X@X9X0X0XeXeXeXBXBXBXAXAXAXSXSXSXSXSXSXZXZXZXZXZXZXVXZXVXVXZXVXVXZXVXZXZXZXZXZXZXZXSXSXSXSXSXSXSXAXAXAXBXBXBXBXBXBXBXBXBXBXBXBXAXAXAXAXSXSXSXZXZXVXVXVXVXzXzXjXgXpXm b b z l l 4 4 ; 4 ; = ; ; ; ; ; ; ; ; 1 1 4 4 6 l l x b b m pXgXgXjXgXzXzXVXzXVXVXVXVXVXZXZXZXZXZXZXZXZXZXZXZXSXZXSXSXSXSXSXSXZXSXZXZXZXZXZXZXZXZXZXZXZXVXVXVXVXVXzXVXzXzXzXjXgXpXm b x l 4 1 ; = O O . . O O O & = = = ; ; ; ; = = = = = = = = O O O O O O & O O O O O O O O O O O O . . . . . . . . O . O . . O O O O O O . . O . . . . O O O O & & - ; < < 4 3 r z z v b yXyXyXyXsXsXsXjXsXjXjXjXjXjXjXjXgXjXsXsXsXsXyXyXyXb m c u u r r r r r r r u y yXtXaXhXxXxXnXMXVXMXZXZX",
"ZXSXMXSXVXVXMXVXxXxXhXhXfXiXiXuXyXtXtXtXyXsXiXsXsXsXjXjXjXjXjXcXjXcXcXcXnXcXnXnXnXnXZXVXZXMXMXMXMXmXNXmX8XrX6X6XqX5X0X1X<X,X+XR.T.Y.F.j.d.4.2.>.;.-.W J D D V A V V V V B B B B C C C C C Z C Z Z C Z Z C Z Z C Z C C Z C C C B B B V V V S V D D J K W W -.-.-.-.-.-.W W W J D D V V V V V B B B C C C Z C Z Z Z Z Z Z I Z Z I Z I Z Z Z Z Z C Z C C C C B B V V V V V D D D W W -.>.>.4.4.h.A.F.Y.R.OX@X9X9X9XeX0XeXeXBXBXBXBXAXAXAXAXSXSXSXSXSXZXZXZXZXZXZXZXVXZXVXVXZXVXZXZXZXZXZXZXZXSXSXSXSXSXSXSXAXAXAXAXAXBXBXBXBXBXeXBXBXBXBXBXAXAXAXAXSXSXSXSXZXZXVXVXVXzXzXjXgXpXpXb b x l 7 4 4 4 ; 4 ; ; = ; ; ; = ; ; ; 1 1 4 7 7 l b x m m pXpXgXgXzXzXzXzXVXzXVXVXVXVXVXZXZXZXZXZXZXZXZXZXZXZXZXZXZXZXZXZXZXZXZXZXZXZXZXZXZXZXZXVXVXVXVXVXVXVXzXVXzXzXzXgXgXpXpXm b l l 4 1 = & O O . . O O = = = ; = ; ; ; ; ; ; = ; = = = = = = O O O & O O O O O O O O O . . . . . . . . . O O O & O & & O O O O O O O O O O O O O . . . . O . O & & ; - < < 1 3 r r z u b v m yXyXsXyXsXsXsXsXsXfXsXsXsXsXsXyXpXyXyXb b u u u r r r r q r r r u g yXtXaXhXcXcXbXVXVXCXCXMXSX",
"SXCXSXCXCXCXCXbXMXcXxXlXfXfXuXyXuXiXtXyXuXiXtXsXaXsXsXgXjXjXjXjXlXlXlXnXzXnXnXnXnXnXVXmXnXMXMXmXmXmXmXmXrX6X6XqX5X1X-X<X,X+XR.T.Y.F.j.d.4.2.<.;.-.W K D D V S V V B V B B B C C C C C Z Z Z Z Z Z Z Z Z Z Z Z Z Z C Z C C C C C B V B V V V V D V J J J W W W W -.W W W K J D D D A V V V B B B C C C C C Z Z Z P Z Z I Z I I Z I Z I Z I Z Z Z C Z C C B B B V V V V V A D D J W -.>.>.<.4.h.A.F.Y.R.OX+X@X@X9X0XeXeXeXeXBXBXBXAXAXAXSXSXSXSXSXSXSXZXZXZXZXZXZXZXZXZXZXZXZXZXZXZXZXZXZXZXSXSXSXSXSXSXAXAXAXAXAXBXBXBXBXBXBXBXeXBXBXBXAXBXAXAXSXSXSXSXZXZXZXVXVXVXcXzXjXgXgXm m b x l l 7 4 4 4 ; ; ; ; ; ; ; ; ; ; 1 1 4 7 7 7 x x b b m pXpXgXgXzXjXzXVXzXVXVXVXVXVXVXZXZXVXZXZXZXZXZXZXZXZXZXZXZXZXZXZXZXZXZXZXZXZXZXZXZXZXVXVXVXVXVXVXVXzXVXzXzXzXgXzXpXpXm b z l 4 1 = ; O O . . O O O = ; = ; 1 ; 1 1 1 ; ; ; ; ; = = O = = = & O O O O O O O O . . . . . . . . O O & & O O & & & & & ; = ; = ; = ; & ; & O O O O O O O . O . & & o - & - - < < 3 4 r r z u u b v yXyXyXyXyXyXyXyXyXyXyXb yXb b c c u z r r r r r 5 r r y u g k iXaXgXcXcXbXVXMXCXCXCXSXSX",
"AXSXAXCXCXCXCXMXMXbXxXxXlXhXdXdXiXuXiXuXyXuXsXtXsXaXsXdXgXjXjXjXlXlXlXlXnXxXnXxXnXnXbXnXmXbXbXmX8XmX6X6X6X6XqX5X1X-X<X%X+XXXR.Y.F.j.d.4.2.<.;.-.W J D D V S V V V V B B B B C Z C Z C Z Z Z Z Z Z P Z Z P Z Z Z Z Z Z Z C C C C C B B V V V V V D V D J J K W W W W K J J J D V V V V V V B B B C C C Z Z Z Z Z Z R P I I I I I I I Z I Z Z Z Z Z C C C C C B B V V V V V D D D W W ;.>.4.4.4.j.Y.F.T.R.+X@X9X9X9XeXeXeXeXBXBXBXBXAXAXAXSXSXSXSXSXSXSXZXZXZXZXZXZXZXZXZXZXZXZXZXZXZXZXZXSXSXSXSXSXSXSXSXAXAXAXAXBXBXBXBXBXeXBXBXBXBXBXBXAXAXAXAXSXSXSXSXZXZXZXVXVXzXcXzXjXpXpXm b b z l 4 7 4 ; 4 ; ; ; ; = ; ; ; 4 ; 4 4 4 7 l l x b b m m pXgXgXjXzXzXzXVXzXVXVXVXVXVXVXZXZXZXZXZXZXZXZXZXZXZXZXZXZXZXZXZXZXZXZXZXZXZXZXVXVXVXVXVXVXcXVXzXVXzXzXzXjXgXpXpXm b x z l 1 ; ; O O O . O O O = = ; 1 1 1 1 4 4 4 1 ; 4 = ; ; = = = = O O O O O O O O . . . . . O O O O O O O & & & ; ; & ; ; ; ; ; ; ; ; ; ; ; ; ; ; ; ; = O = O & O O O . O & * - - & < < < < 4 r r r z z u c c v v b v b b b b v c u u z r z r r 6 r 6 r r r y u g yXiXfXhXvXcXbXVXCXZXCXSXCXSXAX",
"AXAXCXAXCXAXCXCXMXMXMXxXxXxXlXfXdXuXsXuXtXsXtXsXuXsXaXsXfXfXjXdXjXlXlXlXlXxXlXnXxXbXnXbXbXbXmXbXmX6X6X6X6XqX>X>X1X1X%X+XXXI.Y.F.A.d.4.4.<.:.-.W K D A A S V V V V B B C C Z C C Z Z Z Z Z Z P Z P Z P P Z P Z Z P Z Z Z Z Z C C B C B B V V V V V D D D J J J K J K J J D D D A A V V V B B C C C C Z Z Z Z Z I I I I I I I I I I I I Z I Z Z Z Z C Z C C B B V V V V V A A D J W W ;.>.<.4.4.j.h.Y.Y.R.+X@X@X9X0X9XeXeXeXBXBXBXAXAXAXAXAXSXSXSXSXSXSXZXZXZXZXZXZXZXZXZXZXZXZXZXZXZXZXSXSXSXSXSXSXSXSXAXAXAXAXAXBXBXBXBXBXBXBXeXBXBXBXBXBXAXAXAXSXSXSXZXZXZXVXVXcXVXzXzXgXgXpXm b x z l l 4 4 4 4 ; ; ; ; ; ; ; 4 ; 1 4 4 7 7 l l x b b m pXpXgXgXgXzXzXzXzXVXzXVXVXVXVXVXVXZXZXVXZXZXZXZXZXZXZXZXZXZXZXZXZXZXZXZXZXZXVXVXVXVXVXVXVXVXVXzXVXzXzXzXjXgXgXpXm b x l l 4 ; ; & O O . . O O = ; ; ; 1 4 4 7 4 4 4 4 4 ; 4 ; = = = = = O O O O O O . . . . . O O O O O & & ; ; & ; 4 ; ; 4 4 4 4 7 4 7 7 4 7 4 7 4 4 4 4 ; ; ; & ; & O & & o & o O O o - * - - < < < 3 4 3 r r r r u z z z z u u r z r r r r r 5 r 6 r 5 6 q r y g g yXiXfXhXxXnXbXVXCXCXCXCXNXSXAXAX",
"AXNXAXCXAXCXCXAXCXCXbXCXbXxXxXlXfXdXdXaXaXuXaXuXsXuXsXdXsXdXjXjXdXjXlXlXkXlXxXxXnXvXkXbXbX7XbX6XvX6X6X6X5X>X1X-X&X,X,XoXR.G.G.A.d.d.3.<.:.;.W K D D A V V V V B B C C C C C Z Z Z Z P Z P Z P P P P Z P P P P P Z P Z Z Z Z Z C Z C B B B B V V V V D D D D J J J D J D D D V V V V V V B B C C Z C Z Z Z Z P Z I I I I I P I I I I I I Z I Z Z Z Z C C C C B B V V V V V A D D J -.-.>.>.4.4.d.A.F.Y.T.OX+X@X9X9XeX9XeXeXeXBXBXBXBXAXAXAXSXSXSXSXSXSXSXZXZXZXZXZXZXZXZXZXZXZXZXZXSXZXZXSXSXSXSXSXSXSXAXAXAXAXAXBXBXBXBXeXBXBXBXBXBXBXBXBXAXAXAXSXSXSXSXZXZXZXVXVXzXzXzXjXpXgXm m b z l l 4 4 4 ; 4 ; ; ; ; ; ; ; 4 ; 4 4 4 7 l l x b b m m pXgXgXgXzXzXzXVXzXVXVXzXVXVXVXVXVXZXZXZXZXZXZXZXZXZXZXZXZXZXZXZXZXZXVXVXVXVXVXVXVXVXcXVXcXVXzXzXzXzXgXjXpXpXm b b l l 4 1 ; = & O . . O O = = ; ; 4 4 4 7 4 l 7 4 4 4 ; ; ; ; = = = O O O O O . . . . O O O O & & & & ; ; ; ; 4 4 4 7 7 4 l 7 l l l l l l l l l l 7 7 7 7 7 4 4 1 1 ; ; = - & & # O - o & - # - - < < < < 1 3 3 r 4 r r r r r r r r 6 r 6 5 r 6 6 5 6 q r r u u g iXaXfXhXxXnXbXVXmXCXCXCXAXCXBXSXBX",
"AXBXBXBXBXCXBXCXCXCXCXbXMXMXbXlXvXlXfXfXdXdXaXaXaXaXaXaXdXsXfXdXjXdXlXdXlXkXkXkXkXvXbXvXbXvX8X4X4X5X6X5X>X-X-X1X%X,XU.R.K.G.A.j.d.4.<.:.-.W W D A V V V V V B B C C C C C Z Z Z Z P Z P P P P P P P ` P P P P P P P P Z P Z Z Z C C C B B V V V S V V D D D D D D D D D D V S V V V V B C C C C C Z Z Z Z P Z I I P I I P I I U I I I I I Z P Z Z C Z C C C B B V V V V V A A J J J -.;.>.<.4.d.A.A.Y.R.R.+X@X@X9X9XeXeXeXeXBXBXBXAXAXAXAXAXSXSXSXSXSXSXSXZXSXZXZXZXZXZXZXZXZXZXZXZXSXSXSXSXSXSXSXAXSXAXAXAXAXBXBXBXBXBXBXBXeXBXBXBXBXBXAXAXAXAXSXSXSXSXZXZXVXVXVXVXzXzXgXgXpXpXb b x z 4 l 4 4 4 ; 4 ; ; ; ; ; 4 ; 1 4 4 7 7 7 x x x b m m pXpXgXjXgXzXzXzXzXVXzXVXVXVXVXVXVXVXVXZXVXZXVXZXZXZXZXVXZXZXVXZXVXVXVXVXVXVXVXVXVXVXVXzXVXzXzXzXjXgXjXpXm m b b z l 4 4 ; = & O O . O O O = ; ; 1 4 4 7 4 l 4 4 l 4 1 4 ; = = = = O O O O O . . . O O O O & & & ; ; 4 ; 4 4 7 7 7 l l l b l b b b b b b m b b b b b b x l l l l 7 4 4 1 < ; - - - - # - * o - # - * - < < < < < 3 3 3 3 6 3 3 6 4 5 6 5 6 6 4 3 5 5 r r y u g yXtXaXgXhXxXnXbXVXCXCXCXCXAXCXBXAXBXAX",
"rXBXBXBXBXBXNXNXNXCXCXCXbXMXbXbXxXxXvXhXdXdXfXdXdXsXdXsXdXdXdXhXdXkXhXlXkXkXkXkXvXkX4XvX4X4X4X6X5X4X>X>X>X-X-X%X%XXXU.K.G.A.j.d.3.<.>.;.-.K D D A S V V V V B B C C C Z Z Z P Z P P P P P P ` P P ` P P P ` P P P P P P Z Z P Z Z C Z C C B V B V V S V V D D D D D D D V A V V V V B B B C C Z C Z Z Z R Z P P I I I U P P P I I U I I I Z Z Z Z Z C Z C C C B B V V V V A A D J W W ;.>.4.4.4.j.Y.F.T.R.OX@X9X9X9XeX0XeXeXeXBXBXBXAXAXAXAXAXSXSXSXSXSXSXSXZXZXZXZXZXZXZXZXZXZXZXZXSXSXSXSXSXSXSXSXAXAXAXAXAXBXAXBXBXBXeXBXBXeXBXBXBXBXBXAXAXAXSXSXSXSXZXZXZXVXVXcXcXzXjXgXpXm m b z z l 4 4 4 4 ; ; 4 ; ; ; ; ; 4 ; 4 4 7 7 7 l x b b m m pXpXgXgXjXzXzXzXzXVXVXzXVXVXVXVXVXVXVXVXZXVXZXZXVXZXVXZXVXVXVXVXVXVXVXVXVXVXVXcXVXzXVXzXzXzXjXjXjXgXpXpXm b b z l 7 1 ; ; & O O . . O O = ; ; 4 4 4 l 7 7 l l 4 4 4 4 ; ; ; = = O O O O . . . . O O O O & ; & ; ; 4 4 7 7 l l l b b b m m m m m N N m pXm N m pXN m m m m b b x z z l r 6 r 3 < < - < - - - * - % - % * - < < ; < < < 3 < 3 3 5 3 3 3 3 5 4 5 r 9 9 q z u v k iXfXfXvXcXbXnXbXCXCXCXAXCXBXBXBXBXBXBX",
"rXrXrXrXrXBXBXBXNXNXNXCXNXMXmXMXmXxXxXkXlXkXdXdXfXdXdXdXdXdXdXdXhXdXjX|.dXkXkXkX XvXkX4X4X4X4X4X4X5X>X-X-X-X%X%X+XU.I.G.A.j.d.d.<.<.;.-.K D D V S V V V B B C C C C Z Z Z P Z P P P P P ` P ` P ` P P ` ` P ` P P P P P P P Z Z Z Z C C C B B V V V V V D V D V D D V A A V V V V V B C C C C C Z Z I Z I I P Y I P P P Y I U I P I I I I I Z P Z Z Z C C C B B V V V V V A A D J J -.;.>.>.4.4.j.h.Y.Y.R.+X+X@X9X0X9XeXeXeXBXBXBXAXBXAXAXAXSXSXSXSXSXSXSXSXZXSXZXZXZXZXZXSXZXZXSXSXSXSXSXSXSXSXSXAXSXAXAXAXBXAXBXBXBXBXBXeXBXBXBXBXBXBXAXAXAXAXSXSXSXSXZXZXVXVXcXVXcXzXzXgXpXpXb b b z l l 4 4 ; 4 4 ; 4 = 4 ; 4 ; 4 4 4 4 6 l l x x b b m yXpXgXgXgXzXgXzXVXzXzXVXzXVXVXVXVXVXVXVXVXVXVXVXVXVXVXVXVXVXVXVXVXVXVXVXVXcXVXVXzXVXzXzXjXjXjXjXgXpXm m b b z l 4 4 1 = = O O . . O O = = ; ; 4 1 l 4 7 l l 4 4 4 4 1 ; = = = O O O O . . . O O O & & ; ; ; 4 4 7 7 7 x l b b m m m N pXm jXpXpXpXpXjXpXgXpXjXpXpXpXpXpXpXm m m m b b c u r r r 6 5 < < < < < : - - - - - - * < - < < < < < 3 < < 3 3 6 3 5 9 q 9 z u g v iXiXfXhXxXxXnXbXMXCXCXmXAXCXBXBXBXBXrXrXrX",
"rXrXeXrXrXrXrXBXBXNXNXNXCXNXMXmXMXmXxXxXvXkXkXkXdXdXdXdX|.jXdXhX|.hX|.kXkX XkX XkX4X4X4X4X4X3X5X>X>X>X-X1X%X%X%XI.I.G.G.A.f.6.3.<.;.-.K J D A A V V V B B C C C C Z Z P Z P P P P U P ` P ` P ` ` ` ` P ` ` P ` ` P ` P P P P Z Z Z Z C C C B B V V V V V S V D D V S V V V V V V B B B C C Z Z Z Z Z I I I I I U I U I U I I U I P I I I Z P Z Z Z Z C Z C C B B V V V V V A D D J -.-.;.2.4.4.d.F.F.Y.T.OX@X@X@X9X0XeXeXeXeXBXBXBXAXAXAXAXAXAXSXSXSXSXSXSXSXZXSXZXZXZXSXZXZXSXZXSXSXSXSXSXSXSXSXSXAXAXAXAXAXBXBXBXBXBXBXBXeXBXBXBXBXBXBXAXAXAXSXSXSXSXZXZXZXVXVXcXcXzXjXgXpXpXm b z z l l 4 4 4 ; ; 4 ; 4 ; 4 ; 4 ; 4 4 4 7 7 l x x b b m m pXpXgXgXjXzXzXzXcXVXzXVXzXVXVXzXVXVXVXVXVXVXVXVXVXVXVXVXVXVXVXVXVXVXcXcXVXcXzXzXzXzXjXjXpXjXpXpXm m b b z l l 4 ; ; = O O O . O O O = ; ; 4 4 l 4 l l l 4 l 4 4 ; ; ; = = O O O . . . O O O & = ; ; ; 4 4 7 7 l b b b m m N N pXpXgXpXjXpXjXjXjXjXjXjXzXjXjXzXjXjXjXgXgXgXgXpXpXpXm m m v u x y r r r 2 < < < < < < < < < < < < < < < < 3 < 3 3 3 5 5 9 r 9 z d u v yXuXiXhXhXxXxXnXbXZXmXCXCXAXmXBXBXBXrXrXrXeXrX",
"eXeXrXeXeXrXrXrXrXBXNXBXNXCXNXMXmXmXMXmXvXnXvXkXkXkXkXkXhX|.hX|.hX|.kXkX XkX4XkX4X X4X4X4X;X6X5X>X>X-X-X&X%X+XU.I.K.G.A.f.d.3.<.:.-.W J D A S V V V B B C C C Z Z P Z Z P P P P ` P ` P ` ` ` ` ` ` ` ` ` ` ` ` P ` P P P P P Z P Z Z Z C C C B V V V V V V V V V V V V V V V V B B B C Z C C Z Z Z I I I P P P I U I P I U U I U I P I I P Z Z Z Z C Z C C B B V V V V V A A D J W J -.>.>.4.4.h.h.F.Y.R.OXOX@X9X9X0X0XeXeXeXeXBXBXBXAXAXAXAXSXSXSXSXSXSXSXSXSXZXSXZXSXZXZXSXZXSXSXSXSXSXSXSXSXAXSXAXAXAXAXAXBXBXBXBXBXBXeXBXeXBXBXBXAXBXAXAXAXSXSXSXSXZXZXVXVXVXVXzXzXzXgXgXm m b b z z 4 l 4 4 ; 4 ; 4 ; 4 ; 4 ; ; 4 4 4 7 7 l l x b b m m pXpXgXgXgXzXgXzXzXcXzXVXVXzXVXVXVXVXVXzXVXVXzXVXVXVXVXcXVXVXVXVXzXVXzXVXzXzXzXjXjXjXjXjXjXpXm m b b x l l 4 4 ; = = = O O . . O O & = ; ; 4 4 4 7 4 7 4 7 4 1 4 ; ; = O O O O . . O O O O = ; ; ; 4 7 7 l l b m m N N pXpXpXgXgXjXjXzXzXzXzXzXzXcXzXzXzXcXcXzXcXzXzXzXzXzXjXgXjXgXsXpXsXyXyXk yXc g y y r q 6 5 5 < < 3 < < < 3 3 3 < 3 3 3 3 5 9 9 r r q d u v b uXuXfXhXhXcXbXnXbXZXmXCXCXrXCXBXBXBXrXeXrXeXrXeX",
"qXeXqXeXeXeXrXrXrXrXBX8XNXBXNXNXmXmXmXmXmXvXbXvXvXkXvXkXkXkXkXkX XkX XkXkX4XkX4X4X4X4X4X;X6X>X>X>X-X-X<X%X%XXXI.I.G.A.j.d.6.<.:.;.W J D A A V V V B B B C C C Z Z Z P P P P P ` P ` ` ` ` ` + ` + + + + ` + ` ` ` ` ` ` P P U P Z P Z Z Z C C B B B V V V V V V V V V V V V V B B B C C C Z Z Z R P Z I I Y P P P I U P U I I U I I Y P I Z P Z Z Z Z C C C C B B V V V V V A A D J -.-.;.>.4.4.d.A.A.F.Y.R.+X@X@X9X0XeX9XeXeXBXeXBXBXAXAXAXAXAXAXSXSXSXSXSXSXSXSXZXSXZXSXZXSXSXSXSXSXSXSXSXSXSXSXAXAXAXAXAXBXAXBXBXBXBXeXBXBXBXBXBXBXBXAXAXAXAXSXSXSXSXZXZXZXVXVXcXcXzXjXgXpXpXm b z z l l 4 4 4 4 ; 4 ; ; ; ; 1 4 ; 4 4 4 4 l 7 l x x b b m m pXgXpXgXjXzXzXzXzXcXzXzXVXzXVXzXVXVXVXVXVXVXVXVXVXzXVXVXzXVXzXVXzXVXzXzXzXjXjXjXjXpXpXpXpXm m b z l l 4 4 ; ; = O O O O . O O O = = ; 4 ; 4 4 7 4 7 4 4 4 4 ; ; = = O O O . . O O & ; ; ; ; 7 7 l l b b b m N pXpXpXjXgXjXjXzXzXzXzXcXcXcXcXcXcXcXVXcXcXcXcXcXcXcXcXzXzXcXzXzXjXzXjXsXgXsXiXiXtXyXj c g c y y r r q 5 6 q 3 5 3 5 9 5 9 9 9 9 q z q u c v k tXuXfXfXhXxXxXxXVXbXCXmXCXCXBXCXrXBXrXeXrXrXeXeXqXeX",
"qX0XqXqXqXqXqXqXrXrXeXBXBXwXNXNXNXmXNXmXmXmXmXvXmXvXbXkXvXvXvX XvXvXkXvX4XvX4X4X4X4X>X4X6X5X5X>X-X1X-X%X%XoXU.I.G.A.j.d.6.<.>.;.W K D A S V V V B B C C C Z Z Z Z P P P P P ` ` ` ` ` + + + + + + + + + + + + + ` ` ` P ` P P P P P Z Z Z C C C B V B V V V V V V V V V V V V B B B C C C Z Z Z Z Z I I U I I U I U P U P I U I I U I I Z P Z Z Z Z C Z C C B B V V V V V A A A J J J -.;.>.2.4.d.h.F.Y.R.R.+X+X@X9X9X9XeXeXeXeXBXBXBXBXAXAXAXAXSXSXSXSXSXSXSXSXSXSXSXZXSXSXZXSXSXSXSXSXSXSXSXSXAXSXAXAXAXAXAXBXBXBXBXBXBXBXeXBXBXBXBXBXAXAXAXSXSXSXSXZXZXZXVXVXcXVXcXzXjXgXgXm m b b z z 4 7 4 4 ; 4 ; ; ; ; ; 1 ; 4 ; 4 4 7 4 7 l x x b b b m yXpXgXgXgXjXgXzXzXzXzXVXzXVXzXVXVXzXVXVXzXVXzXVXzXVXVXzXVXzXVXzXzXzXjXjXjXjXjXjXpXpXm m b b x z l l 4 4 ; ; = & O O . . . O O O & ; ; ; 4 4 4 4 4 4 4 4 ; ; = = O O O . . O O O & ; ; ; 4 7 7 l l b m m pXpXpXpXgXjXzXzXzXzXzXcXcXcXcXcXVXVXVXVXVXVXVXVXVXVXVXVXVXVXVXVXzXVXzXcXcXzXzXjXhXfXfXaXtXaXtXtXv v c g g y u y r q r q u r r u r d u u u v v k tXiXdXfXfXlXxXxXnXbXbXZXmXAXmXAXmXBXBXrXrXeXeXqXqXqXqX0X",
"0X0X0X0X0XqXqXqXqXrXrXeXBXNX8XBXNXNXmXmXmXmXmXmX7XmXvXmXvXvXvXbX4X4X4XvX4X4XvX6X4X6X6X>X5X>X2X2X-X-X,X%X+XI.I.G.Z.A.f.a.3.<.:.-.K D D A V V V V B C C C Z C P Z P P U P ` ` P ` ` + + + + + @ @ @ @ @ + @ @ + + + ` ` ` ` ` P P P P P Z Z Z C C C B V B V V V V V V V V V B V B B C C Z C Z Z Z I I I I I P P P U I U I U P P U I I I I I Z P Z Z Z Z C Z C C B B V V V V V A A D J W -.;.>.2.4.4.j.A.F.Y.R.OX@X9X9X9X9XeXeXeXeXBXBXBXBXAXAXAXAXAXSXSXSXSXSXSXSXSXSXSXSXZXSXSXSXSXSXSXSXSXSXSXAXSXAXAXAXAXAXAXBXAXBXBXBXBXBXBXBXBXBXBXBXAXAXAXAXSXSXSXSXZXZXZXVXVXcXzXzXzXgXpXpXm b z z l l 4 4 4 4 ; 4 ; ; ; ; ; ; 1 1 ; 4 4 l 7 7 l x x b m m m yXpXgXgXgXjXzXgXzXzXzXzXcXVXzXzXVXzXzXVXzXVXzXVXzXVXzXzXzXzXzXjXjXjXjXgXpXpXpXm m m b b z z l 4 4 4 ; = = = O O . . . O O O & = = ; ; 4 ; 4 4 4 4 ; ; ; = = O O . . . O O O ; ; ; 4 7 7 l b b m m pXpXpXjXjXjXzXzXzXcXcXcXVXVXVXVXVXVXVXVXVXVXZXVXZXVXZXVXZXVXVXVXVXVXVXVXVXcXcXcXcXxXlXlXhXjXjXaXaXaXaXtXtXtXk k g g g c g u u g u g v u v v tXtXuXuXfXdXfXlXxXxXxXbXMXMXCXmXCXNXCXrXBXrXrXeXeXeXqXqX0X0X0X0X",
"9X9X9X1X0X0X0XqXqXqXqXrXeXeXrXNXrXmXrXNXNXmXmXmXmX8XmX7XmXvXmX4XbXbXvX6XbX6X6X6X6X5X5X6X>XqX>X-X-X<X%X+XU.I.G.G.A.f.d.3.<.:.-.W D D V S V V V B C C C Z C P Z P P P P ` P ` ` + + + + + + @ @ @ @ @ @ 7.@ @ @ @ + + + ` ` P ` P P P I I Z Z Z C C B B B V V V B V V V B V V B B B C C C Z Z Z I I I P P I P P P I U P P P P P I P I I P Z P Z Z Z Z C Z C C B B V V V V V A A D J J W W ;.>.>.4.d.h.A.F.Y.R.+X+X@X@X9XeX9XeXeXeXeXBXBXAXBXAXAXAXSXAXSXSXSXSXSXSXSXSXSXSXSXSXSXSXSXSXSXSXSXSXSXSXSXAXAXAXAXAXAXBXBXBXBXBXBXBXBXBXBXBXBXAXAXAXAXSXSXSXSXZXZXZXVXVXVXVXcXzXjXgXgXm m b b z l 7 7 4 4 ; 4 ; ; ; ; ; ; ; 1 ; 1 4 4 4 4 l l l b x b b m m pXgXpXgXgXgXzXzXzXzXzXzXzXzXVXzXzXVXzXVXzXVXzXzXzXzXzXzXjXjXjXjXjXgXpXpXm m m b b z z l 7 4 4 ; ; = = & O O O . . . O O O O = = ; ; ; ; 1 ; ; ; ; = = = O O O . O O O O ; 4 ; 7 7 l x m m N pXpXpXjXjXzXzXzXzXcXcXcXVXVXVXVXVXVXVXZXZXZXZXZXZXZXZXZXZXZXZXZXZXZXZXZXVXZXVXVXVXnXVXcXcXxXzXvXhXjXjXhXaXdXaXaXiXiXiXtXtXk tXk k tXk yXk tXuXuXuXaXfXfXfXlXlXxXxXnXbXMXmXmXmXAXmXCXBXrXrXBXeXrXqXqX0X0X0X1X0X<X",
"<X<X<X<X<X<X0X0X0XqXqXqXrXeXeXwXBXrXNXwXNXNXrXmXmXmXmXmX8XmX6XmX6X6XmX4X6X8X6X6X6X6X5XqX>X1X-X1X<X%X+XoXI.I.G.A.j.f.3.<.>.;.W K D A A V V V B B C C Z C R Z P P P ` P ` ` ` + + + + @ @ @ @ @ @ @ @ @ @ @ @ @ @ @ + + + ` ` ` ` P P P P Z Z Z Z C C B B B B V V V B V V B B B B C C C Z Z Z Z Z I I Y P P P P P P P P P P P P I I I I Z P Z Z P Z C Z C C C C B B V V V V V A A D J J -.;.>.2.4.4.h.F.F.Y.T.R.+X@X9X9X9XeXeXeXeXBXeXBXBXAXAXAXAXAXSXAXSXSXSXSXSXSXSXSXSXSXSXSXSXSXSXSXSXSXSXSXAXSXSXAXAXAXAXBXAXBXBXBXBXBXBXBXBXBXBXBXBXAXAXAXAXSXSXSXSXZXZXZXVXVXcXcXzXzXgXpXpXm b z z l 7 4 4 4 ; ; ; ; ; & ; ; ; ; 1 ; 4 4 4 7 7 7 l x c b b m m m pXgXgXgXgXgXjXzXzXzXzXzXzXzXzXzXzXzXzXzXzXzXzXjXjXzXgXjXgXgXpXpXpXpXm m b b z z l 7 4 4 4 ; ; = = O O O O . . . . O O O & & = = = ; ; ; ; = = = O O O O . . O O ; ; ; 4 4 l l b b m m pXpXjXjXjXzXzXcXcXcXVXVXVXVXVXVXVXZXZXZXZXZXZXZXZXZXZXZXSXZXZXSXZXZXZXZXZXZXZXZXZXZXZXVXnXMXcXnXbXcXvXxXxXjXxXsXhXhXdXfXaXaXaXaXiXiXuXiX^.iXdXsXfXfXhXhXhXlXxXxXxXxXMXbXMXMXCXCXAXmXAXrX8XBXeXeXeXqXqX0X0X1X<X<X<X<X",
"@X@X@X<X<X<X<X1X1X0XqXqXqXqXeXrXwXrXrXNXrXrXmXrXmX8XNX8X8XmX8XmX6XmX6XrX6X6X6XqX6X>XqX>XqX-X1X1X%XoXoXI.I.G.F.j.f.3.1.<.;.-.K D A V V V V B B C C C Z P Z P P P ` P ` ` + + + + @ @ @ @ 7.@ @ 7.@ @ @ @ @ @ @ @ @ @ + + + ` ` P ` U P P Z I Z C C C B B B V B V B V B V B B C B C Z C C Z Z I I I I I I P P P P P P P P P Y P I I P Z P Z P Z Z C Z Z C C C B B V V V V V A A D J J W W ;.>.<.4.d.h.h.F.Y.R.OX+X@X@X9X0X9XeXeXeXeXBXBXBXBXAXAXAXAXAXSXSXSXSXSXSXSXSXSXSXSXSXSXSXSXSXSXSXSXSXSXSXSXAXAXAXAXAXAXBXAXBXBXBXBXBXBXBXBXAXBXAXAXAXAXSXSXSXSXZXZXZXVXVXzXVXzXzXgXjXpXm m x b l l 7 4 4 ; 4 1 ; ; ; ; ; ; ; ; ; 4 ; 1 4 4 7 7 l l x x b b m m m pXpXpXgXgXgXgXgXzXgXzXzXzXzXzXzXzXzXjXzXjXjXjXjXgXjXjXpXpXpXm m b b b x z l 7 7 4 4 ; ; = = & O & O O . . . . . O O O O O & = = = = = = = = O O O . . O O O ; ; ; 4 7 l x m m pXpXpXgXjXzXzXzXzXcXcXcXVXVXVXVXVXZXZXZXZXZXZXZXZXZXSXSXSXSXSXSXSXSXSXSXSXSXSXSXSXSXZXZXZXZXZXZXVXVXbXnXbXnXnXvXxXxXxXvXjXhXhXhXhXfXfXhXfXhXfXhXhXfXhXhXhXhXlXxXxXxXxXMXbXMXMXmXCXmXAX8XAXrXrXBXeXrXeXqX0X0X1X<X<X<X<X<X@X",
"+X+X+X+X+X<X@X<X1X1X0X0XqXqXqXeXeXeXwXrXrXwXrXNXwXNX8X8X8XrX8XrX8X6XrX6XrX6XqX6XqXqX>X0X-X1X=X,X+X+XI.I.G.A.A.s.a.3.<.:.-.K K D A S V V V B C C C Z Z Z P P P P ` ` ` + + + @ @ @ @ @ 7.@ @ 7.@ 7.@ 7.@ 7.@ @ @ @ @ @ + + + ` ` P P U P P Z I Z Z C C B B B B B V B V B B B B C C C Z Z Z Z Z I I I I U I P P P P I U I I I I I I Z P Z Z Z Z Z Z C Z C C C B B V V V V V V A A D J J -.;.>.<.2.4.h.F.F.Y.T.R.+X+X9X9X9XeX9XeXeXeXBXBXBXBXAXAXAXAXAXSXAXSXSXSXSXSXSXSXSXSXSXSXSXSXSXSXSXSXSXSXAXSXAXAXAXAXAXAXBXBXBXBXBXBXBXBXBXBXBXBXAXAXAXAXSXSXSXSXZXZXZXVXVXVXzXzXzXjXpXgXm m b z z l 4 4 4 4 ; ; ; ; ; ; ; ; ; ; = ; 1 1 1 4 4 7 7 l l x x b b m m m pXpXgXgXgXgXgXgXjXgXjXgXzXgXzXgXgXzXgXgXjXgXgXpXpXpXpXm m b b b z z l 7 7 4 ; ; ; ; O ; O & O O O O . . . . . . O O O O O O & & & & O O O O O . O O O = = ; 4 7 l x b m m pXpXjXjXjXzXzXcXcXVXVXVXVXVXVXZXZXZXZXZXZXZXSXSXSXSXSXSXSXSXSXSXSXSXSXSXSXSXSXSXSXSXSXSXSXSXZXSXZXZXmXZXbXnXbXvXnXvXnXvXcXvXcXxXxXlXvXlXhXxXhXxXhXxXlXxXxXxXxXxXxXMXxXMXMXMXNXMXCXNXCX8XAX8XBXrXeXrXqXqX0X0X1X<X<X<X+X+X+X+X",
"R.+XR.+X+X+X+X@X<X<X1X1X0X0XqXqXqXwXeXeXwXrXrXwXrXrXwXrXrX6XrX6XwXrXwX6XqX6X5XqX2X5X0X-X1X1X,X,X+XU.I.G.F.A.f.d.3.<.:.-.W K A S V V V B B C C C Z Z Z P P ` P ` ` ` + + + @ @ @ @ 7.@ @ 7.7.7.7.7.7.7.7.@ @ 7.@ @ @ @ @ + + ` ` ` ` U U P I Z Z C C C C B B B V B V B B B B B C C C Z Z Z Z I I I I P I I P P Y I U I P I I I P Z P Z P Z Z Z C Z Z C C C B B V V V V V V A A D J J J -.;.>.>.4.4.h.h.F.Y.R.R.+X@X@X9X9X9XeXeXeXBXeXBXBXBXAXAXAXAXSXAXSXSXSXSXSXSXSXSXSXSXSXSXSXSXSXSXSXSXSXSXSXAXSXAXAXAXAXAXAXAXBXBXBXBXBXBXBXBXBXAXAXAXAXSXSXSXSXSXZXZXVXVXVXVXVXzXzXgXgXpXm b b b l 7 7 7 ; 4 ; ; = ; ; ; ; ; ; ; ; ; 1 ; 1 4 1 7 7 7 l x x x b b m m m pXpXpXpXgXgXgXgXgXgXjXgXgXgXgXjXgXgXjXpXpXpXm m m b m b b z l l 7 4 4 4 ; ; ; ; & ; & O O & O O O . . . . . . . O O O O O O O O O O . . . . O O O = ; 4 4 l l b m m pXpXpXjXzXzXcXcXcXcXVXVXVXVXZXZXZXZXZXZXZXZXSXSXSXSXSXSXSXSXSXSXSXSXSXSXSXSXSXSXSXSXSXSXSXSXSXSXSXSXSXCXZXmXZXmXmXZXvXZXvXnXbXbXbXbXxXbXxXxXxXxXxXxXxXxXxXxXxXxXnXbXbXMXMXbXNXbXMXCXNXNXNXBX8XBXeXeXrXqXqX0X0X1X<X<X@X+X+X+XOXOX",
"R.T.R.R.R.R.+X+X+X@X<X<X1X0X0X0XqXqXqXwXeXwXwXrXeXwXrXwXrXrXwXrX6XwXwXwX5XqXqX5XqX1X-X1X,X,X%XXXXXR.G.G.C.j.a.3.3.:.:.-.K D F V V V V B B C C Z Z P Z P P P ` ` ` + + + @ @ @ 7.@ 7.7.7.7.7.7.7.7.7.7.7.7.7.@ 7.@ 7.@ @ + + + ` ` ` P P P I I Z Z C C C C B B B B B B B B C C C C Z C Z Z P Z Z P I I P I I P I P I P I I I I Z P Z Z Z Z Z Z Z C C C C C B B V V V V V V A A A D J -.W ;.>.>.4.4.h.A.F.F.Y.R.+X+X9X9X9XeX9XeXeXeXBXBXBXBXBXAXAXAXAXSXAXSXSXSXSXSXSXSXSXSXSXSXSXSXSXSXSXSXSXSXSXSXAXAXAXAXAXAXBXBXAXBXBXBXBXBXBXBXAXBXAXAXAXAXSXSXSXSXZXZXZXVXVXVXcXzXzXjXgXpXm b x z l 7 4 4 4 ; ; ; ; ; = = = = = ; ; ; = 1 ; 1 1 4 4 7 l l x x x b b b m m m pXpXpXgXpXpXgXgXpXgXgXpXgXpXpXpXpXpXm m m b b b z z l l 7 4 4 4 ; ; ; ; O ; O O O & O O O & O . . . . . . . . . . . O O . . . . O O O O O = ; ; 4 7 l x b m pXpXgXjXjXzXzXcXcXVXVXVXVXVXZXZXZXZXZXZXSXSXSXSXSXSXSXSXSXSXSXSXSXSXAXSXSXSXSXSXSXSXSXSXSXSXSXSXSXSXSXSXSXSXSXZXmXZXmXmXZXmXmXmXnXmXnXbXbXbXnXbXbXbXbXbXnXxXMXbXbXMXbXMXMX7XCXCXMXNXNXNXNXNXBXrXrXeXrXeXqXqX0X1X1X<X@X+X+XR.R.R.R.R.",
"T.T.T.T.T.R.R.R.+X+X,X<X<X1X1X0X0X0XqXqXqXqXeXqXwXwXwXrXwXwXwXqXwXqXwXqXqXqX5XqX1X-X<X1X,X,X+XXXR.K.G.A.j.f.3.3.<.:.-.K F S V S V V B C C C Z C P Z P P ` ` ` ` + + @ @ @ @ 7.@ 7.7.7.7.7.7.7.7.7.7.7.7.7.7.7.@ 7.@ @ @ @ + + ` ` P ` U P I I I Z Z C C C B C B B B B C B B C C C C Z Z Z Z Z P I I P I I P I P I I Z I P I Z P Z I Z Z Z C Z C Z C C C B V V V V V V V A A A D J J J -.;.>.>.4.4.h.h.F.Y.R.R.+X@X@X9X9X9XeXeXeXBXeXBXBXBXAXAXAXAXAXAXSXAXSXSXSXSXSXSXSXSXSXSXSXSXSXSXSXSXSXAXSXAXSXAXAXAXAXAXAXAXBXBXAXBXBXBXBXAXBXAXAXAXAXSXSXSXSXZXZXZXVXVXVXcXcXzXjXjXpXpXm b b z l 7 4 4 4 ; ; ; ; = = = = = = = = ; ; ; ; ; 1 1 1 7 7 7 l l x x b b b b m m m m m pXpXpXpXpXpXpXpXpXm m m m m b b b b z l l 7 7 7 4 4 ; ; ; ; & & ; & O O & O O O & O O O O O O . O . . . . . . . . O O O O O O = ; ; ; 7 7 x b m pXpXgXgXzXzXcXcXcXVXVXVXVXVXZXZXZXZXZXZXSXSXSXSXSXSXSXSXSXSXSXSXSXSXSXSXSXSXAXAXAXAXAXAXAXAXSXAXSXSXSXSXSXSXAXSXNXNXSXNXZXSXmXmXmXZXmXZXmXbXMXbXCXbXbXbXnXbXbXCXbXMXmXbXCXbXNXMXCXMXNXNXNXNXNXBX8XBXeXrXqXqXqX0X1X1X<X@X+X+XR.R.T.T.T.T.",
"F.F.F.Y.Y.Y.R.R.R.+X+X+X<X<X<X1X1X0X1XqXqXqXqXqXqXqXqXwXqXwXqXwXqXqXqX2XqX0X1X1X1X1X<X,X+X+XXXR.G.G.A.A.s.6.3.<.:.-.W K A S V V V B B C C Z Z P Z P P ` P ` ` + + + @ @ 7.@ 7.7.7.7.7.7.7.8.7.8.7.8.7.7.7.7.7.7.@ 7.@ @ @ @ + + ` ` P ` P P I Z Z Z C C C B B B C B B B C C C C Z C Z Z P Z P Z P I I P I I I I I I P Z Z I Z Z Z Z Z Z Z Z C C C C C C B V V V V V V V A A A D D J W -.;.>.2.4.4.h.A.F.Y.Y.R.+X+X@X9X9X9XeX9XeXeXBXBXBXBXBXAXAXAXAXAXSXSXSXSXSXSXSXSXSXSXSXSXSXSXSXSXSXSXSXSXSXSXAXAXAXAXAXAXAXBXAXBXBXBXBXAXBXBXAXAXAXAXAXSXSXSXSXSXZXZXZXVXVXVXzXzXzXgXgXpXm b z z l 7 4 4 ; ; ; ; = = = = = = = = = = ; ; ; ; 1 1 1 1 4 7 7 l l x x x b b b b m m m m m m m pXm m m m m b b b b b z z l l l 7 4 4 ; ; ; ; = & = ; O O & O & O & O & O O & O O O O O O O O O . O O O O O O O & = ; ; ; 7 7 l b b pXpXpXjXzXzXzXcXcXVXVXVXVXVXZXZXZXZXZXZXSXSXSXSXSXSXSXSXSXSXSXSXSXAXSXAXAXAXAXAXAXAXAXAXAXAXAXAXAXAXAXAXAXAXSXAXAXAXAXAXNXNXNXmXNXZXNXmXmXmXNXmXmXmXmXmXCXmXmXbXCXbXCXbXCXmXmXCXCXNXNXNXNXNXNXNXrXrXeXrXeXqXqXqX1X1X<X<X+X+XOXR.R.Y.T.Y.F.F.",
"F.j.F.A.Y.F.Y.Y.R.R.R.+X+X+X@X<X<X1X0X1X0X0X0XqXqXqXqXqXqXqXqXqXqXqX2XqX0X1X1X1X1X,X,X+X+XXXR.K.G.A.A.f.d.3.<.:.;.^ K S L V S V B B C C C Z Z Z P P ` P ` ` + + @ @ 7.@ @ 7.7.7.7.7.7.8.8.7.8.7.8.7.8.7.8.7.7.7.7.@ 7.@ @ + + + ` ` ` P U P I I Z Z Z C C C B C B B B C B C C C C Z Z Z Z Z Z Z P Z P Z P Z P Z I I Z I I I Z Z Z Z Z C Z C Z C C C B V V V V V V V V V A A D D J J W -.-.>.<.4.4.h.h.F.Y.Y.R.+X+X@X9X9XeX9XeXeXeXeXBXBXBXBXAXAXAXAXSXAXSXSXSXSXSXSXSXSXSXSXSXSXSXSXSXSXSXSXSXSXAXSXAXAXAXAXAXAXAXBXBXAXBXAXBXBXAXAXAXAXAXAXSXSXSXSXZXZXZXVXVXVXcXzXzXzXgXpXm m b b l l 4 7 ; ; ; ; ; = = = = = = = = = = = = ; ; ; ; 1 1 4 4 6 7 7 l l x x x x b b b b b b b m b b m b b b b b x z l l l 7 7 4 4 ; ; ; ; ; & = ; = O & O O O O O O O O O O O O O O O O O O O O O O & O O & & ; ; ; ; 4 7 l z b m pXpXgXzXzXcXzXcXVXVXVXVXZXZXZXZXZXZXSXSXSXSXSXSXSXSXSXSXSXSXAXSXAXAXAXAXAXAXAXAXAXAXAXAXBXAXAXBXAXAXAXAXAXAXAXAXAXAXAXAXNXNXNXNXNXNXNXmXNXNXmXmXmXAXmXmXCXmXCXmXCXmXCX8XCXCXmXCXNXNXNXNXBXNXNXrXBXeXrXrXqXqXqXqX0X<X1X<X+X+X+XR.Y.Y.T.F.F.F.A.",
"j.j.j.j.j.Y.A.Y.Y.T.R.R.+X+X+X,X<X<X<X<X1X0X1X0X0X0XqX0XqX1XqX1XqX1X0X1X1X1X1X<X,X,X,XXXXXR.K.Y.F.A.f.d.3.3.>.:.^ W K F V S B B B B C C Z Z Z P P P P ` ` + + + @ @ @ 7.7.7.7.7.8.7.8.7.8.8.7.8.7.8.7.8.7.7.7.7.@ 7.@ @ @ @ + + ` ` ` ` P P I I Z Z C Z C C C B C B C B C C C C Z C Z Z Z P Z P Z P Z I I I Z I Z P Z Z Z Z Z Z Z Z C Z C C C C C B B V V V V V V V V A A A A D J J -.-.>.>.>.4.4.h.F.F.Y.R.R.+X+X9X@X9X9XeXeXeXeXBXeXBXBXBXAXAXAXAXAXSXAXSXSXSXSXSXSXSXSXSXSXSXSXSXSXSXSXSXSXSXSXAXSXAXAXAXAXAXAXAXBXBXAXBXAXBXAXAXAXAXAXSXSXSXSXSXZXZXZXVXVXcXVXzXzXgXgXpXm b b z l 7 4 4 4 ; ; ; & = = = = = = = = = = = = = ; ; ; ; 1 1 1 4 7 7 7 7 l l x x x x x b b b b x b b x b z z z z l l 7 7 4 4 ; ; ; ; ; & ; O ; O O O O O O O O O O O O O O O O & O & & ; O ; ; ; ; ; ; = ; ; ; ; 4 7 7 l z b m pXpXgXjXzXzXcXcXVXVXVXVXZXZXZXZXZXZXSXSXSXSXSXSXSXSXSXSXSXSXSXAXAXAXAXAXAXAXAXAXBXBXBXBXBXBXBXBXBXBXBXBXBXBXBXAXAXBXBXBXAXBXAXNXNXNXNXNXNXNXmXrXCXNXmX8XCXmXmXmXmXCX8XCX8XCX8XCXNXNXNX8XNXNX8XNXrXrXwXrXqXeXqXqX0X0X<X1X@X@X+XR.R.T.Y.Y.j.j.j.j.j.",
"d.d.d.d.f.j.j.j.Y.F.Y.T.R.R.+X+X+X+X<X<X<X<X1X1X1X0X1X0X1X0X1X0X1X1X1X1X1X1X,X,X,X+XXXXXR.G.G.A.A.f.d.3.1.<.:.^ K K F S B S B S B C C Z Z Z P P P ` ` ` + + @ @ @ @ 7.7.7.7.7.8.7.8.8.8.8.8.8.8.8.8.8.7.7.7.7.7.7.@ 7.@ @ + + + ` ` ` P U U U Z P Z Z C C C C C B B B C C C C Z C Z Z Z P C P Z P Z Z P Z Z P Z P Z Z Z Z Z Z Z Z C Z C C C C B B V V V V V V V V V V A A A D J J W W -.;.>.4.4.h.h.h.F.Y.Y.R.+X+X+X9X9XeX9XeXeXBXeXBXBXBXBXAXAXAXAXAXAXSXSXSXSXSXSXSXSXSXSXSXSXSXSXSXSXSXSXSXSXAXSXAXSXAXAXAXAXAXAXBXAXBXBXBXAXAXAXAXAXAXSXSXSXSXZXZXZXVXVXVXVXcXzXgXzXpXpXm b b z 7 7 7 ; ; ; ; O ; & = = & O & O O = = = = = & ; ; ; ; ; 1 4 4 4 4 7 7 7 l l l l x x l x l x z z z z l l 7 l 4 7 4 4 ; ; ; ; ; & & = = = O O O O O O O O O O O O & O & = & = ; ; ; ; ; ; ; ; ; ; ; 4 4 4 4 7 l l z b b pXpXpXgXzXzXzXcXcXVXVXVXZXZXZXZXZXZXSXSXSXSXSXSXSXSXSXSXSXSXAXAXAXAXAXAXAXAXAXBXBXBXBXBXBXBXBXBXBXBXBXBXBXBXBXBXBXBXBXBXBXBXBXBXrXrXrXNXrXNXrXNXrXmXrXmXBXCXmXrXmXBXCX8XNXNXNXNXNXNX8XBXNXNXBXNXrXrXrXeXrXrXqXqXqX0X1X<X1X@X@XOXR.R.Y.F.Y.j.j.j.j.d.d.",
"3.6.d.6.d.d.j.j.j.Y.Y.Y.Y.R.R.+X+X+X+X<X<X<X<X<X1X<X1X1X1X1X1X<X1X1X<X<X,X@X,X+X+XXXR.R.K.Y.F.A.j.d.6.3.<.:.-.-.K F S V S B B B C C C Z Z P P P ` P ` + + + @ @ 7.@ 7.7.7.8.7.8.8.8.8.8.8.8.8.8.7.8.8.8.7.7.7.@ 7.7.@ @ @ @ + + + ` ` ` P P I Y Z Z Z Z C C C C C C B C C C C C Z C Z Z Z P Z Z Z P Z Z P Z Z Z Z Z Z Z Z C Z C Z C C C C C B B V V V V V V V V V V A A A A D J J J -.-.>.>.<.4.4.j.F.F.Y.R.R.+X+X9X@X9X9XeX9XeXeXBXBXBXBXBXAXAXAXAXAXSXAXSXSXSXSXSXSXSXSXSXSXSXSXSXSXSXSXSXSXSXSXSXAXAXAXAXAXAXAXAXAXAXAXAXAXAXAXAXAXAXSXSXSXSXSXSXZXZXZXVXVXVXcXzXzXgXgXpXm b x l l 4 4 4 ; ; O ; O ; O O & O O & O O O & = = = = & ; ; ; ; ; 1 1 4 4 4 7 7 7 l l 7 l l l l l l l l 4 l 4 4 4 4 ; ; ; ; ; & = & ; & = O O O O O O O O O O & & & ; & ; ; ; ; ; ; ; 4 4 4 4 7 4 7 7 7 7 l l l z x b b m pXpXgXjXzXzXzXVXVXVXVXZXZXZXZXZXSXSXSXSXSXSXSXSXSXSXSXSXAXAXAXAXAXAXAXAXBXBXBXBXBXBXBXBXBXBXBXBXBXBXeXBXBXBXBXBXBXBXBXBXBXBXBXrXBXrXrXrXrXrXrXrX8XrXrX8XrX8XrXBX8XBX8XBXNXNXNXNXNXNXrXNX8XrXNXwXrXrXrXqXrXqXqXqX0X0X1X<X<X@X@XOXOXR.Y.Y.A.A.f.d.d.d.4.3.",
"3.3.3.3.4.6.d.d.j.j.A.Y.F.Y.T.R.R.OX+X+X+X@X@X<X@X<X<X<X<X<X<X<X<X@X,X,X@X,X+X+XXXI.R.G.Y.F.A.j.d.d.3.<.:.;.-.K L S S S B S B C C C Z Z Z P P P P ` ` + @ @ @ @ @ 7.7.7.7.7.8.8.8.8.8.8.8.8.8.8.8.8.7.7.7.7.7.7.7.@ @ @ + @ + + ` ` ` U U U U I Z I Z C Z C C C C B C C C C C Z C Z Z Z Z Z Z Z P Z Z P Z Z Z Z Z Z Z C Z Z C Z C C C C B B V V V V V V V V V V V V A A A D J J J W -.;.>.>.4.4.d.h.j.F.Y.Y.R.+X+X+X9X9XeX9XeXeXeXeXBXBXBXAXAXAXAXAXSXAXSXSXSXSXSXSXSXSXSXSXSXSXSXSXSXSXSXSXSXSXSXAXSXAXSXAXAXAXAXAXAXAXAXAXAXAXAXAXAXAXSXSXSXSXSXZXZXZXVXVXVXcXzXzXzXgXpXm m b z l 7 7 ; ; ; ; ; O ; & O & O O & O O & O O & O = = = = & ; ; ; ; ; 1 1 4 4 4 4 4 4 7 4 7 4 l 4 4 4 4 4 4 4 1 ; ; ; = ; = O ; = = & & O O O O O O O O & & ; = & & ; ; ; ; ; 4 ; 7 4 7 7 l l l z l x l x x b b b m pXpXpXgXjXzXzXzXzXVXVXVXZXZXZXZXZXSXSXSXSXSXSXSXSXSXSXSXSXSXAXAXAXAXAXAXBXBXBXBXBXBXBXBXBXBXeXBXBXeXBXBXeXBXeXBXeXeXBXeXBXBXeXBXBXBXrXeXrXrXrXwXrXrX8XeXrX8XrXrXwXBX8XBX8XBX8XBX8XBXwXNXrXNXrXrXrXeXrXrXrXqXrXqXqX0X0X0X1X<X<X@X+XOXR.T.Y.Y.A.j.f.d.d.3.3.3.3.",
"<.<.<.<.3.3.4.6.d.f.j.A.Y.Y.Y.Y.T.R.R.+XOX+X+X+X<X+X<X<X@X<X,X,X@X,X@X,X+XXXXXR.R.R.Y.Y.A.A.j.d.6.3.<.,.:.-.W K F V S B S B S B C Z Z P P P P ` ` ` ` + + @ @ 7.7.7.7.8.8.8.8.8.8.8.8.8.8.8.8.8.8.7.8.7.7.7.7.7.@ 7.@ @ @ + + + ` ` ` U U P P I I Z Z Z C Z C C C C B C C C Z C C Z Z Z Z Z Z Z Z Z Z Z Z Z Z Z Z Z C Z C C C C C C B B V V V V V V V V V V V V A A A A A D J J J -.-.-.>.<.4.4.d.j.F.F.Y.R.R.+X+X9X9X9X9XeXeXeXeXBXeXBXBXBXBXAXAXAXAXAXSXAXSXSXSXSXSXSXSXSXSXSXSXSXSXSXSXSXSXSXSXSXAXSXAXAXAXAXAXAXAXAXAXAXAXAXAXAXAXSXSXSXSXSXSXZXZXZXVXVXcXcXcXzXgXgXpXm b x x 7 4 4 4 ; ; & & ; O O O O O O O O O O & O O O O O = = ; & = ; ; ; ; ; ; 1 ; 1 1 1 1 4 4 4 4 4 1 1 ; 1 ; ; ; ; ; O ; & = ; O & O O O O O O O O & & ; & & & ; ; ; ; ; 4 4 4 7 7 l l x x x b b b b b m b m m m pXpXpXjXjXjXzXzXVXVXVXVXVXZXZXZXZXSXSXSXSXSXSXSXSXSXSXSXAXAXAXAXAXAXAXAXBXBXBXBXBXBXBXBXBXeXBXeXBXeXeXeXeXeXeXeXeXeXeXeXeXeXeXeXBXeXBXeXrXrXeXeXrXrXqX8XeXrXeXrXwXeXBXwXrX8XBXwXNXeXNXwXrXrXwXrXrXrXwXrXeXwXqXqXqXqX0X0X1X<X<X<X+X+X+XR.T.Y.Y.A.j.f.6.6.4.2.<.<.<.",
":.:.:.<.<.<.<.4.6.d.d.j.j.j.Y.F.Y.Y.R.T.OXOXOX+X+X+X+X+X+X+X+X@X+X@X+XOXXXR.R.R.T.Y.F.F.A.j.d.d.3.<.<.:.-.W L F S S S L B C C Z C Z R Z P P ` P ` + + @ @ 7.@ 7.7.7.7.7.8.8.8.8.8.8.8.8.8.8.8.7.8.7.7.7.7.7.7.@ 7.@ @ @ @ + + + ` ` + U U U P I I Z Z C Z C C C C C C C C C C C Z C Z Z Z Z Z Z Z Z Z C Z Z Z C Z C Z C C C C C B B V V V V V V V V V V V V V V A A A A D J J J W W -.>.>.<.4.d.h.h.j.Y.Y.R.R.+X@X@X9X9XeX9XeXeXeXeXBXBXBXBXAXAXAXAXAXSXAXSXSXSXSXSXSXSXSXSXSXSXSXSXSXSXSXSXSXSXSXSXSXSXAXSXAXAXAXAXAXAXAXAXAXAXAXSXAXSXSXSXSXSXZXZXZXVXVXVXVXcXzXjXgXpXpXm b x l 7 7 4 ; ; ; O ; O O O O O O O O O O O O O O & O O O O & = = = & ; = ; ; ; ; 1 ; 1 ; ; ; ; ; ; ; ; ; ; = = = = & ; & & & O O O O O O O O O & ; & & & & ; ; ; ; 4 4 4 7 7 l l x x b b b m m m m m pXpXpXpXpXgXpXjXjXzXzXzXzXzXVXVXVXZXZXZXZXSXSXSXSXSXSXSXSXSXSXSXAXAXAXAXAXAXAXBXBXBXBXBXBXBXBXBXBXBXeXBXeXeXeXeXeXeXeXeX0XeXeXeXeXeXeXeXeXeXeXeXeXBXqXeXeXeXeXqXrXqXeXeXeXwXeXeXwXeXrXeXeXrXeXrXeXrXwXrXrXeXwXeXrXwXqXqXqXqX0X0X0X0X<X<X<X+X+XOXR.Y.Y.Y.A.f.f.6.4.3.<.<.<.:.>.",
":.:.:.:.:.<.<.2.2.6.6.f.f.j.j.Y.Y.Y.Y.T.T.T.R.OXOXOXOXOX+X+X+XOXXXOXXXOXR.R.T.Y.Y.F.F.j.j.d.d.3.3.<.:.:.-.K F L V S B B S S C C Z P Z P P U ` ` ` + + @ @ @ 7.7.7.7.8.8.7.8.8.8.8.8.8.8.8.8.7.8.7.7.7.7.7.7.@ 7.@ @ @ @ + + + ` ` ` U U U U P P I I Z Z C C Z C C C C C C C C Z C Z C Z Z Z Z Z Z Z Z Z C Z C Z C C C C C C B B V V V V V V V V V V V V V V A A A A A D D J J J -.-.-.>.>.2.4.4.h.A.F.F.Y.R.+X+X+X9X9X9X9XeX9XeXBXBXBXBXBXBXAXAXAXAXAXAXSXSXSXSXSXSXSXSXSXSXSXSXSXSXSXSXSXSXSXSXSXSXSXSXAXAXSXAXAXAXAXAXAXAXAXAXAXAXSXSXSXSXSXSXZXZXZXVXVXVXcXcXzXzXgXpXm b b x l 7 4 ; ; ; = ; O O O O O O O O O O O O O O O O O & O O O O & = = = = = = ; ; O ; ; ; ; ; ; = = ; = = = = = = & & O & O O & O O O O O O & ; & & ; ; ; ; ; 4 4 4 7 7 l l x b b b m m m pXpXpXpXgXgXgXpXgXgXjXjXjXzXzXzXzXVXVXVXVXZXZXZXZXSXSXSXSXSXSXSXSXSXSXSXAXAXAXAXAXAXBXBXBXBXBXBXBXBXBXeXBXBXeXeXeXeXeXeXeXeXeXeX0XeXeXeX9XeX0XeX0XeX0XeXeXeX0XeXeXqXqXeXqXqXqXqXqX5XeX0XeXwXeXwXqXwXeXwXeXwXrXeXrXwXqXrXqXqXeXqXqXqX0XqX0X<X<X<X<X@X+X+XR.R.Y.Y.Y.A.f.f.6.6.2.2.>.:.:.:./ ",
"-.-.-./ :.:.>.>.2.2.4.6.d.f.j.j.j.Y.A.Y.Y.T.T.T.T.R.R.OXOXR.R.R.R.R.R.Y.R.Y.Y.Y.F.F.j.j.d.d.3.3.<.:.-.-.K L S S S S S S C C S Z Z Z P P U P ` ` + + @ @ @ 7.7.7.7.8.7.8.8.8.8.8.8.7.8.8.8.7.8.7.7.7.7.7.7.@ 7.@ @ @ @ + + ` + ` + U U U U U P I I Z Z Z C Z C C C C C C C C C C Z C Z C Z C Z C Z C Z C Z Z C C C C C C B B V V V V V V V V V V V V V V V A A A A A D J J J J W W -.;.>.>.4.4.d.h.h.F.Y.R.R.R.+X+X9X9X9X9XeXeXeXeXeXBXBXBXAXAXAXAXAXAXSXSXSXSXSXSXSXSXSXSXSXSXSXSXSXSXSXSXSXSXSXSXSXSXSXSXSXAXAXSXAXAXAXAXAXAXAXAXSXSXSXSXSXSXZXZXZXVXVXVXVXcXzXzXgXgXpXm m x z 7 4 4 ; ; O ; O O O O O O O O . . . . . . . O O O O O O O O O O O O = & = = & ; = = = = & ; = ; = = & & & & O O O & O & O O O O O & & ; & & & ; ; ; ; 4 4 4 7 7 l l x b b m m pXpXpXpXgXgXjXgXjXjXjXzXzXjXzXzXzXzXzXzXVXVXVXZXZXZXZXZXSXSXSXSXSXSXSXSXSXSXAXAXAXAXAXAXAXBXBXBXBXBXBXBXeXBXBXBXeXeXeXeXeXeXeXeXeXeX9XeXeX0XeX0XeX0XeX0XeX0XeX0XeX0XeX0XqXqXqX0X0XqX0XqX0XqX0XqXqXqXqXqXqXqXqXqXqXeXqXqXqXqXqXqXqXqX0XqX0X0X0X<X9X<X<X@X@X@XOXR.R.Y.Y.A.A.f.f.6.6.2.>.<.:.:./ -.-.",
"^ L -.-./ / :.>.>.2.2.2.6.6.d.j.j.j.Y.A.Y.Y.Y.T.Y.T.T.T.T.T.R.T.R.Y.R.Y.F.Y.F.F.j.j.j.d.d.3.2.<.:.:.-.K K L S S S B B S S C Z Z P Z P U P ` ` + + @ @ @ 7.@ 7.7.8.7.8.7.8.8.8.7.8.8.7.8.7.7.7.7.7.7.7.@ 7.@ @ @ @ @ + + + + ` + U + U U U P Y P Z I Z C Z C C C C C C C C C C Z C Z C Z C Z C Z C Z C C C C C C C B B B V V V V V V V V V V V V V V V A A A A A A D J J J J W W -.;.>.>.4.<.4.h.h.F.F.Y.Y.R.+X+X9X+X9X9XeX9XeXeXeXBXeXBXBXBXAXAXAXAXSXAXSXSXSXSXSXSXSXSXSXSXSXSXSXZXSXSXSXSXSXSXSXSXSXSXSXSXSXAXAXAXSXAXAXSXAXSXSXSXSXSXSXSXSXZXZXZXVXVXVXcXcXzXzXgXpXpXm x x l 7 4 ; ; ; ; O O O O O O O . . . . . . . . . . . . . O O O O O O O O O O O O O O & & & = O O O O O O & O & O O & O O O O O O O & ; & & = ; ; ; ; ; 4 4 7 7 l l b b b m m m pXpXgXpXgXjXgXzXgXzXzXzXzXzXzXVXzXzXVXVXVXVXVXZXZXZXZXZXSXSXSXSXSXSXSXSXSXAXAXAXAXAXAXAXBXBXBXBXBXBXBXBXBXeXBXeXeXeXeXeXeXeXeX0XeX0XeX9XeX0X0X0X9X9X9X9X9X9X0X9X0X0X0XeX9X0X0X0X0X0X0X0X0X0X0X0X0X2X0XqX1XqXqXqXqXqXqXqXqXqXqXqXqX0XqX0X0X1X0X0X<X9X<X@X@X@XOXOXOXT.Y.A.Y.j.f.f.6.6.>.2.>.-./ / -.-.^ ",
"K L L L -.-.-.-.-.>.>.2.2.4.4.4.h.h.j.j.Y.A.Y.A.Y.Y.T.Y.T.T.Y.Y.Y.Y.A.Y.Y.F.F.j.j.j.d.4.4.2.<.>.:.-.-.K L S S S S S S C S Z Z Z Z P P P ` ` ' + + @ @ @ 7.7.7.8.7.8.7.8.8.7.8.8.8.7.8.7.7.7.7.7.@ 7.@ 7.@ @ @ @ + + + ` + ` + U + U U U U U I I I Z Z Z C Z C C C C B C C C C C C C C Z C Z C Z C C C C C C C C B V V V V V V V V V V V V V V V V A A A A A A D D J J J J W W -.;.;.>.>.>.4.d.h.h.A.Y.Y.R.R.+X+X+X9X9XeX9XeXeXeXBXeXBXBXBXAXAXAXAXAXAXSXSXSXSXSXSXSXSXZXSXSXZXSXSXSXSXSXSXSXSXSXSXSXSXSXSXSXSXSXSXSXAXAXSXAXSXSXSXSXSXSXSXSXZXZXZXZXVXVXVXcXzXzXgXgXpXm b b l 7 4 4 ; ; & & O O O O O . . . . . . . . . . . . . . . . . . . O O O O O O O O O O O O O O O O O O O & O O O O & O O O O O O & = & & & ; ; ; ; 4 4 7 7 7 7 b l b m m m pXpXpXgXgXgXzXzXzXzXzXVXzXzXzXzXzXVXzXVXVXVXVXVXZXZXZXZXZXSXSXSXSXSXSXSXSXSXSXAXAXAXAXAXAXAXBXBXBXBXBXBXBXBXBXeXBXeXeXeXeXeXeX0XeX0XeX0XeX0X0X0X9X9X9X9X9X9X9X9X9X9X9X9X9X0X9X9X0X9X0X9X1X0X0X0X1X0X1X0X0X1X1X0X1X0X0X0X0X0X0X0X0X0X0X0X0X0X1X0X0X<X<X<X@X@X@X@XOXOXT.Y.Y.Y.Y.A.f.d.6.6.>.1.>.:./ -.-.L L K ",
"K K F L L L L / / -.,.>.<.2.4.4.4.d.h.h.j.A.A.Y.A.Y.A.Y.A.Y.Y.Y.j.Y.Y.A.A.j.j.j.d.d.3.4.2.2.>.:.-.-.W F L S S S B S C S Z Z Z P P P U U + U + + @ @ 7.@ 7.7.7.7.7.7.8.8.7.8.7.7.7.7.7.7.7.7.@ 7.7.@ @ @ @ @ @ + + + + + ` + U + U U U U U I P I I Z Z Z Z C C C C C C C C C C C C C C C C C C C C C C C B B B V V V V V V V V V V V V V V V V A A A A A A A D D J J J J W W -.-.;.>.>.4.4.4.4.h.F.j.Y.Y.R.R.+X+X@X9X9X9XeX0XeXeXeXBXBXBXBXBXAXAXAXAXSXSXSXSXSXSXSXSXSXSXSXSXSXSXZXSXSXSXSXSXSXSXSXSXSXSXSXSXSXSXSXSXSXSXSXSXSXSXSXSXSXSXSXZXZXZXZXVXVXVXVXcXzXzXgXgXpXm b x l 7 4 ; ; & ; O O O O O . . . . . . . . . . . . . . . . . . O . . . . . O O O O O O O O O O O O O & O O & O O & O O O & O & = & = ; ; ; ; ; 4 4 4 l l l b b b m m N pXpXgXgXgXzXzXzXzXzXzXVXzXzXVXVXVXVXVXVXVXVXVXZXZXZXZXZXZXSXSXSXSXSXSXSXSXSXAXAXAXAXAXAXBXBXBXBXBXBXBXBXBXeXBXeXeXeXeXeXeXeXeX0XeXeX9XeX9X9X9X9X9X9X9X9X9X@X9X9X9X@X9X@X9X@X9X@X9X9X@X9X9X<X9X<X<X<X<X<X<X<X<X0X1X1X1X1X1X0X1X0X0X0X0X1X0X1X9X<X9X<X<X<X<X@X@X@XOXOXOXT.T.Y.Y.j.j.f.f.6.2.2.1.>.-./ / L L K L F ",
"K F K K F L L -.-.-.,.-.<.<.<.4.4.4.4.h.d.h.j.j.j.A.A.A.Y.j.Y.j.Y.Y.j.j.j.j.h.d.4.4.4.2.<.>.:.-.-.K L L S S S S S S C Z C L Z R P U U U U + + + @ @ @ 7.@ 7.7.7.7.8.7.7.7.7.7.7.7.7.7.7.7.@ 7.@ @ @ @ @ @ + + + + + + ` + U + U U U U U I P I I Z Z Z Z C C C C C C C C B C C C C C C C C C C C C C B B V V V V V V V V V V V V V V V V V A A A A A A A D D J J J J J W W -.-.-.>.<.>.<.4.4.h.h.j.Y.Y.Y.R.R.+X+X9X9X9X9X0XeXeXeXeXBXBXBXAXAXAXAXAXAXSXSXSXSXSXSXSXSXSXSXSXZXSXZXSXZXSXSXZXSXSXSXSXSXSXSXSXSXSXSXSXSXSXSXSXSXSXSXSXSXSXSXZXZXZXZXVXVXVXVXcXzXzXjXgXpXm m x l l 4 ; ; ; ; O O O O O . . . . . . . . . . O . O . . O . . . . . . . . . . . . . . . . . O O O O O O & O O & O O O O O & & & & ; ; ; ; 4 4 4 7 l l l l b m m m N pXpXpXjXgXzXzXzXzXzXzXzXVXzXVXVXVXVXVXVXVXVXZXZXZXZXZXZXZXZXSXSXSXSXSXSXSXSXAXAXAXAXAXAXAXBXBXBXBXBXeXBXBXBXeXBXeXeXeXeXeXeX0XeX0XeX0X9XeX9X9X9X9X9X9X9X@X9X@X9X@X@X@X@X@X@X@X@X@X9X@X@X9X@X<X<X@X<X@X<X<X<X<X<X<X<X@X1X<X1X<X<X1X1X1X<X<X1X<X<X<X<X<X<X<X@X@X@XOXOXOXOXT.Y.Y.A.Y.j.f.f.2.6.2.>.>.-./ -.K L K K A H ",
"A G D K F K L L -./ -.,.-.>.<.<.2.4.4.4.h.h.d.j.j.j.j.j.A.F.j.j.j.j.j.j.h.h.d.d.4.2.4.<.>.:.;.-.K -.F L F S S S S C L C P Z P P R U U + U + + @ @ @ @ 7.7.7.7.7.7.7.7.7.7.7.7.7.7.7.@ 7.@ 7.@ @ @ @ + + + + + + + ` U + U + U U U U U I U I I P Z Z Z C Z C C C C C B B C B C B C C C C C B C V B V V V V V V V V V V V V V V V V V V A A A A A A A A D J J J J J W W W -.-.;.>.>.>.4.4.4.h.h.F.j.Y.Y.R.R.+X+X9X@X9X9XeX9XeXeXeXBXBXBXBXBXAXAXAXAXSXSXSXSXSXSXSXSXSXSXSXZXSXZXSXZXSXZXSXSXSXSXSXSXSXSXSXSXSXSXSXSXSXSXSXSXSXSXSXSXSXSXZXZXZXZXZXVXVXVXcXcXzXzXgXgXm m x x l 4 4 ; ; & O O O O . . . . . O . O O O O O O O O & O O O O O O . . . . . . . . . . . O . . . O O O O O & O O O O O = = & ; ; ; ; ; 4 4 4 7 l l l b b m m N N jXpXjXjXjXzXzXzXcXcXcXVXVXVXVXVXVXVXVXZXZXZXZXZXZXZXZXZXZXZXSXSXSXSXSXSXSXSXSXAXAXAXAXAXBXBXBXBXBXBXBXBXBXBXeXeXeXeXeXeXeXeX0XeXeX0XeX9X0X0X9X9X9X9X@X9X@X9X@X@X@X+X@X@X+X@X+X@X+X@X@X+X@X+X@X@X@X+X@X@X@X@X<X@X<X<X+X<X@X@X1X@X1X<X<X@X<X<X<X<X<X<X<X@X@X@X@X@X+XOXOXOXR.T.Y.Y.A.F.h.h.d.4.4.2.>.,.,./ -.L L K F D K A ",
"A A H A F F L F / K / -.-.:.>.>.2.2.2.4.4.4.h.d.h.h.j.j.j.j.j.j.h.j.j.j.d.d.d.4.4.4.<.<.>.:.-.-.-.K L F S S S S S S C L Z Z P R P U U U + ` + + @ @ 7.@ 7.7.@ 7.7.7.7.7.7.7.7.7.7.@ 7.@ @ @ @ @ + + + + + ` + + U + + ` ` U U U U U I U I I P Z Z Z C Z C C C C B B B B V B V B V B V B V V V V V V V V V V V V V V V V V V V V A A A A A A A A D D J J J J J W W W -.-.-.;.>.>.>.<.4.4.d.h.h.j.Y.Y.Y.R.+X+X@X@X9XeX9X9XeXeXeXeXBXBXBXAXAXAXAXAXSXSXSXSXSXSXSXSXSXZXSXZXZXZXZXZXZXZXZXZXZXZXZXZXZXSXSXSXSXSXSXSXSXSXSXSXSXSXSXSXSXSXZXZXZXZXZXVXVXVXVXcXzXzXgXgXm m b x 7 7 4 ; ; ; O O O O . . . . O O O O O O O & O O O O O O O O & O O O O O O O O . . . . . . . . . . O & O & O O O O & & & & ; ; ; ; 4 4 4 l 7 l l b m m N pXpXN jXpXjXzXzXzXzXcXcXcXcXVXVXVXVXVXVXZXZXZXZXZXZXZXZXSXZXZXZXSXSXSXSXSXSXSXSXSXAXAXAXAXAXAXBXBXBXBXBXBXBXBXeXBXeXeXeXeXeX0XeXeX0XeX0X0X0X0X9X9X9X@X9X9X9X@X9X@X@X+X+X+X+X+XOXOXOXOXOXOXOXOX+XOX@XOX+X+X+X+X@X+X@X+X+X@X+X@X@X@X@X@X@X@X@X@X<X@X<X<X<X+X<X@X@X@X@XOX+XOXOXOXR.T.Y.Y.F.F.A.j.d.6.6.2.2.>.,.-.-.L L F K A K A A ",
"A A A J S D F L F / / -./ -.:.>.<.2.2.2.4.4.d.h.d.h.h.j.j.h.j.j.j.h.h.d.h.4.d.4.2.2.2.>.>.;.;.W W W F L F S V S B S Z S Z ~ Z P P U U U + + + + @ @ @ 7.@ 7.7.7.@ 7.7.7.@ 7.7.@ @ @ @ @ @ + + + + + + + ` + + U + U U U U U U U P U I I P I Z Z Z C Z C C C B V V V V V V V V V V V V V V V V V V V V V V V V V V V V V V V A A A A A A A D D D J J J J J W W W W -.-.-.>.>.>.>.4.4.4.4.h.h.F.F.Y.Y.R.R.+X@X@X9X9X9XeXeX0XeXeXBXBXBXBXAXAXAXAXSXSXSXSXSXSXSXSXZXZXZXZXZXZXZXZXZXZXZXZXZXZXZXZXZXZXZXZXSXZXSXSXSXSXSXSXSXSXSXSXSXZXZXZXZXZXZXVXVXVXVXcXzXzXgXgXpXm b x l 7 ; ; ; O O O O O . . O O O O O & & & & & & & & & O & O O & O = O O O O O O O O O O . . . . . . . O O O O O O O = & ; ; ; ; ; 4 4 7 7 7 l b b m m N pXpXpXjXjXjXzXzXzXcXcXcXVXVXVXVXVXVXVXZXZXZXZXZXZXSXSXZXZXZXZXZXSXSXSXSXSXSXSXSXSXAXAXAXAXAXBXBXBXBXBXBXBXeXBXeXBXeXeXeXeXeXeX0XeX0XeX0X0X0X9X9X9X9X9X@X9X@X@X@X@X+X+X+X+XOXOXOXOXOXOXOXOXR.OXR.OXR.OXOXOXOXOX+X+XOX@XOX@X+X+X+X+X+X@X@X@X@X@X@X@X@X@X@X<X@X<X+X@X@X+XOX@XOXOXR.R.T.Y.Y.A.A.A.h.h.d.4.2.2.>.>.-./ L L F K F D A A A ",
"A A A V D F F F L L K / -.-.>.>.>.<.<.4.4.4.4.d.d.d.h.j.h.j.h.h.j.h.h.h.d.d.4.4.4.2.<.>.>.;.-.-.W K L F S S S S S C S Z Z Z P P P U U + U + + + @ @ @ @ 7.@ 7.@ 7.7.7.@ 7.@ @ @ @ @ @ @ + + + + + + + ` ` ` U + U U U U U U U I U I I P Z Z Z Z Z Z C C B V V V V V V V V V V V V V V V V V V V V V V V V V V V V V V V A A A A A A A D D D J J J J J W W W W -.-.-.;.>.>.>.>.4.4.4.d.h.h.j.F.Y.Y.R.R.+X+X+X9X9X9X9X0X0XeXeXBXBXBXAXAXAXAXSXSXSXSXSXSXSXSXZXZXZXZXZXZXZXZXZXZXZXZXZXZXZXZXZXZXZXZXZXZXZXZXZXZXZXZXZXSXZXSXZXZXZXZXZXZXZXZXVXVXVXVXcXzXzXgXpXpXm b x 7 7 ; ; ; & O O O . . O O O O & & & & & & & ; & ; ; = ; ; ; ; ; ; = = = = & & O O O O O O . . . . . . O O O O O & & & ; ; ; ; 4 4 7 l l l b b m m pXpXpXpXgXjXjXzXzXzXcXcXcXcXVXVXVXVXVXVXZXZXZXZXZXSXSXZXZXZXZXSXSXSXSXSXSXSXSXSXSXSXSXAXAXAXAXAXBXBXBXBXBXBXeXBXBXeXeXeXeX0XeXeX0XeXeX0XeX0X0X9X9X9X9X@X9X@X9X@X@X@X+X+X+XOXOXOXOXOXR.R.T.R.T.T.R.T.R.T.R.R.R.OXOXOXR.OXOXOXOXOXOXOX@XOX@X+X+X+X+X@X+X@X@X@X@X+X@X+X@X+X+X+X@XOXOXR.OXR.Y.Y.Y.Y.A.A.h.d.d.<.4.>.>.:./ -.-.L K D F D A A A ",
"A A A D A S S F L K / -./ -.;.>.>.2.2.2.4.4.d.d.h.h.h.h.h.h.A.h.h.h.h.h.h.4.4.4.4.2.2.>.>.;.;.W W W K F F F S V S S C L Z Z R P P P U U ` ` + + + @ @ @ @ @ @ @ @ @ @ @ @ @ @ @ @ + + + + + + + ` ` ` ` ` ` U U U U U U U I U I I P I Z I Z Z Z C C C V V V V V V V V V V V V V V V V V V V V V V V V V V V V V V A A A A A A A A D D J J J J J J W W W W -.-.-.>.>.>.>.<.4.4.4.4.h.h.j.j.Y.Y.Y.R.R.+X+X@X9X9X9X9XeXeXeXeXBXBXBXBXAXAXAXSXSXSXSXSXSXSXZXZXZXZXZXZXZXZXZXVXZXVXZXVXVXVXZXVXZXVXZXZXZXZXZXZXZXZXZXZXZXZXZXZXZXZXZXZXZXZXVXVXVXVXVXzXzXzXgXgXpXb b l l 4 ; ; & O O O . . . O O O & & & & ; ; ; ; ; 4 ; ; ; 4 ; ; ; ; ; ; ; ; ; ; = = = O O O O O O . . . . O O O O O ; O ; ; ; ; 4 4 7 l l l b b m m pXpXpXpXjXjXjXzXzXcXcXcXcXVXVXVXVXVXVXZXZXZXZXZXZXZXZXZXZXSXSXSXSXSXSXSXSXSXSXSXSXSXSXAXAXAXAXAXBXBXBXBXBXeXBXeXBXeXeXeXeXeXeXeXeX9XeX0X0X0X9X9X9X9X9X9X@X9X@X@X@X+X+X+XOXOXOXR.OXR.T.R.T.T.Y.Y.T.Y.Y.T.Y.R.T.R.R.R.T.OXR.R.OXOXOXOXOXOXOX@XOX+XOX+X+X+X@X+X@X+X@X+X+X@X+X@X+X+XOXOXOXOXT.T.T.Y.Y.A.A.j.h.h.4.4.<.<.>.:./ / L K F F D D A D A ",
"A A A A S D D L K L K -.-.-.>.>.>.>.2.4.4.4.4.d.h.h.h.h.j.j.h.j.h.h.h.h.h.d.h.4.4.4.2.<.>.>.;.;.W W K F F F S S S V S C Z Z Z R P P U U U + U + + + + + @ @ @ @ @ @ @ @ @ @ + + + + + + + + ` ` ` ` ` ` ` U U U U U U I U I P I P Z I Z Z Z Z C C B V V V V V V V V V V V V V V V V V V V V V V V V V V V V V V A A A A A A D D D J J J J J J W W W -.-.-.-.;.>.>.>.<.<.4.4.4.4.h.h.j.j.Y.Y.Y.R.R.+X+X+X9X9X9X9XeXeXeXeXBXBXBXAXAXAXAXSXSXSXSXSXSXZXZXZXZXZXZXZXZXVXVXVXVXVXVXVXVXVXVXVXVXVXVXVXVXVXVXVXVXZXZXZXZXZXZXZXZXZXZXZXZXVXVXVXVXcXVXcXzXzXgXpXpXb b l 7 4 ; ; O O O O . O O & O & ; & & ; 4 ; 4 4 4 4 4 7 4 7 4 7 4 4 7 4 4 4 1 1 ; = ; = = & O O O O . . . . O O O O & & ; 4 ; 4 4 7 l l l b m m m pXpXpXpXjXjXzXzXzXcXcXcXcXVXVXVXVXVXVXZXZXZXZXZXZXZXZXSXSXSXSXSXSXSXSXSXSXSXSXSXSXSXSXSXAXAXAXAXAXBXBXBXBXBXBXBXeXBXeXeXeXeXeXeX0XeX0XeX0X0X9X9X9X9X9X@X9X@X@X@X@X+X+X+XOXOXOXR.R.R.T.T.T.Y.Y.Y.Y.Y.Y.Y.Y.Y.Y.Y.Y.T.T.T.T.T.R.R.R.R.R.OXOXOXOXOXOXOX+X+X+X@X+X@X+X@X+X+X<X+X+X+X@XOX@XOXOXR.R.R.Y.R.A.Y.j.A.h.4.4.4.2.>.>.:./ K -.F F F A A D V A ",
"A V A A A S F F F K K / -.>.;.>.>.4.>.4.4.4.h.h.h.h.j.j.j.A.A.j.F.j.j.h.h.h.d.4.4.4.2.2.<.>.;.;.W W W K F F V F S S V S C Z Z Z R P U I U U + + U + + + + + + + + + + + + + + + + + + ` ` ` ` ` ` U U U U U U U U I U I I P Z I I Z Z Z C Z C C A V V V V V V V V V V V V V V V V V V V V V V V V V V V A A A A V A A D A D D J J J J J W W W W -.-.-.-.>.>.>.>.>.<.4.4.4.4.h.h.h.j.A.Y.Y.Y.R.OX+X+X9X9X9X9X9XeX0XeXeXBXBXBXAXAXAXAXSXSXSXSXSXZXZXZXZXZXZXVXVXVXVXVXVXVXVXVXVXcXVXVXVXVXVXVXVXVXVXVXVXVXVXVXVXVXVXZXVXZXVXVXVXVXVXVXVXVXVXcXzXzXjXgXpXm b x 7 4 ; ; & O O O . . O O & & ; & ; 4 4 4 4 7 7 7 l l l l l l x l x l l l 7 4 4 4 1 1 ; = = = O O O O . . . O O O O & = ; ; ; 4 7 l l l b b m N pXpXpXjXjXjXjXzXzXcXcXcXcXVXVXVXVXVXZXZXZXZXZXZXZXSXSXSXSXSXSXSXSXSXSXSXSXSXSXSXSXSXSXSXAXAXAXAXAXAXBXBXBXBXBXBXeXBXeXeXeXeXeX0XeX0XeX0X0X0X9X0X9X@X9X9X@X9X+X@X+X@XOX+XOXOXR.R.R.R.T.Y.Y.Y.Y.Y.Y.F.Y.F.F.F.F.Y.Y.Y.Y.Y.Y.T.T.T.R.T.R.R.R.OXOXOXOXOXOX+X+X+X+X+X+X@X@X@X@X+X@X+X+X+X@XOXOX+XOXOXOXT.T.Y.Y.A.A.j.h.h.4.4.2.>.>.:.-.-.K L F D D A A A A ",
"V A A A D D F F K K -.-.;.;.>.>.2.2.4.4.4.d.h.h.h.h.j.A.A.A.A.F.A.A.A.A.A.h.h.h.d.4.4.4.2.<.>.;.;.W W K K F F F V S V S S C Z Z Z I I U U U U U + U + + + + + + + + + + + + + + + U + ` ` ` + U U U U U U Y U U I I P I P Z P I Z Z Z Z Z C C V V V V V V V V V V V V V V V V V V V V V V V V V A A A A A V A A D D D D J J J J J J W W W W -.-.-.-.;.>.>.>.<.>.4.4.4.4.4.h.h.j.j.Y.Y.Y.R.R.R.+X@X@X9X9X9XeXeXeXeXBXBXBXAXAXAXAXSXSXSXSXSXZXZXZXZXZXVXVXVXVXVXVXVXVXcXVXcXVXcXVXcXVXcXcXVXcXVXVXcXVXVXVXVXVXVXVXVXVXVXVXVXVXVXVXVXcXVXcXcXzXzXgXgXpXm b l 7 4 ; ; O O O . O O & & & ; ; ; 4 7 7 7 l l l x x b b b b m b b b x b x z z l l 7 4 1 1 ; ; = & O O O . . . O O O O ; ; ; 4 7 l l l b m m pXpXpXpXjXjXjXzXzXcXzXcXcXVXVXVXVXVXVXZXZXZXZXZXZXZXSXSXSXSXSXSXSXSXSXSXSXSXSXSXSXSXSXSXSXSXAXAXAXAXAXAXAXBXBXBXBXBXeXBXeXeXeXeX0XeXeXeX0X0X9X9X9X9X@X9X9X9X@X@X+X@X@X+XOXOXOXR.R.R.T.T.Y.Y.F.Y.Y.F.F.F.F.F.F.F.F.F.F.F.F.Y.Y.Y.Y.T.T.Y.R.R.R.R.OXR.OXR.+XOX+X+X+X+X+X@X@X@X@X@X@X+X@X+X@X+X@X+XOX+XOXR.R.R.Y.Y.Y.F.F.j.h.4.4.2.2.>.:.-./ K K F F F A A A V ",
"V A A A D F F K K K -.-.-.;.>.>.>.4.4.4.h.d.h.F.h.F.F.A.A.A.A.A.A.A.A.A.A.j.A.h.h.h.4.4.2.<.>.>.;.-.W W J K F V F V S V V S Z Z Z Z I I U U U U U + U + U + + ` + ` + ` ` + ` + U + U ` U U U U U U U U P U I I U I I Z P Z Z Z Z Z C C C A V V V V V V V V V A A A A A V V A A V A A A V A A A V A V A A D D A D D J J J J J W W W W W -.-.-.-.>.>.>.>.>.<.4.4.4.4.4.h.h.j.j.A.Y.Y.Y.R.R.+X+X+X@X9X9X9XeX9XeXeXBXBXBXBXAXAXAXSXSXSXSXSXZXZXZXZXVXVXVXVXVXcXVXcXcXcXcXzXzXzXzXzXzXzXzXzXzXzXzXcXcXcXcXVXcXVXcXVXVXcXVXVXVXcXVXVXcXVXzXzXzXzXgXpXpXb x l 7 ; ; & O O O . O O O & ; ; ; 4 7 l 7 l b b m m m m N N N N pXN pXm m b b b x x z l 7 4 1 ; ; = & O O O . . O O O ; ; ; 4 4 7 l l b b m m N pXpXjXjXjXzXzXcXcXcXVXVXVXVXVXVXZXZXZXZXZXZXZXSXSXSXSXSXSXSXSXSXSXSXSXSXSXSXSXSXSXSXSXSXAXAXAXAXAXAXAXBXBXBXBXBXeXBXeXeXeXeX0XeXeX0X0X0X0X9X9X9X9X@X9X@X@X@X@X+X+XOXOXOXR.R.R.T.T.Y.Y.Y.Y.F.Y.F.F.F.F.F.A.F.A.F.A.F.F.F.F.F.Y.Y.Y.Y.Y.T.T.R.T.R.R.OXOXOXR.+XOX+X@X+X@X@X@X@X@X@X@X9X+X<X@X@X@X@X+X+XOXOXR.R.T.Y.Y.F.j.h.h.d.4.4.<.>.;.:.-.K K K D V D A V A ",
"A A A D V D F F K W -.-.;.>.>.>.4.4.4.d.h.h.A.h.F.F.A.A.Y.Y.Y.Y.Y.Y.Y.A.A.Y.h.F.h.h.h.4.4.4.<.>.>.;.-.W J J F F F V F V S V C C Z Z Z I I P P U U U U U + U + ` ` ` ` ` + U + U + U ` U U U U U U P U P P P I P Z P Z P Z Z Z Z C Z C C V V V V V V V V V A V A A A D V D D D V D V V A A V A A D V D D D D D J J J J J J W W W W -.-.-.-.-.>.>.>.>.>.>.4.4.4.4.4.h.h.j.j.j.Y.Y.Y.Y.R.R.+X+X+X9X9XeX9X9XeXeXeXBXBXBXAXAXAXSXSXSXSXSXZXZXZXZXZXVXVXVXVXVXVXVXzXzXzXzXzXzXjXzXjXjXjXjXjXjXjXjXzXzXzXzXzXzXzXzXcXcXcXVXcXVXcXVXcXcXzXzXzXjXgXgXpXm b l l 4 ; ; O O O . O O & & ; ; 4 4 7 l x l m m N N N pXN gXpXN gXpXpXpXpXpXpXm m m b x x l 7 7 1 1 ; = & O O . . O O O O ; ; ; 4 l l l b m N pXpXpXjXjXjXzXzXcXcXcXcXVXVXVXVXVXZXZXZXZXZXZXZXSXSXSXSXSXSXSXSXSXSXSXSXSXSXSXSXSXSXSXSXAXAXAXAXAXAXAXAXAXBXBXBXBXeXBXBXeXeXeX0XeXeX0X0X0X0X9X9X9X9X9X@X9X@X@X+X@XOX+XOXOXOXR.R.T.T.Y.Y.Y.Y.F.F.F.F.F.F.A.A.j.j.j.j.j.A.A.A.A.F.F.F.F.Y.Y.Y.T.T.Y.R.R.R.R.R.R.+X+X+X+X+X@X@X@X@X+X9X+X9X+X9X@X@X@X@X@X+X+X+X+XR.R.R.Y.Y.F.F.F.h.h.4.4.2.>.>.:.-.K K F F D D A A A ",
"A A A D F F D K K -.W ;.>.>.>.4.4.4.4.h.h.F.h.F.F.F.Y.Y.Y.Y.Y.Y.T.Y.Y.Y.Y.A.F.F.A.h.j.h.4.4.4.>.>.>.;.-.W J J J F V V S V S V A C Z Z Z I I Y U U U U U U ` U + U ` ` U + U U U U U U U U U Y U I U I Y P I I I I Z Z Z Z C Z C C C C V V V V V V V V A V A D D D D D J D D D D D D D V D D V D D D D J J J J J J J W W W W W -.-.-.-.>.>.>.>.<.>.4.4.4.4.4.4.h.h.j.j.A.F.Y.Y.Y.R.R.+X+X+X9X9X9X9X9XeXeXeXeXBXBXBXAXAXAXSXSXSXSXSXZXZXZXZXVXVXVXVXVXcXzXzXzXzXzXjXjXgXgXgXpXgXgXpXgXgXgXgXgXgXgXgXgXzXjXzXzXzXzXzXzXzXzXzXzXzXzXzXgXjXgXpXpXm x x 7 ; ; & O O O . O O & & ; 4 7 7 l b b m m N N pXgXgXgXjXgXjXjXgXjXgXgXpXgXgXpXpXm m b x z l 4 4 1 ; = & O O . . O O = ; ; ; 7 7 l b b m N pXpXjXjXjXzXzXcXcXcXVXVXVXVXVXVXZXZXZXZXZXZXSXSXSXSXSXSXSXSXSXSXSXSXSXSXSXSXSXAXAXAXAXAXAXAXAXAXAXAXAXAXAXBXBXBXBXeXBXeXeXeXeXeXeX0X0X0X0X9X9X9X9X@X9X@X@X@X+X+X+XOX+XR.R.R.T.T.Y.Y.Y.Y.F.F.F.F.F.A.j.j.j.j.j.j.j.j.j.j.j.A.A.A.A.F.F.F.Y.Y.Y.Y.T.T.T.R.R.R.+X+XR.+X+X+X@X@X@X@X@X9X+X9X@X9X+X9X9X@X@X9X+X@X+X+X+XR.R.R.Y.Y.F.j.h.h.d.4.2.<.>.-.-.-.K K F D D V D V ",
"A V D V D D F K W W ;.;.;.<.>.4.4.4.h.h.h.j.F.F.Y.Y.Y.Y.Y.Y.T.T.Y.T.Y.Y.Y.Y.Y.A.A.F.h.h.h.4.4.4.<.>.;.;.-.W J K F V F V V V S V C C Z Z Z I I I P Y U U U U U U U U U U U U U U U U P U U I U I U I I I I Z I Z Z Z Z Z Z Z C C C V V V V V V V V V A V D D D J J J J J J J J J J J D J D J J J J J J J J J J W W W W -.W -.-.-.-.>.>.>.<.>.>.<.4.4.4.4.4.h.h.j.j.j.j.Y.Y.Y.Y.R.R.+X+X+X@X9X9X9X9XeXeXeXBXBXBXAXAXAXAXSXSXSXSXZXZXZXZXVXVXVXVXzXVXzXzXzXzXjXgXgXpXpXpXpXpXpXm m m m m m m pXpXpXpXgXpXgXgXgXzXgXgXjXjXjXjXgXjXjXgXgXpXpXm b x 7 4 ; ; O O O . O & O ; ; 4 4 7 l x m m N N gXpXjXjXjXzXzXzXzXzXzXzXzXjXjXjXgXpXjXpXpXm b b z l 7 4 ; = = O O . . O O O ; ; ; 7 l l b m N pXpXpXjXjXzXzXzXcXcXcXVXVXVXVXVXZXZXZXZXZXZXZXSXSXSXSXSXSXSXSXSXSXSXSXSXSXAXAXAXAXAXAXAXAXAXAXAXAXAXAXAXAXAXBXBXBXBXBXBXeXeXeXeX0XeX0X0X0X0X9X9X9X9X@X9X@X@X+X+X+XOXOXOXR.R.T.T.Y.Y.Y.Y.F.F.F.A.A.F.j.j.j.j.h.j.h.d.j.h.h.h.j.d.A.A.A.A.F.F.F.Y.Y.Y.Y.T.R.R.R.OXR.R.+X+X+X@X@X@X+X9X@X@X9X@X9X@X9X@X@X9X@X@X@X@X+X+X+XOXOXR.Y.Y.F.F.F.h.d.4.4.2.>.>.-.W K K D F V D A A ",
"A A D D F F F K W -.;.;.>.<.4.4.4.h.h.A.F.F.F.Y.Y.Y.T.R.R.R.R.R.R.R.R.T.T.Y.Y.Y.Y.A.F.h.j.h.4.4.4.<.>.;.;.W W J J F A A V V V S V A C Z Z Z Z I I I U Y U P U U U U U U U P U P P U P U I U I I I I I Z Z I Z Z Z C Z C C C C A V V V V V V V V A V D D J J J J J J W W J W J J J J J J J J J J J J J W J W W W W -.-.-.-.-.>.>.>.>.>.>.<.4.4.4.4.4.4.h.h.h.j.j.A.Y.Y.Y.Y.R.R.R.+X+X+X9X9X9X9XeX9XeXeXeXBXBXBXAXAXAXSXSXSXSXZXZXZXVXVXVXVXVXzXVXzXjXjXgXgXpXpXpXm m b b b b b b b b b b b b b b m b pXm m pXpXgXgXgXgXgXgXgXpXpXpXm m b x l l 4 ; & & O O . O O & ; ; 4 7 l b b m N pXgXjXjXjXzXzXzXzXzXzXcXzXzXcXzXzXzXzXjXgXpXpXpXm m b z l 4 1 ; = & O O . O O O ; ; 4 7 7 l b m m pXpXjXjXjXzXzXcXcXVXVXVXVXVXVXZXZXZXZXZXZXSXSXSXSXSXSXSXSXSXSXSXSXSXSXAXAXAXAXAXAXAXAXAXAXAXAXAXAXAXAXBXAXBXBXBXBXBXBXeXBXeXeXeXeXeX0X0X0X9X9X9X@X9X@X@X@X+X+X+XOXOXOXR.T.T.T.Y.Y.Y.F.F.F.F.A.A.A.h.j.h.h.h.h.h.4.h.h.4.h.d.h.h.j.h.j.A.A.F.F.F.F.Y.Y.Y.T.T.R.R.R.+X+XOX+X+X@X@X@X9X@X9X@X9X9X9X9X9X9X9X@X9X@X9X+X@X+X+X+XR.R.R.Y.Y.Y.h.h.h.4.4.<.<.;.;.-.W K J D F V D A ",
"A D V D D D K W W -.;.>.<.<.4.4.d.h.h.h.F.F.Y.Y.Y.T.R.R.R.R.R.R.+XR.R.R.R.R.R.Y.Y.Y.F.F.h.j.h.4.4.2.2.>.;.-.-.J J J A F V V V V V V V Z C Z Z Z I P I I I U U P U P U P U U Y U U P Y I I I I I Z P Z Z I Z C Z Z Z C C C A V V V V V V V V V A V D D J J J W W W W -.W W W W W W J W W W J W W J W W W W W -.-.-.-.-.-.>.>.>.>.>.<.<.4.4.4.4.4.4.h.h.j.j.j.j.Y.Y.Y.Y.Y.R.R.+X+X+X+X9X9X9XeX9XeXeXeXBXBXBXAXAXAXSXSXSXSXZXZXZXZXVXVXVXVXVXzXzXjXjXjXpXpXm m b b b x x x l l l l l l l 7 x l x x x b x b m b m m m m pXm pXm m m m b b l l 7 ; ; & O O . O O O ; ; 4 7 l l m N N N gXjXzXzXzXzXcXcXcXzXVXcXzXVXzXzXcXcXzXzXjXjXjXgXpXpXb b l l 4 1 ; = O O . . O O = ; ; 4 7 l b m N pXpXjXjXzXcXcXcXcXVXVXVXVXVXZXZXZXZXZXZXSXSXSXSXSXSXSXSXSXSXSXSXSXSXAXAXAXAXAXAXAXAXAXAXAXBXAXAXAXBXAXAXAXBXBXBXBXBXBXBXBXeXeX0XeXeX9X0X9X9X9X9X@X9X@X@X+X+X+XOXOXOXR.T.T.T.Y.Y.Y.Y.F.F.A.A.A.A.j.j.h.h.h.h.4.h.4.h.4.4.h.4.h.d.h.h.j.j.h.A.A.F.A.Y.Y.Y.T.T.T.R.R.R.+XOX+X+X@X@X+X9X@X@X9X9X9X9X9X9X9X9X9X9X9X9X@X9X+X9X+X+X+XR.R.R.Y.F.F.F.h.d.4.4.<.>.;.-.W K F F D D A A ",
"A A D D F F J W -.-.;.>.<.4.4.4.h.h.F.F.F.Y.Y.R.R.R.R.OXR.OXOX+XR.+XR.OXR.R.R.R.Y.Y.Y.Y.F.h.h.h.d.4.2.>.>.;.-.W J J J D A A V V V V V V C Z Z Z Z Z I I I I I Y P Y P P I I I I I I I I I Z I I Z Z Z Z C Z Z C C C C A B V V V V V V V V V V A D D J J J W -.-.-.-.-.-.-.-.-.-.-.-.W W W W W W -.W -.-.-.-.-.-.>.;.>.>.>.>.>.<.4.<.4.4.4.4.h.h.h.h.F.j.A.Y.Y.Y.Y.Y.R.R.+X+X+X+X9X9X9X9XeX9XeXeXeXBXBXBXAXAXAXSXSXSXSXZXZXZXZXVXVXVXVXzXzXzXjXgXpXpXm m b b x l l 7 7 4 7 4 4 ; 4 ; 4 7 4 7 4 7 7 l l l l x x b b b b b b b b x x l 7 7 ; ; ; & O O . O O & ; ; 4 l l m m N pXjXjXjXzXzXcXcXcXcXVXcXVXcXVXVXcXVXcXzXcXzXzXzXjXpXgXpXm m x z l 1 ; = & O O . O O O ; ; 4 l l b m N pXjXgXzXzXzXcXcXVXVXVXVXVXZXZXZXZXZXZXSXSXSXSXSXSXSXSXSXSXSXSXAXAXAXAXAXAXAXAXAXAXBXAXAXAXBXAXBXAXBXAXBXBXBXBXBXBXBXBXeXBXeXeXeXeXeX9XeX9X9X9X@X9X@X@X@X+X+XOXOXOXR.R.Y.T.Y.Y.Y.F.F.F.F.A.A.h.j.j.d.h.d.d.4.h.4.4.4.4.4.4.4.4.4.h.4.h.h.j.j.A.A.A.F.Y.A.Y.Y.T.T.R.R.R.+X+X+X@X@X@X9X@X9X9X9X9X9X9X9X0X0X9X9X9X9X9X9X@X@X@X+X+X+X+XR.R.Y.Y.F.j.h.h.4.4.>.>.;.;.-.J K D D F D A ",
"A D D F J J W W -.;.>.>.4.4.4.h.h.F.j.Y.Y.Y.R.R.R.R.OXR.+X+X+X+X+X+X+XOX+XOXOXR.R.R.Y.Y.F.F.F.h.h.4.4.4.>.>.;.-.W J J D A A V V V V A V V C C Z Z Z Z I Z I I I I I I I I P I I I Z I I Z I Z Z Z C Z Z Z Z C C C C V V V V V V V V V V A V D D J J W W -.-.-.;.>.-.>.>.>.>.>.;.-.-.-.-.-.-.-.-.W >.-.-.-.>.;.>.>.>.<.>.4.<.4.4.4.4.4.4.h.h.j.j.j.j.j.A.Y.Y.Y.Y.R.R.R.+X+X+X+X9X9X9X9XeX9XeXeXeXBXBXAXAXAXAXSXSXSXSXZXZXZXVXVXVXVXVXzXzXjXjXpXpXm b b x l 7 4 7 ; 4 ; ; ; ; ; ; ; ; ; ; ; ; ; ; 4 ; 4 4 7 7 7 7 l l l x x l l 7 7 4 4 ; ; & O O . O O & & ; 4 7 l x m N pXpXjXzXzXzXcXcXcXcXVXVXVXVXVXVXVXcXVXVXzXVXzXcXzXzXjXjXgXpXm b x l 4 1 ; = O O . O O O ; ; 4 7 l b m N pXpXjXzXzXcXcXcXVXVXVXVXZXZXZXZXZXZXSXSXSXSXSXSXSXSXSXSXSXSXSXAXAXAXAXAXAXBXAXAXAXAXAXAXBXBXBXBXBXBXBXBXBXBXBXBXBXBXBXBXBXeXeXeXeXeX9X0X9X9X9X9X9X@X@X+X+X+XOXOXR.R.T.Y.Y.Y.Y.F.F.F.A.A.j.j.j.j.h.d.d.d.4.4.4.4.4.2.4.4.4.2.4.4.4.4.d.4.h.d.j.h.A.A.F.A.Y.Y.Y.T.T.R.+XR.OX+X+X@X+X9X@X@X9X9X9X9X0X9X9X9X9X9X9X9X9X9X9X9X9X9X+X9X+X+XOXR.R.Y.Y.F.F.j.4.4.4.<.>.;.W W W D F D A D ",
"D D D D J W J -.;.;.>.>.4.4.h.h.F.j.Y.Y.Y.R.R.R.+XOX+X+X+X+X@X+X@X+X@X+X+X+XOXOXR.R.R.T.Y.Y.F.j.h.h.4.4.4.>.;.;.-.W J J D A A A V V V V V V C C Z Z Z Z Z Z I I Z I I I I Z P I Z I Z Z Z Z Z Z Z Z C C C C C C V V V V V V V V V V V A V A D J J J W -.-.;.>.>.<.<.>.<.>.<.<.>.>.>.>.-.>.>.-.>.>.-.>.>.>.>.<.>.<.<.<.4.<.4.4.h.4.h.h.h.h.j.j.j.F.Y.Y.Y.Y.Y.R.R.R.OX+X+X+X9X9X9X9X9XeX0XeXeXBXBXBXBXAXAXAXSXSXSXSXZXZXZXZXVXVXVXzXzXzXjXpXpXm m x l l 7 4 4 ; ; ; = ; & & & O O O & & O & & & ; & ; ; ; ; ; 4 4 4 7 7 4 7 7 4 4 ; ; ; & O O O . O O & & 4 4 7 l m m N pXjXzXzXzXcXcXVXVXVXVXVXVXVXVXVXVXVXVXcXVXVXzXVXzXcXzXjXpXgXpXm b z l 1 ; ; O O . . O O ; ; 4 7 l l m m pXgXjXzXzXcXcXVXVXVXVXZXZXZXZXZXZXSXSXSXSXSXSXSXSXSXSXSXSXAXAXAXAXAXAXAXAXBXAXBXBXBXBXBXBXBXBXBXBXBXBXBXBXBXBXBXBXBXBXBXeXeXeXeXeXeX9XeX9X9X9X9X@X@X@X+X+XOXOXR.R.R.Y.Y.Y.Y.F.F.F.A.A.A.h.j.h.d.d.d.4.4.4.4.4.4.2.4.4.2.4.2.4.4.4.4.4.4.h.d.h.j.j.A.A.A.F.Y.Y.Y.T.T.R.R.+X+X+X@X+X9X@X9X9X9X9X9X0X9X9XeX9X9XeX9X9X9X9XeX9X9X9X9X+X+X+X+XR.R.R.Y.F.j.h.h.4.4.>.>.;.;.W J W J D D D ",
"D D D J W J W -.;.>.;.4.4.d.h.h.j.F.Y.Y.R.R.OXR.+X+X+X@X+X@X@X9X@X@X@X@X@X+X+X+X+XOXR.R.T.Y.Y.F.F.h.h.4.4.4.<.>.;.-.J J J D A A V V V V V V V B C C C Z Z Z Z Z I Z Z Z Z Z Z Z Z Z Z Z C Z Z C Z C C C C B V V V V V V V V V V V A A V D J J J W -.-.-.>.<.>.2.2.<.4.<.4.<.<.<.<.<.<.<.>.>.>.>.>.<.<.>.<.<.>.4.<.4.4.4.4.4.4.4.h.j.j.j.j.j.j.Y.Y.Y.Y.R.Y.R.R.OX+X+X+X+X9X9X9X9XeX0XeXeXeXBXBXBXAXAXAXSXSXSXSXZXZXZXZXVXVXVXVXzXzXjXgXpXm b b l l 7 4 ; ; = ; & O O O O O O O O O O O O O O O O O & O & & ; & ; ; ; ; ; ; ; ; = ; & O O O O . O & & ; 4 7 l x m N N jXjXzXzXcXcXVXVXVXVXVXVXVXVXVXVXVXVXVXVXVXVXcXVXcXcXzXjXjXjXgXm b x l 4 1 ; & O O . O O & ; ; 4 7 l m N pXpXjXzXzXcXcXVXVXVXVXZXZXZXZXZXSXSXSXSXSXSXSXSXSXSXSXSXAXAXAXAXAXAXAXAXAXBXBXBXBXBXBXBXBXBXBXBXBXBXBXBXBXBXBXBXBXBXBXBXeXBXeXeXeXeX9XeX9X9X9X9X@X@X+X+X+XOXR.R.R.T.Y.Y.Y.F.F.F.A.A.A.j.j.h.d.d.4.4.4.4.4.2.4.4.2.2.2.2.<.2.<.4.2.2.4.4.4.4.d.h.d.j.h.A.F.A.Y.Y.Y.T.R.R.+XR.+X@X+X9X@X@X9X9X9X0X9X0X9XeX9XeX9X9XeX9XeX9X9X9X9X9X9X@X9X+X+X+XR.R.Y.Y.F.F.j.4.4.4.<.;.-.W W J J K D D ",
"D F J W J J -.-.;.>.4.4.4.h.j.F.F.Y.Y.R.R.R.+X+X+X@X9X@X9X@X@X@X@X9X@X@X@X9X+X@X+X+XOXR.R.R.Y.Y.F.j.h.h.4.4.<.>.>.;.-.W J J D A A V V V V V V V V A C C Z Z Z C Z Z Z Z Z Z Z C Z Z C Z Z C C C C C A B V V V V V V V V V V V V A V A D D J J W W -.>.>.>.<.4.<.4.4.4.4.4.4.4.4.4.<.<.<.<.<.4.<.<.<.<.4.<.4.4.4.4.4.4.h.h.h.h.h.j.j.j.A.Y.Y.Y.Y.Y.Y.R.R.R.OX+X+X+X9X9X9X9X9X9XeX9XeXeXeXBXBXBXAXAXAXAXSXSXSXSXZXZXZXVXVXzXVXzXzXjXpXpXm b z l 7 ; ; ; ; O O O O O O . . . . . . . . . . . . . O . O O O O O O & & & & & & & & O O O O . O . O O & ; 4 7 l m m N gXjXzXzXcXcXVXVXVXVXVXVXVXVXZXVXZXVXVXVXVXVXVXVXVXcXVXzXzXzXjXpXpXm b x l 1 ; = & O . . O O = ; 4 7 l b m N pXjXzXzXcXcXVXVXVXVXZXZXZXZXZXSXSXSXSXSXSXSXSXSXSXSXAXAXAXAXAXAXAXBXBXBXBXBXBXBXBXBXBXBXBXBXeXBXBXBXBXBXBXBXBXBXBXBXBXeXBXeXeXeXeX0XeX9X9X9X9X@X@X@X+XOXOXR.R.T.Y.Y.Y.F.F.F.A.A.h.j.h.d.d.d.4.4.4.4.2.4.<.4.>.2.2.<.<.<.<.<.<.<.4.2.2.4.4.4.4.h.h.j.A.A.A.Y.A.Y.T.T.R.R.R.+X+X+X@X@X9X9X9X9X9X0X0X9XeX9X9XeXeX9X9XeX9XeX9X0X9X9X9X9X9X@X+X+XR.R.R.Y.Y.j.h.h.4.4.>.>.;.-.J W J J J D ",
"D J J J J W -.;.>.<.4.4.h.j.h.F.Y.Y.R.R.R.+X+X+X@X@X@X@X@X9X9X9X9X9X9X9X9X@X9X@X@X@X+X+XOXR.R.Y.Y.F.F.h.h.4.4.4.>.;.-.-.J J J D A A V V V V V V A V V B C C C Z C Z Z C Z Z C Z Z C Z C C C C C V V V V V V V V V V V V V V A A V D D J J J W -.-.>.>.>.4.4.4.h.4.h.h.h.h.h.h.4.4.4.4.4.4.4.4.<.4.4.4.4.4.4.4.4.4.h.h.h.h.j.h.Y.j.j.Y.Y.Y.Y.Y.Y.R.R.R.R.+X+X+X+X+X9X9X9X9X9X0X0XeXeXeXBXBXBXAXAXAXSXSXSXSXZXZXZXVXVXVXVXVXzXjXgXpXm m x l 7 4 ; ; ; O O O O . . . . O O O O O O O O O O O O O . O . . . . O O O O O O O O O O O O . . O O & & ; 4 4 l l m N pXgXzXzXzXcXcXVXVXVXVXVXVXZXVXZXZXVXZXVXZXVXVXVXVXVXcXVXcXzXzXjXjXpXm m x l 4 1 ; = O O . O O = ; ; 4 l b m N pXgXjXzXzXcXVXVXVXZXZXZXZXZXSXSXSXSXSXSXSXSXSXSXSXAXAXAXAXAXAXAXAXBXBXBXBXBXBXBXBXBXBXBXBXeXBXBXBXeXBXBXBXBXeXBXBXeXBXeXBXeXeXeXeXeX0X0X9X9X9X@X@X@XOX+XOXR.R.T.Y.Y.F.F.F.F.A.A.j.j.h.d.d.4.4.4.4.4.2.4.<.4.>.2.>.>.<.>.>.<.>.<.<.<.<.4.2.4.4.4.d.d.j.h.A.A.A.Y.Y.T.T.R.R.+X+X+X@X@X9X@X9X9X0X0X0X9XeX9XeXeX9X9XeXeX9XeX0X0X0X0X9X9X9X9X+X9X+X+XOXR.Y.Y.F.F.h.4.4.4.>.;.-.-.W J J J J ",
"J J W J W -.-.;.<.<.4.4.h.h.F.Y.Y.R.R.R.+X+X+X9X@X9X9X9X9X9X9X9X9X9X9X9X9X9X9X@X9X@X@X@X+XOXR.R.Y.Y.F.F.h.h.4.4.<.>.>.-.-.W J J D A A A V V V V V V V A V V C C C C C Z C C C C C C C C V V V V V V V V V V V V V V V V A A V A D J J J W W W >.>.>.4.4.4.4.h.h.j.j.j.j.j.h.j.j.h.h.h.4.h.4.4.h.4.4.h.4.h.h.h.h.h.h.j.h.A.j.Y.j.Y.Y.Y.Y.Y.R.R.R.R.OX+X+X+X+X9X9X9X9X9XeX9XeXeXeXeXBXBXBXBXAXAXAXSXSXSXSXZXZXZXZXVXVXVXzXzXjXgXpXm b l l 4 ; ; O O O O . . O O O O O & O O & & & & & & & & O O O O & O O O . O . . . . . . . . . O O O O & & ; ; 7 l b m N pXjXzXzXcXcXVXVXVXVXVXVXVXZXZXVXZXVXZXVXZXVXZXVXVXVXcXVXcXcXcXzXgXjXpXm b x l 4 ; ; O O O . O = = ; 4 7 l b N pXgXjXzXzXVXcXVXVXVXZXZXZXZXSXSXSXSXSXSXSXSXSXAXAXAXAXAXAXAXAXBXBXBXBXBXBXBXBXBXBXBXeXBXBXeXBXeXBXeXBXeXBXBXBXBXeXBXBXeXBXeXBXeXeXeX0XeX9X9X9X9X@X@X+X+XR.R.R.T.Y.Y.Y.F.A.F.h.j.j.d.h.4.d.4.4.2.4.2.4.<.<.<.>.<.>.>.>.>.>.>.>.>.>.>.<.2.2.2.4.4.4.d.h.j.j.A.A.F.Y.Y.Y.R.R.+XR.@X@X@X@X9X9X9X9X0X0X0XeX0XeX9XeXeXeX9XeXeX0XeX0X0X0X0X9X9X9X9X@X@X+XOXOXR.Y.Y.F.h.h.4.4.>.>.;.-.J W J J J ",
"W J J W W -.;.>.<.4.4.h.h.F.F.Y.R.R.R.+X+X@X@X@X9X9X9X9XeX9X9XeX9X9XeX9X9X9X9X9X9X9X@X@X@X+X+XR.R.T.Y.F.F.h.h.4.4.4.>.;.-.-.J J J D A V A V V V V V V V V V V V B A V B V C B A V V V V V V V V V V V V V V V V V V A A A V D D J J J W W -.>.>.>.4.4.4.h.j.j.j.j.j.j.A.j.Y.j.j.j.j.j.j.h.h.h.h.h.h.h.j.h.j.j.j.h.j.j.Y.j.Y.Y.Y.Y.R.Y.Y.R.R.R.OX+X+X+X+X+X9X9X9X9X9X9X9X0XeXeXeXBXBXBXAXAXAXAXSXSXSXSXZXZXZXVXVXzXVXzXjXjXpXm m z l 7 ; ; ; O O O . . O O & O & & = & ; ; & ; ; = ; & ; & ; ; & & & & O & & O O O O . O . O O O O O & & ; ; 4 l l m N N gXjXzXzXcXcXVXVXVXVXVXVXZXZXZXVXZXVXZXZXZXZXVXVXVXVXVXVXVXcXcXzXjXjXpXpXm b l l 1 ; = O O . O O & ; ; 7 l b m pXN jXzXzXVXcXVXVXVXZXZXZXZXSXSXSXSXSXSXSXSXSXAXAXAXAXAXAXAXBXBXBXBXBXBXBXBXBXBXeXBXeXBXBXeXBXeXBXeXBXeXBXeXeXBXeXBXBXeXBXeXeXeXeXeX0XeX0X9X9X9X@X@X+X+XOXR.R.Y.Y.Y.F.F.A.F.j.j.h.d.h.4.4.4.2.4.4.2.2.<.<.>.>.<.;.>.>.>.-.>.:.:.>.>.>.>.<.<.4.2.4.4.d.d.d.j.A.j.Y.Y.Y.T.R.R.R.+X@X@X@X9X9X9X0X0X0X0XeX9XeX9XeXeXeX0XeXeX0XeX0XeX0XeX0X0X9X9X9X9X@X@X+XOXR.T.Y.F.A.j.4.4.4.>.>.;.-.W W J J ",
"J W W W -.;.>.>.4.4.d.h.F.F.Y.Y.R.R.+X+X@X@X9X9X9X9X9X9X9X9XeX9XeX9X9XeX9XeX9X9X9X9X9X@X@X@X+X+XR.R.T.Y.F.F.h.h.4.4.<.>.>.-.-.W J J D D V A V V V V V V V V V V V V A V V V V V V V V V V V V V V V V V V V V V A A A A A D J J J J W -.-.;.>.<.4.4.h.h.j.j.Y.Y.Y.Y.Y.Y.Y.Y.Y.Y.Y.j.j.j.j.j.j.j.j.j.j.j.j.j.j.Y.Y.Y.Y.Y.Y.Y.Y.Y.R.Y.OXR.OXOX+XOX+X+X9X9X9X9X9X9XeX9XeXeXeXeXeXBXBXBXAXAXAXAXSXSXSXSXZXZXZXVXVXVXVXzXzXjXpXm b z l 4 ; ; O O O . . O O O O & ; ; ; ; ; ; 4 4 ; 4 4 4 4 4 4 ; ; 4 ; ; & ; & & & & & O O & & O O & & ; & ; 4 7 7 l m N N jXjXzXzXcXcXVXVXVXVXVXZXZXVXZXZXZXZXZXZXVXZXZXZXVXVXVXVXcXVXcXzXzXjXjXpXm b x l 4 1 ; O O O . O O = ; 4 7 l b m pXjXjXzXcXcXVXVXVXZXZXZXZXSXSXSXSXSXSXSXSXAXAXAXAXAXAXAXBXBXBXBXBXBXBXBXBXBXBXeXBXeXBXeXBXeXeXeXeXBXeXBXeXBXBXeXBXeXBXeXeXBXeXeXeX0XeX9X0X9X9X9X@X+X+XOXR.R.T.Y.Y.F.F.h.F.h.h.d.h.4.4.4.4.2.4.<.2.<.>.>.>.>.>.;.>.;.;.;.>.-.>.-.>.>.>.>.>.<.2.4.2.4.4.h.j.j.A.Y.j.Y.Y.T.R.+XOX+X@X@X9X@X9X9X0X0X0XeX9XeXeXeXeXeXeXeXeXeXeXeXeX0XeX0XeX0X0X9X9X9X9X+X@X+XR.R.T.Y.F.h.h.4.4.<.;.;.;.-.W W W ",
"W W W -.;.>.>.>.4.d.h.h.F.Y.Y.R.R.+X+X@X@X9X9X9X9X9XeX9XeXeX9XeX9XeXeX9XeX9X9XeX9X0X9X9X9X@X@X@XOXOXR.T.Y.F.F.h.h.4.4.4.>.;.;.-.J J J J D A V A V V V V V V V V V V V V V V V V V V V V V V V V V V V V V V A A A A V D J J J J W W -.-.>.>.4.4.4.h.h.j.j.Y.Y.Y.Y.R.Y.Y.Y.Y.Y.Y.Y.Y.Y.Y.Y.A.Y.j.Y.j.Y.A.Y.Y.Y.Y.Y.Y.Y.Y.Y.R.Y.R.R.OXOXOX+X+X+X9X+X9X9X9X9X9X9XeX9XeXeXeXeXBXBXBXAXAXAXAXSXSXSXSXZXZXZXVXVXVXVXVXzXzXpXpXm b l 7 ; ; = O O . . O O O & ; ; ; ; 4 4 4 7 7 7 7 7 l 7 7 7 7 7 7 7 4 7 4 4 4 ; ; ; & ; & ; & & & ; ; ; ; 4 7 7 7 b m N pXgXzXzXzXcXcXVXVXVXVXVXZXZXVXZXZXVXZXZXZXVXZXZXVXVXVXVXVXVXVXcXcXzXjXzXpXpXb b z 7 4 ; = & O . . O O ; ; 7 7 b m pXpXjXzXcXzXVXVXZXZXZXZXSXSXSXSXSXSXSXSXSXAXAXAXAXAXAXBXBXBXBXBXBXBXeXBXBXBXeXeXBXeXBXeXeXeXeXeXeXeXeXeXeXeXeXeXBXeXeXBXeXBXeXeX0XeXeX0XeX9X9X9X@X@X+X+XR.R.Y.Y.Y.F.F.A.A.j.d.h.h.4.4.4.2.4.2.2.<.>.>.>.>.;.>.;.;.;.-.;.-.-.-.-.>.-.>.>.>.>.<.<.<.4.4.d.d.d.h.A.j.Y.Y.Y.R.R.R.OX@X@X@X@X9X9X9X0XeX0X9XeXeXeXeXeXeXeXeXeXBXeXeXeXeXeXeX0XeX0XeX9X9X9X9X@X+X+XOXT.Y.Y.F.h.d.4.<.<.>.;.;.W W W ",
"W -.;.;.;.>.<.4.4.d.h.F.F.Y.R.R.OX+X@X@X9X9X9XeX9XeX9XeX9XeXeXeXeXeXeXeXeXeXeX9XeX9X9X9X9X9X@X@X@X+XOXR.R.Y.F.F.h.h.4.4.4.>.;.;.-.W J J J D D V A A V V V V V V V V V V V V V V V V V V V V V V V V V V A A V A A D D J J J J W -.-.;.>.>.4.4.4.h.j.F.F.Y.Y.Y.Y.R.Y.OXOXR.R.Y.Y.Y.Y.Y.Y.Y.Y.Y.Y.Y.Y.Y.Y.Y.Y.Y.Y.Y.Y.Y.OXY.OXR.OXOX+X+X+X+X9X+X9X9X9X9X9X9X9XeX0XeXeXeXeXBXBXBXBXAXAXAXSXSXSXSXZXZXZXVXVXVXVXzXzXjXpXpXm z l 4 ; ; O O O . O O O & ; ; ; 4 4 7 7 7 l l b b b b b b b b b l b l l l l 7 7 7 7 4 4 ; ; ; ; 4 ; ; 4 4 7 7 l x m m N gXgXjXzXzXzXVXVXVXVXVXVXZXVXZXZXZXZXZXZXZXZXZXZXVXZXVXVXVXVXcXVXcXzXzXzXpXgXpXm b l 7 1 = = O O . O O & ; 4 7 x b m pXjXzXzXcXVXVXVXVXZXZXZXSXSXSXSXSXSXSXAXAXAXAXAXAXAXBXBXBXBXBXBXBXeXBXeXBXeXBXeXeXeXeXeXeXeXeXeXeXeXeXeXeXeXeXeXeXBXeXeXeXeXeXeXeX0XeX9X0X9X9X9X@X@XOXOXR.R.Y.Y.F.F.h.F.h.h.h.4.4.4.4.2.2.2.2.>.>.>.>.;.;.;.-.-.-.;.-.-.-.-.-.-.-.>.-.>.>.>.<.2.4.<.4.4.h.j.j.A.Y.j.Y.T.R.R.+X+X@X@X9X9X9X9XeX0X0XeXeXeXeXeXeXeXeXeXBXeXeXeXeXeXeXeXeXeX0X0X0X0X0X9X9X@X@X+XOXR.T.Y.F.h.h.4.4.<.>.;.;.;.W W ",
";.;.;.;.>.>.2.4.d.h.F.F.Y.T.R.+X+X@X@X9X9X9X9X9XeX9XeXeXeXeXeXeXeXeXeXeXeXeXeXeX9XeX9XeX9X9X9X9X@X@X+XOXR.R.Y.F.F.h.h.4.4.4.>.>.;.-.W J J J D D D V A A V V V V V V V V V V V V V V V V V V V V V A A A A V D D D J J J J W W -.;.;.>.>.4.4.4.h.j.j.Y.Y.R.Y.R.OXOX+XOXOXOXOXOXOXOXR.R.Y.R.Y.R.Y.Y.Y.Y.Y.Y.Y.Y.R.Y.R.OXOXOXOX+X+X+X+X+X9X+X9X9X9X9X9X9XeX9XeX0XeXeXeXBXBXBXBXAXAXAXAXSXSXSXSXZXZXZXVXVXVXVXzXjXjXpXm b z l 4 ; ; O O . O O O & ; ; ; 4 7 7 l l b b m m m m N N N m N N m m m m m b b b b l l l 7 7 7 7 7 4 7 7 7 l l l b m N N gXgXzXzXzXzXVXcXVXVXVXVXZXVXZXZXZXVXZXZXZXZXZXVXZXZXVXVXVXVXVXVXcXcXzXzXgXjXpXm b x z 4 1 ; & O . . O O ; ; 4 l x m pXpXjXzXzXcXVXVXVXZXZXZXSXSXSXSXSXSXSXAXAXAXAXAXAXBXBXBXBXBXBXBXBXeXBXBXBXeXeXeXeXeXeXeXeXeXeXeXeXeXeXeX0XeXeXeXeXeXeXeXeXeXeXeXeXeXeX0XeX0X9X9X@X@X@XOXR.R.Y.Y.F.F.A.A.j.d.h.4.4.4.4.2.2.2.>.>.>.>.;.;.-.-.-.-.-.-.J -.-.W -.-.-.-.-.-.>.;.>.>.<.>.4.4.d.d.d.h.A.j.Y.T.Y.R.R.OX+X@X@X<X9X9X9X0X0X0XeXeXeXeXeXeXeXBXeXeXeXeXBXeXBXeXeXeXeXeXeXeX0X0X9X9X9X@X+X+XOXR.Y.F.F.A.d.4.4.>.>.;.;.;.;.",
";.;.>.>.>.2.4.4.h.h.F.Y.Y.R.R.+X@X@X9X9X9XeX9XeX0XeXeXeXeXeXeXBXeXeXeXeXeXeXeXeXeXeXeX9XeX9X9X9X9X@X@X@XOXR.R.Y.Y.F.h.h.4.4.4.>.>.;.-.-.J J J J D D V A A A A V V V V V V V V V V V V V V V A A V A V A A D D J J J J J W -.-.;.>.>.4.4.4.4.j.F.F.Y.Y.R.R.OX+X+X+X+X+X+X+X+X+X+XOXOXOXOXR.OXR.R.R.OXR.OXR.OXOXOXOXOXOX+X+X+X+X+X@X@X9X9X9X9X9X9X0X9XeX9XeXeXeXeXeXBXBXBXAXAXAXAXSXSXSXSXSXZXZXZXVXVXVXVXzXjXjXpXm b z 7 ; ; = O O . O O & ; ; ; 7 7 l l b b m m N N pXpXpXpXpXpXgXpXpXpXpXpXpXpXm N m m m b b b l l l l l l l b x b m m N pXpXjXjXzXzXzXVXVXVXVXVXVXZXVXZXVXZXZXZXZXZXZXZXZXZXVXZXVXVXVXVXVXcXVXzXzXzXgXgXpXm b l 4 4 ; = O O . O O = ; 4 7 x b m pXjXjXzXcXVXVXVXZXZXZXZXSXSXSXSXSXSXAXAXAXAXAXAXBXBXBXBXBXBXBXBXeXBXeXeXeXeXeXeXeXeXeX0XeXeX0XeX0XeX0XeXeXeXeXeXeXeXeXeXeXeXeXeXeX0XeX0X0X9X9X@X@X+XOXOXR.T.Y.Y.F.A.A.h.h.h.4.4.4.2.2.2.>.>.>.>.;.;.;.-.-.-.-.W W -.-.-.J -.W -.-.-.-.>.;.>.>.>.>.4.2.4.4.h.j.A.A.Y.Y.Y.R.R.+X+X@X@X@X9X9X9XeX0XeX0XeXeXeXeXeXBXeXeXBXBXBXBXeXBXeXBXeXeXeXeXeX0XeX0X0X9X9X9X@X+X+XR.R.Y.F.h.h.d.4.4.>.>.>.;.;.",
">.>.>.>.>.4.4.h.4.F.Y.Y.R.R.+X@X@X9X9XeX9X9XeX0XeXeXeXeXBXeXBXeXBXeXBXeXBXeXeXeXeXeXeXeX9XeX9XeX9X9X@X@X+XOXR.R.Y.F.F.A.h.4.4.4.>.>.;.-.-.-.J J J J D D A A V V A A V A V V V V A V A V A A A V D V D D J J J J J W W -.-.-.>.>.>.4.4.4.h.h.j.F.Y.Y.R.R.+X+X+X+X@X+X9X@X9X@X@X+X@X+X+X+X+XOXOX+XOXOXOXOXOX+XOX+X+X+X+X+X+X@X+X9X9X9X9X9X9X9X0X9X0XeX0XeXeXeXeXBXBXBXBXAXAXAXAXSXSXSXSXZXZXZXZXVXVXVXVXzXjXjXpXm b l 7 ; ; O O O . O O & ; ; 4 7 l l b m N N N pXpXjXpXjXjXjXjXzXjXjXjXjXjXjXjXpXjXpXgXpXN N N m m m m b m b m m m m N pXpXpXjXjXzXzXzXVXVXcXVXVXVXZXVXZXZXZXZXZXZXZXZXVXZXVXZXZXVXVXVXVXVXzXVXcXzXzXjXjXpXpXb b l l 1 ; = O O . O O = ; 4 l l m pXpXjXzXcXcXVXVXZXZXZXZXSXSXSXSXSXSXAXAXAXAXAXBXBXBXBXBXBXBXeXBXeXBXeXeXeXeXeXeXeX0XeX0XeXeX0XeXeXeX0XeX0XeX0XeXeXeXeXeXeXeXeXeXeX0XeXeX0X9X9X9X9X@X@XOXOXR.Y.Y.F.F.A.j.h.h.4.4.4.4.2.2.<.>.;.>.;.;.-.-.-.-.-.W W -.W W J -.W -.W W -.-.-.;.>.;.>.4.>.2.4.4.d.h.h.F.A.Y.Y.R.R.OX+X@X<X<X9X9X9X0X0X0XeXeXeXeXBXeXeXBXBXBXBXBXBXBXBXBXBXBXeXBXeXeXeXeX0X0XeX9X9X9X@X+XOXR.T.Y.A.A.h.4.4.>.<.>.>.:.",
">.>.>.2.4.4.d.h.F.F.Y.T.OX+X@X@X9X9X9X9XeXeXeXeXeXeXeXBXeXBXBXBXBXBXBXBXBXBXBXeXBXeXeXeXeXeX9X9X9X9X9X@X@X+X+XR.R.Y.Y.F.h.h.d.4.4.>.>.;.;.-.W W J J J J D D D D V A A A V A A A V A A A A A A D D J J J J J J W W -.-.-.>.>.>.<.4.4.4.h.j.F.F.Y.R.R.+X+X+X@X9X9X9X9X9X9X9X9X9X9X@X@X@X+X+X+X+X+X+X+X+X+X@X+X+X@X+X@X@X9X9X9X9X9X9X9X9XeX9X0X0XeX0XeXeXeXeXBXBXBXBXBXAXAXAXAXSXSXSXSXZXZXZXZXVXVXVXcXzXzXjXm m x l 4 ; ; O O . . O O ; ; 4 7 l x b m m N pXjXjXjXjXjXzXzXzXcXcXzXzXcXzXzXcXzXzXzXzXjXjXjXgXgXpXpXN N N N N N N pXpXpXpXjXpXjXjXzXzXzXVXzXVXVXVXVXVXVXZXVXZXZXVXZXZXZXVXZXZXZXVXVXVXVXVXVXcXVXcXcXzXzXjXgXpXm m x l 4 1 = & O . . O = = 4 4 l b m pXjXjXzXcXVXVXVXZXZXZXSXSXSXSXSXSXAXAXAXAXBXAXBXBXBXBXBXeXBXBXeXeXeXeXeXeXeXeX0XeXeX0XeX0XeXeX9XeX9XeXeX0XeXeX0XeXeXeXeXeXeXeXeX0XeX0XeX0X0X9X9X@X@X+XOXR.T.Y.Y.F.h.A.h.h.4.4.4.2.2.<.>.>.>.>.;.-.-.-.-.W W W W W J W W W J -.J -.W W -.-.;.;.>.>.>.4.4.4.4.h.j.A.A.Y.Y.Y.R.OX+X+X@X@X9X9X9XeX0XeXeXeXeXeXBXeXBXBXBXBXBXBXBXBXBXBXBXBXBXBXeXeXeXeXeXeX0X9X9X9X9X@X@X+XR.R.Y.Y.h.h.d.4.4.>.2.>.>.",
"<.2.2.4.4.4.h.h.F.Y.T.R.OX+X+X9X9X9X9XeX9XeXeXeXeXBXBXBXBXBXBXBXBXBXBXBXBXBXBXBXBXBXeXeXeXeXeXeX9XeX9X9X9X@X+X+XR.R.Y.Y.F.F.h.4.4.4.4.>.>.;.-.-.W W J J J J J D D D D A D A D V D D V D D D J J J J J J J W W -.-.-.-.>.>.>.4.4.4.h.h.j.A.Y.Y.R.R.+X+X@X+X9X9X9X9X9X9X9X9X9X9X9X9X9X9X9X9X9X9X@X9X+X9X@X@X@X9X@X9X9X9X9X9X9X9X9X0X0X9X9XeX0XeXeXeXeXeXeXBXBXBXBXAXAXAXAXSXSXSXSXSXZXZXZXVXVXVXVXzXzXzXpXm m x l 4 ; O O O . O O ; ; ; 7 l l b m m pXpXjXjXzXzXcXzXcXcXcXcXcXcXcXVXcXVXcXcXcXcXcXcXzXzXzXzXzXjXjXjXgXgXpXpXgXpXpXpXpXgXpXjXjXzXzXzXVXcXVXcXVXVXVXVXVXVXZXVXZXZXZXVXZXZXZXZXVXVXVXVXVXVXcXVXVXcXzXzXzXjXpXpXm b z l 4 ; = & O . . O & ; ; 7 x b m pXjXzXcXcXVXVXVXZXZXSXSXSXSXSXSXAXAXAXAXAXAXBXBXBXBXBXeXBXBXeXeXeXeXeXeX0XeX0XeXeX0XeX0X0X0X9XeX9XeX0X0XeX0X0XeX0XeX0XeXeXeX0XeXeX0XeX0X0X9X9X9X@X@XOXOXR.Y.Y.F.A.A.j.h.4.4.4.2.2.<.>.>.>.;.;.-.-.W -.W W W W J W W J W J W J W W W -.W -.;.;.>.>.<.>.4.4.d.d.h.A.j.Y.Y.R.R.R.+X@X<X<X9X9XeX0X0XeXeXeXBXeXeXBXBXBXBXBXBXBXBXBXAXBXBXBXBXBXBXBXBXeXeXeX0XeXeX9X9X9X@X+X+XR.T.Y.F.A.h.4.4.4.2.2.<.",
"2.2.4.4.4.h.j.F.Y.Y.R.OX+X+X9X9X9X9XeXeXeXeXeXBXeXBXBXBXBXBXAXBXAXBXAXBXBXBXBXBXBXBXBXeXBXeXeXeXeX9X9X9X9X9X@X@X+XR.R.Y.Y.F.F.h.h.4.4.4.>.;.>.-.-.-.W W W J J J J J J J D J D J D J J J J J J J J J W W W -.-.-.-.>.>.>.<.4.4.4.h.h.F.F.Y.Y.R.R.+X@X@X9X9X9X9X9XeX9X9XeX9X0X0X0X9X9X9X9X9X9X9X9X9X9X9X9X9X9X9X9X9X9X9X9X9X0X9X0X0X0XeX0XeXeXeXeXeXBXBXBXBXBXAXAXAXAXAXSXSXSXSXSXZXZXZXVXVXVXVXzXzXjXpXpXb z 7 ; ; & O O . O O ; ; 4 7 l b m m pXgXjXjXzXzXcXcXcXVXVXVXVXVXVXVXVXVXVXVXVXVXVXVXVXcXVXcXcXcXcXzXzXzXjXjXjXgXpXjXpXjXgXgXjXjXjXzXzXcXcXVXcXVXVXVXVXVXVXVXZXZXVXZXZXZXVXVXZXVXZXVXVXVXVXVXVXVXzXcXcXzXgXgXgXpXm b z l 1 ; = O O . O O = ; 7 7 x m pXjXjXzXzXVXVXVXZXZXZXZXSXSXSXSXSXAXAXAXAXBXBXBXBXBXBXeXBXeXeXeXeXeXeXeX0XeX0XeX0X0X0X0X0X0X0X0X0X0X0XeX9X0XeX0XeXeX0XeXeX0XeXeX0XeXeX9XeX9X9X9X@X@X@XOXOXT.Y.Y.F.A.A.d.h.4.4.4.2.<.>.>.>.;.;.-.-.-.-.J -.J W J W J J J W J W J J -.W W -.-.-.;.>.>.>.4.>.4.d.h.j.A.A.Y.Y.R.R.+X+X@X@X9X9X0X9XeX0XeXeXeXeXBXBXBXBXBXBXBXBXAXBXBXBXBXBXBXBXBXBXBXBXBXeXeXeX0X9XeX9X9X9X@X+XOXR.T.Y.F.h.h.4.4.4.2.4.",
"4.4.4.4.h.h.j.F.Y.R.R.+X@X9X9X9X9XeX9XeXeXeXeXBXBXBXBXBXBXBXBXBXBXBXBXAXBXBXBXBXBXBXBXBXBXeXeXeXeXeXeX9X9X9X9X@X@X+XOXR.T.Y.F.F.h.h.4.4.4.4.>.>.>.-.-.-.W W J W J J J J J J J J J J J J J J J W W W -.-.-.-.;.>.<.>.<.4.4.4.d.h.h.j.F.Y.T.R.R.+X+X+X9X9X9XeX9X0X0X9XeX0X0X0XeX0X0X0X0X0X0X9X9X9X9X9X9X9X9X9X9X0X9X9X0X0X0X9XeX0X0XeXeXeXeXeXeXeXBXBXBXBXAXAXAXAXAXSXSXSXSXSXZXZXZXZXVXVXVXVXzXzXjXpXm b l 7 ; ; O O . O O & ; ; 4 7 x b m pXpXjXzXzXzXcXcXVXVXVXVXVXVXZXVXZXZXVXZXZXVXZXZXVXVXVXVXVXVXVXVXcXcXcXzXzXzXjXjXjXjXjXjXgXjXjXjXzXzXcXzXVXzXVXVXVXVXVXVXVXVXVXVXZXVXZXVXZXZXVXZXVXVXVXVXVXVXVXzXVXcXzXzXjXjXpXm m x z 4 1 ; = O O . O O ; ; 4 l b m pXpXzXzXVXVXVXZXZXZXSXSXSXSXSXSXAXAXAXAXBXBXBXBXeXBXeXBXeXeXeXeXeXeXeX0XeX0XeX0X0X0X0X0X0X0X0X0X0X0X0X0X0X0X0XeX0X0XeXeX0XeXeX0XeXeX0XeX0X0X9X9X9X@X+XOXR.T.Y.F.F.A.h.j.4.4.4.2.<.<.>.-.>.;.-.-.W -.W W J W K J J J J J J J J J -.J W W W -.;.>.;.>.4.>.4.4.d.d.h.A.F.Y.T.R.R.OX@X@X<X9X9X9XeX0XeXeXeXeXBXBXBXBXBXBXBXAXAXAXAXAXAXAXAXAXAXBXBXBXBXBXeXeXeXeXeXeX9X9X9X@X@X+XOXT.Y.F.F.h.h.d.4.4.3.",
"d.4.h.h.h.j.F.Y.Y.R.+X+X@X9X9X9XeXeXeXeXeXBXBXBXBXBXBXAXAXAXAXAXAXAXAXAXAXAXAXBXBXBXBXBXBXBXBXeXeXeXeXeX9X9X9X9X@X@X+XOXR.T.Y.Y.A.h.h.h.4.4.4.>.>.>.>.-.-.-.-.W -.W W J W W J W W J W W W W W -.-.-.-.-.>.>.>.<.<.4.4.4.h.h.h.j.F.Y.Y.Y.R.+X+X@X9X9X9X9XeX9XeXeXeXeXeXeXeXeX0XeX0X0X0X0X0X0X0X9X0X0X0X0X0X0X0X0X0XeX9X0XeX0XeXeXeXeXeXeXeXBXBXBXBXBXAXAXAXAXAXSXSXSXSXSXSXZXZXZXVXVXVXVXzXzXzXgXpXm b l 7 ; ; O O . O O & ; 4 7 l b m pXpXjXjXzXzXcXVXVXVXVXVXZXZXZXZXZXZXZXZXZXZXZXZXZXZXZXZXZXZXZXVXVXVXVXVXcXcXzXcXzXzXzXjXjXjXjXzXjXzXzXzXzXcXzXVXzXVXcXVXVXVXVXVXVXVXVXZXVXZXVXZXVXVXVXVXVXVXVXVXzXVXcXzXzXzXjXgXpXpXb b l 4 1 ; O O . . O = = ; 7 x b m gXjXzXcXcXVXVXZXZXZXSXSXSXSXSXAXAXAXAXBXBXBXBXBXBXBXeXeXeXeXeXeX0XeX0XeX0X0X0X0X0X0X0X9X0X9X0X9X9X9X9X0X0X0X0X0XeX0XeX0XeX0XeXeX0XeX0X0X0X0X9X@X@X@X+XOXR.T.Y.F.A.A.h.d.4.4.2.2.<.>.>.>.-.-.W -.-.J W W J J J J J J J J J J J W J -.J W -.-.-.;.>.>.>.4.4.4.d.j.A.A.Y.Y.T.R.+X@X@X@X9X9X0XeX0XeXeXeXBXeXBXBXBXBXBXAXAXAXAXAXAXAXAXAXAXAXAXAXBXBXBXBXBXBXeXeXeX9XeX9X9X9X@X@XOXOXT.Y.A.A.h.h.d.d.4.",
"d.h.h.h.j.A.Y.Y.R.OX@X@X9X9X9XeX9XeXeXeXBXBXBXBXAXBXAXAXAXAXAXAXAXAXAXAXAXAXAXAXAXAXAXBXBXBXBXBXeXeXeXeXeX9XeX9X@X@X@X@XOXOXT.Y.Y.F.F.h.h.4.4.4.4.<.>.>.>.>.-.-.-.W -.-.W W W W W W -.-.-.-.-.-.;.;.>.>.<.<.<.<.4.4.4.h.h.h.F.F.Y.Y.R.OXOX+X@X@X9X9XeX9XeXeXeXeXeXeXeXeXeXeXeXeXeXeXeXeX0XeX0XeX0X0X0XeX0X0X0X0XeX0XeXeXeXeXeXeXeXeXeXBXBXBXBXBXAXAXAXAXAXAXSXSXSXSXSXZXZXZXZXVXVXVXVXVXzXzXpXpXm b l 4 ; ; O O . O O ; ; 4 7 l m m pXpXzXzXzXcXVXVXVXVXZXZXZXZXZXZXZXZXSXZXSXSXSXSXSXZXSXZXZXZXZXZXZXZXVXVXVXVXcXVXzXzXzXzXzXjXzXzXgXzXzXzXzXcXzXVXzXVXVXVXVXVXVXVXVXVXVXVXVXVXVXVXVXVXVXVXVXVXVXzXVXVXcXcXcXzXjXjXpXpXm b z l 4 ; = & O . . O O ; 4 7 x b pXpXzXzXzXVXVXZXZXZXZXSXSXSXSXSXAXAXAXAXBXBXBXBXeXBXeXBXeXeXeXeX0XeXeX0X0X0X0X0X0X0X9X9X9X9X9X9X9X9X9X9X9X9X0X0X0X0X0X0XeX0XeXeX0XeX0XeX0X0X9X9X9X9X@X+XOXT.Y.Y.F.F.j.h.4.4.4.4.<.>.>.>.;.-.-.-.J W J W J J J J J J J D J J J J J J J W W W -.;.;.>.>.>.4.4.4.d.d.A.A.Y.T.R.R.OX@X@X<X9X0X0X0XeXeXBXeXeXBXBXBXBXBXAXAXAXAXAXAXAXAXAXAXAXAXAXAXAXAXBXBXBXBXBXeXeXeXeX9XeX9X9X@X@XOXR.Y.Y.A.A.h.h.h.d.",
"j.h.h.A.A.Y.Y.R.R.+X@X@X9X9X9XeXeXeXeXBXBXBXBXBXAXAXAXAXAXSXSXSXSXSXSXSXSXSXAXAXAXAXAXAXBXBXBXBXBXBXeXeXeXeX9X9XeX9X@X@X@XOXOXT.T.Y.F.j.h.h.h.4.4.4.<.<.>.<.>.>.-.>.-.-.-.-.-.-.-.-.-.-.>.-.>.>.>.<.<.<.<.4.4.4.4.h.h.j.j.F.Y.Y.T.R.OXOX@X@X9X9X9XeX9XeXeXeXeXBXBXBXeXBXBXBXeXBXeXeXeXeXeXeXeXeXeXeX0XeXeXeXeXeXeXeXeXeXeXeXeXBXBXBXBXBXBXBXAXAXAXAXAXAXSXSXSXSXSXSXZXZXZXZXVXVXVXVXzXzXzXgXpXm z l 4 ; = O O . O & ; ; 7 7 b m m pXzXzXzXcXVXVXVXVXZXZXZXZXZXSXSXSXSXSXSXSXSXSXSXSXSXSXSXSXSXSXZXZXZXZXZXVXVXVXVXcXVXzXzXzXzXzXzXzXzXjXzXzXzXzXcXcXVXzXVXcXVXVXVXVXVXVXVXVXVXVXVXVXVXVXVXVXVXVXVXVXVXzXVXzXzXzXjXgXgXpXm b z l 4 ; ; O O . O O = ; 4 l x m pXgXjXzXVXVXVXVXZXZXSXSXSXSXSXAXAXAXAXBXBXBXBXBXBXeXeXeXeXeXeX0XeX0X0X0X0X0X0X9X9X9X9X9X9X9X9X9X9X9X9X9X9X9X9X0X0X0X0X0XeX0XeX0XeX0XeX9XeX9X9X9X@X@X+XOXOXT.Y.Y.F.h.h.h.4.4.2.2.>.>.>.-.-.-.-.W -.J W J J J J J D J D J D J J J J J -.J W -.-.-.;.>.>.4.>.4.d.d.j.A.Y.Y.Y.R.+X+X@X@X<X9X0X0XeXeXeXeXBXBXBXBXBXBXAXAXAXAXAXAXAXAXAXSXAXAXAXAXAXAXAXAXBXBXBXBXBXeXeXeXeX9X9X9X9X@XOXOXR.Y.Y.A.A.h.j.h.",
"j.A.A.A.Y.Y.R.R.+X@X@X9XeX9XeXeXeXeXBXBXBXAXAXAXAXAXSXSXSXSXSXSXSXSXSXSXSXSXSXSXSXSXAXAXAXAXBXBXBXBXBXeXeXeXeXeX9X9X9X@X@X@X+XOXR.Y.Y.Y.F.F.h.h.h.4.4.4.4.<.<.<.<.>.>.>.>.>.>.>.>.>.>.>.>.<.>.<.<.<.<.4.4.4.4.h.h.j.j.j.Y.Y.Y.R.R.OX+X@X@X9X9X9XeX9XeXeXeXeXBXBXBXBXBXBXBXBXBXBXBXBXeXBXeXeXeXeXeXeXeXeXeXeXeXeXeXeXeXeXBXBXBXBXBXBXBXAXAXAXAXAXAXAXSXSXSXSXSXSXZXZXZXZXZXVXVXVXVXzXzXjXpXm m z l 4 ; = O . . O & ; ; 7 l b m pXpXzXzXcXcXVXVXVXZXZXZXZXSXSXSXSXSXSXSXSXSXSXSXSXSXSXSXSXSXSXSXSXSXZXZXZXZXZXVXVXVXVXzXVXcXcXzXzXzXgXzXjXzXzXzXzXzXcXzXVXcXVXVXcXVXVXVXVXVXVXVXVXVXVXVXVXVXVXVXVXcXVXzXVXcXcXzXzXjXjXpXpXb b x 4 1 ; & O O . O O = ; 7 l b m pXjXzXcXcXVXVXZXZXSXSXSXSXSXSXAXAXAXAXBXBXBXBXBXeXBXeXeX0XeX0XeX0X0X0X0X0X9X9X9X9X9X9X9X9X9X9X@X9X9X9X9X9X9X9X9X0X0X0XeX0XeX0XeX0XeX0XeX0X0X9X9X9X@X+XOXOXT.Y.F.A.A.j.d.4.4.4.<.>.>.>.-.-.-.W -.J W J J J J D J D J D J D D J J J J J W W W -.;.;.>.>.>.4.4.4.j.h.A.Y.Y.R.OXR.@X@X<X0X0X0X0XeXeXeXBXBXBXBXBXBXAXAXAXAXAXSXAXAXSXAXAXSXAXAXAXAXAXAXAXAXAXBXBXBXBXeXeXeX9XeX9X9X@X@XOXR.T.Y.Y.A.A.A.j.",
"A.A.Y.Y.Y.T.R.OX@X@X9X9X9XeXeXeXeXBXBXBXBXAXAXAXAXSXSXSXSXSXSXSXSXSXSXSXSXSXSXSXSXSXSXSXAXAXAXAXBXBXBXBXeXeXeXeXeX9X9X9X9X@X@X+XOXR.R.Y.Y.F.j.j.h.h.h.4.4.4.4.<.<.<.<.<.>.<.>.<.>.<.>.<.>.<.4.<.4.4.4.4.h.h.h.j.j.A.Y.Y.Y.Y.R.R.+X+X@X@X9X9X9XeXeXeXeXeXBXBXBXBXBXAXAXBXAXBXBXBXBXBXBXBXBXBXBXeXBXeXBXeXBXBXeXBXBXBXBXBXBXBXBXBXBXAXAXAXAXAXAXAXSXSXSXSXSXSXSXZXZXZXZXVXVXVXVXcXzXzXjXpXm b z 7 ; ; O O O O O ; ; ; 7 l m m pXjXzXzXcXVXVXVXZXZXZXZXSXSXSXSXSXSXSXSXSXSXSXSXSXSXSXSXSXSXSXSXSXSXSXSXZXZXZXZXZXVXVXcXVXcXcXzXzXzXzXzXgXzXjXzXzXzXzXcXcXcXcXVXzXVXVXcXVXVXVXVXVXVXVXVXVXVXVXVXVXVXVXVXVXzXcXcXzXzXgXjXpXm m b l l 1 ; = O O . O O ; ; 4 z b m gXjXzXcXVXVXVXZXZXZXSXSXSXSXAXAXAXAXBXBXBXBXBXeXeXeXeXeXeX0XeX0X0X0X0X9X9X9X9X9X9X@X9X9X@X9X@X9X9X@X9X9X9X9X9X9X0X0X0X0X0XeX0XeX0X0XeX9X0X0X9X9X@X9X+XOXT.T.Y.F.A.j.d.d.4.4.>.2.>.>.;.-.-.W W J W J J J J D J D D D D D J D J J J J J W W W -.;.>.>.>.2.4.4.d.d.A.A.Y.Y.R.R.@X@X@X<X<X0X0XeX0XeXeXBXBXBXBXAXAXAXAXAXSXAXAXSXSXSXSXSXSXSXAXSXSXAXAXAXAXAXAXBXBXBXBXeXeXeX9X9X9X9X@X@XOXR.T.Y.Y.A.A.A.",
"F.Y.Y.Y.R.R.OX@X@X9X9X9XeXeXeXeXBXBXBXAXAXAXAXSXSXSXSXSXSXSXSXSXSXSXSXSXSXSXSXSXSXSXSXSXSXAXAXAXAXBXBXBXBXBXeXeXeXeX9XeX9X9X@X@X+X+XOXR.T.Y.Y.F.F.j.j.h.h.h.4.4.4.4.4.4.4.<.4.<.4.<.4.4.4.4.4.4.4.4.h.h.j.j.j.j.Y.Y.Y.Y.R.R.OX+XOX@X9X9X9X9XeXeXeXeXBXBXBXBXAXAXAXAXAXAXAXAXAXAXAXAXBXBXBXBXBXBXBXBXBXBXBXBXBXBXBXBXBXBXBXBXAXAXAXAXAXAXAXAXSXSXSXSXSXSXSXZXZXZXZXVXVXVXVXVXzXzXzXgXpXm b l 7 ; ; O O . O O & ; 4 7 x m pXpXjXzXzXVXVXVXZXZXZXZXSXSXSXSXSXSXSXSXAXSXAXAXAXAXAXAXAXAXSXSXSXSXSXSXSXSXSXZXZXZXZXVXVXVXVXcXcXzXzXzXjXzXjXjXjXgXzXzXzXzXcXzXVXzXVXVXzXVXVXVXVXVXVXVXVXVXVXVXVXVXVXzXVXVXzXVXcXzXzXjXjXjXpXm m z l 4 1 ; & O . . O = = 4 7 x b pXpXzXzXzXVXVXZXZXZXSXSXSXSXSXAXAXAXBXBXBXeXBXeXBXeXeXeXeX0XeX0X0X0X0X9X9X9X9X9X9X@X9X@X@X9X@X@X9X@X9X@X9X9X9X9X9X9X0X0X0XeX0XeX0XeXeX9XeX0X9X9X9X9X@XOXOXOXT.Y.F.A.j.h.d.4.>.4.>.>.>.-.-.-.W -.J J J J J D J D D J D J D D J D J J J J W W -.;.;.;.;.4.2.4.4.d.j.A.F.Y.R.R.R.@X@X<X<X0X0X0XeXeXBXeXBXBXBXBXAXAXAXAXAXAXSXSXSXSXSXSXSXSXSXSXSXAXSXAXAXAXAXAXAXBXBXBXBXeXeXeXeX0X9X9X@X@XOXR.T.Y.Y.Y.F.",
"T.Y.T.T.R.OX+X@X9X@XeX9XeXeXeXBXBXBXAXAXAXAXSXSXSXSXSXSXSXSXSXSXSXSXSXSXSXSXSXSXSXSXSXSXSXSXSXAXAXAXBXBXBXBXBXeXeXeXeX9X9X9X9X9X@XOX+XOXR.R.Y.Y.Y.j.j.j.j.j.h.h.h.4.4.4.4.4.4.4.4.4.4.4.h.4.h.h.h.h.j.j.j.Y.Y.Y.Y.Y.R.R.R.+X+X+X9X9X9X9X9XeXeXeXeXBXBXBXAXAXAXAXAXAXAXAXAXAXAXAXAXAXAXAXAXBXAXBXBXBXBXBXBXBXBXAXBXAXAXAXAXAXAXAXAXAXAXSXSXSXSXSXSXSXSXZXZXZXZXZXVXVXVXVXcXzXzXzXpXpXm x l 7 ; ; O O . O O ; ; 4 l b b pXgXzXzXcXVXVXVXZXZXZXSXSXSXSXSXSXSXAXAXAXAXAXAXAXAXAXAXAXAXAXAXAXSXSXSXSXSXSXSXSXZXZXZXZXVXVXcXVXzXcXzXzXzXgXjXjXgXjXgXzXzXzXzXcXcXVXzXVXVXcXVXVXVXVXVXVXVXVXVXVXVXVXVXVXVXcXVXcXcXcXzXzXjXpXpXpXb b l 4 1 = & O . . O & = 4 7 z m pXgXjXzXVXVXVXZXZXZXSXSXSXSXSXAXAXAXBXBXBXBXBXeXeXeXeX0XeXeX0X0X0X0X9X9X9X9X9X@X@X9X@X9X@X@X9X@X@X9X@X9X9X@X9X9X9X9X0X0X0X0X0X0XeX0X0XeX0X0X0X9X9X@X@X+XOXT.T.Y.F.h.j.d.4.4.4.>.>.>.;.;.-.W -.J -.J J J J D D J D D D D J D D J J J J J W W W -.;.>.>.>.4.4.d.h.h.A.Y.Y.T.R.+X@X@X9X0X0X0XeXeXeXeXBXBXBXBXAXAXAXAXAXSXAXSXSXSXSXSXSXSXSXSXSXSXSXSXSXAXSXAXAXAXAXBXBXBXBXeXeXeX9X0X9X@X@XOXOXOXT.T.T.T.",
"T.T.R.OXOX+X@X@X@XeX9XeXeXeXBXBXBXAXAXAXAXSXSXSXSXSXSXSXSXSXZXSXZXZXZXZXZXZXZXZXSXSXSXSXSXSXSXAXAXAXAXAXBXBXBXBXeXeXeXeXeX9X0X@X9X9X@X+X+XR.R.R.Y.Y.Y.Y.F.j.j.j.j.h.h.h.h.h.h.4.h.h.h.h.h.h.j.j.j.j.j.A.Y.Y.Y.Y.Y.R.R.+X+X+X+X9X9X9X9X9XeXeXeXeXBXBXAXAXAXAXAXSXSXSXSXSXSXSXSXSXAXAXAXAXAXAXAXAXAXAXAXAXAXAXAXAXAXAXAXAXAXAXAXAXSXSXSXSXSXSXSXSXSXZXZXZXZXZXVXVXVXVXVXzXzXzXjXpXpXm x l 4 ; ; O O O O & ; ; 7 l b m pXgXzXcXcXVXVXZXZXZXSXSXSXSXSXSXSXAXAXAXAXAXAXAXAXAXAXAXAXAXAXAXAXAXAXSXSXSXSXSXSXZXZXZXZXVXVXVXVXcXcXzXzXzXgXjXgXgXgXjXjXgXzXzXzXzXcXzXVXVXcXVXVXcXVXcXVXVXVXVXVXVXVXVXcXVXcXVXcXcXcXzXzXjXpXjXpXm m x l 4 ; ; & O . . O = ; 4 l x m pXgXzXcXcXVXVXZXZXSXSXSXSXSXAXAXAXBXBXBXBXBXeXeXeXeXeXeXeX0X0X0X0X9X9X9X9X9X@X@X9X@X@X@X@X@X@X@X@X@X@X@X@X9X@X9X9X9X9X0X0X0X0XeX0X0XeX0X0X0X0X9X9X@X@X+XOXT.Y.F.F.F.h.d.4.4.4.>.>.>.;.-.-.-.J -.J J J J D D J D D D D D D D D J J J J W W W -.;.;.>.>.<.4.4.d.d.A.F.Y.T.R.R.@X@X<X<X<X0XeXeXeXeXBXBXBXAXAXAXAXAXAXAXSXSXSXSXSXSXSXSXSXSXSXSXSXSXSXSXSXAXSXAXAXAXAXBXBXBXeXeXeXeX9X0X9X@X@XOXOXOXR.T.T.",
"OXOXOXOX+X@X@X9X9X9XeXeXeXeXBXBXBXAXAXAXSXSXSXSXSXSXSXZXZXZXZXZXZXZXZXZXZXZXZXZXZXZXSXSXSXSXSXSXSXAXAXAXAXBXAXBXBXBXeXeXeXeX9XeX@X9X@X@X@X+XOXR.R.R.Y.Y.Y.Y.A.A.j.j.j.j.j.j.j.j.j.j.h.j.j.j.A.F.Y.Y.Y.Y.Y.Y.Y.OXR.OX+X+X+X9X@X9X9X9XeXeXeXeXeXBXBXAXAXAXAXSXSXSXSXSXSXSXSXSXSXSXSXSXSXAXSXAXAXAXAXAXAXAXAXAXAXAXAXAXAXAXSXSXSXSXSXSXSXSXSXSXSXZXZXZXZXZXVXVXVXVXVXzXVXzXjXgXpXm b x l 4 ; O O O . O & ; ; 7 l b m pXzXzXzXcXVXVXZXZXZXSXSXSXSXSXSXAXAXAXAXAXAXAXAXAXAXAXAXAXAXAXAXAXAXAXAXAXAXSXSXSXSXSXSXZXZXZXVXVXVXcXzXzXzXgXjXgXgXgXgXpXjXjXjXjXzXzXcXcXcXcXVXzXVXVXVXVXVXcXVXVXVXVXVXcXVXVXVXzXVXcXcXzXzXjXjXpXpXm b x l 4 1 = & O . O O = ; 4 l b m pXjXzXcXVXVXVXZXZXZXSXSXSXSXAXAXAXBXBXBXBXeXBXeXeX0XeX0X0X0X0X0X9X9X9X@X9X@X9X@X@X@X@X@X@X@X@X@X@X@X@X@X@X9X9X@X9X9X0X0X0X0XeX0XeX0X0XeX9X0X9X9X9X9X@X+XR.R.T.Y.A.h.j.d.4.4.>.2.>.>.;.-.W W W J J J J J D D D D D D D D D J D D J J J J W W -.;.;.>.4.>.4.4.h.j.A.A.Y.T.R.+X@X@X9X0X0X0XeXeXeXBXBXBXBXAXAXAXAXAXSXSXSXSXSXSXSXSXSXSXSXZXSXSXSXSXSXSXSXSXSXAXAXAXAXAXBXBXBXeXeXeXeX9X9X9X@X@XOXOXOXOXT.",
"OXOXOX+X@X@X9X9X9XeXeXeXBXBXBXAXAXAXAXSXSXSXSXSXSXSXZXZXZXZXZXZXZXZXZXZXZXZXZXZXZXZXZXZXZXSXSXSXSXSXSXAXAXAXBXBXBXBXBXeXeXeXeX9XeX9X9X9X@X@X@X+XR.R.R.R.Y.Y.Y.Y.Y.Y.Y.j.Y.A.A.A.A.j.Y.j.Y.Y.Y.Y.Y.Y.Y.Y.R.R.OXOX+X+X+X+X9X9X9XeX9XeXeXeXeXBXBXBXAXAXAXSXSXSXSXSXSXSXSXSXSXSXSXSXSXSXSXSXSXSXSXSXSXSXAXSXAXSXAXSXSXSXSXSXSXSXSXSXSXSXSXSXSXZXZXZXZXZXZXVXVXVXVXVXVXzXjXjXgXpXm b l 7 ; ; O O . O O & ; ; 7 l b pXpXzXzXcXVXVXZXZXZXSXSXSXSXSXSXAXAXAXAXAXAXAXAXAXBXAXBXAXBXAXAXBXAXAXAXAXAXAXSXSXSXSXSXSXZXZXZXVXVXVXcXcXzXzXzXgXgXgXgXpXgXgXgXgXgXzXzXzXzXcXzXVXzXVXVXVXcXVXVXVXVXVXVXcXVXVXVXVXcXVXcXcXcXzXjXjXjXpXpXb b z l 4 ; ; O O . O O = ; 4 l b m pXjXzXcXVXVXZXZXZXSXSXSXSXAXAXAXBXBXBXBXeXBXeXeXeXeX0XeX0X0X0X9X9X9X@X9X@X9X@X@X@X@X@X@X+X@X@X+X@X+X@X@X9X@X@X9X<X9X9X0X0X0X0X0X0X0XeX9XeX0X0X9X9X@X@X+XOXT.Y.F.F.A.h.d.4.>.4.<.>.;.-.-.-.W W J J J J D D J D D D D D D D D D J J J W J W -.-.;.>.>.>.4.4.d.d.h.A.Y.Y.R.R.@X@X<X<X<XeX0XeXeXeXBXBXBXAXAXAXSXAXSXSXSXSXSXSXSXSXSXSXSXSXSXSXSXSXSXSXSXSXSXSXSXSXAXAXAXAXBXBXBXeXeXeX0X0X9X9X@X@XOX+XOXOX",
"OX@X@X@X@X9X9X9XeXeXeXeXBXBXBXAXAXAXSXSXSXSXSXSXZXZXZXZXZXZXZXVXZXZXZXZXZXZXZXZXZXZXZXZXZXZXZXSXSXSXSXSXAXAXAXAXBXBXBXBXBXeXeXeX9X9X9X9X9X@X@X+X+X+XOXOXR.R.Y.Y.Y.Y.Y.Y.Y.Y.Y.Y.Y.Y.Y.Y.Y.Y.Y.Y.Y.OXR.OXR.OX+X+X+X@X9X9X9X9XeX9XeXeXeXeXBXBXBXAXAXAXSXSXSXSXSXSXSXSXZXSXZXSXSXSXSXSXSXSXSXSXSXSXSXSXSXSXSXSXSXSXSXSXSXSXSXSXSXSXSXSXZXZXZXZXZXZXZXVXVXVXVXzXVXzXzXzXjXpXpXm x l 7 ; ; O O O O O & ; 4 7 x m pXpXzXzXcXVXVXZXZXZXSXSXSXSXSXAXAXAXAXAXAXAXBXBXBXBXBXBXBXBXBXBXBXAXBXAXAXAXAXAXAXSXSXSXSXSXZXZXZXVXVXVXcXcXzXzXgXjXgXpXgXpXpXgXgXgXjXgXjXzXzXcXcXcXVXzXVXcXVXVXcXVXVXVXcXVXVXcXVXzXVXcXcXcXzXzXjXjXpXgXpXm b z 7 4 ; = O O . . O = ; 7 l b m gXjXzXcXVXVXVXZXZXSXSXSXSXSXAXAXAXBXBXBXBXeXeXeXeXeX0X0X0X0X9X9X9X@X9X@X@X@X@X@X+X@X@XOX@X@XOX@X@X@X@X@X@X9X@X9X9X9X9X0X0X0XeX0XeX0X0XeX9X0X0X9X@X9X@XOXOXR.T.Y.j.A.d.d.4.4.>.>.>.>.-.-.W W W J J J J J D D D D D D D D D J D J J J J W W -.-.;.>.>.>.4.4.d.j.A.A.Y.Y.R.R.@X@X<X9X0X0XeXeXeXBXBXBXBXAXAXAXSXAXSXSXSXSXSXSXSXSXSXZXZXZXSXZXSXSXSXZXSXSXSXSXSXSXSXAXAXAXAXBXBXBXeXeXeX0X0X9X9X@X@X+X+X+X",
"@X@X@X@X9X9X9XeXeXeXeXBXBXBXAXAXAXSXSXSXSXSXZXZXZXZXZXZXZXZXZXZXZXVXVXVXVXVXVXZXVXZXZXZXZXZXZXZXSXSXSXSXSXAXAXAXAXBXBXBXBXBXeXeXeXeXeX9X9X9X9X9X9X+X+X+XOXOXR.R.R.R.Y.Y.R.Y.Y.Y.Y.Y.Y.R.Y.R.Y.R.OXOXOXOX+X+X+X+X9X9X9XeX9X9X9XeXeXeXBXBXBXBXAXAXSXSXSXSXSXSXZXZXZXZXZXZXZXZXZXZXZXSXSXSXSXSXSXSXSXSXSXSXSXSXSXSXSXSXSXSXSXSXSXZXZXZXZXZXZXZXZXVXVXVXVXVXVXVXzXjXjXgXpXm b x 7 4 ; ; O O . O O ; ; 4 7 x m pXpXzXcXcXVXVXZXZXSXSXSXSXSXAXAXAXAXAXAXBXAXBXBXBXBXBXBXBXBXBXBXBXAXBXAXBXAXAXAXAXSXSXSXSXSXSXZXZXVXVXVXVXcXzXzXjXjXpXgXpXpXpXpXpXpXgXgXjXjXzXzXcXzXcXcXVXcXVXVXzXVXVXVXcXVXVXcXVXcXVXVXcXcXzXzXjXjXjXjXpXm m b z l 4 ; = O O . O O ; ; 4 z b pXpXjXcXcXVXVXZXZXSXSXSXSXAXAXAXAXBXBXBXeXBXeXeXeXeX0XeX0X0X9X9X@X9X9X@X9X@X@X+X@X@X+X+X+X@XOX@X@XOX@X@X@X@X@X@X@X9X<X9X0X9XeX9XeX0X0XeX9XeX9X0X9X9X9X@X+XOXT.Y.Y.A.A.j.4.4.4.4.>.>.;.-.-.W W J J J J D D J D D D D D D D D D J J J W J W W -.;.;.>.>.4.4.4.d.h.A.Y.Y.R.R.@X@X@X<X0XeX0XeXeXBXBXBXBXAXAXAXSXAXSXSXSXSXSXSXZXZXZXZXZXZXZXZXZXZXZXZXSXSXSXSXSXSXSXSXSXAXAXAXBXBXBXBXeXeXeX0X0X9X9X@X@X@X+X",
"<X<X<X9X9X9X9XeXeXeXBXBXBXAXAXAXSXSXSXSXSXZXZXZXZXZXVXZXVXVXVXVXVXVXVXVXVXVXVXVXVXVXZXVXZXZXZXZXZXZXSXSXSXSXSXAXAXAXBXBXBXBXBXeXeXeXeXeX9X9X9X9X9X9X+X+X+X+X+XOX+XR.OXOXY.OXR.R.R.R.R.R.R.OXOXOXOX+X+X@X+X9X9X@X9X9X9X9XeXeXeXeXeXeXBXBXBXAXAXAXSXSXSXSXZXZXZXZXZXZXZXZXZXZXZXZXZXZXZXZXZXSXSXSXSXSXSXSXSXSXSXSXSXZXZXZXZXZXZXZXZXZXZXZXVXZXVXVXVXVXVXzXzXzXzXjXpXpXm x l 7 4 ; O O O . O O & ; 4 l b m m jXjXzXVXVXVXZXZXSXSXSXSXSXAXAXAXAXAXAXBXBXBXBXBXBXBXBXBXBXBXBXBXBXBXAXBXAXAXAXAXAXAXSXSXSXSXSXZXZXZXVXVXcXcXzXzXgXgXgXpXpXpXpXpXpXpXpXgXjXjXjXzXzXcXcXcXVXcXVXVXVXVXzXVXVXVXzXVXVXVXcXcXcXcXcXzXzXjXgXgXpXpXm b z 4 4 ; = O O . O O = ; 7 l m m gXjXzXcXVXVXZXZXZXSXSXSXSXAXAXBXBXBXBXBXeXeXeXeX0X0X0X0X9X0X9X9X@X@X@X@X@X@X@XOX@X+X+X+XOX@XOX+X@XOX@X@X@X@X9X@X9X9X9X0X0X0XeX9XeX0X0XeX9XeX9X9X9X@X@X+XOXT.T.Y.A.h.d.d.4.4.>.>.>.;.;.-.W W J W J J J D D D D D D D D D D D J J J J W W -.-.;.>.>.>.4.4.d.h.A.j.Y.Y.R.R.@X@X9X9X0X0XeXeXBXeXBXBXBXBXSXAXSXSXSXSXZXSXZXZXZXZXZXZXZXZXZXZXZXZXZXZXZXZXSXSXSXSXSXSXSXSXAXAXAXBXBXBXBXeXeX0X0X0X9X9X9X@X<X",
"<X<X9X9X0X9XeXeXeXBXBXBXAXAXAXSXSXSXSXZXZXZXZXZXVXZXZXVXVXVXVXVXVXcXVXnXnXVXnXVXVXVXVXVXZXVXZXZXZXZXZXSXSXSXSXSXAXAXAXAXAXBXBXBXBXeXeXeXeXeX9X9X9X9X9X9X9X@X+X+X+X+X+XOX+XOX+XOX+XOX+XOX+X+X+X+X+X+X@X@X9X9X9X9XeX9X9XeXeXeXeXeXBXBXBXBXAXAXSXSXSXSXZXZXZXZXZXZXZXVXVXVXVXVXVXZXZXZXZXZXZXZXZXZXZXZXZXZXZXZXZXZXZXZXZXZXZXZXZXZXZXZXVXVXVXVXVXzXVXVXzXzXjXjXpXpXm b x l 7 ; ; O O O O O & ; 4 4 l b m N jXzXcXVXVXZXZXZXSXSXSXSXAXAXAXAXAXAXBXBXBXBXBXBXBXBXBXBXBXBXBXBXBXBXBXBXBXBXAXAXAXAXAXSXSXSXSXZXZXZXVXVXVXVXzXzXzXgXgXpXpXpXm m m pXpXpXjXpXjXjXzXzXcXcXcXcXVXzXVXVXzXVXVXcXVXVXVXVXcXcXcXcXcXzXzXjXjXjXpXpXm b b z l 1 1 = O . . O O ; ; 7 x b pXgXzXzXVXVXZXZXZXSXSXSXSXSXAXAXAXBXBXBXeXeXeXeXeX0XeX0X0X0X9X@X9X@X9X@X@X@XOX+X@XOX+X+XOX+XOXOX@XOX@X+X+X@X9X@X@X9X9X9X0X0X0X9XeX0XeXeX9XeX9X9X9X9X@X9X+XOXT.Y.F.A.A.j.4.4.2.4.>.>.;.-.-.W J W J J J D D J D D D D D D D D J J J J J W W -.;.;.>.;.4.4.4.d.d.j.Y.Y.T.R.@X@X@X<X0X0X0XeXBXeXBXBXBXAXAXAXSXAXSXSXSXAXZXZXZXZXZXZXZXVXZXZXZXVXZXZXZXZXZXZXZXSXSXSXSXSXSXSXAXAXAXBXBXBXBXeXeX0X0X0X9X9X<X<X",
"0X9X0X9X0XeXeXeXeXBXBXBXAXAXSXSXSXSXZXZXZXZXZXZXVXVXVXVXnXnXnXnXcXnXcXnXcXcXcXnXcXnXnXVXnXVXVXZXVXZXZXZXZXSXSXSXSXSXAXAXAXAXAXBXBXBXeXeXeXeXeX9X9X9X9X9X9X9X9X+X+X+X+X+X+X+X+X+X+X+X+X+X+X+X@X9X9X9X9X9X9X9X9XeX9XeX0XeXeXeXBXBXBXBXBXAXAXSXSXSXSXZXZXZXZXVXVXVXVXVXVXVXVXVXVXVXVXVXZXZXZXZXZXZXZXZXZXZXZXZXZXZXZXZXZXZXZXZXVXVXZXVXVXVXVXzXVXVXzXzXzXjXgXpXpXm x z l 4 ; ; O O O . O & ; ; 7 l b m pXzXzXcXVXVXVXZXZXSXSXSXSXAXAXAXAXAXAXBXBXBXBXBXBXBXBXBXBXBXeXBXBXBXBXBXBXBXAXBXAXAXAXAXAXSXSXSXSXSXZXZXZXVXcXcXcXzXgXgXgXpXpXm m m m m pXpXgXjXgXjXzXzXzXcXcXcXcXVXVXzXVXVXzXVXzXVXcXcXVXcXcXcXzXzXzXjXjXpXjXpXm m z z l 1 ; = O O . O O = 4 7 z b pXgXzXcXcXVXVXZXZXSXSXSXSXAXAXAXBXBXBXBXBXeXeXeX0XeX9X0X9X9X9X9X@X@X@X@X@XOX@X+XOX+XOXOXOXOXOX+XOX@XOX@X+X@X@X9X@X@X9X0X9X0X0XeX0XeX9XeXeX9XeX9X9X9X@X@X+XOXOXT.Y.A.h.h.d.4.4.>.<.>.;.;.-.W W J J J J J D D D D D D D D J D J J J J J -.W -.;.;.>.4.>.4.d.h.A.A.Y.Y.R.R.@X@X9X9X0XeXeXeXeXBXBXBXAXAXSXAXSXSXSXSXZXZXZXZXZXZXZXVXZXZXVXZXVXZXVXZXVXZXZXZXZXZXZXSXSXSXSXSXSXAXAXAXBXBXBXBXeXeX0X0X0X0X9X0X",
"0X0X9XeXeXeXeXBXBXBXBXAXAXSXSXSXZXSXZXZXZXZXZXVXVXVXVXnXcXnXcXcXcXcXcXcXcXcXcXcXnXcXcXcXnXnXnXnXZXVXZXZXZXZXZXSXSXSXSXAXAXAXAXBXBXBXBXeXeXeXeXeXeXeX9X9X9X9X9X9X9X9X9X9X@X9X+X9X+X9X@X9X9X9X9X9X9X9X9X9X0X9X0X0X0XeXeXeXeXBXBXBXBXAXAXSXSXSXSXSXZXZXZXZXVXVXVXVXcXVXVXVXVXcXVXVXVXVXVXVXVXVXZXVXZXZXZXZXZXZXZXZXZXVXZXZXVXVXVXVXVXVXzXVXVXVXzXzXjXjXjXpXm m m z l 7 ; ; ; O O . O & & ; ; 7 l m pXpXjXcXcXVXVXZXZXSXSXSXSXSXAXAXAXAXAXBXBXBXBXBXBXBXBXBXBXeXBXBXBXeXBXBXBXBXBXBXBXAXAXAXAXAXSXSXSXSXSXZXZXZXVXVXVXcXzXzXgXgXpXpXm m m m m m pXpXpXpXjXjXjXzXzXcXcXcXVXcXcXVXVXcXVXVXVXcXcXVXcXzXVXzXzXjXjXjXjXjXpXpXm b b z 4 4 ; = O O . O O = 4 7 x b pXgXzXcXcXVXZXZXZXSXSXSXSXAXAXAXBXBXBXBXeXeXeXeXeX9XeX9X9X9X@X@X9X@X@X@XOX@X@XOX+XOXOXOXOXOXOXOXOXOX+X+X+X+X@X@X9X<X<X9X0X9XeX0XeX9XeXeX9XeX9XeX9X9X9X@X+XOXT.Y.Y.F.A.h.d.4.<.4.>.>.;.;.W W W W J J J J D J D D D D D D D J J J J J W W -.;.;.>.>.>.4.4.d.d.A.F.Y.Y.R.+X@X@X9X9X0X0XeXeXrXBXrXAXAXAXAXAXSXSXSXZXZXZXZXVXZXZXVXZXVXVXZXVXZXVXZXVXZXVXZXZXZXZXZXZXSXSXSXSXSXAXAXAXBXBXBXBXeXeXeX0XeX0X0X0X",
"0XqXqXqXeXeXeXBXBXBXAXAXAXSXSXZXSXZXZXZXZXVXVXVXVXcXnXcXnXcXcXcXcXjXzXzXjXzXzXzXzXcXcXcXcXnXnXnXnXVXZXZXVXZXZXZXZXSXSXSXAXAXAXAXAXBXBXBXBXeXeXeXeX9XeX9X9XeX9X9X9X9X9X9X9X9X9X9X9X9X9X9X9X9X9X9X9X0X0XeX9XeXeXeXeXeXBXBXBXBXBXBXAXAXAXSXSXSXSXZXZXZXZXVXVXVXVXzXVXzXzXcXzXVXzXVXVXVXVXVXVXVXVXVXVXVXVXVXVXVXVXVXVXVXVXVXVXVXVXVXzXVXVXzXzXzXjXjXjXpXm m m x l l 4 ; ; O O O . O & & ; 4 7 l m pXpXzXzXcXVXVXZXZXZXSXSXSXSXAXAXAXAXAXBXBXBXBXBXBXBXeXBXBXeXBXeXBXBXBXBXBXBXBXBXAXBXAXAXAXAXAXSXSXSXSXSXZXZXZXVXVXcXcXzXzXgXgXpXpXm b m m b m m pXpXpXjXjXjXzXzXcXcXcXcXcXVXcXcXVXcXcXVXcXcXcXcXcXzXzXzXzXjXjXpXjXpXpXm b x l l 1 ; = O O . O O ; 1 7 z m pXgXzXzXVXVXVXZXZXSXSXSXSXAXAXAXBXBXBXBXeXeXeX0XeX0X0X9X9X9X9X@X@X@X@X+X@XOXOXOXOXOXOXOXOXOXOXOXOXOX+X+X+X@X@X@X@X9X9X9X0X0X0XeX9XeXeX0XeX0XeX9X0X9X9X@X+XOXR.T.Y.F.A.d.h.4.4.>.>.>.>.;.-.W W J W J J J D D D J D D J D J J J J J W W W -.;.>.>.2.4.4.4.h.A.A.Y.Y.R.R.+X@X9X9X9XeXeXeXeXBXBXAXAXAXAXSXSXSXSXZXZXZXZXZXZXVXMXZXnXZXnXVXVXVXnXVXVXVXZXVXZXVXZXZXZXZXZXSXSXSXSXSXAXAXAXBXBXBXeXeXeX0X0X0X0X",
"qXqXeXeXeXeXBXBXBXAXAXSXSXSXSXSXZXZXZXZXVXVXVXnXcXnXcXcXzXzXzXjXjXjXjXjXjXjXjXjXjXjXjXjXzXcXcXcXnXnXnXnXZXZXZXZXZXSXSXSXSXSXSXSXAXAXBXBXBXBXBXeXeXeXeXeXeX9XeX9XeX9X0X9X0X9X9X9X9X9X9X9X9X9XeX9X0X0X0X0XeXeXeXeXeXBXBXBXBXBXAXAXAXSXSXSXSXZXZXZXZXVXVXzXVXVXzXzXzXzXjXjXzXzXzXzXzXzXVXVXzXVXVXVXzXVXVXVXVXVXVXVXVXVXVXzXVXVXVXzXVXzXzXjXzXjXjXpXm m m b z 7 7 ; ; ; O O . O O & & ; 4 7 b m pXpXzXzXVXVXVXZXZXSXSXSXSXAXAXAXAXAXAXBXBXBXBXBXBXBXBXBXBXeXBXeXBXeXBXBXBXBXBXBXBXBXAXAXAXAXAXSXSXSXSXSXSXZXZXVXVXVXVXzXzXjXgXpXm m m m b b m b m m pXjXpXjXjXzXzXzXcXcXcXVXcXcXVXcXcXVXcXcXVXzXVXzXzXzXzXjXjXjXjXpXpXm b b x l 4 1 ; = O . . O O = 4 7 x m pXgXzXcXVXVXZXZXZXSXSXSXSXAXAXBXBXBXBXeXeXeXeXeX0XeX9X9X9X9X@X9X@X@X+X@XOX@XOXOXOXOXR.OXR.OXOXOXOXOX+X+X+X+X@X+X9X<X9X9X0X9XeX9XeXeX9XeX0XeX0X0X0X9X@X9X+XOXOXT.Y.A.A.j.d.4.4.2.>.>.;.;.-.W W W J J J J J J D D D D D J J J J W J W W -.;.;.>.>.>.4.4.d.h.A.A.Y.R.R.+X+X@X9X@XeXeXeXeXrXBXBXAXAXAXSXAXSXSXZXCXZXZXZXVXVXVXVXVXnXVXnXnXnXnXVXnXVXVXnXVXVXZXVXZXZXZXZXSXSXSXSXSXSXAXAXBXBXBXBXeXeXeXeXeXqX",
"eXeXeXeXeXBXBXBXBXAXAXSXSXSXZXZXZXZXZXVXVXnXcXnXcXcXzXzXjXjXjXjXjXgXgXgXgXgXgXgXgXgXjXjXjXjXzXzXcXnXnXnXnXVXZXZXZXZXZXSXSXSXSXAXSXAXAXAXBXBXBXBXBXeXeXeXeXeX0XeX9XeX0X0X0X9XeX9X0X0X0X0X0XeX9XeX0XeXeXeXeXeXeXBXBXBXBXBXAXAXAXAXSXSXSXSXSXZXZXZXVXVXVXVXzXzXjXjXjXgXjXgXjXjXjXjXzXzXzXzXVXzXVXVXVXVXVXzXVXVXzXVXVXVXzXVXzXzXzXzXzXzXjXjXpXpXpXm m b z l 7 4 ; ; O O O . O O & & 4 4 7 b m N jXzXzXcXVXVXZXZXSXSXSXSXSXAXAXAXAXAXBXBXBXBXBXBXBXeXBXeXBXeXBXBXeXBXBXBXBXBXBXBXBXAXAXAXAXAXAXSXSXSXSXSXSXZXZXZXVXVXcXcXzXgXgXpXpXm b m b b b m m m pXpXgXjXjXjXzXzXcXcXcXcXcXcXcXcXcXcXcXcXzXcXzXzXzXzXjXjXjXpXjXpXpXm m x x l 4 1 ; = O O . O O = 4 7 z m pXgXzXcXcXVXVXZXZXSXSXSXSXAXAXAXBXBXBXBXeXeXeX0X0X0X9X9X9X9X@X@X@X@X+X+XOXOXOXOXR.OXOXR.+XR.OXOXOXOXOX+X+X@X@X9X@X9X9X9X9XeX9XeXeX9XeXeXeX0XeX9X0X9X9X@X@XOXR.T.Y.Y.h.j.d.4.4.2.2.>.;.;.-.-.W W J J J J J J J D J J J J J J J J W W -.-.;.;.>.>.4.4.4.h.A.A.Y.Y.T.R.+X@X9X9XeX9XeXeXrXBXBXAXAXAXSXAXSXSXZXZXZXZXVXVXVXVXnXnXnXnXnXnXnXnXnXnXnXVXnXVXnXVXVXZXVXVXZXZXZXZXSXSXSXSXSXAXAXBXBXBXBXeXeXeXeXeX",
"eXeXBXeXBXBXBXAXAXAXSXSXSXSXZXZXZXZXVXVXcXnXnXcXcXzXjXjXjXjXjXsXsXsXsXsXsXpXpXsXsXsXsXsXsXgXjXjXjXzXzXnXnXnXnXZXZXZXZXZXSXSXSXSXSXSXAXAXAXAXBXBXBXBXBXBXeXeXeXeXeXeX0XeX0XeX0X0X0X0XeX0XeX0XeXeXeXeXeXeXeXBXBXBXBXBXAXAXAXAXSXSXSXSXSXZXZXZXVXVXVXVXzXzXjXjXjXpXpXpXpXpXpXpXpXgXgXjXjXjXzXzXzXzXzXzXzXVXzXzXVXzXzXzXzXzXzXzXjXjXzXpXjXpXm m b b z l l 4 ; ; = O O O . O & & ; 4 7 l m N pXjXzXzXVXVXZXZXZXSXSXSXSXAXAXAXAXAXBXBXBXBXBXBXBXBXeXBXeXBXeXBXeXeXBXBXBXBXBXBXBXBXAXAXAXAXAXAXAXSXSXSXSXSXZXZXZXVXVXVXcXzXjXgXgXpXm m b b b b b b m m pXpXjXgXjXjXzXzXzXzXzXcXcXVXcXzXVXzXVXzXVXzXzXzXzXjXjXgXjXjXpXpXm m b b l l 4 1 ; & O O . O O = 4 7 z m pXgXzXcXVXVXZXZXZXSXSXSXSXAXAXBXBXBXBXeXeXeXeX0XeX9X9X9X9X9X@X@X@X+X+X+XOXOXOXR.+XR.R.R.R.R.OXR.OXOXOX+X+X+X@X@X@X<X9X9XeX9XeX9XeXeXeXeX0XeX0XeX0X9X9X@X@X+XOXT.Y.F.F.j.d.4.4.4.>.>.>.;.-.-.W W J W J J J J J J J J J J J W J J W W -.;.;.>.;.4.4.4.d.h.h.F.Y.T.R.+X+X@X9X0X9XqXeXeXBXBXrXAXAXAXAXSXZXZXCXVXZXVXVXnXnXnXnXnXcXnXcXcXcXcXcXcXnXcXcXnXnXVXnXVXVXZXVXZXZXZXZXSXSXSXSXAXAXAXBXBXBXBXeXeXeXeX",
"eXBXeXBXBXBXBXAXAXSXSXSXSXZXZXZXVXVXnXnXnXcXzXzXjXjXjXjXsXsXsXsXsXpXsXyXyXsXyXyXpXyXyXsXsXsXsXgXjXjXzXzXnXnXcXnXZXZXZXZXZXSXSXSXSXSXSXSXAXAXAXAXBXBXBXBXBXeXBXeXeXeXeXeXeXeXeXeXeXeXeXeXeXeXeXeXeXBXBXBXBXBXBXBXAXAXAXAXAXSXSXSXSXSXZXZXZXVXVXVXVXzXzXjXjXpXm m m m b m b m m m pXpXgXgXjXjXjXjXzXjXjXzXzXzXzXzXjXjXjXjXjXgXgXpXpXm m m b b z l l 4 ; ; ; O O O . O O O & ; 4 7 l m N pXjXzXcXVXVXVXZXZXSXSXSXSXSXAXAXAXAXBXAXBXBXBXBXBXBXeXBXBXeXBXeXBXBXBXBXBXBXBXBXBXAXBXAXAXAXAXAXAXSXSXSXSXSXSXZXZXZXZXVXVXcXzXzXgXpXpXm m b b z b z b m m m pXpXzXjXjXjXzXzXzXVXzXcXzXzXVXzXcXzXzXzXzXzXzXjXjXjXjXpXjXpXpXm m b x z l 4 1 ; = O O . O O = 4 7 z m pXgXzXcXcXVXZXZXZXSXSXSXSXAXAXAXBXBXeXBXeXeX0XeX0X0X9X9X9X@X@X@X@X+X+XOXOXOXOXR.R.R.R.R.R.R.OXOXOXOXOX+X+X@X@X9X@X9X9X9X0X9XeXeX0XeXeX0XeXeX0X0X0X0X9X9X@X+XR.R.T.F.A.h.h.d.4.2.2.>.>.;.;.-.W W W J J W J J J J J J J J J J W W W -.-.;.>.>.4.>.4.d.h.A.A.Y.T.T.OX+X@X@X9X9XeXeXeXeXBXBXAXAXAXAXZXAXZXZXVXCXVXVXVXMXnXnXnXcXnXcXcXcXcXcXcXcXcXcXcXcXcXnXnXnXnXVXVXZXVXZXZXZXSXSXSXSXSXAXAXBXBXBXBXBXeXeX",
"BXBXBXBXBXBXAXAXSXSXSXZXZXZXZXZXVXnXnXnXcXzXjXjXjXjXsXsXsXsXpXyXyXyXb m yXb m m b m yXyXyXyXyXpXsXgXgXjXzXzXnXnXnXVXVXZXZXZXSXSXSXSXSXSXSXAXAXAXAXAXAXBXBXBXBXBXBXeXBXeXeXeXeXeXeXeXeXeXeXBXeXBXBXBXBXBXBXAXAXAXAXAXAXSXSXSXSXSXZXZXZXVXVXVXVXVXzXzXzXpXm m b b b z z z x x b b b m m pXpXpXpXgXpXjXjXpXjXgXgXgXgXgXgXpXpXm m m m m b z l 7 7 7 ; ; ; = O O . . O O O ; 4 4 7 x m N pXzXzXcXVXVXZXZXZXSXSXSXSXAXAXAXAXAXBXAXBXBXBXBXBXBXeXBXeXeXBXeXBXBXBXBXBXBXBXBXBXBXBXAXAXAXAXAXAXSXSXSXSXSXSXZXZXZXZXVXVXcXcXzXjXjXpXm m b m z b b b b b m m pXjXpXjXjXjXzXzXzXzXzXzXzXVXzXzXzXzXzXzXzXjXjXjXjXjXgXjXpXpXm m b b x l l 4 1 = = O . . O O ; ; 7 z m pXgXzXcXVXVXZXZXSXSXSXSXAXAXAXBXBXBXBXeXeXeXeX0X0X9X9X9X9X@X@X@X@X+X+XOXOXOXOXR.R.R.R.OXR.R.R.OXOXOX+X+X+X+X@X@X@X9X9X9X9XeXeX0XeX0XeXeXeX0XeXeX0X0X9X@X9X+XOXT.Y.Y.A.A.h.d.4.4.>.<.>.;.;.-.W -.W J W J J J J J J J J J W J W W -.-.;.;.>.2.>.4.4.d.h.h.F.T.T.R.OX@X@X9X9XeXqXeXeXBXBXrXAXAXAXZXAXZXCXZXZXVXVXMXVXcXnXnXcXcXlXcXcXzXcXzXcXzXzXcXcXcXcXcXcXnXnXnXVXVXVXZXZXZXSXSXSXSXSXAXAXAXBXBXBXBXBXBX",
"BXBXBXAXAXAXAXAXSXSXSXSXZXZXVXVXnXnXcXcXzXjXjXjXsXsXsXyXyXyXm m b b b c c c c c c c b b b b m yXyXyXsXsXgXzXzXcXnXnXnXVXVXZXZXZXSXSXSXSXSXSXSXAXAXAXAXAXAXBXBXBXBXBXBXBXBXBXBXBXBXeXBXBXBXBXBXBXBXBXBXAXAXAXAXAXAXSXSXSXSXSXSXZXZXZXZXVXVXVXcXzXzXgXpXm b b l l 7 l 7 7 7 7 l l z b b b m m m m m m pXpXm pXpXm pXm m m m m b b z z l l 7 4 ; ; ; O O O O . O O O ; ; ; 7 l b m N gXjXzXcXVXVXVXZXZXSXSXSXSXSXSXAXAXAXAXAXBXBXBXBXBXBXeXBXBXBXBXBXBXBXBXBXBXBXBXBXAXBXAXAXAXAXAXAXAXAXSXSXSXSXSXSXSXZXZXZXVXVXVXcXzXjXgXpXpXm b z b x z b b b m m pXpXjXgXjXjXzXzXzXzXzXzXzXzXzXzXzXzXzXzXjXjXjXjXjXpXjXpXpXpXm m b b z l 4 4 ; ; = O O . . O = ; 7 z b pXgXzXcXcXVXVXZXZXSXSXSXSXAXAXBXBXBXBXeXeXeXeX0X0X0X9X9X@X9X@X@XOX@XOXOXOXOXR.R.R.R.R.T.R.R.R.OXOXOXOX+X+X+X9X@X9X9X9X0XeX9XeXeXeXeXeXeXeXeX0XeX0X0X9X9X@X+XOXR.T.Y.F.A.h.d.d.4.4.;.>.>.;.;.-.W W W J J W J J J W J J W J -.W W -.;.;.>.>.<.4.4.4.j.A.F.Y.Y.T.OX+X@X9X9X9XeXqXrXrXBXrXAXAXAXZXAXZXZXZXZXVXnXVXnXcXnXcXlXcXjXcXlXzXzXzXjXzXzXzXzXzXcXcXcXcXcXcXnXnXVXVXVXZXVXZXZXSXSXSXSXAXAXAXAXBXBXBXBX",
"BXAXAXAXAXAXSXSXSXZXSXZXZXVXVXnXnXcXcXzXjXgXjXsXsXiXyXyXyXb m c c c c c z c z z z z z z z c c c c yXyXyXsXgXgXzXzXnXnXnXVXVXZXZXZXZXSXSXSXSXSXSXSXAXAXAXAXAXAXAXAXBXBXBXBXBXBXBXBXBXBXBXBXBXBXAXAXAXAXAXAXAXAXSXSXSXSXSXSXZXZXZXZXVXVXVXVXVXzXzXgXpXb b z 7 7 4 4 ; ; ; ; 4 ; 4 7 l l z x z b b b m b m m m b m b b b b x z z l 7 7 4 4 ; ; ; = O O O . . O O & ; ; 4 7 l m N N jXzXcXcXVXVXZXZXZXSXSXSXSXSXAXAXAXAXBXAXBXBXBXBXBXBXBXBXBXBXBXBXBXBXBXBXBXBXBXBXAXBXAXAXAXAXAXAXAXAXSXSXSXSXSXSXSXZXZXZXVXVXVXcXzXzXjXpXpXm b b b b z b z b b m m pXjXpXjXjXjXjXjXzXzXzXzXzXzXzXzXzXzXjXjXjXjXjXzXpXjXpXpXpXm m b b x l l 4 4 ; ; O O O . O O = ; 7 z m pXgXzXcXVXVXZXZXSXSXSXSXAXAXAXBXBXBXBXeXeX0XeX0X0X9X9X9X9X@X@X@X@XOXOXOXOXR.R.OXT.R.R.R.R.R.OXT.OXOXOX+X+X@X@X@X@X9X9X0X9XeX0XeXeXeXeXeXeXeXeXeX0X0X9X9X@X@XOXOXT.Y.F.A.j.d.4.4.>.4.>.>.;.-.-.W W W W W J J W J J J W J W W W -.;.;.>.>.2.2.4.4.h.h.h.F.Y.T.OXOX@X@X9X9XeXqXeXeXrXrXAXNXSXAXAXZXCXZXZXbXnXVXbXcXcXcXlXlXlXkXjXjXjXjXjXjXjXzXjXjXjXzXjXzXzXcXcXcXcXnXnXVXVXZXZXZXZXSXSXSXSXAXAXBXAXBXBXAX",
"AXBXAXAXAXSXSXSXSXSXZXZXVXVXnXcXcXzXjXjXjXsXsXyXyXm m b b c c c z z z z z l l r r r l z l r z z c x b yXyXyXsXgXjXzXzXnXnXVXVXVXVXZXZXSXSXSXSXSXSXSXSXSXAXAXAXAXAXAXAXAXBXAXBXAXBXAXAXAXAXAXAXAXAXAXAXAXSXSXSXSXSXSXSXSXZXZXZXZXVXVXVXVXcXzXgXgXm b z l 4 4 ; ; ; ; O ; O ; ; ; ; ; 7 4 7 l l l z z z z z z z z z z z l 7 7 4 4 4 ; ; ; = O O O O . . O O & ; ; ; 7 7 b b m pXjXzXcXcXVXVXVXZXZXZXSXSXSXSXSXAXAXAXAXAXBXAXBXBXBXBXBXBXBXBXBXBXBXBXBXBXBXBXBXBXAXBXAXAXAXAXAXAXAXAXSXSXSXSXSXSXSXSXZXZXZXZXVXVXVXcXzXgXjXpXm b b x x x z b z b b m pXpXjXpXzXjXjXjXjXzXzXzXzXjXzXjXjXjXjXzXjXpXzXpXjXpXpXpXm m m b x x l l 4 4 ; = = O . . O O = ; 4 z b pXgXjXzXcXVXVXZXZXSXSXSXSXAXAXBXBXBXeXBXeXeX0XeX0X9X9X9X@X@X@X@XOX@XOXOXR.OXR.R.R.R.T.R.R.R.OXOXOXOXOX+X@X@X9X@X9X9X9X9XeX0XeXeXeXeXeXeXeXeXeX0XeX0X0X9X9X@X+XR.R.T.Y.A.h.h.d.4.4.>.<.>.;.>.-.-.W W W W W J J W J W W W W W -.;.;.>.>.>.>.4.4.d.h.A.F.Y.T.T.OX+X9X@X9X0XeXeXeXrXBXBXAXAXAXZXSXAXVXZXnXVXnXnXcXcXxXzXlXjXjXjXjXjXhXgXjXfXgXgXjXjXjXjXjXjXzXzXcXcXcXcXnXnXVXVXVXZXZXZXSXSXSXSXAXAXAXBXAXBX",
"AXAXAXAXSXSXSXSXSXZXZXVXVXnXnXcXcXjXjXjXsXsXyXm m m b c c c z z z l r l 6 r 6 6 r 6 6 6 6 r r r r z z x x yXyXpXsXgXzXzXcXcXVXVXVXVXZXZXZXZXSXSXSXSXSXSXSXSXSXAXAXAXAXAXAXAXAXAXAXAXAXAXAXAXAXAXAXAXSXSXSXSXSXSXSXSXZXZXZXZXVXVXVXVXVXzXzXgXgXm b l l 4 ; ; = = O O O O O O O O ; ; ; ; 4 ; 4 7 4 7 l 4 l 7 l l 4 7 4 4 4 1 ; ; ; ; = O O O O . . O O O = ; ; 4 7 7 b m N gXjXzXcXcXVXVXZXZXZXZXSXSXSXSXSXAXAXAXAXBXAXAXBXBXBXBXBXBXBXBXBXBXBXBXBXBXBXBXAXBXAXAXAXAXAXAXAXAXSXAXSXSXSXSXSXSXSXSXZXZXZXZXVXVXVXcXzXjXjXpXm m m z b z z b z b b m m pXgXpXjXpXjXjXjXjXjXjXjXjXjXjXzXjXjXjXpXjXjXpXjXpXpXpXm m m b b x l l 7 4 ; ; = & O O . O O = ; 7 z b pXgXzXcXVXVXZXZXZXSXSXSXAXAXBXBXBXBXBXeXeXeXeX0X0X9X9X9X@X@X@XOX@XOXOXOXOXR.OXT.R.R.R.R.T.OXT.OXOXOX+X+X+X@X+X9X9X9X9XeX9XeXeXeXeXeXeXeXeXeXeXeXeX0X0X9X@X9X+XOXR.T.Y.A.A.h.d.4.4.2.<.>.>.;.;.-.-.-.W W W W W W W W W W W -.;.;.;.>.>.>.4.4.d.h.h.A.F.T.T.OXOX@X@X9X9X0XqXqXBXrXBXNXAXAXSXAXCXnXCXVXVXbXnXxXcXlXjXlXjXjXjXjXhXjXgXgXgXgXgXfXgXgXgXgXgXjXjXjXjXjXcXcXcXcXnXVXVXVXZXZXSXSXSXSXSXSXAXAXAXAX",
"AXSXSXSXSXSXSXSXZXZXVXVXVXcXcXzXjXjXsXsXyXyXyXm c c c z z z z l r 6 r 6 r 4 6 6 4 4 4 4 4 4 4 4 6 r r z z x b b pXsXgXjXjXcXcXVXVXVXVXVXZXZXZXZXZXSXSXSXSXSXSXSXSXSXAXSXAXAXAXAXAXAXAXAXAXSXSXSXSXSXSXSXSXSXSXSXZXZXZXZXZXVXVXVXzXVXzXzXgXpXm b l l ; ; = O O O . O . . O . O O O O O ; = ; ; ; ; ; ; 4 ; ; ; ; ; ; ; ; ; = = & O O O O O . . O O O = ; ; ; 7 l x m m pXgXjXzXcXcXVXVXVXZXZXZXSXSXSXSXSXSXAXAXAXAXAXBXBXAXBXBXBXBXBXBXBXBXBXBXBXBXBXBXAXBXAXAXAXAXAXAXAXAXAXAXSXSXSXSXSXSXSXSXSXZXZXZXZXVXVXVXVXzXzXgXpXpXm b b z b z z x z b b m m pXpXjXjXpXjXzXjXgXjXjXjXjXjXpXjXjXjXjXpXjXpXpXpXpXm m m b b x z l l 4 4 1 ; = & O O . O O = ; 4 l b m gXjXzXVXVXVXZXZXSXSXSXSXAXAXBXBXBXeXeXeXeX0X0X0X9X9X9X9X@X@X@XOX+XOXR.OXR.R.R.R.T.R.R.R.R.R.OXOXOX+X+X+X@X9X@X9X9X0X9XeX0XeXeXeXeXBXeXeXeXeXeX0XeX0X9X9X@X+XOXR.T.Y.F.A.h.d.d.4.4.>.<.>.>.;.;.-.W W W W W W W W W W -.-.-.;.>.>.>.<.4.4.4.d.h.A.F.Y.T.T.OX+X@X9X9X0XeXeXrXeXBXAXAXAXAXZXZXZXZXnXnXbXnXcXcXlXzXlXjXjXjXsXjXgXsXgXgXgXfXsXgXgXaXgXgXgXgXgXjXgXjXjXcXcXcXcXnXVXVXVXZXZXZXSXSXSXSXSXAXAXAX",
"SXSXSXSXSXSXSXZXZXVXVXVXnXcXjXjXjXsXsXyXm m b c c c z z l r r 6 r r 6 6 4 4 4 1 4 1 1 1 1 < 1 4 1 1 4 4 r r z x b yXyXsXjXjXcXcXcXVXVXVXVXZXZXZXZXZXZXSXSXSXSXSXSXSXSXSXSXSXSXSXSXSXSXSXSXSXSXSXSXSXSXSXSXSXZXZXZXZXZXVXVXVXVXVXVXzXjXgXpXm x l 4 ; = O O O . . O . O . . O . O . O O O O O & O = = = = = ; = = = = & & O O O O O O . . . O O O O ; ; ; 4 l l b m N pXgXzXzXcXcXVXVXVXZXZXZXSXSXSXSXSXSXAXAXAXAXAXAXBXAXBXBXBXBXBXBXBXBXBXAXBXBXAXBXAXAXAXAXAXAXAXAXAXSXAXAXSXSXSXSXSXSXSXSXSXZXZXZXZXVXVXVXVXzXzXjXjXpXm b b z x z z z l b b b m m pXpXjXpXjXjXpXjXjXjXjXgXjXjXjXzXpXjXpXjXpXpXpXm m m b b b x z l l 4 4 4 ; = = O O . . O O = ; 4 l b m gXzXcXcXVXZXZXZXSXSXSXAXAXAXBXBXBXBXeXeXeX0X0X0X9X9X9X@X@X@XOX@XOXOXOXOXR.R.R.R.R.R.R.R.R.OXOXOX@XOX+X@X@X9X@X9X9X9XeXeXeXeXeXBXeXeXBXeXeXeXeXeXeX0X9X9X@X@X+XOXT.Y.Y.A.A.j.d.4.4.<.<.>.>.;.;.;.-.-.-.W W W W W W -.-.;.;.;.>.>.<.<.4.4.d.h.h.F.Y.T.T.OXOX@X9X9X0X0XeXeXeXBXBXNXAXAXSXmXZXmXZXnXbXnXcXcXlXzXlXlXjXjXsXjXgXgXgXaXgXaXsXgXpXaXgXiXsXgXaXsXgXgXjXjXjXjXzXcXcXnXnXVXZXVXZXZXSXSXSXSXSXSXAX",
"SXSXSXSXSXZXZXZXZXVXnXcXcXcXjXjXsXpXtXm m c c x z z z r r r 4 r 4 4 6 4 1 1 1 1 ; 1 < ; < ; < ; 1 < ; 4 4 4 6 z z x b yXsXgXjXjXcXcXcXVXVXVXZXZXZXZXZXZXZXSXSXSXSXSXSXSXSXSXSXSXSXSXSXSXSXSXSXSXSXSXSXZXZXZXZXZXZXVXVXVXVXVXcXzXzXzXpXpXm x l 1 ; = O O . . . O O O O & O O O O O . . . O O O O O O O O O O O O O O O O O O . . . . . O O O = ; ; ; 4 l l x b m pXgXjXzXzXcXcXVXVXVXZXZXZXZXSXSXSXSXSXSXAXSXAXAXAXAXBXBXAXBXBXAXBXAXBXAXBXBXAXBXAXAXAXAXAXAXAXAXAXAXAXAXSXSXSXSXSXSXSXSXSXSXZXZXZXZXZXZXVXVXcXVXzXjXjXpXpXm b b l z z l b z b b m m pXpXpXjXpXjXjXgXgXjXjXjXgXpXjXpXjXpXpXpXpXm m m m b b b x x z l l 4 4 1 ; = = O O O . O O = ; 4 l b m pXjXzXVXVXVXZXZXSXSXSXSXAXAXBXBXBXeXBXeX0XeX0X0X9X9X9X@X@X@X@XOXOXOXOXOXR.R.R.T.R.R.R.R.R.OXOXOXOX@X@X@X@X@X9X9X9X0X9XeXeXeXBXeXeXBXeXBXeXBXeXeX0XeX0X9X9X@X+XR.R.T.Y.F.h.h.h.4.4.4.<.<.>.>.;.-.;.-.-.-.W -.-.-.-.-.;.;.>.>.>.<.<.4.4.d.d.j.F.F.Y.T.OXOX@X@X9X9X0X0XeXBXeXBXAXAXAXCXCXZXCXnXbXnXnXxXcXxXzXlXjXfXjXsXjXsXsXsXsXsXsXsXiXpXaXpXiXsXiXsXsXsXaXsXgXgXjXjXjXzXcXcXnXnXVXZXZXZXZXSXSXSXSXSXSX",
"SXSXSXSXSXZXZXVXVXVXnXcXjXjXgXsXpXyXm m c c x z z r r r r 4 r 4 4 4 1 1 1 1 1 ; 1 < ; < ; ; ; ; - ; < ; - 1 1 4 4 r x b b yXpXjXjXzXcXcXVXVXVXVXVXZXZXZXZXZXZXZXZXSXSXSXSXSXSXSXSXSXSXSXSXSXSXSXZXZXZXZXZXZXZXVXVXVXVXVXVXcXzXzXgXpXm m l 7 1 ; = O O . O O O & & = ; & ; & & O O O O O . . . . . . O O O . O O . . . . . O . O O O O = = ; ; ; 4 7 l l b m pXpXpXjXzXzXcXcXVXVXVXZXZXZXZXZXSXSXSXSXSXSXAXAXAXAXAXAXAXAXBXBXAXBXBXBXBXBXBXAXAXAXAXAXAXAXAXAXAXAXAXAXSXSXSXSXSXSXSXSXSXSXSXZXZXZXZXZXZXVXVXVXVXzXzXzXpXpXm b b z b l z z z z z b m m pXpXpXgXpXjXpXgXjXpXjXpXgXjXpXgXpXpXpXm m m m b b b b x z l l 7 4 4 4 ; = = = O O . . O O = ; ; l x m gXjXzXcXVXVXZXZXSXSXSXAXAXAXBXBXBXBXeXeXeXeX0X0X9X9X@X9X@X@XOX@XOXOXR.OXR.R.R.R.R.R.R.R.R.OXOXOX+X+X+X@X@X9X9X9XeX9XeX0XeXeXeXeXBXeXBXBXeXeXeXeXeXeX0X9X9X@X+X+XR.T.Y.F.A.A.d.d.4.4.2.<.>.>.>.>.-.;.;.-.-.-.-.;.;.;.;.>.>.>.>.2.4.4.d.d.h.h.F.Y.Y.R.OXOX@X9X9X0X0XeXeXrXBXBXAXAXAXCXZXCXnXZXnXbXcXcXcXlXzXgXjXjXfXjXsXfXsXsXsXsXpXiXpXaXpXpXpXiXpXiXpXiXpXsXiXgXgXgXjXjXjXcXcXnXnXVXVXZXZXZXSXSXSXSXSX",
"SXSXZXZXZXZXZXVXnXcXcXzXjXgXsXpXn n c c x z z r r r r 6 6 6 4 4 4 1 1 1 1 1 < < ; < ; - - ; - - - - - - - - ; 1 1 1 6 z c b m yXgXjXjXzXcXcXVXVXVXVXZXZXZXZXZXZXZXZXZXZXZXSXZXZXSXZXZXZXZXZXZXZXZXZXZXZXZXVXVXVXVXVXVXzXzXzXzXgXpXm b l 7 1 ; O O O . O O ; ; & ; ; ; ; ; 4 ; ; ; & O O O O O O O . . O . O . O . O O O O O O O O ; ; O ; ; 7 4 l x x m m pXpXjXjXzXzXcXcXVXVXVXVXZXZXZXZXSXSXSXSXSXSXSXAXAXAXAXAXAXAXAXAXAXBXAXAXAXAXAXAXAXAXAXAXAXAXAXAXAXAXSXSXSXSXSXSXSXSXSXSXSXSXSXSXZXZXZXZXZXVXVXVXVXVXzXzXjXjXm m m b z z z z l z b b b b m m pXpXpXjXpXjXpXjXgXpXjXpXpXpXpXpXm m m m m b b b x z z l l 4 7 4 ; 4 = ; = O O O . . O O = ; 4 7 x m pXjXzXVXVXVXZXZXZXSXSXSXAXAXAXBXBXeXeXeXeX0X0X0X0X9X9X@X@X@X@XOX@XOXOXR.R.R.R.R.R.R.R.R.OXOXOX+X+X+X@X@X9X@X9X9X0X9XeXeXeXeXeXBXeXBXeXBXBXeXBXeXeX0X0X0X9X9X+X+XOXR.T.Y.A.A.h.d.d.4.4.<.<.<.>.>.>.;.-.>.-.;.;.;.;.>.>.>.>.2.2.2.4.4.d.h.A.F.F.Y.R.OXOX@X@X9X0X0X0XeXBXrXBXBXAXAXCXCXZXZXmXnXnXnXcXxXzXlXjXlXfXjXgXfXfXsXsXsXsXpXaXpXiXpXyXtXpXpXn pXyXpXpXpXpXiXsXgXgXjXjXjXcXcXcXnXVXZXVXZXZXSXZXSXSX",
"ZXZXZXZXZXZXVXnXnXcXjXjXgXsXpXm n c c c z r r r r 6 6 6 4 4 4 4 4 1 1 1 < ; ; ; ; - - - - - - - & - O - - - - - ; 1 1 4 r r b m pXpXgXzXzXcXzXVXVXVXVXVXVXVXZXZXZXZXZXZXZXZXZXZXZXZXZXZXZXZXZXZXZXZXZXVXVXVXVXVXVXVXzXzXzXjXpXm m x l 4 1 ; O O . O O O ; ; ; 4 7 4 7 7 7 4 4 4 ; ; ; ; ; = O O O O & O O O O O O O O O O O = ; ; ; ; 4 7 7 l x b b m pXpXgXgXjXzXcXcXcXVXVXVXZXVXZXZXZXZXSXSXSXSXSXSXSXSXAXAXAXAXAXAXAXAXAXAXAXAXAXAXAXAXAXAXAXAXAXAXAXAXAXSXSXSXSXSXSXSXSXSXSXSXSXSXZXZXZXZXZXZXZXVXVXVXVXzXzXzXjXpXpXm b b z z l l l z z z b b m m m pXpXpXpXpXpXpXpXpXpXpXpXpXm m m m b b b b b z z l l l 7 7 4 4 4 ; ; = & O O O . . O O = ; 4 7 x m pXzXzXzXVXVXZXZXSXSXSXSXAXAXBXBXBXBXBXeXeX0X0X0X9X9X9X@X@X@X+X+XOXOXOXOXOXR.OXR.OXR.R.OXOXOXOXOX+X+X@X@X@X9X9X0X9XeXeXeXeXBXeXBXBXBXBXeXBXBXeXeXeXeXeX0X9X@X9X+XOXR.T.Y.A.A.h.j.d.4.4.2.2.<.<.>.>.;.>.-.>.;.>.;.>.>.>.>.2.>.4.4.4.d.h.h.A.F.Y.T.R.OX@X@X9X9X0XeXeXeXrXBXBXAXAXAXCXZXZXmXnXnXnXcXcXzXlXzXzXfXjXgXfXsXsXiXsXsXsXsXiXpXpXyXtXpXm tXpXm tXyXm tXyXpXiXpXsXsXgXjXjXlXcXcXnXVXZXVXZXZXZXSXZX",
"ZXZXZXZXVXVXVXnXcXcXjXgXsXpXn n c c z z l z r 6 6 6 4 6 4 4 1 1 1 1 ; < ; < ; ; ; ; ; ; - & - & - & - O - O - - O ; ; 1 4 r r x b m pXgXgXzXzXzXVXzXVXVXVXVXVXVXZXZXZXZXZXZXZXZXZXZXZXZXZXZXZXVXVXVXVXVXVXVXzXVXzXzXzXzXgXpXpXm x l 4 1 = O O . O O = = ; 4 7 7 l l l l l l 7 7 4 4 ; ; ; ; ; ; & = O & & O = O = = = ; ; = ; ; 4 4 4 7 l x x b m m pXgXgXgXzXzXzXcXVXVXcXVXVXVXZXZXZXZXZXZXSXSXSXSXSXSXSXAXAXAXAXAXAXAXAXAXAXAXAXAXAXAXAXAXAXAXAXAXAXSXSXSXSXSXSXSXSXSXSXSXSXSXSXZXZXZXZXZXZXZXZXVXVXVXVXzXVXzXjXjXpXm m b z z l l 7 l l l z b b b m m m m pXpXpXpXpXpXpXm m m m m m b b b b x x z z l l 7 4 4 4 4 ; ; ; = = = O O O . . O O = ; 4 l x m pXgXzXVXVXVXZXZXSXSXSXSXAXAXBXBXBXeXeXeXeXeX0X0X9X9X9X@X@X@X+X+XOXOXOXOXT.OXT.OXT.OXR.R.OXOXOX+X+X+X@X@X9X9X9X9XeX9XeXeXeXeXBXeXBXBXBXBXeXBXBXeXeXeX0X0X9X9X@X+XOXR.T.Y.Y.j.A.d.d.d.4.4.2.2.<.<.>.>.>.>.;.>.;.>.>.>.<.>.2.4.2.4.d.d.j.A.A.Y.Y.T.OXOX@X@X9X0X0X0XeXeXBXBXBXAXAXAXZXCXVXZXnXbXnXcXvXzXjXhXjXzXfXgXgXfXsXsXsXiXiXyXpXiXtXpXpXn iXn n tXn n tXm tXm yXiXpXsXsXgXjXjXcXcXcXnXVXZXVXZXZXZXZX",
"ZXZXZXVXVXVXnXcXcXjXjXsXpXm n c c z z l r 4 r 6 6 4 6 4 4 1 1 1 < ; 1 ; 1 ; < ; ; ; ; ; ; ; ; - - - O - O - O O ; * ; ; ; 4 7 r x b m pXgXgXzXzXzXVXzXzXVXVXVXVXVXVXVXVXZXVXZXZXVXZXVXZXVXVXVXVXVXVXVXVXzXVXVXzXzXzXgXgXpXm b l l 4 ; ; O O . O O = = 4 4 l l x l b b b b b x l l 7 7 7 ; 4 ; ; ; ; ; ; = ; = ; = 4 ; ; ; 4 4 4 7 l x x x b m m pXpXpXgXgXzXzXzXcXcXcXcXVXVXVXVXZXZXZXZXZXZXSXSXSXSXSXSXSXSXSXSXAXAXAXAXAXAXAXAXAXAXAXAXAXAXAXAXAXSXSXSXSXSXSXSXSXSXSXSXSXSXSXSXZXZXZXZXZXZXZXZXVXVXVXVXVXVXzXzXjXpXpXm b b z l l 7 7 7 l l l z x b b b m m m m m m m m m m m b m b b b b b z z l l l 7 7 4 4 4 ; ; ; ; = = & O O O . . O & O = ; 4 l x m gXzXzXzXVXZXZXSXSXSXSXAXAXAXBXBXeXBXeXeX0X0X0X0X9X@X9X@X@X+X+X+XOXOXOXOXOXT.OXT.OXT.OXR.OXOXOXOX+X+X@X9X@X9X9X9X9XeXeXeXeXeXBXBXeXBXBXeXBXBXeXBXeX0XeX0X9X9X@X+X+XR.T.Y.Y.A.A.f.d.4.4.4.2.<.<.>.>.>.>.;.>.;.>.>.>.>.>.2.2.2.4.d.4.j.h.A.F.Y.T.R.OX+X@X9X9X0X0XeXeXBXrXBXAXAXAXZXCXZXZXbXnXnXnXcXcXzXzXjXlXgXlXgXfXsXsXsXpXiXsXpXpXyXpXm tXiXn tXn n m n n n n m n yXiXpXpXgXgXjXjXcXcXnXnXVXZXZXVXZXZX",
"VXZXVXZXVXnXnXcXzXjXsXsXn tXc c x z l r r r 4 4 6 6 4 4 4 1 1 < 1 ; < 1 ; ; ; ; 1 1 ; ; 1 ; ; ; ; - - - O & - O O - O - ; ; 4 7 l x b m pXgXgXzXzXzXVXVXzXVXVXVXVXVXVXVXVXVXVXVXVXVXVXVXVXVXVXVXVXcXVXcXVXzXzXzXzXgXgXpXm b x l 4 1 = & O O . O O ; 4 4 l l b b m m m m m m m b x l l 7 l 7 4 4 4 ; 4 ; 4 ; 4 4 4 ; 4 4 7 7 7 l l x x b b m m pXpXgXgXgXjXjXzXzXcXcXVXcXVXVXVXVXVXZXZXZXZXZXZXZXSXSXSXSXSXSXSXSXSXAXAXAXAXAXAXAXAXAXAXSXAXSXSXSXSXSXSXSXSXSXSXSXSXSXSXSXSXSXZXZXZXZXZXZXZXZXZXVXVXVXVXVXzXzXzXzXjXpXm m b z l 7 7 4 7 7 4 7 l l l b b b b m b m m m m m b m b m x b x z z z l l 7 7 4 7 4 4 ; 4 ; ; = = = & O O O . . . O O = ; 4 7 z b pXpXzXzXVXVXZXZXZXSXSXSXAXAXBXBXBXBXeXeXeXeX0X0X9X9X9X@X@X+X+X+XOXOXOXR.T.T.R.T.T.T.T.T.R.R.OXOXOX+X+X@X@X@X9X9X9X9X0XeXeXeXBXeXBXBXBXBXBXeXBXeXeXeXeX0X0X9X9X@X+XOXR.T.Y.F.A.A.j.d.d.4.2.4.<.<.>.>.>.>.>.;.>.>.>.>.>.<.<.2.4.2.4.d.d.j.A.A.Y.T.T.OX+X@X@X9X0X0XeXeXeXBXBXBXAXCXCXCXZXbXVXVXbXcXcXcXxXjXjXzXfXgXgXgXsXgXiXsXiXiXpXyXtXm tXyXn yXn n m v n n c m n n n yXtXpXpXsXjXjXjXnXcXnXVXVXVXZXZXVX",
"ZXZXVXVXnXVXcXcXjXgXsXpXiXc b x z l r r 6 6 6 6 6 4 4 < 1 1 < 1 ; 1 ; ; ; 1 , 1 , , , 1 ; ; ; ; ; - ; & - - O O * O - O ; ; ; 4 r l b b m pXgXgXjXzXzXzXzXVXcXVXVXVXVXVXVXVXVXVXVXVXVXVXVXVXVXVXcXVXcXVXzXzXjXzXgXgXpXm b x l 4 1 ; & O O . O O ; ; 4 l l b m m N N pXpXpXN m m b b x x l l 7 7 7 7 4 7 4 4 4 4 4 7 7 l l l l b x b b b m m pXpXgXpXgXjXgXzXzXzXcXcXcXcXVXVXVXVXVXVXZXZXZXZXZXZXZXSXSXSXSXSXSXSXSXSXSXSXSXSXSXSXSXSXSXSXSXSXSXSXSXSXSXSXSXSXSXSXSXSXSXSXZXZXZXZXZXZXZXZXZXZXVXVXVXVXVXzXVXzXjXjXpXm m b l 7 7 7 ; 4 4 ; 4 4 4 7 l l z b x b b b b b b b b b b z b z z l l l l 7 7 4 7 ; 4 ; ; ; = ; = = O O O O . . O O & O ; ; 4 l z m pXjXzXzXVXZXZXZXSXSXSXAXAXAXBXBXBXeXeXeXeX0X0X9X9X9X<X@X@X+X+XOXR.R.R.T.T.T.Y.Y.Y.Y.T.T.T.R.T.OXOXOX+X+X@X9X@X9X9X9XeX0XeXeXeXBXeXBXBXeXBXBXeXBXeXeXeX0X0X9X@X@X+XOXR.Y.F.Y.A.j.d.d.4.2.4.<.<.>.>.>.>.>.-.>.;.>.;.>.>.>.<.2.2.4.4.d.h.d.A.F.Y.Y.R.OX+X@X9X9X9XeX0XeXBXrXBXAXAXAXCXZXCXVXVXbXnXcXcXcXzXjXzXgXzXgXfXgXgXsXsXiXsXiXpXtXpXtXyXn m v m n v m n n m v n n n n yXiXpXsXgXjXzXzXcXnXnXVXVXZXVXZX",
"VXZXVXVXVXnXcXcXjXjXsXn n n x x l l r 6 r 4 6 4 6 1 1 1 1 1 1 ; 1 1 1 1 1 , 1 , 1 , , , , , ; ; ; ; - - - & - O O O O - & - ; 1 4 l x b m m pXgXjXzXzXzXVXzXVXcXcXVXVXVXcXVXVXVXVXVXVXVXVXcXVXVXcXcXcXzXzXzXjXgXgXpXm b b l 7 1 ; ; O O . O O O ; 4 7 l b b m pXpXpXpXpXpXpXpXN m m b b x x x l l l l 7 l 7 l l l l l z x x b x b b m m m m pXpXgXgXgXgXjXjXzXzXzXzXcXVXcXVXcXVXVXVXVXVXZXZXZXZXZXZXZXSXSXSXSXSXSXSXSXSXSXSXSXSXSXSXSXSXSXSXSXSXSXSXSXSXSXSXSXSXSXZXZXZXZXZXZXZXZXZXZXZXVXVXVXVXVXVXVXzXzXzXjXpXpXm x z l 4 4 ; ; ; ; ; ; ; 4 4 7 7 7 l z l x b z b z b z z z z l l l l 7 7 4 4 4 4 ; 4 ; ; ; & ; & & O O O O . . . O O O ; ; 4 4 z b pXpXjXzXVXVXZXZXSXSXSXSXAXAXBXBXBXeXeXeXeX0X0X0X9X9X@X@X@X+XOXOXR.R.T.T.Y.Y.Y.Y.Y.Y.Y.Y.Y.Y.Y.T.T.R.R.OX+X+X@X@X9X9X9X9XeX0XeXeXeXBXeXBXBXeXBXeXeXeXeXeX0X9X9X9X@XOXOXT.Y.Y.A.j.f.d.6.4.4.<.<.>.>.>.-.>.;.>.-.>.;.>.>.>.>.>.<.2.4.4.4.d.j.A.A.Y.Y.T.OXOX@X@X9X0X0XeXeXeXBXBXBXAXAXCXCXCXVXMXVXbXnXcXvXzXxXjXjXgXgXjXfXgXpXgXiXsXyXiXpXtXm n tXm m v m n v m c n n n n n n n yXiXsXsXgXjXzXnXnXnXVXZXVXZXVX",
"ZXVXZXVXnXnXnXzXjXgXpXpXb b x z l l r r 4 6 6 6 1 1 4 1 1 1 1 1 1 1 1 1 , 1 1 1 , 1 , 1 1 , 1 , < ; ; - & - - O O O * O & ; ; 4 4 7 x b b m pXgXgXgXzXzXzXzXcXcXVXcXVXcXVXVXVXcXVXVXcXVXcXVXcXcXcXVXzXzXzXgXzXgXpXm b b l l 4 ; ; & O O . O O ; ; 7 l x b m m pXpXjXpXjXpXjXpXpXm m m b b x x x z x z z l z z z z z z b x x b b b m b m m pXpXpXpXpXgXjXgXjXjXzXzXzXzXzXcXcXVXcXVXVXVXVXVXVXVXZXZXZXZXZXZXSXSXSXSXSXSXSXSXSXSXSXSXSXSXSXSXSXSXSXSXSXSXSXSXSXSXZXZXZXZXZXZXZXZXZXZXZXVXVXVXVXVXzXVXVXzXzXjXjXpXm b b l 7 4 ; ; ; ; ; O ; & ; ; ; ; 4 7 7 7 l l l l l z l l l l l 7 7 7 4 7 4 4 4 ; ; ; ; & ; & ; & O O O O . . . O O O O = ; ; 7 l b pXpXjXjXVXVXZXZXSXSXSXSXAXAXBXBXBXBXeXeXeXeX0X9X9X<X@X@X@XOXOXOXT.T.Y.Y.Y.Y.F.Y.Y.Y.Y.A.Y.F.Y.Y.Y.Y.T.T.OXR.+X+X+X9X@X9X9X9XeX0XeXeXeXeXeXeXBXeXeXeXeXeX0X0X9X9X@X+XOXT.Y.Y.F.j.j.d.6.4.4.<.<.>.>.>.>.-.:.-.-.-.-.-.-.;.;.>.>.>.2.2.2.4.d.d.j.A.F.Y.T.R.OX@X@X9X9X0XeXeXeXrXBXBXBXCXAXCXZXCXVXbXVXcXnXcXcXjXjXzXhXjXgXgXsXgXiXsXiXsXpXyXpXtXm n m v m n c m c m v n c n c m n n pXpXsXjXzXzXzXnXnXVXVXVXZXVX",
"VXZXVXVXVXnXcXcXjXgXsXtXn c x x r r 6 6 r 4 4 4 4 1 1 1 1 1 1 1 4 1 1 1 1 , 1 1 1 4 1 1 1 1 1 1 ; 1 ; ; - - & O - O O - O ; ; ; 4 r l x m b pXpXgXjXzXjXzXVXzXVXzXVXcXVXcXVXcXVXVXcXVXcXVXcXVXzXcXzXzXzXjXjXpXgXm m b x l 4 4 ; = O O . . O = = ; 7 l x b m pXgXgXpXgXpXjXpXjXpXpXpXm m b b b x b x x x x z z b z b x x b b b b b m m m m m m pXpXpXpXpXgXgXjXjXgXzXzXzXzXzXzXcXcXVXcXVXVXVXVXVXVXZXZXZXZXZXZXZXSXSXSXSXSXSXSXSXSXSXSXSXSXSXSXSXSXSXSXSXZXZXZXZXZXZXZXZXZXZXZXVXVXVXVXVXVXVXVXVXzXzXzXjXjXpXpXm b l 7 ; ; ; O O O O O O O O & ; ; ; ; 4 4 7 4 7 7 7 7 7 7 7 7 4 7 7 4 4 ; ; ; ; ; ; ; O ; & & O O O O O . . . O O O O ; ; ; 7 l b m pXjXzXVXVXVXZXZXSXSXSXAXAXBXBXBXBXeXeXeX0X0X0X9X9X@X@X+XOXOXT.T.Y.Y.Y.Y.A.Y.A.A.A.A.A.F.F.F.Y.F.Y.Y.Y.Y.Y.R.R.OX+X+X9X9X9X9X0XeX0XeXeXeXeXeXeXeXeXeX0XeX9X9X9X@X+XOXR.Y.Y.A.A.j.d.4.4.2.<.>.>.>.-.-.-.-.W W W W W -.W -.-.-.>.>.>.>.2.4.4.4.d.A.A.Y.Y.T.OXOX@X@X9X0X0XeXeXeXBXBXBXAXCXCXCXMXVXVXxXnXcXcXcXcXhXjXjXjXfXgXfXsXsXpXiXiXsXyXtXpXtXm tXm v c m c v c m c n c m v m m tXpXsXjXjXzXnXnXnXVXVXZXVXZX",
"ZXZXVXZXVXVXcXcXjXjXsXpXn b x y r l 6 r 4 6 4 1 1 4 1 1 1 1 6 1 1 1 1 1 1 6 1 4 1 1 1 1 1 , 1 , 1 ; < ; - & - - O O O & & & ; , 4 7 l x b m pXgXgXgXgXzXzXzXzXzXVXzXVXcXVXcXVXcXcXVXcXVXcXcXcXVXzXzXzXjXjXgXgXpXm b b l l 4 1 ; = O O . O O O ; 4 7 l b m m gXpXpXjXjXjXpXjXpXgXpXpXm m m m b b b b x b x b b z b z b b b b b b b b b b m m m m pXm pXpXpXpXpXpXgXgXgXjXgXjXzXzXzXzXcXcXcXVXVXVXVXVXVXVXZXZXZXZXZXZXZXZXZXSXSXSXSXSXSXSXSXSXSXSXSXZXZXZXZXZXZXZXZXZXZXZXZXZXVXVXVXVXVXVXVXzXVXzXzXzXjXjXpXpXm z l 4 ; ; = O O O . O . O O O O O O O ; ; ; ; 4 ; 4 4 4 4 4 4 4 4 4 ; ; ; ; ; ; = ; ; & ; O O O O O . . . . . O O O O ; ; 4 7 l b m pXjXzXzXVXZXZXSXSXSXSXAXAXBXBXBXBXeXeXeXeX0X9X9X@X@X@XOXOXT.T.Y.Y.Y.F.Y.A.F.j.A.A.j.j.j.j.j.j.j.j.A.F.F.Y.Y.Y.T.R.OX+X+X+X9X9X9X9XeX0XeXeXeXeXeXeX0XeX0X0X9X9X@X@XOXT.Y.Y.Y.A.f.d.4.4.<.<.>.>.-.-.-.W W W W W W W W W W W W -.-.-.-.>.<.<.2.4.d.d.A.A.Y.T.T.OX@X@X9X9X0XeXeXeXrXrXAXBXCXCXCXMXMXMXnXMXcXnXcXjXcXjXjXgXjXgXgXsXsXgXiXsXyXpXiXn yXyXn n v m v v c n c m c n v n n tXpXsXsXfXzXzXcXnXnXVXZXVXZXZX",
"ZXZXVXVXVXnXnXcXlXgXsXtXn c x x r 7 9 6 6 4 3 4 1 1 4 4 1 4 1 1 1 1 1 6 1 1 1 1 6 1 6 4 4 6 1 1 1 1 ; < - - & - O O O - O - ; 1 1 r l b b m yXpXgXgXzXzXzXzXzXVXzXVXzXVXzXVXcXVXcXcXVXzXVXzXzXzXzXzXjXzXgXgXpXm m b x l l 1 ; ; O O O . O O = ; 4 l x b m pXpXgXjXpXjXgXjXgXjXpXgXpXpXpXm m m b b b b b b b b b b b z b x b b b b b b b b b b m b b m m m m m m pXpXpXpXgXgXgXgXjXzXzXzXzXcXcXVXVXVXVXVXVXVXZXZXZXZXZXZXZXZXZXZXZXZXZXZXZXZXZXZXZXZXZXZXZXZXZXZXZXZXVXVXVXVXVXVXVXVXcXVXzXVXzXzXjXjXgXpXm b z l 4 ; ; O O O . . O . . . . . . O O O O = = ; ; ; ; ; ; ; ; ; ; ; ; ; ; ; = ; = = & O O O O O O O . . . . O O O O = ; ; 4 7 l b m pXjXjXzXVXVXZXZXSXSXSXAXAXAXBXBXBXeXeXeX0X0X9X9X@X@X+XOXOXT.Y.Y.Y.A.Y.j.j.j.d.j.d.d.d.d.d.d.d.f.f.j.j.j.A.F.Y.Y.Y.Y.T.R.OX+X@X<X9X9X9X0X0XeX0XeXeX0XeX0X0X9X9X@X@XOXR.T.Y.A.A.f.d.6.4.<.>.>.>.-.-.W W W W J J J J J K J K W W W W -.-.>.>.>.<.4.4.6.d.A.F.Y.T.R.OX@X@X9X9X0XeXeXeXrXrXAXNXCXCXMXMXVXMXnXxXcXcXvXjXcXjXjXjXgXgXgXsXpXsXiXsXyXyXpXtXm m n m c n c m c v v m c n n n yXiXsXsXjXzXzXnXnXZXVXZXZXZXZX",
"ZXZXZXZXVXVXnXcXjXjXsXpXn c c l l r 6 3 r 4 4 4 4 4 4 4 6 1 1 1 4 1 7 1 1 1 7 1 6 4 6 1 6 1 4 3 1 ; 1 ; - & - & & O O & - & ; 1 4 7 l x b m m pXgXgXgXjXzXzXzXzXVXzXVXzXVXcXVXzXVXVXzXVXzXVXzXzXzXjXjXpXjXpXm m b b z l 4 1 ; = O O . . O O ; ; 4 l x m m pXpXjXpXjXjXjXjXjXgXgXgXgXpXpXpXm m m m m b b b b b b b x b x b x b b x b x b x x b x x b b b b b b b m b b m m m pXpXpXgXgXgXzXzXzXzXzXVXcXVXVXVXVXVXVXZXZXZXZXZXZXZXZXZXZXZXZXZXZXZXZXZXZXZXZXZXZXZXVXVXVXVXVXVXVXVXcXVXVXVXzXzXzXjXjXpXm m b z 7 4 ; = O O . . O O O O O O O O O . . O O O O O O ; & ; ; ; = ; ; ; = ; = = = = O O O O O O O O . . . . O O O O O ; ; ; 4 l l b m pXjXzXzXVXZXZXZXSXSXSXAXAXBXBXBXBXeXeXeX0X0X9X9X@X@X+XOXT.T.Y.Y.Y.A.F.j.j.d.d.d.4.d.4.4.4.4.4.4.4.4.d.d.d.j.j.j.j.Y.Y.Y.T.OXOX+X@X@X9X9X9X0X0X0X0X0X0X0X9X9X9X9X@XOXR.T.Y.Y.j.f.d.6.2.<.>.>.-.-.W W W K J J J J J D J D D J J J J W W -.-.-.>.>.<.4.4.d.j.A.A.Y.T.OXOX@X@X9X0X0XqXrXrXrXNXNXCXCXCXMXMXMXcXVXbXcXcXcXjXcXgXjXgXjXgXsXgXiXsXiXpXyXtXyXtXn m v m c m c n c n c m v n yXtXyXiXgXfXjXnXnXnXVXVXVXZXZXZX",
"ZXZXZXZXZXnXnXcXcXjXsXtXyXc x u r l 6 r 1 4 4 4 4 4 4 4 1 6 1 6 1 6 1 6 6 7 1 7 1 6 4 6 4 6 4 1 4 1 ; 1 ; - - & o & & O & - ; 1 1 r l x b b pXpXgXgXgXzXgXzXzXzXzXzXzXVXzXzXVXzXzXzXVXzXzXzXzXzXjXjXjXjXpXpXm m b x l l 1 ; = = O O . O O O = 4 7 l b b pXpXgXgXjXjXjXjXjXjXjXjXpXgXgXpXpXpXpXm m m m m b b b b b b z b x x x z z z z z z l l l l l l l l l l x l x x x x b b m m m pXgXgXgXzXjXzXzXcXVXVXVXVXVXVXVXVXZXZXZXZXZXZXZXZXZXZXZXZXZXZXZXZXVXZXVXVXVXVXVXVXVXVXcXVXcXVXzXzXzXzXzXjXgXpXm m b l 7 4 ; O O O . O O & & & ; = ; & & O O O . . O O O O O O O & O = O O & & O & O O O O O O O O . . . . . O O O O O ; ; ; ; 4 l z b m pXjXjXzXVXVXZXZXSXSXSXSXAXAXBXBXBXeXeXeX0X0X9X<X@X@XOXOXT.T.Y.j.Y.j.j.d.d.d.4.4.4.4.2.2.4.<.4.<.4.4.4.4.d.4.d.d.j.j.j.Y.Y.Y.Y.R.OX+X+X9X9X9X9X9X0X0X0X0X9X9X9X@X@X+XOXT.Y.Y.j.j.d.4.2.<.>.>.-.-.W W J J J D D D D D D D D D D D J J J W W W -.-.>.>.2.4.4.d.j.Y.F.Y.T.OX@X@X9X9X0XeXqXrXrXrXNXNXCXCXMXMXMXMXxXnXcXcXcXjXjXxXjXjXgXsXgXaXgXiXsXyXsXyXyXm n n m v m c v c n c n c m v n yXsXsXfXjXlXzXnXVXMXZXZXZXZXZX",
"ZXZXZXZXVXZXnXnXlXjXsXpXn c u x l 6 r 4 r 4 3 4 4 4 4 1 6 1 6 4 6 1 6 6 6 4 6 7 7 7 7 7 6 6 4 6 1 1 1 ; ; ; & - O & O - & - ; 1 4 r l x b m m pXpXgXgXgXzXzXzXzXzXzXVXzXzXVXzXVXzXVXzXzXzXzXjXjXjXgXjXpXpXm m b b l l 4 1 ; = O O O . O O = ; 4 7 l b m pXgXpXjXjXjXjXzXjXzXjXgXzXgXgXpXgXpXpXpXm m m b b b b b b z b z z z l l l l l 7 7 l 7 7 4 7 4 7 4 7 7 4 7 7 7 l l l x x b b b m pXpXpXgXjXjXzXzXzXcXcXVXVXVXVXVXVXVXVXVXZXVXZXZXZXVXZXVXZXVXVXVXVXVXVXVXVXVXVXVXVXVXcXVXzXzXjXjXzXjXpXm m m b l l ; ; = O . O O O & ; ; 4 ; ; ; ; ; ; & O O O . . . O O O O O O O O O O O O O O O O O O . . . . . . . O O O O O ; ; ; ; 7 l x b m pXjXjXzXVXVXZXZXSXSXSXAXAXBXBXBXBXeXeXeX0X0X9X<X@X@XOXT.T.Y.Y.j.Y.j.d.d.d.4.4.4.4.2.<.<.<.<.>.<.>.<.<.<.<.<.4.6.4.d.d.j.j.j.Y.Y.T.T.OX+X@X@X@X9X9X9X9X9X9X@X9X@X@X+XOXT.Y.Y.A.f.d.4.4.>.>.>.-.-.W W J J D D D D D D D V D D D D D D D J J J W W -.-.>.<.2.4.d.d.h.A.Y.T.T.OX@X@X9X0X0XeXqXrXrXNXNXNXCXMXMXMXbXVXcXnXcXxXxXcXjXjXjXgXjXgXgXpXgXiXsXyXpXyXtXm m v m c m c m c n c m v n yXtXyXsXgXjXzXnXnXnXVXZXZXZXZXZX",
"SXZXZXZXVXVXnXnXcXjXjXpXn n x y r l 6 6 3 4 4 4 4 6 4 6 1 6 6 4 6 7 6 6 7 7 7 6 6 6 6 6 6 6 6 4 1 6 ; 1 ; * ; & & o & O & - ; ; 4 4 l x b b m m pXgXgXgXgXzXzXzXzXzXzXzXzXzXzXzXzXzXzXzXzXjXjXzXjXjXpXpXpXm b b z l 4 4 ; ; = O O . . O & = 4 4 l x b pXpXgXgXjXjXzXzXzXzXzXzXjXgXgXgXgXpXgXpXpXm m b m b b z b z z z l l 7 7 l 4 7 4 4 4 ; 4 ; ; ; ; ; ; ; ; ; ; ; 4 ; 4 7 4 l 7 l x x b b m pXpXgXgXzXzXzXzXcXVXVXcXVXVXVXVXVXVXVXVXVXVXVXVXVXVXVXVXVXVXVXcXVXVXcXVXcXcXcXcXzXzXjXjXjXpXpXpXm b z l 7 ; ; = O . . O O ; ; ; 4 4 7 4 4 7 ; ; ; ; O O O O . . . . . O O . O O O . O O . . . . . . . . O O O O O O & ; ; ; ; 4 7 l x b m pXjXjXzXVXVXZXZXSXSXSXSXAXAXBXBXBXeXeX0XeX0X9X<X@X@XOXOXT.Y.Y.j.Y.d.d.d.4.4.2.<.<.<.>.>.>.>.>.>.>.>.>.>.>.<.<.<.<.4.4.4.d.f.j.j.Y.Y.Y.T.OX+X@X@X@X9X@X9X9X@X9X@X@X+XOXT.Y.Y.j.j.d.4.2.<.>.>.-.W W J J J D D D D V D V D D V D V D D D D D J J J W W -.-.>.<.2.4.d.j.A.F.Y.T.OX+X@X9X9X0XqXrXrXrXrXmXNXmXCXMXMXnXbXVXxXcXcXxXjXcXjXjXjXgXgXgXsXpXpXsXyXpXyXyXtXm m v m v m c n c m v v m n yXsXsXfXzXcXcXnXZXVXZXZXZXZXSX",
"ZXSXZXZXZXZXnXnXcXjXgXsXyXv x z z 9 6 r 4 6 4 4 6 4 6 1 6 6 6 6 7 6 6 7 6 7 r 6 r r r r 6 6 6 6 6 1 1 ; ; - ; & & & o - & ; & 1 1 7 l x x b m pXpXgXgXgXjXjXjXjXjXzXzXzXzXzXzXzXzXzXzXjXjXzXjXpXjXpXpXm m b b x l l 4 1 ; = O O O . O O & ; ; 4 l b m pXpXgXjXzXzXzXzXzXzXzXzXzXzXzXgXgXgXpXpXpXm m m b b b b z l l l 7 7 7 7 ; 4 ; ; ; ; ; ; & ; = = & = & = & = & ; ; ; ; ; ; 4 4 7 7 l x b b m pXpXpXgXjXzXzXzXzXVXcXVXcXVXVXVXVXVXVXVXVXVXVXVXVXVXVXVXVXVXVXcXVXcXcXzXzXzXjXjXjXjXpXpXm b b z l 4 ; ; O O . O O ; ; ; 7 7 l x l l x l 7 7 4 ; ; ; O O O O O . O . . . . . . . . . . . . . . O O O O O O O O & ; ; ; ; 4 7 x x b pXpXjXjXzXVXVXZXZXSXSXSXAXAXAXBXBXBXeXeXeXeX0X9X@X@X@XOXT.Y.Y.Y.A.j.d.d.4.4.4.<.>.<.;.>.;.>.;.;.-.-.-.;.-.;.>.;.>.>.>.<.<.4.4.4.d.j.j.A.Y.T.T.OXOX+X@X@X9X@X@X@X@X@X+XOXT.Y.Y.F.j.d.4.4.<.>.>.-.W W J J D D D D V D A A A V V V V A V D V D D D D J J W W -.;.>.<.4.4.d.j.A.Y.T.R.OX+X<X<X0XqXqXqXrXrXNXNXNXmXMXMXMXMXxXnXnXcXcXcXjXjXjXjXjXgXgXsXgXsXiXsXyXpXtXyXm tXn n m v v n v v n n n yXiXiXsXhXzXzXnXnXnXZXZXZXAXZXZX",
"ZXZXSXZXZXnXVXnXlXzXfXsXyXv c y r l 6 6 4 4 4 6 4 6 1 6 6 6 6 6 6 l 6 l r r r l r l r r r 6 6 6 4 4 1 < ; ; * & & & & & O ; ; ; 1 4 r x x b b m pXpXgXgXgXjXjXjXzXjXzXzXzXzXjXzXjXjXjXjXjXpXjXjXpXpXm m m b z z l 4 4 ; ; = O O . . O O & ; 4 7 z b m pXgXgXjXzXzXzXcXzXcXzXcXzXzXgXjXgXpXgXpXpXm m b b b z z l l 7 4 7 4 ; ; 4 ; ; = = O & & O O O O O O O O O O O O O O & ; = ; ; ; 4 4 7 7 l x b m m pXpXgXjXjXzXzXzXcXVXcXVXVXcXVXcXVXVXVXcXVXVXcXVXcXcXcXcXcXzXzXzXzXzXgXgXgXpXpXm m b b l 4 4 ; ; O O . O O ; ; 4 l l x b b m b b b b l l 7 4 ; ; ; O O O O O O O O . O . O . O . O O O O O O O & O & ; ; ; ; ; 4 7 7 x x m pXpXjXjXzXVXVXZXZXZXSXSXSXAXAXBXBXBXeXeXeX0X0X9X@X@X@XOXT.T.Y.A.j.j.d.d.4.4.<.<.>.>.;.>.-.-.W W W -.W W W W W -.-.-.>.>.>.>.<.4.4.4.d.j.j.Y.Y.Y.T.OXOX+X+X+X+X@X@XOXOXOXR.T.Y.Y.j.d.d.4.<.<.;.-.-.J J J D D D D V A V V V V V V V V V V V D V V D D D J J W W -.;.>.<.4.4.d.F.A.Y.T.R.+X@X<X0X0XqXqXwXrX8XNXNXmXmXMXMXnXMXxXnXxXcXxXcXzXjXjXjXgXjXsXsXsXgXiXsXyXpXtXm n m n v m v c n b v m n tXyXsXfXgXzXxXnXnXZXMXZXZXZXSXZX",
"SXSXZXZXZXZXMXnXnXlXjXsXyXv c z l 6 r 6 6 4 4 6 6 1 6 6 6 6 6 l 6 6 r r r r z r z r r l r l 6 6 6 1 3 ; 1 * ; & & o & & - & ; ; 4 4 l l x b b m m pXpXgXgXgXjXjXgXzXjXjXjXjXjXjXjXjXjXzXpXjXjXpXpXm m b b b l l 4 4 ; ; = O O O . O O & ; ; 4 l x b pXpXgXgXzXzXzXzXzXcXzXcXzXzXgXzXgXgXgXpXpXm m b b b z z 7 7 7 4 4 ; ; ; ; O ; O O O O O . O O . . . . . . . . O . O O O O O O & & ; ; ; 4 7 7 l x b b m pXpXgXjXgXzXzXzXzXzXcXcXcXVXcXVXcXVXcXcXcXcXcXcXzXzXzXzXzXzXgXgXgXgXpXm m m b z 7 7 4 ; = O O . O O ; ; 7 l x b m m pXpXpXpXm m m b l l 4 4 ; ; & ; & O O O O O O O O O O O O O O O O & & & & ; ; ; ; 4 4 7 l x b m m gXgXzXzXVXVXZXZXSXSXSXSXAXAXBXBXBXBXeXeXeX0X9X<X@X@XOXT.Y.Y.Y.j.f.d.4.4.<.<.>.>.;.;.-.W -.W W W W J W W J W W W W W W -.-.>.>.>.<.4.4.d.d.A.A.Y.Y.T.R.OXOXOX+XOXOXOXOXT.Y.Y.Y.j.d.d.4.<.>.-.-.W K J J D D V D V A V V V V V V V V V V V V V V D V D D D J J W -.-.>.<.<.4.d.d.A.Y.T.R.OX+X<X<X9XqXqXrXqXrXmXNXmXmXMXMXMXbXnXcXnXcXcXzXxXjXjXjXjXgXgXsXgXpXsXiXsXyXm tXm tXn n n c m c v m v tXyXiXiXfXjXlXcXnXMXMXZXZXZXSXZXSX",
"ZXSXZXZXZXZXnXMXcXlXjXsXyXn c y y r 6 6 3 6 4 6 4 6 6 6 6 6 6 6 l r r l z r z r z x r r r r r 6 6 4 1 1 ; ; & * & & & & & - & 1 ; 4 r l x b b m m pXpXpXgXgXgXjXjXgXjXjXjXjXjXjXgXgXjXpXjXpXpXpXm m m b z z l l 4 ; ; = = O O . . O O & ; 4 7 l b m m gXgXzXzXzXcXcXcXcXcXcXzXzXzXgXgXgXgXpXpXm b b b l l 7 7 4 4 ; ; ; = O O O O O O . . . O . . O . O O O O . O . O . . . . O O O O O & ; & ; 4 4 7 7 x b b m m pXgXgXjXjXzXzXzXzXzXzXzXzXzXzXzXzXzXzXzXzXzXzXzXgXjXgXgXgXpXm m m b z l 7 4 ; ; = O O . O O ; ; 7 x b m pXpXgXpXjXgXgXgXpXpXpXm x l l 4 4 ; ; ; = & & & O O O O O & O O & & & & = ; ; ; ; ; 4 4 7 l l b b m pXgXgXzXzXVXVXVXZXZXSXSXSXAXAXBXBXBXeXeXeX0X0X9X<X@X@XOXT.Y.Y.j.j.j.4.4.2.<.>.>.;.-.-.W W W J J J J D D D D J J J J W W W W -.-.>.>.>.<.4.4.d.d.j.Y.Y.Y.Y.R.R.OXOXOXR.R.T.Y.Y.A.A.j.d.4.<.>.>.-.W W J J D D V D V V V V V V V V V V V V V V V V V V V V D D D J J W -.-.>.<.4.4.d.A.A.T.T.R.+X+X<X0X0XqXqXrXwXrXmXNXmXmXMXMXMXbXnXnXcXcXxXzXzXzXjXjXjXjXsXsXsXpXiXsXyXsXm m n n yXv m v m v n yXn tXiXfXfXjXcXcXnXVXMXZXZXSXZXAXZX",
"SXZXAXZXZXMXZXnXnXcXjXsXtXv c u l r r 4 r 4 4 6 6 6 6 6 6 l 6 r r r z z z z z x z r x z r r r r 6 1 3 ; 1 * - & & & o & & - - ; 1 4 4 l l x b b m m pXpXgXpXjXpXgXgXgXjXgXjXjXpXjXjXpXjXpXpXm m m b b b z l 7 4 4 ; = = O O . . O O O ; ; 4 l z b m gXgXgXzXcXzXcXcXcXcXzXcXzXzXjXjXgXgXpXm m b b x l 7 7 7 4 ; ; ; ; O O O O O . . . O O O O O & O O & & O O & O O & O O O O . . . . O O O & & ; ; ; 4 7 l l x b m m pXpXgXgXjXgXjXjXzXzXzXzXzXzXjXzXzXjXjXgXjXgXgXgXpXpXm m m b x l l 7 4 ; ; O O O O O O ; ; 7 x b pXpXpXjXjXzXzXzXzXjXzXgXpXpXm b x l 7 7 ; 4 ; ; ; ; = ; = = = & & ; & = ; ; ; ; ; ; 4 4 7 l l l b m pXpXgXjXzXzXVXVXZXZXSXSXSXSXAXAXBXBXBXBXeXeXeX0X9X<X@X+XOXT.Y.Y.Y.j.f.4.4.4.>.>.>.-.-.W W W J J D D D D D D D D D D D D D J J W W W -.-.>.>.<.2.4.4.j.j.A.Y.Y.Y.T.T.T.T.T.Y.Y.Y.Y.A.j.d.4.<.>.>.-.W W J D D D V A V V V V V V V V V V V V V V V V V V V V D V D D D J W W -.;.>.2.4.d.h.A.j.T.R.+X+X<X1X1XqXqX6XrX8XrXmXmXmXMXbXMXnXbXcXnXcXxXcXzXxXjXjXjXsXjXsXgXgXpXiXsXyXyXtXyXm v m v m v n n v tXiXiXiXjXhXcXcXnXMXZXZXZXCXSXSXZX",
"SXSXZXSXZXZXVXnXnXlXlXsXsXn c z y 9 r 3 6 4 r 4 6 6 6 6 l 6 l r z z r x z x z z u u r z z r r 6 6 1 1 1 ; - - & &   & & & & - ; 1 1 4 l l x b b b m m pXpXpXgXjXgXjXgXpXjXpXjXjXpXgXpXpXpXm m m b b z z l l 4 ; ; ; = & O O . . O O & ; ; 4 l b m pXpXjXjXzXzXcXcXcXcXcXcXzXzXzXjXgXgXpXpXm b b z l 7 7 ; ; ; ; O O O O . . . O . O O O O O & & & ; & = & & ; & ; & & & & O & O O O O . . O . O O O ; ; ; ; 7 7 l x b m m m pXpXgXgXgXgXgXjXjXgXjXjXgXgXgXgXgXpXpXpXpXm m b b x z l 7 4 ; ; ; O O . . O O ; 4 7 x b pXgXjXzXzXzXcXzXzXcXcXzXzXzXpXpXpXm b l l l 4 4 4 ; ; ; ; ; ; ; ; ; ; ; ; ; ; 4 4 4 7 7 7 l x b b m pXpXgXzXzXzXVXVXZXZXZXSXSXSXSXAXAXBXBXBXeXeX0X0X9X9X@X@XOXT.T.Y.j.j.d.4.4.2.>.>.>.-.W W W D D D D D D D A A A A D A D D D D D D D J W W W -.>.>.>.4.4.6.f.j.Y.F.Y.Y.Y.Y.Y.Y.Y.Y.A.F.j.d.4.4.>.>.-.-.W J J D D V D V V V V V V V B B B B B B B V V B V V V V V V D V D D J W W -.>.>.4.4.d.A.Y.A.T.R.+X@X<X0X0XqXqX6XrX8XmXrXmXMXMXMXbXVXbXnXcXcXcXxXzXjXjXjXjXsXjXsXsXgXpXiXyXsXyXtXm n n n v m v yXn tXyXiXfXfXzXcXbXVXVXMXZXZXZXSXSXSX",
"AXZXSXZXSXZXMXMXnXlXjXjXyXn v u z r 6 r 4 6 4 6 6 6 6 r 6 r r l r z x z x x u c x x x u z r r r 6 6 3 ; < - = * o & & & & - & ; ; 4 4 l l x x x m b m m pXpXpXpXpXpXpXjXpXgXpXpXpXpXm m m m b b b z z l 7 4 4 1 = = & O O . . O O & ; ; 4 l z b m pXgXgXzXzXzXcXcXzXcXcXzXzXzXjXjXgXpXpXm b b z l 7 7 ; ; ; ; O O O O . O O O O O & & & = ; & ; ; ; ; ; ; 4 ; ; ; ; ; ; & ; & ; & & O O O . O . . O O O & ; ; 4 4 7 l l b b b m m pXpXpXgXpXpXgXpXpXgXpXpXpXpXm m m b b b x l l 7 7 ; ; ; = O O . O O O ; ; 7 x m pXgXzXzXzXcXVXcXVXVXVXcXVXzXzXzXzXgXpXm m b x x 7 7 7 4 4 4 4 ; 4 4 4 ; 4 4 4 7 4 7 7 7 l l b b m pXpXpXgXzXzXzXVXVXZXZXSXSXSXSXSXAXBXBXBXBXeXeXeX0X0X<X@X@XOXT.T.Y.A.j.d.4.4.<.>.>.;.W W W J D D D D A D A A A A A A A A V A A A D D D D J J W W W >.>.>.4.4.d.f.j.A.F.A.Y.Y.F.Y.Y.A.A.j.d.4.4.<.>.-.-.W J D D D V A V V V V V V B B B B B B B B B B B V V V V V V V V D A D J J W -.>.>.>.4.d.h.j.Y.Y.R.+X+X<X1X1XqXqXeX6X8XrXmXmXmXMXbXVXbXnXcXnXcXxXcXzXzXjXjXjXjXjXsXgXpXgXiXsXyXyXyXtXm tXn m v m v yXtXiXiXfXfXcXcXcXnXMXZXZXAXZXSXSXSX",
"ZXAXZXSXMXZXZXnXnXnXlXfXsXn c z y 9 r 6 6 4 r 6 4 6 6 l 6 l r z z z x u x x b x c x x x z z r r 6 3 1 1 ; - - & & o O & & & - & ; ; 4 4 l l x b x m b m m m pXpXpXpXpXpXpXpXpXm m m m m m b b b z z l 4 7 ; ; ; = = O O . . O O O & ; 4 4 l x b pXpXjXjXjXzXzXzXcXcXzXzXzXzXjXgXgXpXpXm b b l l 7 ; ; ; & O O O O . . O O & O & ; ; ; ; ; 4 4 4 4 4 7 4 7 4 7 7 4 7 4 4 4 4 ; ; ; ; & & & O O O O . . O O O & ; ; ; 4 7 l x x b b b m b m m pXm pXm m m m m m b b b x x l l 7 4 4 ; ; = O O O . O O = ; 4 l x m pXjXzXzXcXVXVXVXVXVXVXVXVXVXVXcXcXzXzXgXgXpXm m b b l l l l 7 7 7 4 7 4 7 7 7 7 l l l l b x m m m pXpXgXjXzXzXzXVXVXVXZXZXSXSXSXSXAXAXBXBXBXeXeXeX0X9X<X<X+XOXT.T.A.A.j.d.4.4.<.>.;.;.W W J J D D D A A A V A V V V V V V V A V A V A A D D D D J W W W ;.>.<.2.6.6.f.j.F.A.A.A.F.A.A.A.j.d.d.4.<.>.>.-.W J J D V D V V V V V V V B B B B B B B B B B B B B V V V V V V V V D A D J K W -.>.2.4.4.d.j.Y.Y.T.R.+X<X<X1XqXqX5XeX8X8XmX8XmXMXMXMXMXxXnXnXxXcXcXxXzXzXjXjXjXsXjXsXsXpXgXiXiXyXyXyXtXn m v yXv yXk yXiXaXfXjXhXcXVXVXMXMXZXZXAXZXAXZX",
"AXSXSXSXZXZXVXMXnXzXlXfXsXtXc c y r r 3 6 6 6 6 6 r 6 r l r z z u x x x b x x x u x c x x z l r 6 3 3 ; : - - & o & o & & O - = ; 1 4 4 7 l l x b x b b m m m m m pXm m m m m m m m m b b b z z l l 4 7 ; ; ; = = O O . . O O O & ; ; 4 7 z b m pXpXgXgXzXzXzXzXzXzXzXzXzXjXjXjXpXm m b z l 7 4 ; ; ; O O O . . . O O O & & ; ; ; ; ; 7 4 7 7 7 l l l l x l l l l l 7 l 7 7 7 4 4 4 ; ; & ; & O O O O O . O O O O ; ; ; ; 4 7 l l x x b b b b b b b b b b b x x x l l l 4 4 4 ; ; ; & O O . . O O O ; 4 l x m pXjXzXzXVXVXVXVXZXZXZXZXZXZXZXVXVXVXcXzXzXzXgXgXpXm m b b b l x l l 7 l 7 l l l l l l b b m m m N pXpXgXzXzXcXcXVXVXZXZXSXSXSXSXAXAXAXBXBXBXeXeXeX0X0X<X<X+X+XT.Y.Y.Y.j.d.4.4.<.>.;.-.W W J D D A A A A A V V V V V V V V V V V V V V A V A A D D D D W W -.-.>.<.2.4.d.f.d.A.A.A.A.A.A.j.d.6.6.2.>.>.-.W K D D D D V V V V V V B B B B B B B B B C B B B B B B B V V V V V V A A D J J W -.;.>.<.4.d.j.j.Y.Y.R.+X@X<X1X1X5XqX6XeX8X8XmXNX7XMXbXbXZXbXnXnXxXcXcXcXzXzXjXgXjXgXgXgXgXiXsXyXsXyXyXtXm tXyXv yXtXyXiXiXiXfXhXcXcXxXVXMXZXZXSXZXAXZXAX",
"ZXAXZXSXNXZXZXnXnXnXlXjXiXtXv z z y 9 r 3 6 6 6 r 6 r 6 l l z u x x x b x b c c b x x x x u r r r 3 1 1 - - & - & &   & & & & - = ; ; 7 4 7 l l x b b b b b b m m m m m m m b m b b b b x z z l 7 4 4 4 ; ; = = O O O . . O O & & ; ; 7 l z b m pXgXgXjXjXzXzXzXzXzXzXzXjXjXgXpXpXm b x l 7 ; ; ; O O O . O O O O & ; ; & ; 4 4 7 7 7 7 l l b b b b b m b m m b m b b b b l l l l 7 7 4 4 ; ; ; & & O O O . . O O O O ; ; ; ; 4 7 7 l l l l x x l x l x l l l l 7 4 7 ; 4 ; ; ; O O O O . O O O ; ; 4 l x m pXjXjXzXVXVXVXZXZXZXZXZXZXZXZXZXZXZXVXVXVXzXzXzXzXpXpXpXpXm m m b b b b x b x b b b m m m m m N jXpXjXjXjXzXcXcXVXVXZXZXZXSXSXSXSXAXAXBXBXBXBXeXeX0X0X9X<X+X+XT.T.Y.j.j.d.4.4.>.>.;.-.W J J D D A A A V V V V V V V V B V B V B V V V V V V V A V D D D D W W -.-.>.<.4.4.4.d.f.f.j.f.j.d.d.6.4.<.<.>.-.-.J J D D V A V V V V V B B B B B B C B C C B C B C B B B B B V V V V V V A D D J K W -.;.2.4.4.d.j.Y.Y.R.R.+X<X1X0X0XqX5X8XrX8XmXmXNXMXMXbXnXnXbXnXbXxXcXcXzXzXzXjXjXjXsXgXfXsXpXsXiXyXyXyXtXyXv tXv yXk iXiXaXfXjXxXcXVXMXVXZXMXSXSXSXAXZX",
"AXZXSXSXZXZXZXMXMXxXlXfXsXyXv c y r r 3 r 3 r 6 6 6 r r l z u x x x c x c b g b x b c x x r z r 6 6 1 1 ; - - * &   & o & & & = ; = 4 ; 4 7 7 l l x x x b b b b b b b b b b m x b b x z l l 7 7 4 7 ; ; ; = = O O . . . O O O & ; ; 4 7 l x b m pXpXgXgXjXjXzXzXjXzXjXjXjXgXpXm m b z 7 4 ; ; ; O O . . O O O O ; ; ; ; 4 7 7 7 l l b b m m m m N pXN pXN pXpXN pXm pXN m m m b b x l l 7 7 4 ; ; ; ; & O O O . O . O O O O ; ; ; ; ; 4 4 7 7 7 7 7 7 7 4 7 4 4 4 4 ; ; ; ; O O O O . . . O O ; ; 7 l b m pXjXzXVXVXVXZXZXZXZXSXSXSXSXSXSXZXZXZXZXVXVXVXVXzXzXzXzXgXgXpXpXpXpXm m m m m m m m m N N pXN pXjXpXjXzXzXcXcXVXVXVXZXZXSXSXSXSXSXAXAXBXBXeXBXeXeX0X0X9X@X@X+XT.Y.Y.Y.j.d.d.2.>.>.;.W W J D D A A A A V V V V V V V B B B B B B B V B V V V V V V A V A D D D J W -.-.<.<.<.4.4.4.d.d.d.d.6.4.4.4.<.>.-.W W J D D A A V V V V V B B B B B C C C C C C B C C B C B B B B V V V V V V A A D D J W -.>.>.<.4.d.j.A.Y.Y.R.+X,X<X1X1X5XeX5X8X8X8XNX7XMXbXbXVXbXnXnXnXcXcXcXzXxXjXzXjXgXjXgXgXsXsXsXyXsXyXyXyXtXtXyXyXk yXiXaXaXjXhXzXnXbXVXMXMXSXZXCXSXSXSX",
"SXAXSXSXZXmXZXnXnXnXlXjXsXuXb c z 9 r r 3 r 6 6 r 6 l r l z z x x b x b b x b b b c b u x x z r r 3 3 1 < - & - & &   & & & & & = ; ; 4 4 4 7 l 7 l x x x b b b b b b b b b z b z z z l l 4 7 4 ; ; ; = ; O O O O . . O O O = ; ; ; 7 7 l x b m m pXgXjXgXjXjXjXjXjXgXjXpXpXpXm x z 7 4 ; ; O O O . . O O & & ; ; ; 4 7 7 l x b b m m m m pXN pXpXpXgXpXgXgXpXjXpXgXpXpXpXpXpXN pXm m b x l l 7 4 4 ; ; ; & & & O O . O O O O O & ; ; ; ; ; ; 4 ; 4 4 ; 4 ; ; ; ; ; & & & O O O O . . O O ; ; ; 7 l b m gXgXzXzXVXVXZXZXZXSXSXSXSXSXSXSXSXSXSXSXZXZXZXVXVXVXcXcXzXzXzXgXgXpXpXpXpXpXpXpXpXpXpXpXpXpXpXjXgXjXzXzXzXzXcXVXVXVXZXZXZXSXSXSXSXAXAXBXBXBXBXeXeX0X0X0X9X@XOXOXT.Y.j.j.d.d.2.<.>.;.W W J D D A A A V V V V V V B B B B B B B B B B B B B V V V V V V A V A D D D J W -.-.>.<.4.4.4.4.4.4.4.4.4.2.<.>.-.-.W J J D D V V V V V B B B B B C C C C C C C C Z C C C C B B C B B V V V V V V A A D D W W ;.>.<.4.4.h.A.Y.Y.R.OX@X,X1X0X0X5XeX8X5X8XmXmXNXMXMXbXnXbXnXnXbXcXxXcXzXjXxXzXjXgXgXgXgXaXsXsXiXiXiXyXyXyXk yXyXQ.iXiXfXfXhXcXxXVXMXVXSXMXSXSXSXAXSX",
"AXSXSXmXSXZXZXZXnXxXlXfXfXyXv c d z r 3 6 6 4 r 6 6 r l z z u x c x b v c v c b g b u b x u z r 6 9 1 1 ; - ; * & o &   & & O & = = ; ; 1 4 4 4 l l l z z z z x x x z b z z z z l l 7 7 4 7 4 ; ; ; ; ; O O O . . . O O O & & ; ; 4 4 7 l x b b m pXgXpXjXgXjXgXjXgXgXpXpXm b x l 7 ; ; ; O O . . O O & & ; ; 4 4 7 l l b b m m pXN pXpXjXpXjXjXjXjXzXjXzXjXzXjXzXzXjXjXjXjXgXgXpXpXpXm m b b b l 7 7 4 ; ; ; & & O O O . . O O O O O & O ; & ; ; ; & ; ; & ; & & O O O O O . . . O O O ; ; 4 7 x b pXpXjXzXzXVXVXZXZXSXSXSXSXSXSXSXSXSXSXSXSXSXSXZXZXZXZXVXVXVXcXcXzXzXzXjXjXgXgXjXpXgXpXgXpXjXgXjXjXzXzXzXzXcXcXVXVXVXZXZXZXSXSXSXSXSXAXAXBXBXBXBXeXeX0X0X9X<X@XOXOXT.Y.Y.j.d.4.2.<.>.;.W W J D A A A V V V V V V B B B B B B B B B B B B B B B B B B V V V V V A V D D D W W -.:.>.>.<.4.2.4.4.2.4.2.<.>.>.-.-.J D D D A A V V V B B B B B C C C C C C C Z C C C C C C C C B B B B V V V V V A A D J J W -.;.>.4.4.d.j.j.Y.R.OX+X,X1X1X5XqX5X5X8X8XmXmX7XCXbXbXZXnXnXnXnXxXcXcXcXcXjXjXjXjXjXgXsXgXsXiXiXiXiXyXiXk yXyXtXiXiXiXfXhXzXxXnXnXMXMXMXSXSXCXSXSXAX",
"SXAXZXSXMXSXMXnXMXnXlXjXsXtXv c z y r 9 6 r r 3 r r r l z z x x b c c b b b yXb yXu b u c u r r r 4 3 1 < ; * ; & & &     & & & & = = ; ; 4 1 4 4 l 4 l l l l l l l l l l l l 7 7 7 4 7 4 ; ; ; = ; O O O O O . . O O O O & ; = ; 4 7 7 l z b b m m pXpXpXgXpXgXpXpXpXm m b x 7 4 ; ; O O O . O O O ; ; ; ; 7 7 l x b b m m pXpXpXjXjXjXjXjXzXzXcXcXzXcXcXzXcXzXzXcXzXcXzXzXzXzXjXjXpXjXpXm pXm b b l 7 7 4 ; 4 & & & O O O O . . O O O O O O O & & & O & O O O O O O . . . . O O O ; ; ; 4 7 x b pXpXzXzXVXVXVXZXZXSXSXSXSXSXSXSXSXSXSXSXSXSXSXSXSXSXZXZXZXZXVXVXVXcXcXzXcXzXzXjXzXjXzXjXzXjXzXjXzXzXzXcXzXcXVXVXVXVXZXZXZXZXSXSXSXSXAXAXAXBXBXBXeXeXeX0X0X9X@X+XOXT.Y.Y.j.d.d.4.<.:.;.W W J D D A A V V V V V B B B B B B C C C C C C C C B C B C B B B V V V V V A A D D D J W -.>.>.>.<.2.4.2.2.<.<.>.>.-.-.J J J D V V V V V V B B B C C C C C C Z C Z C Z C Z C Z C C C C B B B B V V V V V A D D J W W ;.>.2.4.d.h.Y.Y.Y.R.+X,X,X1X1X5XqX5X8X8X8XmXmX7XCXbXbXVXnXnXnXnXxXnXcXcXzXzXjXjXjXgXgXgXaXgXiXiXiXiXyXyXk yXtXtXiXaXaXhXjXxXxXVXVXMXSXMXSXSXCXSXSX",
"AXSXZXAXZXMXZXZXnXxXlXfXfXyXtXu u r r r 3 r 3 r r r r z z u x x c c b b v yXb v b b c b x x u r r 6 3 3 ; : - & - &   O   O & O = = = ; ; ; 1 1 4 4 l 4 7 l l l l l l 7 7 7 7 4 7 4 4 ; ; ; ; ; ; & O O O O . . . O O O O ; O ; ; ; 4 7 l z x b b m m m pXpXpXpXm m m b x l 7 4 ; ; O O . . O O O ; ; ; 4 l l l b m m pXN jXpXjXjXzXzXzXcXcXcXcXcXcXcXVXcXVXcXVXVXcXVXcXcXcXcXzXzXzXzXjXjXjXpXpXpXm m b x l l 4 4 ; ; ; & & & O O . . . . O . O O O O O O O O O . . . . O O O O & ; ; 4 7 l b m pXgXzXzXzXVXZXZXSXSXSXSXSXSXSXSXAXAXAXAXAXSXSXSXSXSXSXSXZXZXZXZXVXVXVXVXVXcXcXzXcXcXzXzXzXzXzXzXcXzXcXcXcXVXVXVXVXZXZXZXSXSXSXSXSXSXAXAXBXBXBXBXeXeXeX0X9X<X<X+XOXT.Y.Y.j.d.4.4.<.:.-.W W D D A A A V V V V B B B B C B C C C C C C C C C C C C C B C B B B B V V V V A V D D J W W -.>.>.>.>.>.<.>.>.>.>.-.-.W J D D V V V V V V B B B B C C C Z C Z C Z C Z C Z C Z C C C C C C B B B V V V V V A A D J J -.-.>.<.2.4.j.j.A.Y.R.XX+X<X=X1XqX5XeX5X8X6XNX7XCXbXCXnXmXnXnXbXcXnXcXcXzXxXjXjXjXjXgXjXsXgXpXfXiXiXiXtXiXyXtXtXiXaXiXfXfXlXxXcXnXMXMXZXZXSXNXSXSXAX",
"ZXAXAXZXAXZXMXnXMXnXlXlXsXuXb v z y r 5 r 4 r 3 r r r z z u x b c b b b yXb b yXb v b g c x r r r 3 6 1 < ; - * = & &   &   & O . = = = ; ; ; 1 1 1 4 4 4 4 7 7 4 7 4 7 4 4 7 4 ; 4 ; ; ; O ; O O O O O . . . . O O O & = = ; ; ; 4 4 4 7 l l x b b m m m b m m b b x x l 4 ; ; & O O . O O O ; ; ; 4 7 l l b m m pXpXgXjXjXjXzXcXcXcXcXcXVXVXVXVXVXVXVXVXVXVXVXVXVXVXVXVXVXVXVXcXcXcXzXzXzXzXjXpXpXpXpXm b x l l 7 4 ; ; ; & & & & O O O . O . . . . . . . . O . O O O O & ; ; ; ; 4 l x b m pXgXzXzXVXVXVXZXZXSXSXSXSXSXAXAXAXAXAXAXAXAXAXAXSXSXSXSXSXSXSXSXZXZXZXZXVXVXVXVXVXcXcXcXcXcXzXcXcXcXVXcXVXVXVXVXVXZXZXZXZXSXSXSXSXSXAXAXBXBXBXBXeXeXeX0X0X9X@X@XOXT.T.Y.j.h.d.4.<.>.;.-.K D D A A A V V V V B B B C B C C C Z C Z C C C Z Z C Z C C C C C B B B B V V V V A A D D J W W -.;.>.>.>.>.>.>.;.-.-.W J J D V D V V V V B B B C C C C C C Z C Z C Z C Z C Z C Z C Z C C C B B B B V V V V V A D D J W -.>.>.4.4.d.j.Y.A.R.XX+X,X1X-X1X5X5X8X8X8X8XmX7XCXbXCXnXbXnXZXnXbXcXbXcXcXcXzXjXjXhXsXjXsXaXsXiXiXiXiXQ.iXtXtXiXiXaXaXhXlXcXbXMXMXMXMXSXCXSXCXCXSX",
"AXAXZXAXZXmXZXMXnXxXlXfXfXyXk u u y r r 4 r r 6 6 r r z u x u c c b v yXb v yXb v yXc c x x u r r r 3 3 1 ; - = = *   & . . & O & O O = O ; ; ; 1 ; 1 1 4 4 4 4 4 4 4 4 4 4 ; ; ; ; = ; = ; O O O O O . . . . . O O O O O = O ; ; ; ; 4 7 7 7 l x x x x b b b x x l 7 7 ; ; ; O O O . O O O ; ; 4 7 l l b m pXm gXpXjXzXzXzXcXcXcXcXVXVXVXVXVXVXVXVXZXVXZXZXZXVXZXZXZXVXZXVXVXVXVXVXVXVXcXcXzXzXjXjXjXpXpXpXm b b l 7 7 4 4 ; ; & & & & O O O O O O O O O O O O & O & O ; ; ; ; 4 7 l x b m pXgXzXzXVXVXZXZXSXSXSXSXSXAXAXAXAXAXBXBXBXBXBXAXAXAXAXSXSXSXSXSXSXSXZXZXZXZXZXVXVXVXVXVXVXVXVXVXVXVXVXVXVXVXVXZXZXZXZXSXSXSXSXSXSXSXAXAXBXBXBXBXeXeXeXeX9X9X<X@XOXR.Y.Y.A.h.d.4.<.>.;.W W D D A A V V V V V B B B B C C C Z C C Z C Z Z Z Z C Z C Z C Z C C C C B B B V V V V V D D D J W W -.-.;.;.-.>.-.-.W W J J D D D V V V V B B B C C C C Z C Z C Z Z Z Z Z Z Z Z Z C Z C C C B C B B B V V V V V A D D J J -.;.>.<.4.d.j.A.Y.T.R.+X+X=X1X1X5XqX5X6X6XmX7XNXbXCXbXbXZXbXnXnXnXcXcXxXcXzXxXjXjXjXjXgXaXgXpXaXiXiXiXiXtXtXtXtXaXiXfXhXlXxXxXnXVXMXSXMXSXCXSXAXSX",
"AXCXAXZXCXZXMXMXnXnXlXlXsXyXv c z y q r 5 r 4 r r r r z u z b c b c b yXb yXv v b b yXg c u x y r 9 3 3 1 < - * = = &   O   . & O & O = = ; O ; ; ; ; ; 1 ; 1 ; ; 4 ; ; ; ; ; ; = = ; O O O O O O O . . . . . O O O O O & ; ; O ; ; ; ; ; 4 7 4 7 l l l l l l 7 l 4 4 ; ; O O O . O O O ; ; ; 4 7 l b m m pXpXjXjXjXzXcXcXcXVXVXVXVXVXVXZXZXZXZXZXZXZXZXZXZXZXZXZXZXZXZXZXZXZXZXVXVXVXVXVXVXVXcXcXcXzXjXgXpXpXN m m b l l 7 4 4 4 ; ; & ; & & & O & O O & & & & & & ; ; ; ; 4 7 7 x b m pXgXjXzXzXVXVXVXZXZXSXSXSXSXAXAXAXBXBXBXBXBXBXBXBXBXBXAXAXAXAXSXSXSXSXSXSXSXZXZXZXZXZXZXVXVXVXVXVXVXVXVXVXVXZXZXZXZXZXZXSXSXSXSXSXSXSXAXAXBXBXBXBXBXeX0XeX9X9X@X@X+XR.T.Y.j.j.d.4.<.>.;.-.W D D D A A V V V B B B B C C C C Z C Z Z Z Z Z Z Z Z Z Z Z Z Z C Z C C C C B B B V V V V V D D J J W W -.-.-.-.-.-.W W W J D D V V V V V B B B B C C Z C C Z Z Z Z Z Z Z Z Z Z Z Z Z C Z C Z C C B B B B V V V V V A D D W -.-.;.<.4.4.j.j.Y.Y.R.XX,X,X-X1X5X5X5XeX8X6XmX7XCX8XMXbXnXZXnXbXnXbXcXnXcXcXjXxXzXjXsXjXsXsXaXpXaXiXiXiXtXtXiX^.iXaXaXhXlXxXcXMXMXMXMXSXCXSXCXSXNX",
"ZXAXZXCXCXZXMXMXMXxXlXfXfXuXm u d z r 5 r 3 r r r r z z z b u b c b yXb m v yXyXb yXg b c x u r r r 6 3 1 : - ; * & * &   O . O O O O O = O ; & = ; ; ; ; ; ; ; ; ; ; ; = ; = = ; = O O O O O O . . . . . . . O O O O O O O O = = = ; ; ; ; ; 4 4 4 7 7 4 7 4 4 ; ; ; & O O . . O & & ; ; 4 7 l b b m pXpXgXjXzXzXcXcXcXVXVXVXVXVXZXZXZXZXZXZXZXZXZXSXZXSXZXSXSXSXSXZXSXZXZXZXZXZXZXZXZXZXVXVXVXVXcXcXzXzXzXjXjXpXN m m b b l 7 7 7 4 4 ; ; ; & ; & ; ; ; & ; & ; 4 ; 4 4 7 l l b m pXpXgXzXzXzXVXVXZXZXSXSXSXSXSXAXAXAXBXBXBXBXBXBXBXBXBXBXBXBXBXAXAXAXSXSXSXSXSXSXSXSXSXZXZXZXZXZXZXZXZXZXZXZXZXZXZXZXZXZXSXSXSXSXSXSXSXAXAXAXBXBXBXBXeXeXeXeX9X9X9X<X+XR.T.A.Y.j.d.4.2.>.>.W W D D A A V V V V B B B C C C C Z Z Z Z Z Z P Z Z Z P Z P Z Z Z Z Z C Z C Z C C B B V V V V A V D D J J W W W W -.W W W W J D D D A V V V B B B C C C C C C Z Z Z Z Z Z Z Z Z P Z Z Z Z Z C Z C C C C B B V V V V V A A D J J J -.>.>.4.4.d.j.A.Y.R.XXoX,X<X-X-XqX5X6X6XrX7XMX8XbXmXZXmXnXmXnXnXnXnXcXxXcXcXjXxXjXjXhXjXaXsXaXiXaXiXiXtXiXiXiXiXaXfXhXlXlXMXxXMXMXSXMXSXCXSXNXSX",
"AXZXAXSXZXmXZXnXnXxXxXlXiXiXk c z y q r 4 r 5 r r r r z u x b g yXg yXb yXyXv yXk b yXu b c u u r r 5 4 3 1 ; : & * & & o . . . . O O O O O O ; & = = = = = = ; = = = = ; = = O O O O O O O . . . . . . . . . O O O O O O O O O O & & ; ; ; = ; ; ; ; ; ; ; ; ; = & O O O . O O O & ; ; 7 7 x b m pXpXgXjXzXzXzXcXVXVXVXVXVXZXZXZXZXZXZXSXSXSXSXSXSXSXSXSXSXSXSXSXSXSXSXSXSXSXSXSXZXZXZXZXZXZXVXVXVXVXVXcXzXzXzXjXgXpXpXN m m b l l l 7 7 4 4 4 4 4 ; ; ; 4 4 4 4 4 7 7 l x b m m pXpXzXzXzXcXVXVXZXZXZXSXSXSXSXAXAXBXBXBXBXBXBXBXBXeXBXBXBXBXBXBXBXBXAXAXAXSXSXSXSXSXSXSXSXSXSXZXZXZXZXZXZXZXZXZXZXSXSXSXSXSXSXSXSXSXSXAXAXAXBXBXBXBXBXeX0XeX9X9X9X+X+XOXT.Y.Y.j.d.4.2.<.;.-.W J D D A V V V V B B B B C Z C Z C Z Z Z P Z Z P Z P Z P Z P Z Z P Z Z Z C C C C C C B B V V V A A V D J J K W W W W J J J J D D V V V V V B B B C C C Z C Z Z Z Z Z Z Z P Z Z Z Z Z Z Z Z Z C C Z C B B B B V V V V V A D D J W -.;.>.2.4.d.j.Y.Y.Y.R.+X%X<X=X2X5XqX6X5X8X6XNXmXCXbXmXnXmXnXnXnXnXnXxXcXxXcXzXjXjXjXjXsXjXaXsXaXiXiXiXiXQ.iXiXaX^.aXhXlXxXxXVXMXMXMXSXCXSXCXSXAX",
"AXAXSXMXAXZXMXMXnXnXlXfXsXuXv c d z r r 5 r r 3 r r z z u c c b c yXb m k yXyXb yXyXb yXc c u u r r 9 6 3 1 : - ; * & & &   O . . . O O O O O O & & = = = = = = = ; O = O O O O O O O O O . . . . . . . . . . . O O O O O O O O O O O O O O & O O = & & = & O O O O O . . O O & ; ; 4 7 7 b m pXpXpXjXzXzXcXcXVXVXVXVXZXZXZXZXZXSXZXSXSXSXSXSXSXSXSXSXSXSXSXSXSXSXSXSXSXSXSXSXSXSXSXSXSXZXZXZXZXZXZXVXVXVXVXcXcXzXzXjXjXgXpXpXm m b b b l l 7 7 7 7 7 7 7 7 7 7 l l l b b m m pXpXgXzXzXzXVXVXZXZXZXSXSXSXSXSXAXBXBXBXBXBXBXeXBXeXeXeXeXBXeXBXBXBXBXBXBXAXAXAXAXSXSXSXSXSXSXSXSXSXSXSXSXSXSXSXSXSXSXSXSXSXSXSXSXSXSXSXAXAXBXBXBXBXBXeXeXeXeX9X9X9X<X+XOXT.Y.Y.j.d.4.4.>.:.-.W J D A A V V V V B B C C Z C C Z Z Z P Z P Z P P P P P P P P P P P Z Z P Z Z Z Z C C C B B V V V V V D D D J J J J K J J J J D D V V V V V B B B C C C C C Z Z Z Z Z Z P Z Z Z P Z Z P Z Z Z C Z Z C C C C B B V V V V V A A D J W -.;.>.<.4.d.j.A.A.R.I.+XoX<X-X0X-X5X5XrX6XNX7XNXbXmXnXmXbXnXmXnXnXnXnXxXcXxXcXjXxXjXjXdXgXaXaXiXaXiXiXQ.iXiXiXuXiXhXhXhXxXMXxXMXMXSXmXSXMXSXAXCX",
"SXZXAXZXmXZXMXMXnXxXlXjXfXyXtXu u z q r 6 r 9 r 9 l z z u x b b b yXyXk yXv yXk b yXb k b g c u z r r 3 3 1 < ; - * * & & o . O . . . O O O O O O O O O O & O O O O O O O O O O O O . . . . . . . . . . . . . . . . . . O O O O O O O . O O O O O O O O O O O O . . O O O O & ; ; 4 7 x m m pXpXjXzXzXzXcXVXVXVXVXZXZXZXZXZXZXSXSXSXSXSXSXSXSXSXSXSXSXSXSXSXSXSXSXSXSXSXSXSXSXSXSXSXSXSXSXSXSXZXZXZXZXZXVXVXVXVXcXcXzXzXzXjXpXjXN pXm m m m b b l b l l b l b b b b m m pXN pXjXjXzXzXcXVXVXVXZXZXSXSXSXSXSXAXAXBXBXBXBXeXeXeXeXeXeXeXeXeXeXeXBXBXBXBXBXBXBXAXAXAXSXSXSXSXSXSXSXSXSXSXSXSXSXSXSXSXSXSXSXSXSXSXSXSXAXAXAXAXBXBXBXBXeXBX0XeX0X9X9X@X+X+XR.Y.Y.j.j.4.4.<.>.-.W J D D A A V V V B B C C C C Z Z Z Z P Z P P P P P P P P P P P P P P P P Z P Z Z Z C C C C B B B V V V V D D D D J J J J J D D D V D V V V V B B B C C C Z C Z Z Z Z P Z Z P Z P Z Z P Z Z Z Z Z C C Z C C B B B B V V V V A A D D J W -.>.>.4.4.d.A.Y.Y.R.XXoX=X=X-XqX5X5X5X6X8XmX7XCX8XCXbXZXbXnXZXvXnXnXnXcXcXxXzXjXjXjXjXaXjXaXaXiXiXaXiXQ.iXiXaXaXaXhXxXlXxXMXnXMXMXSXMXSXNXSXAX",
"mXAXZXNXCXZXMXnXMXxXzXhXiXuXv c u q r 5 r 5 r 9 z q z u x c g yXg yXb yXyXyXyXyXyXk yXb j b c x u r r r 3 3 1 < - - & & & &   . . . . . . O O O O O O O O O O O O O O O O O O . . . . . . . . . . . . . . . . . . . . . . . . . . . . . . . . . . . . . . . . . O O O O O ; ; 4 7 l b m N pXpXzXzXzXcXVXVXVXVXZXZXZXZXZXSXSXSXSXSXSXSXSXSXSXSXSXSXSXAXSXSXSXAXSXAXSXSXSXSXSXSXSXSXSXSXSXSXSXSXSXSXSXZXZXZXZXZXVXVXVXVXcXzXzXzXjXjXgXgXpXN N m m m m m m m m m m pXN pXpXpXjXzXzXcXcXVXVXVXZXZXZXSXSXSXSXSXAXBXBXBXBXBXeXeXeXeXeXeXeXeXeX0XeXeXeXeXBXBXBXBXBXBXAXAXAXAXSXSXSXSXSXSXSXSXSXSXSXSXSXSXSXSXSXSXSXSXAXAXAXAXBXBXBXBXBXBXeX0XeX0X9X9X9X+XOXR.Y.Y.j.j.d.4.<.>.;.W J D A A V V V V B B C C C C Z Z Z Z P Z P P P P P P ` P ` P P ` P P P P P P Z P Z Z Z Z C C C B V V V V V D V D D D D D D D J V D D V V V B B B B C C C Z C Z Z P Z Z Z Z P Z P Z Z P Z Z Z Z Z Z Z Z C C C C B B V V V V V A A D J J -.-.>.>.4.4.j.j.F.Y.R.XXoX,X=X1X-X5XqX6XrX6X7XNX8XCXbXZXbXZXbXnXnXnXnXcXcXcXxXxXjXxXjXaXjXaXfXaXiX^.iXuXiXiXQ.aXaXfXhXhXxXnXxXMXMXZXmXSXNXSXZXAX",
"SXSXAXZXmXZXMXnXxXxXlXfXfXtXv v y y r r 5 r 9 r 9 z z u x c b c yXv yXyXyXyXyXyXyXyXb yXb g c g x r u 5 6 3 1 < ; - - & & & & O . . . . . . . . O O O O O O O O O O O . . . . . . . . . . . . . . . . . . . . . . O . O . . O O O O O O O O O O O O . O . O O O O O & ; ; ; 4 7 l b m pXgXjXzXzXcXVXVXVXVXZXZXZXZXZXSXSXSXSXSXSXSXSXSXSXSXSXSXAXSXAXSXAXAXAXAXAXAXAXAXAXAXAXAXSXSXSXSXSXSXSXSXSXSXSXSXSXZXZXZXZXZXVXVXVXVXcXcXzXzXzXjXjXjXpXjXN pXpXN pXpXpXpXpXpXjXpXzXjXzXzXcXcXVXVXVXZXZXZXSXSXSXSXSXAXAXBXBXBXBXeXeXeXeX0X0X0X0X0X0XeX0XeXeXeXeXeXBXBXBXBXBXBXAXAXAXAXSXAXSXSXSXSXSXSXSXSXSXSXSXSXSXAXAXAXAXAXAXBXBXBXBXBXeXeXeXeX0X9X9X9X+X+XR.Y.Y.j.j.d.4.2.>.;.W W D D A A V V V B B B C C Z Z Z P Z P P P P P P ` P ` P ` P ` ` P ` P ` P P P P Z P Z Z Z C C C C B V V V V V D V D D D D D D V D V V V V V V B B B C C Z C Z Z Z Z Z P Z P Z P Z P Z Z P Z Z P Z Z C Z C Z C B B B B V V V V V A A D J W -.;.<.2.4.d.j.A.Y.Y.XX+X%X<X-X1X5X5X5X8X8XrX7XNXbXCXmXZXbXZXbXZXvXnXnXvXcXcXxXjXjXxXjXjXaXsXaXaXiXiXiXuXuXiXiXaX^.hXhXxXxXMXMXMXMXSXMXSXNXSXZX",
"SXmXSXmXZXMXMXMXnXxXlXlXuXyXv u u r r 5 r r 9 9 r r u u x c u yXg yXyXyXtXpXtXpXtXyXyXyXg yXb x g u r r 9 6 3 1 < - - * & & & O O O . . . . . . . . . . . . . . . . . . . . . . . . . . . . . . . . . . . O O O O O O O O & O O & O O O & O & & O O O O & O O & & ; ; ; 4 7 l x m pXpXpXzXzXzXcXVXVXVXZXZXZXZXZXSXSXSXSXSXSXSXSXSXSXAXSXAXSXAXAXAXAXAXAXAXAXAXAXAXAXAXAXAXAXAXAXAXAXAXAXAXSXSXSXSXSXSXSXSXSXZXZXZXZXZXVXVXVXVXVXcXcXcXzXzXzXjXjXjXjXjXjXpXjXjXjXjXzXzXcXzXcXcXVXVXVXZXZXZXSXSXSXSXSXAXAXAXBXBXBXBXeXeXeXeX0X0X0X0X0X9X0X0X0X0X0XeXeXeXBXeXBXBXBXBXBXBXAXAXAXAXAXSXAXSXAXSXSXSXSXAXSXAXAXAXAXAXAXBXBXBXBXBXBXeXeXeXeX0X9X9X@X@X+XR.T.Y.Y.j.d.4.2.>.:.W W D A A A V V V B B B C Z C Z Z Z Z P P P P ` P ` P ` P + P ` ` P ` P ` P ` P P P P P Z I Z Z Z C C B B B V V V V D V D V D D V D D V V V V B B B C C C C C Z Z Z Z Z P Z P Z P Z Z P Z P Z P Z Z Z Z Z C Z C C C B B V V V V V A A D J J W -.>.>.<.4.d.j.A.Y.I.I.+X%X%X1X-X>XqX5X8XwX7XNX7XCXmXmXbXZXmXnXnXZXnXnXnXcXxXxXcXxXjXjXaXjXaXaXaXaXiXQ.iXiXiX^.aXaXhXfXxXnXxXMXMXMXMXSXmXSXZXAX",
"AXSXMXAXMXMXMXnXxXxXhXfXsXk v c y y q r 5 r r 9 r z z u g b yXb yXyXyXtXyXpXpXtXpXtXpXyXyXb k b u u u r r 5 3 3 < ; - - = & & O O O O O . . . . . . . . . . . . . . . . . . . . . . . . . . O . O O O O O O O O & O & & & & ; & & ; ; ; & ; = & ; = ; & & ; ; ; ; ; 4 4 7 l b m pXpXjXzXzXcXVXVXVXVXZXZXZXZXSXSXSXSXSXSXSXSXSXAXSXAXAXAXAXAXAXAXAXBXBXBXBXBXBXBXBXBXBXBXBXBXAXAXAXAXAXAXAXAXAXSXSXSXSXSXSXSXSXSXSXZXZXZXZXZXVXVXVXVXcXcXcXcXzXzXzXzXzXzXzXzXzXzXcXzXcXcXVXVXVXVXZXZXZXZXSXSXSXSXSXAXAXAXBXBXBXBXeXeXeX0X0X9X0X9X9X9X9X9X9X9X0X0X0XeXeXeXeXBXeXBXBXBXBXBXBXAXAXAXAXAXAXAXAXAXAXAXAXAXAXAXAXAXBXBXBXBXBXBXeXeXeXeX0X0X9X9X9X@X+XOXT.Y.Y.j.d.4.4.>.;.-.W J D D A V V V V B C C C C Z Z Z P P P P P ` P ` P ` ` ` ` ` ` ` ` ` ` P ` P ` P P P P P Z Z Z Z C C C C V V V V V V D D D V D D V V V V V V V B B B C C Z C Z Z Z Z P Z P Z P Z P P Z P Z P Z P C P Z Z Z C C C C C B B V V V V V A A D J J -.;.>.2.4.4.j.A.Y.Y.I.U.,X,X-X1XqX>X6XwX8X6XNXNXbXCXmXZXmXnXmXnXnXnXbXnXnXcXxXjXjXjXhXjXaXfXaXaXiXaXiXQ.iXuXiX^.fXaXvXhXxXMXbXMXMXSXmXZXNXSXSX",
"SXMXAXZXmXMXMXMXbXlXlXfXuXtXv u d r r 5 r 9 9 z q z u u c c b g yXtXyXtXsXyXtXpXyXpXtXyXyXk b g b g u z q 9 9 6 1 1 : - - = = O O O O O O O O . O . . . . . . . . . . . . . . . . . . . . O O O O O O O & O & & & & ; ; ; ; ; ; 4 ; ; ; 4 ; ; 4 ; ; ; ; 4 ; ; 4 4 7 7 l b m N pXpXzXzXcXcXVXVXZXZXZXZXZXSXSXSXSXSXSXSXSXSXSXAXAXAXAXAXAXAXBXBXBXBXBXBXBXBXBXBXBXBXBXBXBXBXBXBXBXBXBXBXAXAXAXAXAXAXAXSXSXSXSXSXSXSXSXSXZXZXZXZXZXVXVXVXVXVXcXVXcXcXcXcXcXcXcXcXcXcXVXVXVXVXVXZXZXZXZXSXSXSXSXSXSXAXAXAXBXBXeXBXeXeXeX0X9X9X9X9X@X9X@X9X@X9X9X9X9X9XeX0XeXeXeXeXeXBXBXBXBXBXBXBXBXBXAXAXAXAXAXAXAXAXAXAXAXBXBXBXBXBXBXBXBXeXeXeXeX0X9X9X9X@X+XOXT.Y.Y.A.d.4.4.>.>.;.W J D A A V V V B B C C C Z Z P Z P P P P P ` P ` ` ` ` ` ` ` + + + ` ` ` ` ` ` P ` P ` Z P P Z Z Z Z C C B B B V V V V V V V V D V V V V V V V B B C C C C C Z Z P Z Z Z P Z P Z P P Z P Z P Z Z Z P Z Z Z C Z C C C B B V V V V V A A D D J -.W ;.>.<.4.d.f.A.Y.Y.I.oX+X%X<X-X-X5XqX6X6XrX7X8XmXCXmXmXbXZXZXnXmXnXnXnXcXcXcXxXxXxXjXhXfXfXaXaXaXiXuXiXQ.iXiXaXaXhXhXxXxXxXnXMXMXMXMXAXZXSXCX",
"CXCXZXmXZXMXnXnXxXxXfXfXiXk v u y r q r 5 r r 9 z z u u c b yXyXyXyXiXiXyXsXsXtXsXtXpXtXtXyXyXb v u u u z q 9 3 3 3 1 - - - = = O & O O O O O O O O O O . . . . . . . . . . . . . . O O O O O O O & & & & ; ; ; ; ; ; 4 4 4 4 7 4 7 7 7 7 7 7 4 7 4 7 4 4 7 7 7 7 l b b m N pXjXzXzXcXVXVXVXZXZXZXZXSXSXSXSXSXSXSXSXSXAXAXAXAXAXAXAXBXBXBXBXBXBXBXBXBXBXBXBXBXBXBXeXBXBXBXBXBXBXBXBXBXBXBXAXAXAXAXAXAXSXSXSXSXSXSXSXSXSXSXZXZXZXZXZXZXVXVXVXVXVXVXVXVXVXVXVXVXVXVXVXVXVXZXZXZXZXZXSXSXSXSXSXSXAXAXAXBXBXBXBXeXeXeX0X0X9X9X9X@X@X@X@X@X@X@X@X9X9X9X9X0X0XeXeXeXeXeXBXeXBXBXBXBXBXBXBXBXBXBXBXBXBXBXBXBXBXBXBXBXBXBXeXeXeXeXeX0X0X9X9X9X@X+XOXR.Y.Y.j.f.d.4.<.>.-.W J D D A V V V V B C C C Z C Z Z P P P P ` P ` ` ` ` + + + + + + + + + + + ` ` ` ` P ` P ` P P P Z Z Z C Z C B V B V V V V V V V V V V V V V V B B B B C C Z Z C Z Z Z P Z Z P Z P P Z P Z P Z P Z Z Z Z Z C Z C Z C C B B B V V V V V A A D J J -.;.>.<.4.4.f.A.A.T.I.R.%X,X-X1X5X0X6XqX6XmXrXmXNXmXmXZXmXbXZXbXnXbXnXnXnXxXcXcXjXjXxXjXhXaXfXaXiX^.iXuXiXuXuXiX^.aXhXhXxXxXMXMXMXMXSXMXAXmXSX",
"AXZXNXZXMXMXMXMXxXlXlX^.yXtXu u u q q r 9 r 9 y r z x g b b g yXtXiXiXyXsXsXyXsXyXsXiXpXtXyXyXk b v c u u z 9 9 9 3 1 1 ; , = & ; & & O & O O O O & O O O . . . . . . . . . . . O O O O O O & O & & ; & ; ; ; 4 4 7 7 7 7 l 7 l l l x l l l x l l l l l x l l b b m m m pXgXjXzXcXcXVXVXZXZXZXZXSXSXSXSXSXSXSXSXSXSXAXAXAXAXAXAXBXBXBXBXBXBXBXBXBXeXBXBXBXeXBXBXeXBXBXeXBXBXBXBXeXBXBXBXBXBXBXBXBXAXAXAXAXAXAXSXSXSXSXSXSXSXSXSXZXZXZXZXZXZXZXZXZXVXZXVXVXZXVXVXZXZXZXZXZXZXSXSXSXSXSXSXSXAXAXAXBXBXBXBXBXeXeXeX0X9X9X9X@X@X@X+X+X+XOX+X+X@X@X@X9X9X9X0X0X0XeXeXeXeXBXeXBXBXBXBXBXBXBXBXBXBXBXBXBXBXBXBXBXBXeXBXeXeXeXeXeX0X0X9X9X9X@X+XOXR.Y.Y.j.j.d.d.<.>.;.W W D A A A V V B B C C C C Z Z P P P P P ` P ` ` ` + + + + @ @ @ @ @ @ @ + + + + ` ` ` P ` P P P P Z I Z Z C C B B V V V V V V V V V V V V V V V B B B C C Z C C Z Z Z P Z Z P Z P P Z P Z Z P Z Z P Z Z Z Z Z Z C C C B B B V V V V V A A D D J J -.;.;.2.2.d.f.j.Y.G.R.U.+X%X<X-X1X5XqX6XrXwX8X8XmXmXCXmXmXZXbXZXZXnXnXbXnXnXcXxXxXxXjXhXfXhXaXaXaXiXuXiXiXuXiXuXaXhXfXvXlXMXxXMXMXCXMXCXCXZXCX",
"ZXCXZXmXZXmXnXxXxXlXfXfXuXv v u r z 9 5 r r 9 r z u u b g yXyXyXyXiXpXsXyXsXsXsXsXyXaXtXpXiXtXyXk b v c u z y 9 9 3 3 1 1 , , ; = & ; & & & O O & O & O O O . . . . . . . . O O O O O & & & & ; ; ; ; 4 4 4 7 7 l 7 l l b b b b b m b m m m b m b b b b b m m m N N pXjXjXjXzXcXVXVXVXZXZXZXZXSXSXSXSXSXSXSXAXAXAXAXAXAXBXBXBXBXBXBXBXBXBXBXBXBXeXBXeXeXeXeXeXeXeXeXeXeXeXeXBXeXBXBXBXBXeXBXBXBXBXBXBXBXAXAXAXAXSXSXAXSXSXSXSXSXSXSXSXZXZXZXZXZXZXZXZXZXZXZXZXZXZXZXZXSXSXSXSXSXSXSXSXSXAXAXAXBXBXBXBXeXeXeXeX9X9X9X@X@X@XOXOXOXOXOXOXOXOXOX+X@X@X@X9X9X0X0X0XeXeX0XeXeXeXBXeXBXBXBXBXBXBXBXBXBXBXBXBXBXBXeXBXeXeXeXeX0X0X0X9X9X9X@X+XOXR.T.Y.A.j.d.d.<.>.;.-.W D D A A V V V V B C C Z Z Z P Z P P ` P ` ` ` ` + + @ @ @ @ @ @ @ @ @ @ @ @ + + + + ` ` P ` P P P P Z Z Z Z C C B B B V V V V V V V V V V V V B B B B C C C Z Z Z Z Z Z P P Z P Z Z P Z P P Z Z P Z Z Z Z Z C C Z C C C B B V V V V V V A A D J W -.-.>.>.4.4.f.A.A.Y.I.U.+X%X<X-X1X5X5XwX6XrXmXNX8XCXmXmXZXmXZXbXnXZXbXnXnXbXcXcXcXxXjXjXhXfXfXaXaXaXiXQ.uXiXuXuXaX^.hXhXxXxXMXxXMXMXSXMXCXAXZX",
"CXSXMXZXMXnXMXnXxXlXhXiXtXk u d z q r 9 r q 9 z z u u c b g yXyXiXyXsXyXsXsXsXyXsXsXsXsXpXiXiXyXyXv n c c d z z 9 r 6 3 1 1 , , ; ; & ; & = & & O O O O O . . . . . . . O O O O O & & & & ; ; ; ; 4 4 7 7 l l l l b b m m N N N N N pXpXN pXpXpXm pXm pXm pXpXpXpXgXjXzXzXzXcXVXVXVXZXZXZXSXSXSXSXSXSXSXSXAXAXAXAXAXBXBXBXBXBXBXBXeXBXBXBXeXeXeXeXeXeXeXeXeXeXeXeXeXeXeXeXeXeXeXeXeXeXeXBXeXBXBXBXBXBXBXBXBXAXAXAXAXSXSXSXSXSXSXSXSXSXSXSXSXSXSXZXSXZXZXZXZXSXZXSXSXSXSXSXSXSXSXSXSXSXAXAXAXBXBXBXBXBXeXeXeX0X9X9X9X@X+XOXOXOXT.T.T.T.T.T.R.OXOX+X@X@X9X9X9X0X0X0XeXeXeXeXeXeXeXBXeXBXeXBXBXBXBXBXBXeXBXeXeXeXeXeXeXeX0X0X9X9X9X@X+XOXR.T.j.Y.j.d.4.<.>.>.-.W J D A A V V B V C C C C Z Z P Z P P ` P ` ` ` + + @ @ @ @ @ @ @ @ @ @ @ @ @ @ + + + + ` ` ` ` P ` P P I I Z C Z C C B V B V V V V V V V V V V B B B C C C Z C Z Z Z P Z P Z Z Z P Z P P Z P Z Z P Z Z Z Z Z Z C Z C C C B B V V V V V V A A D J J J W ;.>.2.2.d.d.f.Y.G.I.R.oX+X=X-X1X5XqX5XrX6XNX8XCXNXmXZXmXZXbXZXmXnXZXnXnXnXcXcXcXjXxXjXhXfXfXaXaXiX^.iXiXuXuXiX^.aXhXhXxXxXxXMXMXMXMXCXCXZXCX",
"ZXmXSXMXMXMXxXxXxXhXfXuXyXv g u q r q r 9 9 z q z u b u yXyXyXtXpXpXsXsXsXsXsXhXsXsXsXsXsXtXpXiXiXtXv v v c d z y 9 9 6 3 6 1 , , ; ; & ; & = O & O O O O . . . . . . O O O O & & & & ; ; ; 4 4 7 7 l l l b b m m m N pXpXpXpXpXgXpXgXpXjXpXgXpXgXpXgXpXgXgXgXjXjXjXzXcXcXVXVXVXZXZXZXZXSXSXSXSXSXSXSXAXAXAXAXAXBXBXBXBXBXBXBXBXeXBXeXeXeXeXeXeXeXeXeXeXeXeX0XeX0XeXeXeX0XeX0XeXeXeXeXeXeXeXeXBXBXBXBXBXBXBXBXBXAXAXAXAXSXSXSXSXSXSXSXSXSXSXSXSXSXSXSXSXSXSXSXSXSXSXSXSXSXSXSXSXAXAXAXAXBXBXBXBXBXeXeXeX0X0X0X9X@X@X+XOXR.T.Y.Y.Y.Y.Y.Y.Y.Y.T.OXOX+X@X@X@X9X9X9X0X0X0XeXeXeXeXeXeXeXeXeXeXeXeXeXeXeXeXeXeXeXeX0XeX0X0X0X9X9X@X@X@XOXR.T.Y.Y.j.d.d.4.<.>.-.W J D D A V V V V B C C Z Z Z Z P P P ` P ` ` ` + + @ @ @ @ @ @ @ @ @ @ @ @ @ @ @ 7.+ + + + + ` ` ` P P P P I I Z C C C C B B V V V V V V V V V B V B B B C C C Z C Z Z Z Z Z P Z P Z P Z Z P Z Z P Z Z Z Z Z C Z Z C C C C B B V V V V V V A A A D J J -.-.>.>.2.4.j.j.A.Y.T.U.+X%X<X<X-XqX5XqX6XrX6XNX8XCXmXNXZXmXZXbXZXnXnXmXnXnXnXvXcXxXjXvXjXfXfXaXaXaXiXQ.iXuXiXuXiX^.hXhXhXxXbXMXxXMXMXZXmXCXZX",
"mXZXMXMXMXnXMXxXxXhXfXiXk v u u q r 9 9 r r r z u x g yXb yXtXpXpXsXsXsXgXgXsXsXsXsXsXsXsXsXaXiXiXyXyXtXn v c c y z y r 6 6 4 1 1 ; ; ; & = = O O O O O . . . . . O O O O O & & & ; ; 4 4 4 7 7 l l x b m m N pXN pXpXpXjXpXjXjXjXjXzXjXjXzXjXzXjXjXzXjXjXzXzXzXcXcXcXcXVXVXZXZXZXSXSXSXSXSXSXSXSXAXAXAXAXAXBXBXBXBXBXBXBXBXBXeXBXeXeXeXeXeXeXeX0XeX0XeX0X0XeX0XeX0X0X0XeX0XeX0XeXeXeX0XeXeXeXeXeXeXeXBXBXBXBXBXBXBXBXAXAXAXAXAXSXSXSXSXSXSXSXSXSXSXSXSXSXSXSXSXSXSXSXSXSXSXSXAXAXAXAXBXBXBXBXBXeXeXeXeX0X9X@X9X+X+XOXT.Y.Y.Y.Y.Y.A.Y.A.Y.Y.T.T.T.OXOX@X@X@X9X9X9X0X0X0X0XeXeX0XeXeXeXeXeXeXeXeXeXeXeXeXeX0XeXeX0X0X9X9X9X9X@X+XOXR.Y.Y.Y.A.d.d.4.<.>.-.W W D A A V V V V B C C C Z Z Z P P P ` P ` ` + + + @ @ @ @ @ @ @ @ @ 7.@ @ 7.@ @ @ @ @ @ + + + ` ` P ` U U P I Z Z Z C C B B V B V B V V B V B V V B B B C C C C Z Z Z Z Z P Z Z P Z Z P Z P Z Z P Z Z Z Z Z Z Z C C C C C B B V V V V V V A A A D J J J -.;.>.>.4.4.d.A.A.G.I.R.oX+X,X-X0X>XqX6XrXwXNX8XAXmXNXZXmXmXZXZXZXmXZXnXnXbXnXcXcXxXcXjXjXhXhXfXaXiX^.iXQ.iXuXiX^.aXaXdXxXxXxXxXMXMXMXMXZXZXCX",
"CXZXMXMXMXMXxXxXlXfXfXtXk g u u z q 9 r q r q z u x b g yXyXiXpXsXsXsXsXsXhXgXgXgXjXsXgXsXsXaXsXiXiXyXyXn n v c c d z y r 6 6 4 1 , ; ; & & = O O O O . . . . O O O O O O ; ; ; ; 4 4 4 7 l l b b b m m N pXpXpXjXjXjXjXjXzXzXzXzXzXzXcXcXzXcXcXzXcXzXcXzXcXcXcXcXVXVXVXVXZXZXZXZXSXSXSXSXSXSXAXAXAXAXAXBXBXBXBXBXBXeXBXBXeXeXeXeXeXeXeXeXeX9XeXeX9XeX9XeX9X0X0X9X0X0X0X9X0X0X0X0X0X0XeXeXeX0XeXeXeXeXeXBXBXBXBXBXBXBXBXBXAXAXAXAXSXAXSXSXSXSXSXSXSXSXSXSXSXSXSXSXSXSXSXAXAXAXAXAXBXBXBXBXBXeXeXeXeX0X0X0X9X9X+X+XR.T.Y.Y.F.F.A.j.F.j.A.A.Y.A.Y.Y.T.R.OX+X@X@X9X9X9X9X0X0X0XeXeX0XeXeXeXeXeXeXeX0XeXeXeX0XeX0X0X9X9X9X@X@X@X@XOXR.T.Y.Y.j.f.d.4.<.<.;.-.W D D A A V V V B B C C Z Z Z P P P ` P ` ` ` + + @ @ @ @ @ 7.@ 7.7.@ @ 7.7.@ @ @ @ @ @ @ @ + + + ` ` ` P P P I I I Z Z C C B B V B V V B V V V B B B B B C C C Z C Z Z Z Z Z P Z Z P Z Z Z Z P Z Z Z Z Z Z C Z C Z C C C B B B V V V V V V V A A A J J -.W ;.;.2.2.d.d.j.F.Y.T.U.+X%X<X1X-XqX5XqXwX8XrXNX8XCXNXmXSXZXmXZXmXVXnXZXnXnXbXnXxXxXjXxXhXjXaXaXaXaXiX^.iXQ.iXuXiX^.fXhXhXxXxXMXbXMXMXMXZXmXZX",
"ZXMXMXMXMXxXxXlXlXhXiXuXv v d z q 9 r q r q z u c g c yXyXiXpXsXsXsXsXgXjXsXjXgXhXsXjXhXsXjXsXsXiXsXuXyXtXtXn v c c z z r l 6 4 , , ; ; & ; & O O O O . . . O O O O & & ; ; ; 4 4 7 7 l l b b m N pXN pXgXpXjXjXjXzXzXzXcXzXzXcXcXcXVXcXcXVXcXcXVXcXcXcXVXcXVXVXVXVXVXZXZXZXZXSXSXSXSXSXSXSXAXAXAXAXBXBXBXBXBXBXBXeXBXeXeXeXeXeX0XeXeX0XeX0XeX0X0X0X0X9X9X9X9X9X9X9X9X9X9X9X9X9X9X9X0X0X0X0XeX9XeXeXeXeXeXeXeXBXBXBXBXBXBXBXBXAXAXAXAXAXAXSXSXAXSXSXSXSXSXSXSXSXSXAXSXAXAXAXAXAXBXBXBXBXBXBXeXeXeX0X0X9X9X<X+X+XR.Y.Y.Y.F.A.j.j.j.d.d.j.j.A.A.A.Y.Y.T.R.OXOX+X@X@X@X9X9X9X9X0X9XeX0XeX0XeX0XeX9XeXeXeX9X0X0X9X9X9X9X9X@X@XOXOXR.Y.Y.Y.j.j.d.4.<.<.;.-.W D D A A V V B V C C C Z Z Z I P U P P ` ` + + @ @ @ @ @ 7.@ @ 7.@ @ 7.7.7.@ @ 8.@ @ 7.@ @ @ + + + ` + P ` U P U I Z Z C Z C B B B B V B V V V B B V B B B C C Z C Z C Z P Z Z Z P Z Z P Z Z P Z Z Z Z Z Z C Z C Z C C C C B V V V V V V V V A A A D J J J -.;.>.2.2.4.f.j.A.Y.I.R.oX+X=X1X1X2XqX6XwXrXwX8XCXNXmXAXmXCXZXmXnXZXmXnXnXnXnXnXcXcXxXcXjXhXfXhXaXaXaXiXQ.iXuXuXuXiXaXfXhXhXxXxXbXMXMXMXmXZXCX",
"ZXMXMXMXnXMXxXxXhXfXiXk k u u d r q 9 r 9 z y u u b g yXyXiXpXsXsXsXjXsXhXjXjXhXjXjXsXhXgXsXsXhXsXiXsXuXyXtXtXn v c c y z r 6 4 1 , ; ; & & O O O . . . O O O O & & ; ; ; 4 4 7 7 l b b b m N pXpXpXjXgXjXjXzXzXcXcXzXcXcXVXVXVXVXVXVXVXVXVXVXVXVXVXVXVXVXVXVXVXZXZXZXZXZXSXSXSXSXSXSXSXAXAXAXAXBXBXBXBXBXBXeXBXeXBXeXeXeX0XeXeXeX0XeX0X0X0X9X9X9X9X9X9X9X9X@X9X9X@X9X@X9X9X9X9X9X9X9X9X9X9X0XeX0XeXeXeX0XeXeXeXeXBXBXBXBXBXBXBXBXBXAXAXAXAXAXAXAXAXSXAXAXAXAXAXAXAXAXAXAXBXBXBXBXBXBXBXeXeXeXeX0X0X9X9X@X@XOXOXT.Y.Y.j.j.f.f.d.d.d.d.4.d.d.j.A.A.Y.Y.Y.T.R.OX+X@X@X@X9X9X9X9X9X9X0X0XeX0XeX9XeX9X0X9XeX9X9X9X9X9X@X@X@X+XOXR.T.Y.Y.j.j.d.d.2.<.>.-.W J D D A V V V V B C C Z Z Z I P P P ` ` ` ` + + @ @ @ @ 7.@ 7.7.@ 8.@ @ 8.@ 8.@ @ 7.7.@ @ @ @ @ + + + ` ` P ` P P I I Z Z C C C B B V B B B V B V B B B B C C C C Z Z Z Z Z Z P Z Z P Z Z P Z Z Z Z Z Z Z Z C Z C C C C B B B V V V V V V V V A A A D J J W -.;.>.>.4.4.d.j.F.Y.Y.U.+X%X<X-X1X5XqXqX8XrXNX8XNXCXNXmXSXmXZXZXZXbXZXZXbXnXnXnXvXcXxXjXjXjXhXaXfXaX^.iXiXQ.iXuXuXuXiX|.fXzXxXxXxXMXMXMXMXMXZX",
"MXMXMXnXMXxXxXlXhXfXQ.yXg g u r q r r q z q z u g c yXyXtXpXsXsXgXgXgXjXjXjXhXjXjXhXjXjXhXhXjXsXfXsXsXsXaXpXn tXv v d z z 6 6 4 , ; ; = & O O O . . . O O O & & & ; ; 4 7 7 l l x b m N pXN pXpXgXjXjXzXzXzXcXcXcXcXVXVXVXVXVXVXVXVXVXVXZXVXZXVXZXVXZXVXZXZXZXZXZXZXZXSXSXSXSXSXSXSXSXAXAXAXBXBXBXBXBXBXeXBXBXeXeXeXeXeXeXeX0XeX0X0X0X9X9X9X9X9X9X9X@X9X@X@X@X@X@X@X@X@X@X@X@X@X@X9X@X9X9X9X9X9X9X0X0X0XeX0XeXeXeXeXeXeXBXBXBXBXBXBXBXBXBXBXBXAXAXAXAXAXAXAXAXAXAXAXBXBXBXBXBXBXeXBXeXeXeXeXeX0X9X9X9X<X+X+XR.Y.Y.Y.j.f.d.d.4.4.4.4.4.4.4.4.d.d.j.F.j.Y.Y.T.R.OXOX@X@X@X@X@X9X9X9X9X0X9X9X9X9X9X9X9X9X9X9X9X9X@X@X@X@XOXOXT.T.Y.Y.A.j.d.6.<.<.>.-.W J D A A V V V B B C C C Z Z Z P P P ` P ` + + + @ @ @ @ 7.@ @ 7.@ 8.@ 8.7.@ 8.@ @ 7.7.@ @ 7.@ @ + + + ` ` ` ` P U P I I Z Z Z C C B B B V B V B B B V B B B C C C Z C Z Z Z Z Z Z Z Z Z Z Z Z Z Z Z Z C Z C C Z C C C C C B V V V V V V V V V A A A D J J J W -.;.>.2.2.d.f.A.A.Y.I.R.oX+X=X1X-XqXqXwXwXwXwXNX8XNXNXZXNXZXmXZXmXZXCXnXZXnXbXnXnXcXcXxXxXjXhXfXaXaXiXaXQ.iXQ.uXyXuX^.aXfX|.xXxXMXxXMXnXMXMXZX",
"MXMXnXMXnXxXxXhXhXiXuXk g u t u r q r q z z u u b g yXtXpXsXsXsXjXhXjXjXhXzXjXjXzXlXhXjXjXjXhXjXgXfXfXsXpXtXpXn n c c z r r 4 4 ; ; & & & O O . . O O O O & ; ; ; 4 4 7 7 l b b m m pXpXpXjXjXjXjXzXzXcXcXcXVXcXVXVXVXVXVXZXVXZXZXZXZXZXZXZXZXZXZXZXZXZXZXZXZXZXZXSXSXSXSXSXSXSXSXAXAXAXBXBXBXBXBXBXBXeXBXeXeXeXeXeX0XeX0XeX9X0X0X9X9X9X9X9X@X9X@X@X@X@X@X@X@X@X+X@XOX@X@XOX@X@XOX@X@X@X@X9X@X9X9X9X9X0X0XeX9XeXeXeXeXeXeXBXeXBXBXBXBXBXBXBXBXBXBXBXBXAXBXBXBXBXBXBXBXBXBXBXBXeXBXeXeXeXeX0X0X0X9X9X@X+X+XR.T.Y.A.A.j.d.4.4.4.<.2.<.<.2.4.4.4.4.d.f.F.A.Y.Y.Y.T.OXOXOX@X@X@X@X@X9X9X@X9X9X9X9X9X9X9X9X@X9X@X@X@X@XOXOXOXT.Y.Y.A.F.j.d.4.4.<.>.-.W W D D D V A V V V B C C Z Z I I P U P ` ` ` + + @ @ @ @ 7.@ 7.7.7.7.7.7.7.8.7.@ 8.7.7.@ 7.@ @ @ @ @ + + + ` ` P ` P U P I I Z C Z C B C B B V B V B V B B B B C C Z C Z C Z Z Z Z Z Z Z Z Z Z Z Z Z C Z Z C Z C C C C C B B V V V V V V V V V V A A A D D J J -.-.;.>.2.4.4.d.A.A.Y.I.R.+X%X<X<X2X0XqXwXrXrXNXrXNXCXNXNXZXNXZXmXZXZXnXmXnXnXZXnXnXbXxXcXjXvXjXhXfXaXaXtXiXQ.iXQ.uXiXuXaXhXhXhXxXxXMXbXMXMXMXMX",
"MXMXMXMXxXxXxXhXfXuXyXv g g u r q r q z q z u b g yXyXpXsXpXhXsXsXjXjXjXjXjXzXzXjXjXzXzXxXjXjXjXhXfXfXsXaXsXtXtXv v u l r 6 4 , ; ; & O O O . . O O O & & ; ; 4 7 7 l l b m m N pXpXpXpXjXjXzXzXcXzXcXcXcXVXVXVXVXVXVXZXZXZXZXZXZXZXZXZXZXSXZXSXZXSXZXSXZXSXSXSXSXSXSXSXSXSXSXAXAXAXAXBXBXBXBXBXBXBXeXeXeXeXeX0XeX0XeX0X0X0X0X9X9X9X9X9X9X@X@X@X@X@X@X@X+X+XOXOXOXOXOXOXOXOXOXOX@XOX@XOX@X@X@X@X@X9X9X9X9X9XeX0X0XeX0XeXeXeXeXeXeXeXBXBXBXBXBXBXBXBXBXBXBXBXBXBXBXBXBXBXBXBXBXeXeXeXeXeX0X0X9X9X9X@X@XOXR.Y.Y.Y.j.f.6.4.4.<.<.>.>.>.>.>.>.<.<.4.4.d.d.A.A.F.Y.T.T.T.OXOXOX@X@X@X@X@X9X@X9X+X9X9X@X9X@X9X@X@X+X@XOXOXR.T.Y.Y.F.Y.j.d.4.4.<.<.-.-.W J D D A V V V V B C C Z Z I Z P U P ` ` ` + + @ @ @ @ 7.@ 7.7.7.7.7.7.8.7.7.7.7.7.@ 7.7.7.@ 7.@ @ @ + + ` ` ` ` ` U U I I Z Z Z C C C B B B B B B V B B B B C C C C C C Z C Z C Z Z Z Z Z Z Z C Z C Z Z C Z C C C C B B V V V V V V V V V V V A A A A D J J W W -.>.>.<.4.d.f.j.Y.G.T.U.oX+X<X-X1X5XqXqXwXwXwXNXNXNXNXZXAXmXZXZXmXZXZXZXnXZXnXbXnXcXnXcXxXjXhXhXaXaXaX^.iXuXQ.yXuXuXiX^.aXhXhXxXxXxXnXMXnXMXMX",
"MXnXnXxXxXxXhXhXfXiXk v u y y t r q r r u u c u v yXiXiXsXsXsXzXjXjXjXzXzXcXjXcXzXjXxXzXjXjXxXjXjXhXfXsXsXtXyXn v c z q r 1 1 = ; & O O . . . O O O & ; ; 4 4 7 7 x b b m m pXpXgXjXjXjXzXzXzXcXcXVXVXVXVXVXVXZXZXZXZXZXZXZXZXZXSXSXSXSXSXSXSXSXSXSXSXSXSXSXSXSXSXSXSXSXSXSXAXAXAXBXBXBXBXBXBXeXeXeXeXeXeX0XeXeX0X0X0X0X0X9X9X9X9X@X@X@X@X@X@X+X+XOXOXOXOXOXOXT.OXT.R.T.T.OXT.OXT.OXOXOXOXOX@X@X@X@X@X9X@X9X9X0X0X0XeXeX0XeXeXeXeXeXeXeXBXBXBXBXBXBXBXBXBXBXBXBXBXBXBXeXeXeXeXeXeXeX0XeX9X9X9X9X@X@XOXOXY.Y.Y.j.f.6.4.<.<.>.>.>.-.>.-.>.>.>.>.<.4.4.6.f.j.A.Y.j.T.T.T.T.OXOXOX@X@X@X@X@X@X9X+X9X+X@X@X@X+X+XOXOXOXT.T.T.Y.F.A.j.d.4.4.<.>.-.-.W J D D V V V V V B C C C Z Z I P P U U ` ` + + @ @ @ 7.7.@ 7.7.7.7.8.7.7.7.7.7.8.7.7.7.7.@ 7.@ @ @ @ @ + + + ` ` P ` U P U I I Z Z C C C B C B B B B B B B B C B C C C Z C Z Z Z Z Z Z Z C Z Z Z Z C Z C C C C C C C B B V V V V V V V V V V V A A A A D D J J W -.;.>.>.4.2.d.j.j.A.T.I.R.oX,X=X1X1XqXqXwXrXrXNXrXNXCXNXNXSXZXNXZXZXZXmXVXZXnXZXnXnXbXcXxXxXxXjXdXjXaXaXiX^.tXiXQ.iXuXuXiX^.hXhXxXxXxXMXxXMXnXMX",
"nXMXvXnXxXlXlXfXaXk k g g u y r q r q u u u u v yXtXpXpXsXjXgXjXjXjXjXzXzXzXzXcXzXcXzXxXzXxXjXjXhXfXfXaXpXpXtXv v u z r 3 , , ; & O O O . O O O O ; ; 4 4 7 l l b m m pXpXpXpXjXjXzXzXcXzXcXcXVXVXVXVXVXVXZXZXZXZXZXZXZXZXSXSXSXSXSXSXSXSXSXSXSXSXSXSXSXSXSXSXSXSXSXSXSXAXAXAXAXBXBXBXBXBXeXBXeXeXeXeXeX0XeX0X0X0X0X9X9X9X@X9X@X@X@X@X@X+X@XOXOXOXOXOXOXT.T.T.T.T.Y.Y.Y.T.Y.Y.Y.T.T.T.R.T.OXOXOXOXOX@X@X@X9X@X9X9X9X0X9XeX0XeXeXeXeXeXeXeXeXeXeXeXBXeXeXeXBXeXBXeXBXeXeXeXeXeXeXeX0XeX9X9X9X@X@X@XOXT.Y.Y.F.j.f.6.4.<.>.>.>.-.-.-.W -.-.-.-.>.>.<.2.4.6.d.f.j.Y.j.Y.Y.Y.T.T.OXOXOXOXOX+X@X+X+X+X+X+X+X+XOXOXOXR.T.Y.Y.F.F.A.j.d.4.4.<.>.>.-.-.J D D A A V V B B C C C Z Z Z I P U U U ` + + @ @ @ @ @ @ 7.7.7.8.7.7.7.7.7.8.7.7.7.7.7.@ 7.@ 7.@ @ @ + + + ` ` ` ` U U U I I I Z Z Z C C C B B B B B B B B B B B C C Z C Z C Z C Z C Z C Z C Z C C Z C C C C C C B B V V V V V V V V V V V V V A A A D D J J J W -.;.>.>.2.4.d.f.A.G.G.R.I.+X%X<X1XqX2XqXwXwXwXwXNXNXNXNXSXmXAXZXmXZXmXZXZXmXZXnXnXnXnXcXnXcXjXxXjXdXhXaXaXuXiXQ.iXk tXuXuXaX^.hXhXlXxXxXnXnXMXbX",
"nXnXnXxXxXlXfXfXuXyXk u u t y q r r u r u c v v yXiXpXgXgXsXzXjXzXzXcXzXcXcXcXcXcXcXcXzXxXjXxXjXjXfXfXsXuXyXn v c z 9 6 1 1 = & & . . . O O O = ; ; 4 7 7 l b m m N pXpXgXjXjXzXzXcXcXcXVXVXVXVXVXVXZXZXZXZXZXZXZXSXSXSXSXSXSXSXSXSXSXSXSXSXSXSXSXSXSXSXSXSXSXSXSXSXAXAXAXAXBXBXBXBXBXeXBXeXeXeXeXeXeX0XeX0X0X9X9X9X9X9X@X9X@X@X@X@X@XOXOXOXOXOXT.T.T.T.Y.Y.Y.Y.Y.Y.Y.Y.F.Y.Y.Y.Y.Y.Y.Y.T.T.T.R.OXOXOX+X@X@X@X@X9X9X9X9X9X0X0X9XeXeXeXeXeXeXeXeXeXeXeXeXeXeXeXeXeXeXeXeXeXeX9XeX0X9X9X9X9X@X@X+XOXR.Y.Y.Y.j.f.6.4.<.>.>.-.-.W W W W W W W W -.>.>.>.<.4.4.d.d.j.Y.j.Y.Y.Y.Y.T.T.OXR.OXOXOX+XOX+XOXOXOXR.R.R.T.T.Y.Y.F.F.A.h.d.4.4.4.>.>.-.-.J J D D V V V V V B C C Z Z Z P P P U U + ` + + @ @ @ 7.7.7.7.7.7.7.7.7.8.7.7.7.7.7.7.7.7.7.@ 7.@ @ @ @ + + + ` ` ` ` ` P U P I I Z Z C Z C C B B B B B B B B B B C C C C C C Z C Z C Z C Z C Z C Z C C C C C B B B V V V V V V V V V V V V V A A A A A D D J J W W -.;.>.2.4.4.d.j.A.Y.Y.I.U.+X+X%X1X-XqX5XqXrXrXNXNXNXCXAXNXSXZXNXSXZXZXZXnXZXnXZXnXZXnXnXcXcXxXjXjXhXaXaXaXaXiXuXk uXiXQ.iXuXfXfXhXvXlXxXxXMXnXnX",
"nXnXxXxXlXjXfXaXiXk g g d y y r q y r u u c v yXyXpXpXgXsXjXgXzXzXzXzXcXcXcXcXcXcXcXzXxXcXjXjXjXfXfXsXsXyXtXv v z 9 3 1 ; = = & . . O O O & ; ; 4 7 7 l x m m pXpXpXpXjXzXzXzXcXcXcXcXVXVXVXVXVXZXZXZXZXZXZXZXSXSXSXSXSXSXSXSXSXSXSXSXSXSXSXSXSXSXSXSXSXSXSXSXAXAXAXAXAXAXBXBXBXBXBXBXeXeXeXeX0XeXeX0X0X0X9X9X9X9X9X@X@X@X@X@X@XOXOXOXOXOXOXT.T.T.Y.Y.Y.Y.Y.Y.F.Y.F.A.A.F.A.A.F.A.F.F.Y.Y.Y.Y.Y.T.T.R.OXOXOX@X@X@X@X@X9X9X9X9XeX9XeXeX9XeXeXeXeXeXeXeXeXeXeXeXeXeX9XeXeX9XeXeX0X9X9X9X@X@X@XOXOXT.Y.Y.Y.j.f.4.4.<.>.>.-.W W J W J J J J W W W W -.>.>.2.2.4.d.d.d.A.A.F.Y.Y.Y.Y.T.T.R.R.R.R.R.R.R.R.R.R.R.Y.Y.Y.F.Y.F.j.j.d.4.4.2.>.>.-.W K J D D A V V B V B C Z C Z Z I P P U U + U + + @ @ @ 7.@ 7.7.7.8.7.7.8.7.7.7.7.7.7.7.@ 7.7.@ 7.@ @ @ @ + + + + ` ` ` U U U P U I I I Z Z C C C C B B B B B B B B B C C C C C Z C C Z C C Z C Z C C C C C C C B B V V V V V V V V V V V V V V A A A A A D J J J J W -.-.>.2.>.2.d.f.j.A.A.I.I.I.+X%X<X-X0X2XqXwXwXwXwXNXrXNXAXmXSXNXSXZXCXZXCXZXZXZXZXnXnXnXnXnXcXcXxXjXhXfXfXaXiX^.Q.yXuXk yXuXuXaX^.hXhXxXlXxXxXnXnX",
"nXxXlXlXlX|.fXiXk yXu u y y t r y y u u u v b yXiXsXgXpXjXzXzXzXzXcXcXcXcXcXcXcXcXcXcXcXjXxXjXjXfXfXsXtXyXv c z q 6 1 < = = O O . O O & = ; ; 4 7 l b b m m pXpXjXjXzXzXzXcXcXcXVXVXVXVXVXZXZXZXZXZXZXZXSXSXSXSXSXSXSXSXSXSXSXSXSXSXSXSXAXSXAXAXAXAXAXAXAXAXAXAXAXAXBXBXBXBXBXBXeXeXeXeXeXeX0XeX0X0X0X9X9X9X9X@X@X9X@X@X@XOX+XOXOXOXT.R.T.T.Y.Y.Y.Y.Y.F.F.A.A.A.A.A.A.A.A.A.A.A.A.A.A.A.A.F.Y.F.Y.Y.Y.T.R.OXOXOX+X@X@X@X9X9X9X9X9X9X0XeX9XeXeX9XeXeXeXeXeXeX9XeXeXeXeX9XeX9X9X9X9X@X9X@X@XOXOXT.Y.Y.F.j.d.d.4.<.>.-.-.W W J J D D D D D D J W W W -.>.>.<.2.4.4.d.h.j.j.F.F.Y.Y.Y.Y.Y.Y.T.T.R.Y.T.Y.Y.Y.Y.Y.Y.A.Y.j.j.j.4.4.4.<.<.>.-.-.W J D D V A V V V B B C C Z Z I I P U U ` ` + + + @ @ @ 7.7.@ 7.7.7.7.7.7.7.7.7.7.7.7.7.7.7.@ 7.@ @ @ @ + + + + ` ` ` ` ` U U P P P I Z Z Z C C C C B B B B B B B B B B C C C C C Z C C Z C C C C C C C C B B B V V V V V V V V V V V V V V V A A A A A D D J J J W W -.;.>.>.4.4.4.h.j.Y.Y.Y.I.+XoX%X<X-X1X5XqXwXrXrXNX8XAXNXNXSXSXZXNXZXZXCXZXZXZXnXZXZXnXnXnXnXcXcXxXjXjXhXaXaXiXiXiXQ.yXuXk uXyX^.aXhXhXhXxXxXxXxXnX",
"lXxXlXlXhXfXiXiXk v g d y y r y y r u u c v yXyXpXsXpXjXzXzXzXcXzXcXcXcXcXcXcXcXcXcXxXjXxXjXjXgXfXsXiXyXv v z y 3 1 < * & O . . O O & ; ; 4 7 l l b m N pXpXgXjXzXzXzXcXcXcXVXVXVXVXVXZXZXZXZXZXZXZXSXSXSXSXSXSXSXSXSXSXSXAXSXSXSXAXAXAXAXAXAXAXAXAXAXAXAXAXAXAXBXBXBXBXBXBXBXBXeXeXeXeXeX0XeX0X0X9X9X9X9X9X@X@X9XOX@X@XOXOXOXOXOXT.T.Y.Y.Y.Y.Y.F.F.A.A.A.A.A.j.j.j.f.j.d.f.f.d.j.d.j.h.A.A.A.A.F.Y.Y.Y.Y.T.T.R.OX+XOX@X@X@X@X@X9X9X9X9X9X9X9XeX9XqXqXqXqXqXqXqXqXqX9X9X9X9X@X9X9X@X+X+XOXR.T.Y.Y.F.A.d.4.4.<.<.-.-.W J J D D D D D D D D D D J W -.-.-.>.<.<.4.4.4.d.j.j.A.A.F.F.Y.Y.Y.Y.Y.Y.Y.Y.Y.Y.F.F.F.A.Y.j.h.j.4.4.4.4.<.>.-.-.W J D D D A V V V V B C C Z Z Z I P P U ` U ` + + @ @ 7.@ 7.7.7.7.7.7.7.7.7.7.7.7.7.7.7.@ 7.@ 7.@ @ @ @ + + + + ` ` ` ` ` U U P U Y I Z I Z C Z C C B B B B B B B B B B C B C C C C C C C C C C C C C C B B V V V V V V V V V V V V V V V V A A A A A A D J J J J W W -.;.>.>.>.4.4.d.j.j.A.Y.G.I.U.oX<X%X1X-XqXqXwXwXwX8XrXNXNXSXNXSXNXZXSXCXZXZXZXnXZXZXnXZXVXnXnXcXcXcXxXjXhXfXfXaXiXQ.iXQ.k yXk uXiXiX^.hXhXlXlXxXnXcX",
"cXlXlXlXdXfXuXyXv g g u y t y y r u u u v yXyXsXsXsXjXjXjXzXzXcXcXcXcXcXcXcXcXcXcXcXzXxXjXjXjXfXpXiXtXv v z 9 3 1 ; - & &   O & & = ; ; 4 l l b m m pXpXgXjXjXzXzXcXcXVXVXVXVXVXVXZXZXZXZXZXZXSXSXSXSXSXSXSXSXSXSXSXSXSXAXSXAXAXAXAXAXAXAXAXAXAXBXAXBXAXBXBXBXBXBXBXBXBXBXeXeXeXeXeXeX0XeX9X0X9X9X9X9X@X@X@X@X@XOX@XOXOXOXR.T.T.T.Y.Y.Y.Y.A.F.A.A.A.A.A.j.j.d.f.d.d.6.6.6.4.4.4.d.4.d.d.d.j.j.A.A.A.F.F.F.Y.Y.T.T.R.OXOX+X@X@X@X@X9X9X9X9X9X9X9X9X9X9X9X9X9X9X9X9X9X9X9X@X9X9X+X@X+X+XOXT.T.Y.Y.j.A.d.d.4.>.>.-.-.W J J D D D V D V D A D D D D J K W -.-.>.>.<.4.4.4.4.h.h.j.A.A.F.F.F.F.F.F.F.F.F.F.F.F.A.A.h.h.h.4.4.4.2.>.>.-.-.W J J D A V V V V V B C C C Z Z I P P U U ` ` + + @ @ 7.@ 7.@ 7.7.7.7.7.7.7.7.7.7.7.7.@ 7.7.@ @ @ @ @ @ + + + + ` + ` ` ` U U U U P I I I Z Z Z C C C C B B B B B B B B B B C C B C C C C C C C C B C B B V V V V V V V V V V V V V V V V A A A A A A D D J J J J W W W -.;.>.>.2.4.4.h.j.j.Y.Y.R.I.+XoX%X1X-X1X>XwXqXwXNXwXNXrXmXNXSXNXZXNXZXZXSXZXZXZXZXnXZXnXnXVXnXcXnXcXcXxXjXfXaXaX^.iXQ.yXk uXyXQ.uXuXiXfXhXhXlXhXlXxX",
"lXlXlXfXfXiXyXk k g u y y r y r u u u v b yXyXyXgXgXjXzXzXzXzXzXcXcXcXcXcXcXcXcXzXcXxXjXjXjXgXiXuXyXyXu z 9 3 1 < * & O   O & & ; ; ; 7 l l m m pXpXpXjXzXzXcXcXcXcXVXVXVXVXVXZXZXZXZXZXZXSXSXSXSXSXSXSXSXSXSXSXAXSXSXAXAXAXAXAXAXAXAXBXAXBXBXBXBXBXBXBXBXBXBXBXBXBXBXBXeXeXeXeXeX0XeX0X0X9X9X9X@X9X@X@X@X@X@XOXOXOXOXT.T.T.Y.Y.Y.Y.F.Y.A.A.A.A.A.j.j.d.d.d.6.4.4.4.4.4.4.4.4.4.4.4.4.4.4.4.4.d.d.j.h.A.F.F.F.Y.Y.T.T.T.OXOXOX+X@X@X@X@X9X+X9X9X9X9X9X9X9X9X9X9X9X+X9X9X9X9X+X+X+XOXR.T.Y.Y.Y.F.j.d.4.4.<.>.>.W W J D D V A A A V A V A V D V D D J J W -.-.>.>.<.<.4.4.4.d.h.h.j.j.j.A.A.F.A.A.F.F.A.F.j.j.h.h.h.4.4.4.2.>.>.-.-.W W D D A D V V V V B C C C Z Z I I P U P ` U + + + @ @ @ @ 7.7.@ 7.7.7.7.7.7.7.7.7.@ 7.7.7.@ @ @ @ @ @ + + + + ` + ` ` ` ` U U U U P I I I I Z Z C C C B B B B B B B B B B B B B C B C C C B C B B B V V V V V V V V V V V V V V V V V A A A A A A D D D J J J J W W -.-.-.>.>.>.4.4.d.h.h.Y.F.Y.R.R.U.,X%X%X1X>XqX2XwXwXwX8XNXNXNXSXNXZXNXZXSXZXmXZXZXZXnXZXVXVXVXnXVXnXcXcXcXjXjXhXfXfXiXuXiXQ.iXk k tXQ.iXiX^.fXfXhXlXlXlX",
"lXjX|.sXfXuXyXv g u g r y y y y u u b v yXyXsXsXgXjXjXzXzXzXcXcXcXcXcXcXcXcXcXzXcXjXxXjXjXaXaXtXyXv u z 9 3 < ; * & o O & & = ; ; 4 l l b m m N gXjXjXzXzXzXcXVXVXVXVXVXZXZXZXZXZXZXSXSXSXSXSXSXSXSXSXSXSXAXSXSXAXAXAXAXAXAXAXBXBXBXBXBXBXBXBXBXBXBXBXBXBXBXBXBXBXeXeXeXeXeXeXeX9XeX0X9X9X9X9X9X@X@X+X@X+XOXOXOXOXT.T.T.Y.Y.Y.Y.A.Y.A.A.A.A.j.d.f.d.d.d.4.4.4.4.4.2.4.2.2.2.2.2.2.2.4.4.4.4.4.4.4.4.d.j.j.A.F.A.F.Y.Y.Y.T.R.R.OXOX+X@X+X@X9X+X9X9X@X9X9X9X@X9X9X@X9X+X+X+X+X+XOXOXR.Y.Y.Y.A.j.j.d.4.4.<.<.>.W W J J D V D V V V V V V V V V A D D D D K W W -.;.>.>.2.4.4.4.4.h.h.h.j.h.j.j.A.A.h.j.j.j.h.h.h.4.4.4.2.<.>.>.;.-.W W D D D A V V V V V B C C C Z Z I I U U ` ` ` + + @ @ @ @ 7.@ 7.7.7.7.@ 7.@ 7.7.7.@ 7.@ @ @ @ @ @ @ + + + + ` + ` ` U ` U U U U U I Y P I Z Z Z C Z C C C B B B B B B B B B B B B B B B B B B B V V V V V V V V V V V V V V V V V V A A A A A A A D D J J J J J W W W -.;.>.>.>.2.4.4.d.h.A.A.Y.T.R.XX+X%X,X1X-X2X2XwX5XwX8X8X8XmXNXNXZXNXSXZXmXSXZXZXZXZXZXnXZXVXVXVXnXnXnXzXcXcXjXhXgXfXaXiXuXiXk yXk k yXuXuXiXdXfXfXlXlXlX",
"hXjXfXsXuXyXk b g g y y y y y u u u v b yXyXsXgXgXjXjXzXzXzXzXcXcXcXcXcXcXzXzXxXxXjXjXjXaXiXyXyXyXu r 9 1 : ; * & o & & = = ; 4 7 l x m m pXpXjXzXzXcXcXcXVXVXVXVXVXZXZXZXZXZXZXSXSXSXSXSXSXSXSXSXSXSXSXSXSXAXAXAXAXAXAXAXBXBXBXBXBXBXBXBXBXBXBXBXBXeXBXBXBXeXBXeXeXeXeXeXeXeX0XeX9X9X9X9X9X@X@X@X+X@XOXOXOXOXT.T.Y.Y.Y.Y.Y.Y.A.A.A.A.j.j.j.d.d.d.4.4.4.4.2.4.2.2.<.<.<.>.>.<.>.<.>.>.>.>.2.2.4.4.4.4.4.4.d.h.A.A.A.F.Y.Y.Y.T.T.OXR.R.+X+X+X+X+X+X@X+X@X+X<X+X+X+X+X+X+X+XR.OXR.Y.Y.Y.Y.Y.j.j.d.4.4.<.>.-.W W J J V D V V V V V V V V V V V V V V D D D J W W -.;.>.>.>.2.2.4.4.4.d.4.h.h.h.h.d.h.h.h.4.h.4.4.2.4.<.<.>.>.-.-.W W J D D A V V V V B B C C C Z Z I I P U P ` ` + + + @ @ @ 7.@ 7.7.7.@ 7.7.7.7.7.@ @ 7.@ @ @ @ @ @ + + + + ` + + ` + U + ` U U U U I U I I Z I Z Z Z C C C B B B B B B B B B B B B B B B V V V V V V V V V V V V V V V V V V V V V A A A A A A A D D D J J J J J W W -.-.;.>.>.<.>.4.4.4.h.j.A.A.Y.R.R.R.oX,X,X&X1X2X5X>XwXwX8X8X8XNXmXNXNXSXmXSXZXmXZXZXZXnXZXZXVXVXVXnXnXnXnXnXcXcXcXjXhXfXiXaXiXk iXk k yXk k iXuXiXfXfXfXfXjX",
"jXaXsXaXyXk b g u u y y y r u u x b v yXyXsXsXgXjXjXjXzXzXzXzXcXzXcXcXcXzXxXzXjXjXjXsXsXpXtXyXg y r 5 3 < - * & & & & - ; 1 4 7 x b m m pXgXjXzXzXcXcXVXVXVXVXVXZXZXZXZXZXZXSXSXSXSXSXSXSXSXSXSXSXSXAXAXAXAXAXAXAXBXBXBXBXBXBXBXBXBXBXBXeXBXBXeXBXeXBXeXeXeXeXeXeXeXeXeX0XeX0X0X9X9X@X9X@X@X@X+X+XOXOXOXR.T.T.T.Y.Y.Y.Y.A.A.A.A.A.j.f.f.d.6.4.4.4.4.2.2.2.<.<.>.>.>.>.>.>.>.;.>.;.>.>.>.>.>.>.>.2.4.4.4.4.4.4.h.j.A.A.A.Y.F.Y.Y.Y.R.R.R.OXR.+X+XOX+X+X+X+X+X+X+X+X+XOXOXOXR.Y.R.Y.Y.F.A.h.h.4.4.4.>.>.;.-.W J D D D V V V V V V V V B V V V V V V V A D D J K -.-.-.;.>.>.<.2.2.4.4.4.4.4.4.4.h.4.4.4.4.4.4.2.4.<.<.>.>.-.-.W J J J D A A V V V V V B C C Z Z Z I P U U U ` ` ` + @ + @ @ @ 7.@ 7.@ 7.@ 7.@ 7.@ 7.@ @ @ @ @ + + + + + + ` + ` U ` ` U U U U U U P U I I I I Z Z Z C C C C B B B V V V V V V V V V V V V V V V V V V V V V V V V V V V V V V V A A A A A A A A D J J J J J J W W W -.;.;.;.>.<.>.4.4.4.h.h.h.Y.Y.Y.T.OX+X+X%X%X1X-X2X2XwX3X5X8X8X8XmXmXmXZXmXZXmXZXZXZXZXZXZXnXZXVXVXVXVXnXnXnXcXcXzXzXzXhXfXfXiXiXiXk tXk k yXk k iXuXuXsXfXfXjX",
"dXsXuXyXk v v g u u y y y u u x g v yXyXpXpXgXgXjXjXzXzXzXzXzXzXzXzXzXzXjXjXjXjXgXsXsXtXtXc c y r 4 < : - * & & & - - , 1 7 l x b m pXpXjXzXzXcXcXcXVXVXVXVXZXZXZXZXZXZXSXSXSXSXSXSXSXSXSXSXSXAXSXAXAXAXAXAXAXAXBXBXBXBXBXBXBXeXBXBXBXeXBXeXeXeXeXeXeXeXeXeXeXeXeX0XeX0XeX0X9X9X@X9X9X@X@X+X+XOXOXOXR.T.T.Y.Y.Y.Y.Y.F.A.A.A.A.j.f.d.d.6.4.4.4.4.2.2.2.<.>.>.>.>.>.;.>.-.-.;.-.-.-.-.-.;.-.-.;.>.>.>.<.>.4.4.4.4.4.d.h.j.A.A.F.F.Y.Y.Y.Y.Y.R.R.R.R.R.+XOX+XR.+XR.R.OXR.R.Y.Y.Y.F.F.F.A.h.h.4.4.4.>.>.-.-.W J D D V V V V V B V B V B V B V V V V V V A A D D J J J -.-.;.>.>.>.2.2.<.4.2.4.4.4.4.4.4.4.4.2.4.2.<.>.>.>.-.W -.W J D D A A V V V V B B C C C Z Z I I P P U ` ` + + @ + @ @ @ 7.@ 7.@ 7.7.7.@ 7.@ @ @ @ @ @ + + + + + + + + + ` ` + ` ` U U U P U P Y I I P Z I Z C Z Z C C B B B V V V V V V V V V V V V V V V V V V V V V V V V V V V V V A A A A A A A D D D J J J J J W J W W -.-.;.;.>.>.>.>.4.4.4.d.h.h.F.A.Y.T.R.OX+X,X,X1X-X2X2X>X5X5X8X5X8X8XmXmXmXmXZXmXZXZXmXZXnXZXVXVXVXVXVXnXnXnXVXcXnXnXcXzXzXzXgXfXfXiXuXtXtXk yXk k yXk tXyXuXsXaXaX",
"sXtXyXtXv v u g u y y y u u x g b b yXyXsXgXgXgXjXjXjXjXzXzXzXzXzXzXzXzXzXjXjXsXhXyXyXyXv c r 6 3 < - - & * & * = ; 1 6 7 z b m m pXgXzXzXzXcXcXVXVXVXVXZXZXZXZXZXZXSXSXSXSXSXSXSXSXSXSXSXSXAXAXAXAXAXAXBXBXBXBXBXBXBXBXeXBXBXBXeXeXeXeXeXeXeXeXeXeXeXeX0XeXeXeX9XeX0X0X9X9X9X@X9X@X@X+X+X+XOXOXR.T.T.Y.Y.Y.Y.A.A.A.A.A.f.f.f.d.d.6.4.4.2.4.2.2.<.>.>.>.>.>.-.;.-.-.-.-.W W W W W W W W -.-.-.-.;.;.>.>.<.2.4.4.4.4.4.h.h.j.A.F.F.F.F.Y.Y.Y.Y.R.R.R.Y.R.R.R.R.R.R.Y.Y.Y.Y.Y.A.F.F.h.j.h.4.4.4.>.>.;.-.W J J D A V V V V V V B B B B B B V B V V V V V A A D D J J W -.-.-.>.;.>.<.2.2.4.2.4.<.4.<.4.<.4.<.<.<.<.>.-.>.-.W W J J J D A A V V V V V B C C Z Z Z P I U U U ` ` ` + + @ @ @ @ @ @ @ @ @ @ @ @ @ @ @ @ + + + + + + ` + + U + U + U U U U U U U U P U I I I Z I Z Z Z C C C C B V V V V V V V V V V V V V V V V V V V V V V V V V V V V V A A A A A A A D D D J J J J J J W J -.-.-.-.;.;.>.>.<.2.4.4.4.4.h.h.A.A.Y.Y.R.OXOX<X,X,X1X1X2X2XwX2X3X8X4X8XbX8XmXmXmXmXZXmXZXnXZXZXnXZXVXVXVXnXnXVXVXcXVXcXcXcXcXzXjXjXgXfXiXiXyXk yXk g yXk yXk yXtXtXsXaX",
"tXtXtXv v v g u u r y u u u g b b yXyXgXpXgXgXjXjXjXjXzXjXzXzXzXzXjXjXjXgXjXsXsXyXyXv v y r r 3 < - - - * & * - 1 1 6 l z b m pXgXgXzXzXcXcXVXVXVXVXZXZXZXZXZXSXSXSXSXSXSXSXSXSXSXSXSXSXAXAXAXAXAXAXAXBXBXBXBXBXBXBXBXBXBXBXeXeXeXeXeXeXeXeXeXeXeXeX0XeXeX0XeX0XeX0X0X9X9X9X9X9X@X+X+X+XOXR.R.T.T.Y.Y.Y.F.Y.A.A.A.A.j.f.f.d.6.4.4.4.4.2.4.<.<.>.>.>.>.>.;.-.-.-.-.W W W W W W W W W W W W W W -.-.;.;.;.>.>.>.2.2.4.4.4.d.h.j.h.A.A.F.F.Y.Y.Y.Y.Y.Y.R.Y.R.Y.R.Y.Y.Y.Y.Y.Y.Y.F.F.A.j.h.4.4.4.2.>.;.-.-.J J D A V V V V V V B B B B B B B B B V V V V V A A A D J J W J -.-.;.>.>.>.<.<.2.2.<.4.<.4.<.4.<.<.<.<.>.-.>.-.W -.J J D D A A V V V V V V C C C Z Z I I I U U U ` ` + + + + @ @ @ @ @ @ @ @ @ @ @ @ @ @ + + + + + + ` + + U + U + U U U U U U I U P Y I I I I I Z Z Z Z C C C B V V V V V V V V V V V V V V V V V V V V V V V V V V V V A A A A A A A D D D J J J J J W J W W -.-.;.;.;.>.>.>.<.<.4.4.4.4.h.h.A.A.Y.Y.T.R.OX+X+X<X1X1X2X2X3X2X3X8X3X8XvXwXmXbXmXmXnXmXnXmXZXnXZXVXVXVXVXnXVXVXVXcXVXVXcXcXcXcXzXzXjXgXgXsXiXuXyXk v yXg k g yXk tXtXtXtX",
"n v v v c u u u y u u u u x b b yXyXpXpXgXgXgXgXjXjXjXjXjXjXjXjXjXjXjXgXjXpXpXyXv yXc z z 3 3 < - - * & - * ; ; 3 6 l x b pXpXgXgXzXzXcXcXVXVXVXVXZXZXZXZXSXSXSXSXSXSXSXSXSXSXSXSXAXAXAXAXAXAXAXBXBXBXBXBXBXBXBXeXBXBXeXeXeXeXeXeXeXeX0XeX0XeX0XeX0XeX9XeX0X0X0X9X9X9X9X9X@X@X@X+X+XR.OXR.R.T.Y.Y.Y.Y.F.A.A.A.A.j.d.f.d.4.4.4.4.2.2.2.<.>.>.>.>.>.-.-.-.-.W W W W W W J K J J J J J J J J W W J -.W -.-.;.>.>.>.2.4.4.4.4.d.h.j.j.A.A.F.F.F.Y.Y.Y.Y.Y.Y.Y.Y.Y.Y.Y.Y.Y.A.Y.A.A.j.h.h.d.4.4.>.<.>.;.-.-.J J D A A V V V V B B B C B C B C B B V V V V V V A A D D J J -.W -.-.;.>.>.>.<.<.<.<.4.<.<.4.<.<.<.<.>.>.>.-.-.-.W W J J D D A A V V V V V B C C Z Z Z P P P U U ` ` ` + + + + + @ @ @ @ @ @ @ @ + + + + + + + + + U + ` U + U U U U U U U P P U I I I I I I Z Z Z Z C C C C V V V V V V V V V V V V V V V V V V V V V V V V V V V A A A A A A A D D D D J J J J J J W W W -.-.;.;.;.>.>.>.>.2.4.4.4.4.h.h.h.F.j.Y.Y.T.R.OX+X@X<X<X1X1X2X>XqX3XwX3X8X4X8XvXmXvXmXvXZXbXZXnXZXnXnXVXcXVXnXVXVXcXVXVXcXcXcXcXcXzXzXzXjXjXsXgXpXiXyXyXk v yXg yXg v b tXn tX",
"v v c v u u u r u u x x x b b m yXyXpXgXgXgXgXjXgXjXjXjXjXjXjXjXgXjXgXjXgXyXyXyXyXx x z 3 3 1 - - - * - * ; 1 6 6 l x m pXpXgXgXzXzXcXcXVXVXVXZXZXZXZXZXSXSXSXSXSXSXSXSXSXSXAXSXAXAXAXAXAXAXBXBXBXBXBXBXBXBXeXBXBXeXeXeXeXeXeXeXeXeX0XeXeXeX0XeX9XeX9XeX0X0X9X9X9X9X9X@X@X9X+X+X+XOXR.R.T.Y.Y.Y.F.F.A.A.A.j.j.d.d.d.4.4.4.4.4.4.2.<.>.>.>.>.>.-.-.-.-.W W W W J W J J J J D J D J J D J J J J W J -.W -.;.;.;.>.>.2.2.2.4.4.d.d.j.h.F.j.j.Y.j.Y.Y.Y.Y.Y.Y.Y.Y.Y.Y.Y.A.Y.A.A.j.A.h.d.4.4.<.4.>.;.-.-.J J D A A V V V V V B B C B C B C B B B V V V V V A A A D J J W J W -.;.;.>.>.<.>.<.>.4.<.<.4.<.<.<.<.<.>.>.-.>.-.-.W J J J D A A A V V V V V V C C Z Z I Z P Y U U U ` ` + U + + + + + + + @ + + + + + + + + + + + U + + U + U U U U U U U P P P I I I I Z I Z Z Z C Z C C C V V V V V V V V V V V V V V V V V V V V V V V V V V A A A A A A V D D D J J J J J J J W W W -.-.;.;.;.>.>.>.<.>.4.4.4.4.4.h.4.F.j.j.Y.Y.R.R.R.+X@X@X<X1X1X2XqXqX6XwX5X8X4XmX4XmXvXmXvXnXbXbXnXnXnXnXVXnXVXVXcXVXcXVXcXcXcXcXcXcXzXzXzXzXjXjXgXsXpXsXiXyXk yXg yXg b v v v v v ",
"c c c u u u z u x x x x b c b yXyXgXpXpXgXgXgXgXjXgXjXjXjXjXgXjXgXgXgXpXpXyXyXc c x r 6 1 1 < - * - - - ; < 1 6 z x b pXpXgXgXzXzXcXVXVXVXVXZXZXZXZXSXSXSXSXSXSXSXSXSXSXAXAXAXAXAXAXAXBXBXBXBXBXBXBXBXBXBXeXBXeXeXeXeXeXeXeXeX0XeX9XeX0X0X0X0X9X0X9X9X9X9X9X9X9X9X9X+X9X+X+X+XOXOXR.R.Y.Y.Y.F.F.F.A.A.h.j.d.d.d.4.4.4.4.4.<.<.<.<.>.>.>.-.-.-.-.W W W W W J J J J D D D D D D D D D D D D J D J W J -.-.W -.>.>.>.>.4.4.4.4.d.d.h.j.j.F.F.F.Y.A.Y.Y.A.Y.Y.Y.Y.Y.Y.A.Y.A.Y.h.j.j.h.h.4.4.<.<.>.>.-.W J J J D A A V V V V V B B C C C B C B B V V V V V V A A D D J J W -.-.-.;.>.>.>.2.<.4.>.4.<.<.4.>.4.>.<.>.>.>.-.-.-.W W J J J D A A A V V V V V V C C Z Z I I I U U U U ` + + + + + + + + + + + + + + + + U + ` + U + U U U U U U U U P U I Y P I I I I Z I Z Z Z C Z C C V V V V V V V V V V V V V V V V V V V V V V V V A A A A A V A A D D D D J J J J J W J W W W -.-.-.;.>.;.>.>.>.4.<.4.4.4.4.h.h.h.F.h.Y.Y.Y.Y.R.R.+X@X@X9X9X0X0XqXwXqXwXwX7X8X7X8XvXbXbXvXnXvXnXnXvXnXnXnXnXcXnXVXcXcXcXcXcXcXzXcXzXzXzXzXzXgXzXgXjXgXsXyXyXyXyXyXg b c g b v u c c ",
"c u u u z u x x z x z c b m m pXpXpXpXgXgXgXgXgXgXjXgXjXgXgXgXgXgXjXpXyXyXyXb c x r 6 6 4 < ; - - - - ; 1 1 6 l x b m pXgXgXzXcXcXVXVXVXZXZXZXZXSXSXSXSXSXSXSXSXSXSXSXAXAXAXAXAXAXBXBXBXBXBXBXBXeXBXBXBXeXBXeXeXeXeXeX0XeXeX0XeX0XeX0X0X0X9X9X9X9X9X9X9X9X9X9X@X9X+X9X@X+X+X+XR.R.T.Y.Y.Y.F.F.A.A.j.j.f.d.6.4.4.4.4.2.2.<.>.>.>.>.;.>.-.-.-.W W W W K J J J J D D D D D D D A A A A D D D D J J J J -.J -.-.;.;.>.2.>.>.4.4.4.d.h.h.h.j.j.A.A.Y.A.Y.Y.Y.Y.Y.Y.Y.Y.Y.A.Y.j.Y.j.j.h.d.4.4.4.<.>.;.-.W -.J D A A V V V V V V B B B C B C B B V V V V V V A A A J J J J W -.;.;.>.>.<.<.<.<.<.4.2.4.4.4.4.<.4.<.<.<.>.>.>.-.-.-.J J J D A A A V V V V V V C C Z Z Z I I U P U U ` U ` ` + + ` + + + ` + + + + U + + U + U ` U U U U U P U U I U I I I I I I I Z Z Z Z Z C Z C C V V V V V V V V V V V A V A A A V A A A A A V A A A A V D V D D D D J J J J J J W J W W -.-.;.;.;.>.>.>.>.>.>.2.4.4.4.4.d.h.h.j.j.A.F.Y.Y.R.R.R.+X+X@X9X9X0X0XqXqXqXwXwX8X8X8X8XbXmXvXbXbXvXnXcXcXcXcXcXcXzXVXzXcXcXcXcXzXzXzXzXzXzXzXzXzXzXzXjXjXgXgXgXpXsXyXb yXyXb b c c u c c c ",
"z z z z z z z z c x b b b b yXyXpXpXgXpXgXgXgXgXgXgXgXgXjXgXgXpXgXyXpXyXm b x x r 7 6 1 < < ; ; * ; - < 1 6 r z x m pXgXgXzXzXcXcXVXVXVXZXZXZXZXSXSXSXSXSXSXSXSXAXAXAXAXAXAXAXBXBXBXBXBXBXBXBXeXBXeXeXeXeXeXeXeXeXeX0XeX9XeX0X0X9X0X9X9X9X9X9X9X9X9X9X9X@X9X@X9X@X9X+X+X+XOXOXR.T.Y.Y.Y.F.A.A.h.j.f.d.6.4.4.4.4.2.2.<.>.>.>.>.;.-.;.-.W W W W W J J J J D D D D D D D A A A A A A A A A D D D D J J J -.W -.-.>.;.>.4.4.<.4.4.h.h.j.A.F.F.A.Y.A.Y.Y.Y.Y.Y.Y.Y.Y.Y.Y.Y.A.Y.j.A.j.h.h.4.4.4.>.<.>.;.-.J J J D A A V V V V V V B B B B B B V V V V V V V A A D D J J -.W ;.;.>.>.>.>.2.4.4.4.4.4.4.4.4.4.4.4.4.<.>.>.>.>.;.-.-.W W J J D D A V V V V V V V A C Z Z Z I I U U U U U ` U ` ` + ` + U + + U + U + U + U U U U U U U U U Y P P P I I I I I Z Z Z Z Z C Z C C C C V V V V V V V V V A V A V A A V V D V A V A A A A A A A D A D D J J J J J J J W J W -.W -.;.;.;.>.>.>.>.>.4.4.4.4.4.4.h.h.h.h.F.j.Y.Y.Y.Y.R.R.+X+X+X9X@X9XeX9XqXeXeXwXrX8XNX8XmXmXbXbXbXbXxXcXxXxXxXcXcXcXzXzXzXzXzXzXzXzXzXzXzXzXzXzXgXzXgXgXgXgXgXgXgXpXgXyXyXyXb b b b x c c z z z ",
"z z z z z z x x x b b b b m m m pXpXpXgXpXgXpXgXgXgXgXjXyXgXgXgXyXyXyXyXb c x z r 6 4 4 < ; * - - - ; 1 1 6 x x m pXpXgXzXzXcXcXVXVXVXZXZXZXSXSXSXSXSXSXSXSXSXAXAXAXAXAXAXBXBXBXBXBXBXBXBXBXeXBXBXeXeXeXeX0XeXeX0XeX0X0XeX0X0X9X9X9X9X9X9X9X9X9X9X@X9X@X9X+X9X+X@X+X+X+XOXOXT.R.Y.Y.F.F.A.A.j.j.d.d.4.4.4.4.2.2.<.>.>.>.>.>.-.-.-.W W W W W J J J D D D D D D D D V D A A A A A A A A A A D D J J J J W W -.;.;.>.2.>.>.4.4.d.d.h.j.j.A.j.Y.A.Y.Y.Y.Y.Y.R.Y.Y.Y.Y.Y.Y.Y.Y.A.A.j.A.h.h.4.4.4.<.>.;.-.-.J J D A A V V V V V V V V B B V V V V V V V V A A D J J J W W ;.;.>.>.>.>.4.4.4.4.4.4.4.4.4.4.4.4.4.4.4.4.4.<.>.>.>.-.-.W W J J D A A V V V V V V V C C Z Z Z I I I P Y U U ` U + U ` ` ` + U + U + U U U U U U U U Y U I U I I P I I P Z P Z Z Z Z Z Z Z C C C V V V V V V V V V A A V D V D D V D D V D V D A A D A D D D D J J J J J J J J W W W -.-.-.;.;.;.>.>.>.>.>.>.4.4.4.4.4.d.h.j.h.h.F.A.Y.Y.Y.R.R.R.+X+X@X@X9XeX9X9XqXeXeXrXrXNXNX8XmXmXbXmXnXvXbXcXzXxXxXcXjXzXjXjXjXjXjXzXzXjXgXzXgXgXzXgXgXgXgXgXgXgXgXgXgXpXgXyXgXyXyXb b b c b c z c z z ",
"l z z z z z x x b x b b m m m m pXpXpXpXgXpXgXpXgXpXgXyXgXyXyXyXm m b b b x z 7 6 6 4 ; < ; - = ; ; 1 1 7 l z b m pXgXgXzXcXcXVXVXVXZXZXZXZXSXSXSXSXSXSXAXSXAXAXAXAXAXBXBXBXBXBXBXBXBXBXeXBXeXeXeXeXeXeXeXeX0X0XeX9XeX9X9X0X9X9X9X9X@X9X@X9X+X9X+X9X+X9X+X9X+X9X+X+X+XOXR.R.R.Y.Y.Y.A.A.h.j.d.d.4.4.4.4.2.<.<.>.>.>.;.;.-.-.-.W W W W J J J J D D D D D D D V D V D V D V A A A A A A A A D D D J J W W -.-.-.;.>.>.4.4.4.4.d.h.h.h.F.j.Y.A.Y.Y.Y.Y.R.Y.Y.R.Y.R.Y.Y.Y.Y.Y.Y.A.A.j.h.h.4.4.4.>.>.>.-.-.J J J D A A V V V V V V V V V V V V V V V V A A A D J J W W -.;.>.>.>.4.4.4.4.4.4.h.h.h.h.h.h.h.h.4.4.4.4.4.4.>.>.<.>.-.-.W J W J J D A A V V V V V V A C Z Z Z I I I U U I U U U U U U U U U U U U U U U U U U U I U I U I I I I Z I Z Z Z Z Z C Z C C C C V V V V V V V V V A V A A D D D D J J J J J D J D J D D J J J J J J J J J J W W W W -.-.-.;.;.>.>.>.>.<.>.4.4.4.4.4.4.h.h.h.j.h.F.F.F.Y.Y.Y.R.R.+X+X+X@X9X9X9X9XeXeXeXeXBXrXrXBXNXCXmXmXbXbXbXnXxXxXxXxXjXjXjXjXjXjXjXgXjXgXgXgXgXgXgXgXyXgXpXgXpXgXpXgXpXgXyXgXyXyXyXyXm m c b b x x x z z z ",
"r l l z z l x x x b b b m b m m m yXyXyXyXyXyXyXyXyXyXyXyXm m m m m b c x z r 7 6 4 1 < ; ; = ; ; ; 4 4 r l b m pXgXgXzXcXcXVXVXVXZXZXZXZXSXSXSXSXSXSXSXSXAXAXAXAXAXBXBXBXBXBXBXBXeXBXeXBXeXeXeX0XeXeX0XeX0X0XeX0X0X9X9X9X9X@X9X9X@X9X@X9X+X9X+X9X+X9X+X9X+X@X+X+XOX+XOXR.R.Y.Y.F.A.A.A.j.d.d.4.4.2.4.2.<.>.>.>.>.;.-.-.-.W W W W J J J J D D D D D D D V V D V D V V V V V A A A A A A A A D J J J J J W -.;.>.>.<.>.2.4.d.d.h.h.F.A.Y.A.Y.Y.Y.R.Y.Y.Y.R.Y.R.Y.Y.R.Y.Y.Y.Y.Y.A.j.F.h.h.4.4.4.<.>.;.-.-.J J D A A V V V V V V V V V V V V V V V A A A D J J W W -.;.>.>.>.4.4.4.4.4.h.h.h.j.j.j.j.j.j.h.h.h.h.4.4.4.4.4.>.>.>.;.-.-.J J J D A V A V V V V V V C C Z Z Z I I I I U P U U U U U U U U U U U U U P U P P I U I P I Z I P Z I Z Z Z Z Z Z Z C C C C V V V V V V V V V A V D V D J J J J J J J J J J J J J J J J J J J J W J W W W W -.-.-.;.;.;.>.>.>.>.>.<.<.4.4.4.4.4.d.h.h.h.h.j.F.F.Y.Y.Y.R.R.R.+X+X+X+X9X9X9X9XeXeXeXeXBXBXBXAXAXCXCXCXmXZXbXnXcXxXxXxXjXjXjXpXjXjXgXgXgXpXgXyXyXyXyXm yXm yXyXm m yXyXm yXyXm m m m m m b m b b x b x x z l l ",
"l l l l z x x x x x b b b b m b m b m m m m m m m m m m m m b m c c c x z r 7 6 4 4 ; 1 ; = ; ; ; 1 1 7 l x b m pXgXzXzXzXcXVXVXVXZXZXZXSXSXSXSXSXSXAXAXAXAXAXAXBXBXBXBXBXBXBXeXBXeXeXeXeXeXeX0XeXeX9XeX0X0X0X9X0X9X9X9X9X@X9X@X9X@X@X@X+X@X@X+X@X+X+X+X+X@X+X+X+X+XR.R.R.T.Y.F.F.A.A.d.h.d.4.4.4.2.<.<.>.>.>.-.-.-.-.W W W W J J J J D D D D D D V D V D V V V V V V V V V V V A A A A A A A D D J J -.W -.;.;.>.<.4.4.4.4.h.h.A.h.F.A.Y.Y.Y.Y.Y.R.R.R.R.R.R.R.R.Y.R.Y.Y.Y.Y.Y.A.j.j.h.h.4.4.<.>.>.-.-.J J J D A A V V V V V V V V V V V V V V A A A D J J -.W ;.>.>.<.4.4.4.4.h.h.h.j.j.j.A.j.A.j.j.j.j.j.h.h.h.4.4.4.4.>.>.>.;.;.-.J J J J D V A V V V V V V A C Z C Z I I I I Y P I U U U P U U Y U P U P U I Y P I I I I I I Z Z Z Z Z Z Z C C C C C C V V V V V V V V V V A V D D J J J J J W W W W J W J W J J W J W J W J W W W W -.-.-.-.-.>.;.>.>.>.<.>.4.4.4.4.4.4.d.h.h.h.F.h.F.F.F.Y.Y.Y.T.R.R.+X+X+X+X9X9X9X9XeX9XeXeXBXBXBXBXAXAXAXAXCXCXVXbXnXcXcXxXjXjXjXsXjXjXpXpXpXyXyXyXyXm m m b m c m b b b b b b m b b m b m b b b b b c c x x x l l l l ",
"l 7 7 l l l l l x x x x x b x b b b b m b b b b b b b b c c c c c x z z r 7 6 4 4 ; 1 ; = ; ; ; ; 4 4 7 l b m pXgXgXzXcXcXVXVXVXZXZXZXSXSXSXSXSXSXSXAXAXAXAXBXBXBXBXBXBXBXBXeXBXeXeXeXeXeX0XeXeXeX0XeX0X0X0X9X9X9X@X9X9X@X9X@X@X@X@X+X+X+X+X+X+X+X+X+X+X+X+X+X+XR.OXR.R.T.Y.Y.F.A.A.j.h.4.4.2.4.2.<.<.;.>.>.-.-.-.W W W W J J J J D D D D D V D V D V V V V V V V V V V V V V V V A A A A A D D J J W J -.-.;.>.>.>.4.4.4.d.h.j.h.F.A.Y.Y.Y.R.Y.R.R.R.R.R.R.R.R.R.R.R.R.R.Y.Y.Y.A.Y.j.h.h.4.4.4.>.>.;.-.W J J A A A V V V V V V V V V V V V V A A D J J J W -.;.>.>.>.4.4.4.d.h.h.j.j.A.j.A.j.Y.j.Y.A.j.F.j.j.F.h.h.h.4.4.4.4.>.>.;.;.-.J J J D A A V V V V V V V A C Z Z Z Z I I I I U I P P Y U I U I U P Y I I I I P Z I Z I Z Z Z Z Z C Z C C C C C V V V V V V V V V V A A V D J J J W J W W W -.W -.-.W -.W W W W W W W W -.W -.-.-.-.-.;.;.>.>.>.>.>.>.<.4.4.4.4.4.d.h.h.h.h.j.j.F.F.Y.Y.Y.T.R.OXR.+X+X@X+X9X9X9XeX9X0XeXeXBXBXBXBXAXAXSXAXZXZXVXVXVXnXcXcXjXjXgXgXjXpXyXyXyXm m c m c c c x c x x x x l x x x x x x b x b x b x c c x x x x l l l l 6 7 ",
"4 7 7 7 7 7 l l l l l x x x x x x x x x x c x c x c c c c z c z z z r 7 7 6 4 4 4 ; ; ; = ; ; 1 1 4 7 l z b m pXgXzXzXcXVXVXVXZXZXZXZXSXSXSXSXSXAXAXAXAXAXBXBXBXBXBXBXeXBXeXeXeXeXeXeXeX0XeX0X0XeX9X9X9X9X9X9X9X@X9X@X@X@X@X@X+X+X+X+X+X+X+X+XOX+X+X+X+X+XR.+XR.+XR.R.T.T.Y.F.F.A.h.d.d.4.4.4.<.<.>.>.>.-.-.-.W W W W J J J D D D D D V D V D V V V V V V V V V V V V V V V V V V V A A A A A D J J J W W -.;.>.>.4.>.4.4.d.h.h.F.A.F.Y.Y.R.Y.R.R.R.R.R.+XR.OXR.OXR.R.R.R.Y.Y.Y.Y.A.F.h.j.h.4.4.4.>.>.-.-.J J J D A V V V V V V V V V V V V A A A D J J W -.-.>.>.<.4.4.4.h.h.h.F.j.A.A.Y.Y.Y.Y.Y.Y.Y.Y.A.Y.j.j.j.j.h.h.4.4.4.4.>.>.;.;.-.J W J D D A A V V V V V V V C C Z Z Z Z I I I I I I I I P I I I I I I I I I Z I Z Z Z Z Z Z Z C Z C C C C V V V V V V V V V V V A V A D D J J W W -.-.-.-.-.-.-.-.-.-.-.-.-.-.-.-.-.-.-.-.-.;.>.>.>.>.>.<.>.<.4.4.4.4.4.4.d.h.h.h.h.h.F.F.F.F.Y.Y.Y.R.R.R.OXOX+X+X@X@X9X9X9XeX9XeXeXeXBXBXBXBXAXAXSXSXSXSXZXZXnXnXcXcXzXzXgXjXpXpXyXyXm c c c c z z z z l 7 l l 7 7 r r r r l r r l r l l l x l z x l l l l 7 l 7 7 4 ",
"4 4 4 4 7 7 7 7 7 l 7 l l l l l l l x l z z z z z z z z z z z r 7 7 7 7 4 4 4 4 ; ; ; = ; ; ; ; ; 4 7 l x m pXgXgXzXcXcXVXVXVXZXZXSXSXSXSXSXSXSXAXAXBXAXBXBXBXBXBXeXBXBXeXeXeXeX0XeXeX0XeX0X0XeX9X9X9X9X9X@X9X+X9X@X@X@X+X@X+X+X+XOXOX+XOXOXR.+XR.+XOX+XR.+XOXOXR.R.R.T.Y.F.F.A.j.h.d.4.4.2.2.>.>.>.;.-.-.W W W W K J J D D D D D V D D V D V V V V V V V V V V V V V V V V V V V A A A A A D D J J J W -.;.;.>.>.>.4.4.d.h.h.F.j.Y.Y.Y.Y.Y.R.R.R.OXR.OXR.OXOXOXOXOXOXR.R.R.R.Y.Y.Y.F.F.j.h.d.4.4.>.>.;.-.W J J A A A A V V V V V V V V V V A A D J J J W ;.>.>.>.4.4.4.h.h.h.j.j.F.Y.Y.Y.Y.Y.Y.Y.Y.Y.Y.Y.Y.Y.Y.F.F.j.h.h.h.4.4.4.>.>.>.;.-.J J J D A V A V V V V V V V C C Z C Z Z Z Z I I I I I I I I I Z I I Z Z Z Z Z Z Z Z C Z C C C C C C V V V V V V V V V V V A A V D J J J W W -.-.;.;.>.>.>.>.>.>.>.>.-.>.;.;.;.;.;.;.;.>.>.>.>.>.>.<.<.>.4.4.4.4.4.4.d.d.h.h.h.j.h.F.F.F.Y.Y.Y.T.R.R.R.OXOX@X@X@X@X9X9XeX9X9XeXeXeXBXBXBXAXAXAXSXSXSXZXZXZXZXnXnXnXzXjXjXjXpXyXm m b c c z z 7 7 6 7 4 4 4 4 4 1 4 4 4 4 4 4 4 7 4 7 7 7 r 7 7 l 4 l 7 7 7 7 4 6 4 4 ",
"1 , 4 4 4 4 4 4 4 4 7 4 7 l 7 7 7 l 6 l l l z l z r z 7 7 7 7 7 6 4 4 4 4 ; ; ; ; ; = ; & ; ; 1 4 4 l x b m pXgXjXzXcXcXVXVXZXZXZXZXSXSXSXSXSXAXAXAXAXBXBXBXBXBXeXBXeXeXeXeXeXeXeX0X0XeX9X0X9X9X9X9X9X9X@X9X+X9X+X+X+X@XOXOXOXOXOXOXOXR.R.R.R.R.OXOXOXR.+XR.R.R.R.R.T.Y.Y.F.F.A.d.d.4.4.2.4.>.>.>.-.-.-.-.W W J J J D D D D D D V D V V V V V V V V V V V V V V V B V V V V V V V V A A A A A D D J J W -.-.;.>.>.4.4.4.d.h.F.h.Y.A.Y.Y.R.R.R.R.+XR.+X+X+X+X+X+X+XOXOXOXR.R.R.R.Y.Y.Y.A.A.h.h.4.4.4.>.>.;.-.J J J A A V V V V V V V V V V A V D D J J -.-.;.>.>.4.4.4.h.h.j.F.F.F.Y.Y.Y.Y.R.Y.R.Y.R.Y.R.Y.Y.Y.Y.Y.F.F.j.j.h.h.4.4.4.>.;.>.;.-.W J J J D V A V V V V V V V V C Z Z Z Z Z Z Z I Z Z Z I I Z I Z Z I Z Z Z Z C Z C Z C C C C V V V V V V V V V V V V V A V A D D J J W W W -.>.>.>.>.>.>.>.>.>.>.>.<.>.>.>.>.>.>.>.>.>.>.<.>.<.4.<.4.4.4.4.4.4.h.h.h.h.j.j.F.F.F.F.Y.Y.Y.T.R.R.OXOX+X+X@X@X@X9X9X9XeX9XeXeXeXeXBXBXBXAXAXAXSXSXSXSXZXZXZXVXVXcXzXjXjXpXpXyXyXm c z z 7 7 6 4 1 1 ; 1 ; 1 1 ; 1 1 1 1 1 1 1 1 1 1 1 1 4 4 4 4 4 4 4 4 4 4 4 4 1 1 , ",
", 1 , , , , , 1 4 4 4 4 4 4 4 6 6 6 l l 7 7 7 7 l 7 7 7 7 7 6 6 4 4 4 4 ; ; ; = = = = & ; ; ; ; 4 7 l x b pXgXgXzXcXcXVXVXZXZXZXZXSXSXSXSXAXAXAXAXBXBXBXBXBXeXBXBXeXeXeXeXeX0XeX0X0XeX0X9X9X9X9X9X@X9X@X9X@X@X+X+X+X+XOXOXOXR.OXR.R.R.T.R.R.R.R.R.R.R.OXR.R.R.R.R.R.Y.Y.Y.F.A.j.h.d.4.<.4.>.>.>.;.-.-.-.J W J J D D D D D D D V D V V V V V V V V V V V V V B V B V V V V V V V V V A A A A D D J J W W -.;.>.>.>.4.4.4.h.h.h.F.A.Y.Y.Y.R.R.+XR.OX+X+X+X+X+X+X+X+X+X+X+X+XOXR.R.R.Y.Y.Y.j.F.h.h.4.4.>.>.;.-.W J J D A A A V V V V V V V A A D D J J W -.;.>.>.4.4.4.h.h.j.F.F.Y.Y.R.Y.R.R.R.R.R.R.R.R.R.R.R.R.Y.Y.Y.Y.Y.j.F.h.h.d.4.4.4.<.;.;.-.W J J D D V A V V V V V V V V A C C Z C Z Z Z Z Z I Z Z Z Z Z Z C Z Z Z C Z C C C C C B V V V V V V V V V V V V V A A D D J J J W -.-.>.>.>.>.<.<.4.4.4.4.4.4.4.<.<.<.<.>.>.>.<.>.>.4.>.4.4.4.4.4.4.4.4.h.h.h.j.h.F.j.F.F.F.Y.Y.Y.T.R.R.OXOXOX+X@X@X@X@X9X9XeX9X9XeXeXeXeXBXBXAXAXAXSXSXSXSXZXZXZXVXVXVXcXcXjXjXjXpXm m c x z 7 6 4 1 ; ; ; ; ; ; ; ; ; ; ; ; ; ; ; 1 ; ; 1 1 ; 1 1 ; 1 1 ; 4 ; 1 ; 1 , , ; , , ",
"; = ; ; , ; ; ; ; ; 1 1 1 4 4 4 4 4 4 4 l 7 4 l 4 7 6 6 6 6 4 4 4 1 ; ; ; ; = = = = & & & ; ; 1 4 7 l b m pXpXjXzXcXcXVXVXZXZXZXSXSXSXSXSXSXAXAXAXAXBXBXBXBXBXeXeXeXeXeXeX0XeX9XeX9X9X9X9X9X9X9X+X9X+X@X+X+X+X+X+XOXOXR.OXR.R.T.R.T.T.R.R.T.R.R.Y.R.R.R.R.R.R.Y.R.Y.Y.Y.A.F.h.h.d.4.4.4.>.>.>.;.-.-.W J W J J D D D D D V D V V V V V V V V V V V B V V B V V V V B V V V V V V V V V A A A A D J J J -.-.;.>.>.4.4.4.d.h.h.F.A.Y.Y.Y.R.R.OXR.+X+X+X+X+X@X+X@X+X@X+X+X+X+X+XR.R.R.R.Y.Y.F.j.F.h.4.4.4.>.>.;.-.W J J D A A A V V V A A A A A D J J J -.;.>.>.4.4.4.h.h.F.j.Y.Y.Y.R.Y.R.R.OXOXOXOX+XR.+XR.+XR.OXR.R.R.Y.Y.Y.F.j.F.4.h.4.4.>.>.>.;.-.W J J J D A A V V V V V V V V V C C Z C Z Z Z Z C Z C Z C Z Z Z C C C C C C C V V V V V V V V V V V V V V A V A A A D J J J W -.-.>.>.<.4.4.4.4.4.4.4.4.4.4.4.4.4.4.4.4.4.4.4.4.4.4.4.4.4.4.4.h.h.h.h.j.j.F.j.A.F.Y.Y.Y.Y.T.R.R.R.R.+XOX@X@X@X@X9X9X9X9XeX9XeXeXeXeXBXBXBXBXAXAXSXSXSXSXSXZXZXZXZXVXVXzXzXgXgXyXm m x z l 6 1 1 ; ; & = & = & ; = = = ; ; ; ; ; ; ; ; ; ; 1 ; ; ; ; ; ; ; ; ; ; ; ; ; ; ; ; ; ",
"= ; ; ; O ; ; ; ; ; ; 1 ; ; 1 4 4 4 4 7 4 4 l 4 7 7 6 6 6 4 4 1 1 ; ; ; = = & & & & . & ; = ; 4 4 7 x b m pXgXzXcXcXVXVXZXZXZXSXSXSXSXSXSXAXAXAXBXBXBXBXBXBXeXeXeXeX0XeX0XeX9XeX9X9X9X9X9X@X9X@X9X@X+X+X+X+X+XR.OXR.R.R.R.T.T.T.Y.T.Y.Y.Y.Y.T.Y.R.Y.R.R.Y.R.R.R.Y.Y.Y.Y.F.F.A.j.4.4.4.<.>.>.;.-.-.W W W J J D D D D D V D V V V V V V V V V V B V V V B V B V B B V B V V V V V V V A A A A D J J J W W ;.;.>.<.<.4.d.d.h.F.A.Y.Y.Y.R.R.R.R.+X+X+X+X@X@X+X9X+X9X+X9X+X+X+X+X+X+XR.R.R.Y.Y.Y.j.j.h.4.4.4.2.;.;.W J J D D A A A A V A A V V D J J J -.;.>.>.4.4.4.h.h.h.F.Y.Y.Y.R.R.R.R.OX+X+X+X+X+X+X+X+X+X+XR.+XR.R.R.T.Y.Y.Y.h.F.h.h.4.4.4.>.;.;.-.-.J J J D A A V V V V V V V V V B A C C C C C Z C Z C Z C C C C C C C B V V V V V V V V V V V V V V V A A A D D J J J W W -.;.>.>.<.4.4.4.h.4.h.h.h.h.h.h.h.4.h.4.4.4.4.4.4.4.4.4.h.4.h.h.h.h.j.j.A.j.A.A.A.Y.Y.Y.Y.Y.R.R.R.OXOX+X+X@X@X@X@X9X9X9X9XeX9XeXeXeXeXBXBXBXAXAXAXSXSXSXSXZXZXZXZXVXVXcXcXzXjXjXyXm m x z 6 1 1 ; = & & & & & & & & & = = ; ; ; ; 1 ; ; 1 ; ; ; ; ; ; ; = ; = = = ; = = = = ; = ; ",
"= = ; O ; O ; O ; ; ; ; 1 1 ; 1 4 4 4 4 7 4 4 l 4 4 7 4 6 4 4 4 ; 1 ; = = & & & O . & O & ; ; ; 7 7 x b m pXjXzXzXcXVXVXVXZXZXZXSXSXSXSXAXAXAXAXAXBXBXBXeXeXeXeXeXeXeX9XeX9X0X9X9X9X9X@X9X@X@X+X+X+X+XOX+XR.R.R.R.R.T.T.Y.T.Y.Y.Y.Y.Y.Y.Y.Y.Y.Y.T.R.R.Y.R.Y.Y.R.Y.Y.Y.A.F.h.j.d.4.4.>.<.>.;.-.-.W W J J J D D D D V D V V V V V V V V V V B V V B V B V B V B V B B V B V V V V V V V A A A D D J J W -.-.>.>.2.4.4.4.h.F.h.F.Y.Y.R.R.R.OX+X+X+X@X@X@X@X9X+X@X@X@X@X9X+X+X+X+X+XR.R.R.R.Y.Y.F.j.h.h.4.4.>.>.;.-.W J J D D V A V D V A D D D J J W -.;.>.2.4.4.h.h.F.F.F.Y.Y.R.R.OX+X+X+X+X+X+X@X+X9X+X+X+X+X@X+X+XR.OXR.R.Y.Y.Y.A.j.h.4.h.4.4.>.>.;.;.W J J J D D A A V V V V V V V V V V A C C C C C C C C C C V C V V V V V V V V V V V V V V V V V A A A A D D J J J W W -.>.>.<.4.4.4.d.h.h.h.j.j.j.j.h.j.h.h.h.h.h.h.4.h.h.h.h.h.h.h.h.j.j.F.j.A.A.Y.Y.Y.Y.Y.Y.R.R.R.R.OXOX+X+X@X@X@X@X9X9X9X9XeX9XeXeXeXeXBXeXBXBXAXAXAXAXSXSXSXSXZXZXZXVXVXVXcXzXzXgXyXyXb z l 4 1 ; & & & & & . & O & = = ; ; ; ; ; ; ; ; ; 1 ; ; ; ; ; ; ; ; ; = ; = = O = O = = = & = ",
"= ; O ; O ; O ; O ; ; ; ; ; 1 4 4 4 4 7 4 4 7 4 4 l 4 7 4 4 4 ; 1 ; ; = & = O O O O . O & = ; 1 7 l b b pXpXjXzXzXVXVXVXZXZXSXSXSXSXSXAXAXAXAXAXBXBXeXBXBXeXeXeX0XeX0XeX0X9X9X9X9X@X9X9X@X@X+X+X+X+X+XOXR.R.R.R.R.T.Y.Y.Y.Y.Y.Y.Y.Y.F.Y.F.Y.Y.Y.Y.Y.Y.Y.R.Y.R.Y.Y.Y.Y.A.F.A.j.4.4.4.4.>.>.-.-.-.W J J D D D A D V D V V V V V V V V V B V V V B V B B B B B B B B V B B V V V V V V A A A A D J J W W -.;.>.<.>.4.4.h.j.h.F.Y.Y.Y.R.OXR.+X+X+X@X+X9X@X9X@X9X9X9X9X9X@X9X+X9X@X+X+X+XR.R.Y.Y.Y.F.j.h.d.4.4.>.;.-.-.J J J D D D D V D D D J J J W -.;.>.>.4.4.h.h.h.F.Y.Y.T.R.OXR.+X+X+X@X+X@X9X@X9X@X9X9X@X@X@X@X+X+X+XOXR.R.R.Y.Y.F.F.A.h.4.4.4.>.>.;.-.-.J J J D A V A V V V V V V V V V V V V V V V V V V V V V V V V V V V V V V V V V V V V V A A A A A D J J J J W -.-.>.>.<.4.4.d.h.h.h.j.F.F.j.F.F.F.j.F.h.F.j.j.j.j.h.j.h.j.j.j.h.F.j.A.A.A.Y.Y.Y.Y.Y.T.R.R.R.R.OXOX+X+X@X@X@X@X@X9X9X9X9XeX9XeXeXeXeXeXBXBXAXAXAXAXSXSXSXSXZXZXZXZXVXVXVXcXzXzXgXyXm c z 7 4 ; ; & & & & . . & & & & = = ; ; 1 ; 1 4 1 4 1 4 4 4 1 1 1 ; ; ; ; ; = = = = = = O = = = = ",
"= = = O ; O = = ; ; ; , 1 1 1 , 7 1 4 4 7 7 7 r 7 4 7 4 7 4 4 4 1 ; ; = = & O O . . & & & = ; 1 4 x x m pXjXjXzXzXVXVXVXZXZXZXSXSXSXSXSXAXAXAXBXBXBXBXeXeXeXeXeX0XeX9X0X0X9X9X9X@X9X+X@X@X+X+X+XOXR.R.R.R.R.Y.T.Y.Y.Y.Y.Y.A.Y.F.F.F.F.F.F.F.F.Y.Y.Y.Y.Y.Y.Y.Y.Y.Y.Y.A.Y.h.j.h.d.4.<.<.>.;.-.-.J W J J D D A A A V V V V V V V V V V V V B B B B B B B B B B B B B B V B V V V V V V V A A A D D J J -.-.;.>.<.4.4.4.h.h.F.F.Y.Y.R.R.R.+X+X+X@X@X9X@X9X9X9X9X9X9X9X9X9X9X9X+X+X+X@X+X+XR.R.Y.Y.Y.F.h.h.4.4.4.>.>.-.W W J J J D D D D D J J J J -.-.>.>.4.4.d.h.F.F.Y.Y.R.R.OX+X+X@X@X9X@X9X@X9X9X9X9X9X9X9X9X+X@X@X@X@X+X+XR.R.R.Y.Y.F.A.h.h.h.4.4.>.;.>.;.-.J J J J D A A A V V V V V V V V V V V V V V V V V V V V V V V V V V V V V V V V V A A A A A D J J J J J -.-.;.>.>.2.4.4.h.h.j.F.F.F.Y.Y.Y.Y.Y.Y.F.Y.Y.A.A.A.A.j.F.j.A.A.A.A.F.F.Y.Y.Y.Y.Y.Y.Y.R.R.R.R.R.+XOX+X+X+X@X@X@X9X9X9X9XeX9X9XeXeXeXeXeXBXBXBXAXAXAXAXSXSXSXSXZXZXZXZXVXVXVXzXzXzXgXyXm b l 6 1 ; ; & O . . O . & . & ; ; ; 1 ; 4 4 4 4 4 r 4 r 4 4 4 4 4 4 1 1 , , ; ; ; = = = = = = O ; = ",
"; ; = ; = ; = ; ; ; , , 1 4 , 7 4 7 7 7 7 7 7 7 7 7 7 r 4 4 4 4 ; ; ; = = O & O O . . O O = ; 1 7 l b m pXpXjXzXVXVXVXVXZXZXSXSXSXSXAXAXAXAXBXBXBXeXBXeXeXeXeX0XeX0X0X9X@X9X9X+X9X@X@X+X+X+XOXOXR.R.R.R.Y.Y.R.Y.A.Y.Y.Y.A.Y.j.F.F.F.A.F.F.F.F.F.Y.Y.Y.Y.Y.Y.Y.Y.Y.Y.F.h.F.j.d.4.4.4.>.>.;.-.-.W J J D D A A A V V V V V V V V V V V B B B B B B B B B B B B B B B B B V V V V V V V A A A D D J W J -.;.>.>.>.4.4.d.h.F.j.Y.Y.Y.R.R.+X+X@X@X@X9X@X9X9X9X9X9X9X9X9X9X9X9X9X9X9X9X+X+X+X+X+XR.R.Y.F.F.h.h.4.4.<.>.-.W W J J J J J J J J J J W -.-.>.>.2.4.h.h.h.F.Y.Y.R.R.OX+X+X@X@X@X@X9X9X9X9X9X9X9X9X9X9X9X9X9X9X@X@X@X@X+XOXOXR.T.Y.Y.F.h.h.d.4.4.4.>.;.-.-.W J J J D A V A A V V V V V V V V V V V V V V V V V V V V V V V V V V V V A A A A A D D J J J J W W -.;.;.>.>.4.4.4.h.j.j.A.Y.Y.Y.Y.Y.R.Y.R.Y.R.Y.Y.Y.Y.Y.Y.Y.Y.F.Y.Y.Y.Y.Y.Y.Y.Y.Y.R.Y.R.R.R.R.R.+X+X+X@X@X@X9X@X9X9X9X9XeX9X9XeXeXeXeXeXBXBXBXBXAXAXAXAXSXSXSXSXZXZXZXZXVXVXVXcXzXzXgXyXm c l 6 1 ; & O & . . O . & & ; ; ; 1 1 4 7 4 7 r r r r z r r r r r 6 4 7 1 1 1 1 1 ; ; ; = = = = ; ; ; ",
", , , ; ; ; ; ; ; 1 1 1 1 4 7 4 7 6 l r r r l l r l r 7 7 7 4 4 4 1 ; ; = = O O . . O O O = ; 4 7 l b m pXgXjXzXzXVXVXZXZXZXSXSXSXSXSXAXAXAXBXBXBXBXeXeXeXeX0XeX9X0X9X9X9X9X+X9X+X+X+X+XOXOXR.R.R.T.T.Y.Y.Y.A.Y.Y.A.A.A.Y.j.Y.j.j.A.A.A.A.F.F.F.F.Y.Y.Y.Y.Y.Y.A.Y.A.F.F.h.j.d.4.4.<.>.>.-.-.J W J D D D A A A V V V V V V V V V B B B B B B B B B C B C B C B B B B B B V V V V V V V A A D D J J -.-.;.>.>.4.4.4.h.A.j.Y.Y.Y.R.R.+X+X+X@X9X@X9X9X9X9X9X9X9XeX9X9X0X9X9X9X9X9X9X9X+X+X+XR.R.R.Y.Y.Y.j.h.4.4.4.>.>.-.-.W J J J J J J J J W W -.;.>.4.4.4.h.h.F.Y.Y.R.R.OX+X@X@X@X9X9X9X9X9XeX9XeX9X9X9XeX9X9XeX9X9X9X9X@X@X@X+XOXOXR.R.Y.Y.F.h.h.d.4.4.>.>.>.;.-.W J J J J D V A A A V V V V V V V V V V V V V V V V V V V V V V V V A A A A A D D D J J J J W W -.;.;.>.2.4.4.4.h.F.j.Y.Y.Y.R.R.R.R.R.R.R.R.R.R.Y.R.Y.R.Y.Y.Y.Y.Y.Y.Y.Y.R.Y.R.R.R.R.R.R.+XOX+X+X+X@X@X@X@X9X@X9X9X9XeX9X9XeXeXeXeXeXeXBXBXBXBXAXAXAXSXSXSXSXSXZXZXZXZXVXVXVXzXzXgXgXyXb x l 6 ; ; & & O . O . & & ; ; ; 1 4 4 7 r z z z x x x x x x x x z z z z r r 6 4 4 1 1 1 ; ; ; ; ; ; , 1 ",
"1 1 , 1 , ; 1 , 1 4 1 4 6 6 6 6 6 r r l r l l r r r r r 7 7 4 6 4 ; 1 ; = = = O O . & O = = ; 4 7 l x m pXjXjXzXVXVXVXZXZXSXSXSXSXSXAXAXAXBXBXBXeXBXeXeX0XeXeX0X0X9X9X9X9X@X9X+X+X+XOXOXR.R.R.T.T.Y.Y.Y.Y.Y.Y.A.A.A.A.A.j.j.j.j.j.j.A.A.A.A.A.F.F.F.Y.Y.Y.Y.Y.Y.Y.F.F.A.j.h.d.4.4.2.>.;.-.-.W J D D D A A A V V V V V V V V B B B B B B B B B C B B B B B B B B B B B V V V V V V V A A A D J J J W ;.;.>.>.4.4.h.h.h.F.Y.Y.R.R.+X+X+X@X@X@X9X9XeX9X9X9XeX0X9XeX9X0X0X0X9X9X9X9X9X+X9X+X+X+XR.R.Y.Y.j.F.h.h.4.<.>.>.-.W W W W J J J W W W -.-.>.>.4.4.h.h.F.Y.Y.R.R.+X+X@X@X9X9X9X9X9XeX9X9XeX9X9XeXeX9X9XeX9X9XeX9X9X9X9X@X@X@X+XOXR.T.Y.Y.F.F.h.h.4.4.4.>.>.;.-.-.J J J J D A A A V A V V V V V V V V V V V V V V V V V V V A A A A A V D D D J J J J J W -.;.;.>.>.4.4.4.h.h.h.F.Y.Y.R.R.R.R.OXOX+X+X+X+XR.+XOXR.R.R.Y.R.R.R.T.R.R.R.R.R.R.R.R.R.+X+X+X+X@X+X@X@X9X@X9X9X9X9XeX9X9XeXeXeXeXeXeXBXBXBXBXAXAXAXAXSXSXSXSXZXZXZXZXVXVXVXVXzXzXzXgXm b x l 4 ; ; & & . O O O & ; ; ; 1 4 7 7 z z x x x b x b c b x c b x b x x x z z r r 6 r 4 4 1 1 1 1 1 ; 1 1 ",
"4 4 1 1 4 4 1 1 6 1 6 6 6 6 r r r l l r z z z z z r z r 7 7 7 4 6 4 ; ; ; = = & O . & & = = ; 4 7 x b m pXgXzXzXVXcXVXZXZXZXSXSXSXSXAXAXAXBXBXBXBXeXeXeXeX0X0X0X9X9X9X@X@X@X+X+X+X+XR.R.R.R.Y.Y.Y.Y.A.Y.A.A.A.A.A.A.h.A.j.j.j.j.j.j.j.j.A.A.F.F.F.F.F.Y.Y.A.Y.Y.A.Y.j.A.h.j.4.4.<.>.>.;.-.J W J J D A A A A V V V V V V V B V B B B B B B B C B C B C B C B C B B B B V V V V V V V A A A D J J W -.-.>.>.4.4.4.h.A.F.F.Y.Y.R.R.+X+X@X@X9X9X9X9X9X9XeX9X9XeX9X0XeX9X0X0X0X0X9X9X9X9X@X+X@X+XOXR.R.Y.Y.j.h.h.4.4.>.>.>.-.-.W W W W W W W -.-.>.>.4.4.4.j.F.F.Y.R.R.+X+X@X@X9X9X9XeX9XeX9XeX9XeXeXeX9XeXeXeX9XeX9X9XeX9X9X9X9X9X@X@X@XOXOXR.T.Y.F.A.h.h.4.4.4.>.>.;.;.-.W J J J J D V D V A A A V V V V V V V V V V V V A V A V A A A D D D J J J J J W W -.-.;.>.>.>.4.4.4.h.h.F.F.Y.Y.R.R.OX+X+X+X+X+X+X+X+X+X+X+X+XOX+X+XR.+XR.+XR.R.+XR.+X+X+X+X+X+X@X+X@X@X9X@X9X9X9X9X9XeX9X9XeXeXeXeXeXeXBXBXBXBXBXBXAXAXAXSXSXSXSXZXZXZXZXVXVXVXzXzXzXgXpXm b x 7 4 ; ; & O O O O = & ; ; 1 4 7 z z x c c c c b b yXb yXb yXb b b c c c x x x x z z r r 4 7 4 4 4 4 7 1 1 ",
"6 4 6 6 6 1 6 6 6 6 6 6 r 6 r l r r r z z r z z z z z r z 7 7 6 4 4 1 1 ; ; = & & & & & = = 4 4 l x b m pXjXjXzXVXVXVXZXZXSXSXSXSXAXAXAXBXBXBXBXeXeXeX0XeXeX0X9X9X9X@X9X@X+X+X+XOXR.R.R.R.Y.Y.Y.Y.A.Y.A.A.A.j.A.j.j.j.h.h.h.h.d.j.j.h.j.j.A.h.A.F.j.Y.A.Y.Y.A.Y.Y.j.F.F.j.d.4.4.4.2.;.-.-.-.J J D A A A V V V V V V V B V B B B B B C B B C B C B C B C B C B B B B B V V V V V V A A A D J J W W -.;.>.<.4.4.h.h.j.F.Y.Y.R.R.+X+X+X@X9X9X9X9X9X9XeX0X0XeX9XeXeX0XeX0XeX0X0XeX9X9X9X9X9X@X+X+XOXOXY.Y.Y.F.A.4.4.4.<.>.-.-.-.-.-.W -.-.-.-.>.>.4.4.h.h.F.F.Y.R.R.+X@X@X@X9X9X9X9X9XeX9XeXeXeXeXeXeXeXeXeXeXeXeXeXeXeX9X9XeX9X9X9X@X@X@X+XOXR.T.Y.Y.A.A.h.d.4.4.<.>.>.-.-.-.J J J J J D D A A V A V A V A A A A A V A A V A A D V D D D J J J J J W W W -.;.;.>.>.>.4.4.4.h.h.F.F.Y.R.R.OX+X+X+X+X9X+X9X9X@X9X9X+X+X+X+X+X+X+X+X+XR.+X+X+X+X+X+X+X@X+X+X+X9X@X9X9X9X9X9X9X9XeX9XeXeXeXeXeXeXeXBXBXBXBXBXAXAXAXSXSXSXSXZXZXZXZXVXVXVXVXVXzXzXgXpXm b l 7 4 ; = = O & O = = = 1 1 4 7 z x x x c v c yXyXyXyXyXtXiXyXyXyXyXyXb yXb b b x x x x r z r r r 7 7 7 6 6 6 ",
"6 r 6 6 4 6 6 r 6 r 6 r r r r r z z z z z z z z z z r z r z 6 7 6 4 4 ; 1 ; ; = = & & = = ; ; 4 l x b m pXgXzXzXcXVXZXZXZXZXSXSXSXAXAXAXAXBXBXeXBXeXeXeX0X0X0X9X9X9X@X@X+X+X+XR.R.R.R.Y.Y.Y.Y.Y.j.Y.A.A.A.j.j.h.h.h.h.h.h.h.d.h.d.h.j.h.j.j.A.A.F.F.F.Y.A.Y.Y.A.A.F.F.h.h.h.4.4.>.>.>.-.W J W J D D A A A V V V V V V V B V B B B C B B C B C B C B C C B B C B B B B V V V V V V A A A A J J J -.-.>.>.>.4.4.h.h.F.Y.Y.R.R.+X+X+X9X@X9X9X9XeX9XeX9XeX0XeXeX0XeXeX0XeX0XeX0X0X0X9XeX9X9X9X+X@X+XR.R.R.Y.F.j.j.h.4.<.<.>.>.-.-.-.-.-.;.>.>.>.4.4.4.h.F.F.Y.R.R.+X+X@X@X9X9X9XeX9XeXeXeXeXeXeXBXeXeXBXeXeXeXBXeXeXeXeXeXeX9X9X9X9X9X@X@X@X+XOXR.T.T.Y.A.h.h.d.4.4.<.>.>.;.-.-.W J W J J J D D D V D V A V V V V V A A A D A D D J J J J J J W W W -.-.-.>.>.>.>.4.4.4.d.h.h.F.Y.Y.R.R.OX+X@X@X9X9X9X9X9X9X9X9X9X9X9X@X9X+X+X+X+X+X9X+X+X@X+X@X@X9X@X9X9X9X9X9X9X9XeX9X9XeX9XeXeXeXeXeXeXeXBXBXBXBXBXAXAXAXAXSXSXSXSXSXZXZXZXVXVXVXVXzXzXzXgXm m x l 7 ; ; = = O = & = ; 1 4 4 r z z x c c yXyXyXyXyXyXiXpXpXyXpXiXpXyXiXyXyXb yXb b b b u x x u z z r r 6 6 6 r r ",
"r 6 6 6 6 r 6 6 6 r r r r z r r z z r z z u z z z r z r z 7 r 7 6 4 4 1 ; < ; = = * - ; ; ; 4 7 l x b m pXjXjXcXcXVXVXZXZXSXSXSXAXAXAXAXBXBXBXBXeXeXeXeX0X0X9X9X9X@X@X+X+X+XOXR.R.T.Y.Y.Y.F.F.A.Y.A.j.j.h.h.h.h.h.4.h.4.h.4.h.4.h.d.d.j.d.j.j.A.h.F.F.A.Y.Y.j.Y.Y.F.h.A.j.d.4.4.4.>.;.-.-.W J D D A A A V V V V V B V B B B B C B B B C B C C C C C C B C C C B B B B V V V V V V A A D J J J W -.;.>.>.4.4.h.h.j.F.Y.Y.R.R.+X@X@X@X9X9XeX9X9XeX9XeX0XeXeXeXeXeXeXeXeXeXeX0XeX0XeX9X9X9X9X9X@X+X+X+XR.Y.Y.F.j.h.4.4.<.<.>.>.>.;.>.>.>.>.>.<.4.4.h.j.F.Y.R.R.+X+X@X@X9X9XeX9X9XeXeXeXeXeXeXeXeXeXBXeXBXeXBXeXeXeXeXeXeXeXeXeX9XeX9X9X9X@X@X@XOXOXT.Y.Y.F.A.h.h.4.4.4.>.>.>.-.-.-.W J J J J J J J D D D D D D D D D D D D J J J J J J J W W W -.-.-.;.>.>.>.2.4.4.4.h.h.F.F.Y.Y.R.OXOX+X@X@X9X9X9X9X9X9X9X9X9X9X9X9X9X9X9X9X9X9X9X@X9X9X@X9X9X9X9X9X9X9X9X9X9XeX9X9X9XeXeXeXeXeXeXeXeXBXBXBXBXBXBXAXAXAXSXSXSXSXSXZXZXZXZXVXVXVXVXzXjXzXpXm m l l 4 ; ; = & & = = ; ; 1 4 4 z x x c c yXyXyXpXyXyXpXsXpXsXpXsXaXiXiXsXiXiXyXyXyXyXg yXg b c x x x z r r r r r 6 6 ",
"6 6 r r 6 6 r r r r r 9 l r z z r z z u r x u z u z z r r r 6 7 6 6 4 < 4 ; ; - = ; - ; ; 1 4 7 l x m m gXgXjXzXcXVXVXZXZXZXSXSXSXAXAXAXBXBXBXeXeXeXeX9X0X0X9X9X@X9X+X+X+XR.R.R.R.Y.Y.Y.F.F.F.j.j.j.j.h.h.h.4.h.4.h.4.4.4.h.4.h.4.h.d.d.j.h.j.A.A.F.F.F.A.Y.Y.A.A.F.F.h.h.h.4.4.<.>.>.-.-.J J J D A A A V V V V V V B V B B B B C B C C C C C C C C C C B C B B B B V V V V V V V A A A D J J -.-.;.>.4.4.4.h.A.F.Y.Y.R.R.+X+X@X9X9X9X9X9XeX9XeXeXeXeXeXeXeXeXeXeXeXeXeXeXeXeX0X0X0XeX9X9X9X9X+X@X+XR.R.Y.Y.A.j.h.4.4.<.>.<.>.>.>.>.>.<.4.4.4.h.h.F.Y.T.R.OX+X@X9X9X9XeX9XeXeXeXeXeXeXBXBXBXBXBXBXBXBXBXBXBXBXBXeXeXeXeXeXeXeX9XeX9X9X9X@X@X@XOXOXR.T.Y.F.F.h.h.d.4.4.2.>.>.>.-.-.-.W W J J J J J J J J J D D J J J J J J J J J W W W W -.-.-.;.>.>.>.<.4.4.4.h.h.h.F.F.Y.T.R.OX+X+X9X9X9X9X9X9X9XeX9XeX9X0X9XeX9X9X9X9X9X9X9X9X9X9X9X9X9X9X9X9X9XeX9XeX9XeX9XeXeXeXeXeXeXeXeXBXBXBXBXBXBXBXAXAXAXAXSXSXSXSXSXZXZXZXZXVXVXVXzXzXzXjXpXm b z l 1 ; ; & & = = ; ; 1 4 7 r c z b yXyXyXyXpXyXsXsXsXpXsXsXsXsXsXsXsXaXpXiXiXiXiXtXyXyXb yXu v c c u u z r z r r r 6 ",
"r r r 6 r r r 9 l 9 y z l q z r u r u y x r z y x x y z r r r r 3 6 4 4 ; 4 ; ; ; ; ; ; ; 4 4 7 l b b pXpXgXzXcXcXVXZXZXZXSXSXSXAXAXAXBXBXBXeXeXeX0XeXeX0X0X@X9X@X+X+X+XOXR.R.T.Y.Y.Y.F.F.F.A.A.j.h.h.h.4.h.h.4.h.4.4.h.4.4.4.4.4.d.4.h.d.h.j.h.A.h.F.A.Y.A.Y.j.Y.F.h.A.j.d.4.4.2.>.;.;.J W J D A A A V V V V V V B V B B B B C B C C C C C C C C C C C C B C B B V V V V V V V A A D D J J J -.;.>.>.4.4.d.h.j.F.Y.Y.R.+X+X@X@X9X9X9X9XeXeX0XeXeXeXeXeXeXeXBXeXeXeXBXeXeXeXeXeXeXeX9XeX9X9X9X9X@X+X+XR.R.Y.Y.j.h.h.4.4.4.<.<.<.>.<.<.4.4.4.h.h.F.Y.T.R.OX@X+X9X9X9X9X9XeXeXeXeXeXeXBXBXBXBXBXBXBXBXBXBXBXBXBXBXBXBXBXeXeXeXeXeXeX9X0X9X9X@X@X@X+XOXR.T.Y.F.F.h.j.d.4.4.4.>.>.>.;.-.-.-.W W W W J J J J J J J J J J J W J W W W W -.-.-.-.;.>.>.>.>.4.4.4.d.h.h.h.F.Y.Y.T.R.OX+X@X9X9X9X9XeX9X0XeX0XeX0XeX0XeX9XeX9XeX9XeX9X9XeX9X9X9XeX9X9X9XeX9X9X9X9XeX9XeXeXeXeXeXeXeXeXBXBXBXBXBXBXAXAXAXAXSXSXSXSXSXZXZXZXZXVXVXVXVXVXzXzXjXpXm b z 4 1 ; ; ; O & = ; ; 4 4 r z c c yXtXyXyXpXyXsXsXsXsXpXhXsXsXsXhXsXsXhXsXaXsXaXiXiXtXtXyXk g yXb b x c x u z r z r r r ",
"9 r r r l 9 l l 9 z 9 z y z r u r u r u y x z y r r r y r r r 6 r 3 6 < 4 ; < ; ; ; ; 1 1 1 7 l x b m pXpXjXjXzXcXVXVXZXZXSXSXSXAXAXAXBXBXBXBXeXeXeX0X0X9X9X9X@X9X+X+X+XR.R.R.Y.Y.F.F.F.F.j.j.h.h.h.h.4.h.4.4.4.4.4.4.4.4.4.4.4.4.4.h.d.d.h.j.j.A.A.F.F.j.Y.A.Y.j.A.F.h.h.d.d.4.>.>.;.-.W J J J A A A A V V V V V V B B B B B B C C C C C C C C C C C C B C B B B B V V V V V V A A A D J J W -.;.>.<.4.4.h.A.F.Y.Y.R.R.+X@X@X9X9X9X9XeX9XeXeXeXeXeXBXeXBXeXBXBXBXBXeXBXeXeXeXeXeXeXeX0XeX9X9X9X9X@X+X+XR.R.Y.Y.j.j.h.4.4.4.4.<.4.4.4.4.4.h.h.F.F.Y.R.OX+X@X9X@XeX9XeXeXeXeXeXBXBXBXBXBXBXBXAXBXAXBXAXBXAXBXBXBXBXBXBXBXBXeXeXeXeXeX9XeX9X9X9X@X@X+XOXOXT.T.Y.F.h.h.h.4.4.4.<.>.>.>.>.-.-.-.-.W W W W W W W W W W W W W W -.-.-.-.-.;.>.>.>.>.4.4.4.4.4.h.h.h.F.F.Y.Y.R.OXOX@X@X@X9X9X9XeX9XeX0XeXeXeXeXeXeXeXeX0XeX9XeX9XeX9X9XeX9XeX9XeX9XeX9XeXeXeXeXeXeXeXeXeXeXeXBXBXBXBXBXBXBXAXAXAXAXSXSXSXSXSXSXZXZXZXZXVXVXVXVXzXzXzXpXpXm x z 4 1 = ; & O ; ; ; ; 6 l z c b yXyXyXpXpXsXsXsXsXsXsXsXhXsXhXsXhXsXhXsXsXsXaXaXaXaXiXtXiXtXyXyXg v b g x x u x z r r r r ",
"r r r l r r l 9 z 9 z r y z r y y y y y x y y y x y y r r r r r 3 6 4 6 < < ; ; ; ; ; 1 1 7 7 l b b m pXgXjXzXzXcXVXVXZXSXSXSXSXAXAXAXBXBXBXeXeXeX0XeX0X0X@X9X@X+X+X+XR.R.R.Y.Y.Y.F.A.F.j.j.h.h.h.h.4.h.4.4.4.4.4.2.4.<.4.2.4.4.4.4.4.4.d.d.h.j.h.F.F.A.Y.A.Y.j.Y.F.h.F.h.h.4.2.2.>.;.-.-.J J D A A A V V V V V V B B B B C B C B C C C C C C C C C C C C B B B B V V V V V V A A A D J J -.-.;.>.>.4.4.h.h.j.Y.Y.R.R.+X+X+X9X9X9X9XeX0XeXeXeXeXeXBXeXBXBXBXBXBXBXBXBXBXBXBXeXBXeXeXeXeX9XeX9X9X9X9X+X@XR.+XY.Y.Y.j.h.h.4.4.4.4.4.4.4.4.h.h.j.Y.Y.R.OX+X@X@X9XeX9X9XeXeXBXeXBXBXBXBXBXAXBXAXAXAXAXAXAXAXAXAXAXBXAXBXBXBXBXBXBXeXeXeXeXeX9XeX9X9X@X@X+XOXOXT.T.Y.F.F.h.h.h.4.4.4.4.>.>.>.;.>.-.-.-.-.-.W -.-.-.-.-.W -.-.-.-.-.;.>.>.>.>.<.>.4.4.4.4.h.h.h.h.F.Y.Y.T.R.OXOX+X@X9X9X9X9XeX9XeXeXeXBXeXeXeXeXeXeXeXeXeXeXeXeX0XeXeXeX0XeXeX9XeXeXeXeXeXeXeXeXBXeXeXeXBXBXBXBXBXBXBXBXAXAXAXSXSXSXSXSXSXSXZXZXZXZXVXVXVXVXzXjXzXpXm m z l 4 ; ; ; & O = ; ; 4 7 l x b yXpXpXpXsXsXsXsXsXgXgXhXsXhXhXsXhXhXhXsXdXsXdXsXdXaXaXaXiXaXtXtXyXj yXyXc b g x x u z z z l r ",
"l 9 z r z z y l 9 z 9 z z q z r y y y y y u y y y y y y r r r 3 r 3 3 < 6 < ; < ; 1 ; 1 4 4 r z x b pXpXpXzXzXzXVXVXVXZXZXSXSXAXAXAXAXBXBXBXeXeXeXeX9X0X9X9X@X9X+X+XOXR.R.Y.Y.Y.F.F.F.j.j.j.h.4.h.4.4.4.4.4.2.4.2.4.<.4.<.4.2.4.4.4.4.4.h.d.h.j.A.h.F.F.A.Y.A.Y.j.A.A.h.j.d.4.4.<.>.;.-.J J J D D A A A V V V V V V B B B B B C C C C C C C C C C C C B C C B B B V V V V V V A A A D J J J ;.;.>.<.4.4.h.F.A.Y.Y.R.+X+X@X9X9X9X9XeX9XeXeXeXeXBXeXBXBXBXBXBXBXBXBXBXBXBXBXBXBXeXeXeXeXeXeX0XeX9X9X9X9X@X+XR.R.Y.Y.F.j.j.h.h.h.4.h.4.h.h.h.F.F.Y.T.R.+X@X9X9X9X9XeXeXeXeXeXBXBXBXBXAXAXAXAXAXAXAXAXAXAXAXAXAXAXAXAXAXBXBXBXBXBXBXBXeXeXeXeX9X9X0X9X9X@X@XOXOXT.T.Y.Y.F.h.h.h.d.4.4.4.>.<.>.>.>.>.>.-.>.-.-.-.-.-.-.>.-.>.>.>.>.>.>.>.4.<.4.4.4.4.h.d.h.F.A.F.Y.Y.R.R.OX+X@X@X@X9XeX9XeXeXeXeXeXBXeXBXBXBXBXBXBXeXBXeXeXeXeXeXeXeXeXeXeXeXeXeXeXeXeXeXeXeXBXeXBXBXBXBXBXBXBXAXAXAXAXAXAXSXSXSXSXSXSXSXZXZXZXZXVXVXVXzXVXjXjXpXm b z 7 4 ; ; & & & & ; 1 4 l l b m yXpXpXsXsXsXsXhXsXhXhXhXjXhXhXhXhXhXhXhXhXsXdXsXdXsXaXaXuXaXtXtXtXtXyXk g b g b u b x u x z r r ",
"r z r z l y z y z r z q r u t y r y y y y y g y y y y r x r r 6 r 6 1 6 1 1 < ; < - 1 1 4 6 l z b m pXpXjXjXzXcXcXVXVXZXSXSXSXSXAXAXBXBXBXBXeXeXeXeX0X9X9X9X9X+X+X+XR.T.R.Y.Y.F.A.F.j.j.h.h.4.h.4.4.4.4.4.2.4.2.2.<.4.<.4.<.4.<.4.4.4.d.4.h.d.j.h.F.j.A.Y.A.Y.A.Y.F.A.F.h.d.4.4.>.>.-.-.-.J J D A A A V V V V V V B B B B B C C C C C C C C C C C C C C C B B B V V V V V V A A A D J J J -.-.>.>.4.4.h.h.A.Y.Y.R.R.+X+X@X9X9X9XeX9XeXeXeXeXeXBXBXBXBXBXBXBXBXBXAXBXBXBXBXBXBXBXBXBXeXeXeXeX9XeX9X9X9X@X@X+X+XR.Y.Y.F.j.j.j.h.h.h.h.j.h.F.F.Y.R.R.+X@X@X9X9X9XeXeXeXeXBXBXBXBXBXAXAXAXAXAXSXAXSXSXSXSXSXSXSXSXAXAXAXAXAXAXBXBXBXBXBXeXeXeXeXeX9X9X9X9X@X@X@XOXR.T.Y.Y.F.F.h.h.d.d.4.4.4.4.4.<.>.>.>.>.>.>.>.>.>.>.>.>.>.>.<.>.<.<.4.4.4.4.d.d.h.h.F.j.F.Y.Y.T.R.OXOX+X@X@X9XeX9X9XeXeXeXeXBXBXBXBXBXBXBXBXBXBXBXBXBXBXBXeXBXeXeXeXeXeXeXeXBXeXeXBXeXBXBXBXBXBXBXBXBXAXBXAXAXAXAXSXSXSXSXSXSXSXSXZXZXZXVXVXVXVXzXVXzXzXgXpXb b l 7 4 ; = & O & & ; 1 4 l x m m pXpXpXgXjXgXjXjXhXhXhXhXhXhXhXhXdXlXdXhXhXhXhXhXhXdXaXdXaXaXuXaXtXiXtXk b yXg b g b u x x z z z l ",
"l l l z z y z y y z q z r r u r y y y y y y y y y y y y r q r 8 6 r 2 1 1 < < ; ; 1 ; 1 4 4 r z b m pXgXjXjXzXzXVXcXVXZXZXSXSXAXAXAXAXBXBXeXeXeXeX0X0X9X9X@X@X@X+XR.R.R.Y.Y.F.F.F.A.h.j.h.4.h.4.h.2.4.2.4.<.2.2.2.2.<.4.<.4.<.4.2.4.4.4.d.d.h.h.j.F.F.F.A.Y.A.Y.A.A.A.h.j.d.4.4.4.;.>.-.J J J D D A A A V V V V V V B B B C B C C C C C C C C C C C C C B B B B V V V V V V A A A D J J -.-.;.>.<.4.4.h.h.F.Y.T.R.+X+X@X9X9X9X9XeXeXeXeXeXBXBXBXBXBXBXAXAXAXAXAXAXAXAXAXBXAXBXBXBXBXBXeXeXeXeX0XeX9X9X9X+X+X+XR.R.Y.Y.Y.j.j.j.j.j.F.j.F.F.Y.Y.R.+X+X@X9X9X9XeXeXeXeXBXBXBXBXAXAXAXAXAXSXSXSXSXSXSXSXSXSXSXSXSXSXSXSXAXAXAXAXBXBXBXBXBXeXeXeXeXeX9X0X9X9X@X@X@XOXOXR.T.Y.Y.F.F.h.h.h.d.4.4.4.4.4.<.4.>.<.<.>.>.<.<.<.<.<.4.<.4.4.4.4.4.h.h.h.h.F.h.F.Y.Y.Y.R.R.OX+X+X@X9X9X9X9XeXeXeXeXBXBXBXBXBXAXAXAXAXAXAXBXBXBXBXBXBXBXBXBXBXBXBXBXBXeXBXBXBXBXBXBXBXBXBXBXAXBXAXAXAXAXAXSXSXSXSXSXSXSXSXZXZXZXZXZXVXVXVXVXzXzXzXpXpXm b l 4 4 ; O & O & & ; ; 7 l x m yXgXgXjXjXgXjXjXjXjXjXhXlXhXlXhXhXhXlXdXlXdXdXhXdXdXhXdXdXaXaXaXaXQ.iXQ.iXyXk v yXg c v b x u x z r l ",
"r l l r z z y z z q z r q u r y y y y y y y y d y y y y q z 3 r 8 6 4 2 6 1 ; < ; < < 4 4 r z z b m pXgXjXzXzXVXcXVXZXZXSXSXSXAXAXAXBXBXeXBXeXeXeX0X0X9X9X@X@X+XR.R.R.R.Y.Y.F.F.A.j.j.h.4.h.4.4.2.4.4.<.2.2.<.2.2.<.<.<.<.<.2.2.4.2.4.4.4.d.d.j.j.h.F.A.A.Y.A.Y.A.A.A.F.j.h.4.4.>.>.;.-.-.J D D A A A V V V V V V B B B B B C B C C C C C C C C C C C C B B B V V V V V V A A A D J J J -.;.>.>.4.4.d.h.F.Y.Y.R.R.+X@X9X9X9X9XeX0XeXeXeXBXBXBXBXBXBXAXAXAXAXAXAXAXAXAXAXAXAXAXBXBXBXBXBXBXeXeXeX0XeX9X9X9X9X+X+XR.R.Y.Y.Y.F.F.j.A.A.A.Y.Y.R.R.OX@X@X9X9X9XeXeXeXeXBXBXBXBXAXAXAXAXSXSXSXSXSXSXSXSXSXSXSXSXSXSXSXSXSXSXSXAXAXAXAXBXBXBXBXBXeXeXeXeX0X0X0X9X@X@X@X@XOXR.R.Y.Y.F.F.F.h.h.j.4.h.4.4.4.4.4.4.4.4.4.4.4.4.4.4.4.4.4.h.4.h.h.h.h.h.F.A.Y.Y.Y.T.R.R.+X+X+X@X9X9X9X9XeXeXeXeXBXBXBXBXAXAXAXAXAXAXAXAXAXAXAXAXAXBXBXBXBXBXBXBXBXBXBXBXBXBXBXBXBXAXBXAXAXAXAXAXAXAXSXSXSXSXSXSXSXSXSXZXZXZXVXVXVXVXVXcXzXzXzXpXm m z l 4 ; ; O O O & & ; 4 7 z b m pXgXjXjXjXzXjXjXxXjXxXdXlXhXlXhXhX XlXhXlXdXhXhXvXdXhXdXdXdXaXaX^.iXaXtXtXQ.yXj yXg b v b x x x z z l l ",
"r l r z z z z y z y z q z q u r t y y y y y y y y y y y q z 8 6 3 r 2 3 2 < < ; < 1 1 < 4 4 r c c pXpXgXjXzXVXzXVXVXVXZXZXSXSXAXAXAXBXBXBXeXeXeXeX9X0X9X@X9X@X+X+XR.T.Y.Y.F.F.A.A.h.h.d.d.4.4.4.4.<.2.4.<.2.<.>.<.<.<.<.<.<.2.2.2.4.2.4.d.d.h.h.A.A.F.A.Y.A.Y.Y.A.Y.A.h.j.h.d.4.4.>.;.-.J -.J D A A A A V V V V V B B B B C B C C B C C C C C C C B C B B B B V V V V V V A A A D J J W -.;.>.2.4.4.h.F.F.Y.R.R.+X+X@X9X9X9XeX0XeXeXeXBXBXBXBXBXAXAXAXAXAXAXAXAXAXAXAXAXAXAXAXAXAXBXBXBXBXBXeXeXeX0X0XeX9X9X+X+X+XR.Y.R.Y.Y.Y.Y.Y.Y.Y.Y.R.R.OX+X@X9X9X9XeXeXeXeXBXBXBXBXAXAXAXSXSXSXSXSXSXSXSXSXSXSXSXSXSXSXSXSXSXSXSXSXSXSXAXAXAXAXBXBXBXBXeXeXeXeX0X9X0X9X9X@X@XOXOXOXR.T.Y.Y.F.F.A.h.A.h.h.h.h.4.4.4.4.4.4.4.4.4.h.4.h.h.h.h.h.F.h.F.F.F.Y.Y.Y.R.R.R.+X+X+X@X9X9X9X9XeXeXeXeXeXBXBXBXAXAXAXAXAXAXAXSXAXAXAXAXAXAXAXAXAXAXAXAXAXBXAXBXAXAXAXAXAXAXAXAXAXAXAXAXAXSXSXSXSXSXSXSXSXSXSXZXZXZXZXVXVXVXVXVXzXcXzXgXpXm b z l 4 ; O O O O O ; ; 4 l z m m pXjXjXzXzXcXxXxXjXcXjXxXjXhXlXhXlX XhXlX XhXhX XhXdXdX XdXdXaX{.aXaX'.tXaXtXtXk yXj yXg b g b x x x z r r ",
"l r z z z z z z z z q z q r r u y y y y y y t y y y y q z 8 r 8 r 8 3 3 3 1 1 : - 1 < 4 4 r z z b pXpXgXzXzXzXVXVXVXZXZXSXSXSXAXAXAXBXBXBXeXeX0XeXeX9X9X9X@X+X+XR.R.R.Y.Y.F.F.A.j.h.d.h.4.4.4.4.2.4.2.<.<.>.<.<.<.>.<.<.<.<.<.<.4.<.4.4.4.d.d.j.h.A.A.Y.A.Y.Y.A.Y.A.A.F.j.h.d.4.>.>.;.-.-.J J D A A A V V V V V V V B B B B C B C C C C C C C C C C B B B B V V V V V V A A A D J J J -.;.>.>.4.4.h.h.F.Y.Y.R.OX@X+X9X9XeX0X0XeXeXeXBXBXBXBXAXAXAXAXAXAXAXAXAXAXAXAXAXAXAXAXAXAXAXAXAXBXBXBXBXeXeXeXeX9X9X9X9X9X+X+XOXR.Y.R.Y.Y.Y.Y.R.R.R.OX+X@X@X9X9XeXeXeXeXBXBXBXBXAXAXSXSXSXSXSXSXSXSXSXSXZXSXZXSXZXSXZXSXSXSXSXSXSXSXSXSXSXAXAXAXBXBXBXBXBXeXeXeXeX0X0X9X9X@X@X@X+XOXOXT.T.Y.Y.Y.F.F.h.F.h.h.h.h.h.h.h.h.h.h.h.h.h.j.h.j.j.j.j.F.F.Y.Y.Y.R.R.R.OX+X+X+X@X9X9X9X9X9XeXeXeXeXBXBXAXAXAXAXAXSXSXSXSXSXSXSXSXSXSXAXAXAXAXAXAXAXAXAXAXAXAXAXAXAXAXAXAXAXAXAXSXSXSXSXSXSXSXSXSXSXSXZXZXZXZXVXVXVXVXVXcXzXcXgXgXpXm b z 7 ; ; = O . O O ; ; 4 l x m m gXjXjXzXcXcXcXcXcXcXzXvXjXxXxX XlX XlXhX XhX X XhX XdX XdXdXdXdXdXaXuXaXaXQ.iXQ.yXj yXg b v b x c c z z l l ",
"6 l l l z z z z d z z q z q u q y r t y y y y y y y y y q z 8 6 8 3 3 3 2 < < < ; 1 < 4 4 6 r c c pXpXgXzXzXVXzXVXVXZXZXZXSXSXAXAXAXAXBXBXeXeXeX9X0X9X9X@X@X+XOXOXR.Y.Y.F.F.A.h.j.h.h.4.4.4.4.<.2.<.<.<.<.<.>.>.>.>.>.>.<.<.<.<.2.4.2.4.4.4.h.j.A.h.Y.A.Y.A.Y.Y.A.Y.A.A.h.h.d.4.4.>.;.;.-.J J J D A A A V V V V V V B B B B C C C C C C C C C C B C B B B V V V V V V V A A A D J J W -.;.<.<.4.d.h.A.F.Y.R.R.+X+X9X9X9X9XeXeXeXeXBXBXBXBXAXAXAXAXAXAXSXSXSXSXSXSXSXSXSXSXAXAXAXAXAXAXAXBXBXBXBXeXeXeXeXeX9X9X9X@X+X+XR.OXY.R.R.R.R.R.R.+X+X+X9X9X9XeXeXeXeXBXBXBXAXAXAXSXSXSXSXSXSXSXSXZXZXZXZXZXZXZXZXZXZXZXZXSXSXSXSXSXSXSXSXSXSXAXAXAXBXBXBXBXeXeXeXeX9X9X0X9X9X@X@X@XOXOXOXR.T.Y.Y.Y.F.F.F.j.j.j.j.h.j.h.F.h.j.j.F.j.F.F.F.Y.Y.Y.Y.Y.R.R.R.R.+X+X@X@X9X9X9X9XeXeXeXeXeXBXBXBXBXAXAXAXSXSXSXSXSXSXSXSXSXSXSXSXSXSXSXSXAXAXAXAXAXAXAXAXAXAXAXAXSXSXSXSXSXSXSXSXSXSXSXSXSXZXZXZXZXZXZXVXVXVXVXcXcXzXzXgXgXpXm x l 4 1 ; O O . O O ; ; 4 l x m pXjXgXzXcXnXcXnXnXnXcXxXvXcXvXjX XlX XhX X XhX XdXdX XdX XdXdXdXdXdXuX{.aX'.tXiXQ.iXk yXg yXg v b u x x x z l 6 ",
"l r l z z z z z z z q z q r r y y q y y t y y y s y y q z 8 r 8 3 r 3 2 3 < 1 ; < < < < 3 r z z m m gXgXzXzXzXVXVXZXZXZXSXSXSXAXAXAXBXBXeXeXeXeXeX0X9X9X@X@X+X+XR.T.Y.Y.F.A.A.j.j.h.4.4.4.4.<.4.2.<.<.<.>.>.>.:.>.>.>.<.>.<.<.<.2.4.2.4.4.d.h.h.h.F.A.Y.A.Y.Y.Y.Y.Y.A.F.A.j.d.4.4.>.>.-.-.J J D A A A V V V V V V V B B B B B C B C C C C C B C C B B B V V V V V V V A A A D J J J -.;.>.>.4.4.d.h.F.Y.T.R.+X+X9X9X9X9XeX0XeXeXBXBXBXBXAXAXAXAXAXSXSXSXSXSXSXSXSXSXSXSXSXSXSXSXAXAXAXAXAXBXBXBXBXeXeXeX9XeX9X9X9X@X+X+XOX+XR.R.R.R.R.+X@X+X9X@XeX9XeXeXeXBXBXBXAXAXSXSXSXSXSXSXSXSXZXZXZXZXZXZXZXZXZXZXZXZXZXZXZXZXZXZXSXSXSXSXSXSXSXAXAXAXBXBXBXBXeXeXeXeXeX9X0X9X9X@X@X@X@XOXOXR.R.T.Y.Y.Y.Y.Y.Y.F.F.F.F.F.j.Y.A.Y.A.Y.Y.Y.Y.Y.Y.Y.R.R.R.R.+X+X+X@X@X9X9X9X9X9XeXeXeXeXBXBXBXAXAXAXSXSXSXSXSXSXSXSXSXSXSXSXSXSXSXSXSXSXSXSXSXSXSXSXSXSXSXSXSXSXSXSXSXSXSXSXSXSXSXSXZXZXZXZXZXZXZXVXVXVXVXVXcXzXzXzXgXpXm b l l 4 ; ; O O . O O ; ; 4 l x pXpXpXzXcXcXnXcXnXnXnXnXcXbXcXxXxX XlX XlX X XhX XdX X XdX XdXdX XdX XuX{.aX^.tXiX'.iXk yXk yXg yXb g b c x z l r l ",
"6 l r l l z z z z y z r d q r y y y q y y y t y y q y q q r 8 8 r 2 2 4 2 < : < - 1 < 4 4 6 r c c yXsXgXzXzXVXVXVXVXZXZXZXSXSXAXAXAXBXBXBXeXeXeX9X0X9X9X@X@X+XR.R.R.Y.Y.F.A.A.h.h.4.d.4.4.4.<.<.<.<.<.>.>.>.>.>.>.:.>.>.<.<.<.<.2.<.4.4.4.d.h.j.F.A.F.F.Y.Y.Y.Y.Y.Y.Y.A.j.h.d.4.4.>.>.;.-.W J J D A A A V V V V V V V B B B B B C C B C B C C B B B B V V V V V V V V A A A D J J W -.;.>.2.4.d.j.A.Y.Y.R.OX+X9X@X9X9XeXeXeXeXBXBXBXBXAXAXAXAXSXSXSXSXSXSXSXSXSXSXSXSXSXSXSXSXSXSXSXAXAXAXAXAXBXBXBXBXeXeX9X0X9X9X9X+X+X+X+X+X+X+X+X+X@X+X9X@XeX9XeXeXeXBXBXBXAXAXAXSXSXSXSXSXSXZXZXZXZXZXZXZXVXVXVXVXVXVXVXVXZXZXZXZXZXZXSXSXSXSXSXSXSXSXAXAXAXBXBXBXBXeXeXeXeX9X9X0X9X9X@X@X@X+XOXOXOXR.R.T.T.Y.Y.Y.Y.Y.Y.Y.Y.Y.Y.Y.Y.Y.Y.Y.R.R.R.R.R.+X+X+X@X9X+X9X@X9XeX9XeXeXeXeXBXBXBXBXBXAXAXSXSXSXSXSXSXSXZXZXZXSXZXSXSXSXSXSXSXSXSXSXSXSXSXSXSXSXSXSXSXSXSXSXSXSXSXSXSXZXZXZXZXZXZXZXVXVXVXVXVXVXcXcXzXzXgXgXpXm b l l 1 ; = O O . O O ; ; 7 l b m pXjXzXzXcXVXnXVXVXnXnXbXbXnXvXxXvXxX XlX XlX X X X XdX X X XdX XdXdX{.dXaX{.aX'.iXiXQ.tXk yXk b g b b x x z z l l 6 ",
"7 7 l l z z z z z z z q r r q y y t y y y t y t y d y q z 8 8 r 2 8 4 2 2 3 - < < < 1 < 3 6 r z m yXsXgXzXzXVXVXVXZXZXZXSXSXSXAXAXBXBXBXeXeXeX0XeX9X9X9X@X+XOXOXR.T.Y.F.F.A.j.j.d.h.4.4.4.<.4.<.>.<.>.>.:.>.>.>.;.>.>.>.>.>.>.2.>.4.4.4.d.d.h.j.h.F.F.Y.Y.Y.T.Y.Y.Y.A.F.A.A.h.4.4.2.>.;.-.J J J D A A A V V V V V V V V B B B B B B C B C B B B B B V V V V V V V V A A A D J J J -.;.>.>.4.4.h.h.F.Y.T.R.+X@X@X9XeX9X0XeXeXBXBXBXAXAXAXAXAXSXSXSXSXSXSXSXSXSXSXSXSXSXSXSXSXSXSXSXSXSXSXAXAXAXAXBXBXBXeXeXeXeX9X9X9X9X9X+X+X+X+X+X+X@X+X9X9XeX9XeXeXeXBXBXBXAXAXSXSXSXSXSXSXZXZXZXZXZXVXVXVXVXVXVXVXVXVXVXVXVXVXVXVXVXZXZXZXZXZXSXSXSXSXSXSXAXAXAXBXBXBXBXeXeXeXeXeX9X0X9X9X9X@X@X@X@XOX+XOXR.R.R.R.R.R.R.Y.R.R.Y.R.Y.R.R.R.R.R.R.+X+X+X+X+X+X@X@X9X9XeX9X9XeXeXeXeXeXBXBXBXAXAXAXSXSXSXSXZXZXZXZXZXZXZXZXZXZXZXZXZXZXSXSXSXSXSXSXSXSXSXSXSXSXSXSXSXSXSXZXZXZXZXZXZXZXZXZXVXVXVXVXVXVXcXcXcXzXzXgXpXm b x l 7 ; ; = O . O O O ; 4 7 l b pXpXzXzXzXcXVXnXVXZXnXZXmXnXnXbXvXvXvX XvX X X X X|. XdX XdX|.dX|.dX{.{.dX^.{.aX^.aXQ.uXiXk yXk b v yXb x b z b z l l 6 ",
"6 l l l z z z z z z y z q r y y y r t y y y q y y y y q q 8 r 8 r 2 2 4 2 < < - : < < 4 3 6 r u b yXsXgXzXzXzXVXVXVXZXZXSXSXSXAXAXAXBXBXBXeXeXeX9X0X9X9X@X@X+XR.R.Y.Y.F.j.F.h.h.h.4.4.2.4.2.<.<.<.>.>.:.>.:.:.;.>.:.>.:.>.<.<.<.2.<.4.4.4.h.j.h.A.F.F.Y.Y.T.Y.T.Y.Y.Y.A.F.h.h.d.4.>.>.>.-.W J J J A A A A V V V V V V V B B B B B B B B B B B B B V V V V V V V V A A A D D J J -.-.>.>.4.4.d.j.A.Y.T.R.OX+X@X9X9X9XeXeXeXeXBXBXBXAXAXAXAXSXSXSXSXSXSXSXSXSXSXSXSXSXSXSXSXSXSXSXSXSXSXSXSXAXAXAXAXBXBXBXBXeXeX0XeX9X9X9X9X+X9X+X9X@X9X9X9X9X9XeXeXeXBXBXBXAXAXAXSXSXSXSXSXZXZXZXZXZXVXVXVXVXVXVXVXVXVXVXVXVXVXVXVXVXVXVXVXZXZXZXZXSXSXSXSXSXSXAXAXAXAXBXBXBXeXeXeXeXeX9X9X9X9X9X9X@X@X@X+X+X+XOXOXR.R.R.R.R.R.R.R.R.R.R.OXOX+X+X+X+X+X+X9X9X9X9X9X9XeX9XeXeXeXeXeXBXBXBXBXAXAXSXSXSXSXSXZXZXZXZXZXZXZXZXZXZXZXZXZXZXZXZXZXZXZXSXZXZXSXZXZXZXZXZXZXZXZXZXZXZXZXZXZXZXZXVXVXVXVXVXVXcXcXcXjXjXgXgXpXm b x l 4 ; ; O O O . . O ; ; 7 l b pXpXzXzXzXVXVXVXZXVXVXZXnXZXbXbXbXbXvXvXvX|. X X X XdX X X}. X{. XdX|.dX{.dXdX^.^.aX^.aXQ.iXQ.k b k b g b b x x z x l 7 7 ",
"7 7 r l l z z z r z z q u r r y y t y y t y y q y y q q 8 r 8 8 8 2 2 2 2 < < : < < < < 3 6 r u c yXpXgXzXzXVXVXVXZXZXZXSXSXSXAXAXAXBXBXeXeXeX0XeX9X9X@X@X+XOXOXT.Y.Y.F.Y.h.j.h.4.4.4.4.2.<.<.<.>.<.:.>.>.;.:.>.:.:.:.>.>.>.<.<.<.4.4.4.d.d.h.h.F.A.Y.Y.T.T.T.T.T.Y.Y.Y.F.A.j.d.4.4.>.;.-.-.W J D D A A A V V V V V V V V B B B B B B B B B B B V V V V V V V V V A A A D J J J -.;.>.>.4.4.h.h.Y.T.T.OX+X@X9X9XeX9XeXeXeXBXBXAXAXAXAXSXSXSXSXSXSXSXSXSXSXZXSXZXZXZXZXSXZXSXSXSXSXSXSXSXSXSXAXAXAXAXBXBXBXeXeXeX9XeX9X9X9X9X9X9X9X9X9X9X9X9XeXeXeXBXBXBXAXAXSXSXSXSXSXZXZXZXZXVXVXVXVXVXVXVXVXVXVXVXcXVXcXVXVXVXVXVXVXVXVXVXVXZXZXZXSXSXSXSXSXSXSXAXAXAXBXBXBXBXeXeXeXeXeXeX9X9X9X@X9X9X@X@X@X@X+X+X+X+X+X+X+XR.+X+X+X+X+X+X@X+X+X@X@X9X9X9X9X9X9XeX9XeXeXeXeXeXBXBXBXAXAXAXSXSXSXSXZXZXZXZXZXZXVXVXVXVXVXVXVXVXZXZXZXZXZXZXZXZXZXZXZXZXZXZXZXZXZXZXZXZXZXZXZXZXZXVXVXVXVXVXVXVXcXcXcXjXjXgXpXm b b l 4 1 ; = O O . O . ; ; ; 7 l m pXpXzXcXzXVXVXZXZXZXZXZXZXZXmXbXbXbXvXvXvX|.vX X X X X X|.|.dX|.dX{. X{.|.dX'.dX{.aX^.aXQ.uXiXk yXk b k b b b z c x l l r 6 ",
"6 7 7 l r x l z z z y r r t r y y r y t y t y q q r q r 8 8 r 8 3 8 2 2 2 < < - : 1 < < 4 6 r z g yXsXgXjXzXcXVXVXZXZXZXSXSXSXSXAXAXBXBXBXeXeXeX9X0X9X9X@X+XOXR.R.Y.Y.A.h.F.h.d.d.4.4.4.2.<.<.>.<.:.>.:.:.>.;.;.>.:.:.>.>.>.<.<.2.2.4.4.4.h.j.A.F.A.Y.Y.T.T.T.R.T.T.T.Y.F.A.h.h.4.4.>.>.;.W J J J D A A A V V V V V V V V V B B B B B B B B V V V V V V V V V V A A A D J J W -.;.>.>.4.4.d.A.A.Y.T.OXOX@X@X9XeX9XeXeXeXBXBXBXAXAXAXAXSXSXSXSXSXSXSXZXZXZXZXZXZXZXZXZXZXZXZXZXZXSXSXSXSXSXSXSXSXAXAXAXAXBXBXBXeXeX0X9XeX9X9X9X9X9X9X9XeX9XeXeXeXeXBXBXBXAXAXSXSXSXSXSXZXZXZXVXVXVXVXVXVXVXcXcXcXcXcXcXcXcXcXcXcXcXVXVXVXVXVXVXVXVXZXZXZXSXSXSXSXSXSXAXAXAXAXBXBXBXeXeXeXeXeXeX9XeX9X9X9X9X@X@X@X@X@X@X+X@X@X+X@X+X@X+X@X+X9X+X9X9X9X9X9X9X9XeX9XeXeXeXeXeXBXBXBXBXBXAXBXAXSXSXSXSXZXZXZXZXVXVXVXVXVXVXVXVXVXVXVXVXVXZXZXZXZXZXZXZXZXZXZXZXZXZXZXZXZXZXZXZXVXVXVXVXVXVXVXVXcXcXcXzXjXgXgXpXpXm b x 7 4 1 ; O O O . O O = ; 4 7 x m m gXzXzXcXVXVXZXZXZXZXZXZXZXmXZXmXvXbX4XvX4XvX|. X X X X X|.|. X{.|.{.{.dX{.{.dX'.aX{.aXQ.aXtXQ.iXk yXv b v c x b z x l r 7 7 ",
"6 7 l l x l z z z z z r y r q y y y t y y y q y q q q 8 r 8 8 3 r 2 4 2 2 < : : < < < < 4 5 9 z v b sXgXzXzXVXVXVXZXZXSXSXSXSXAXAXAXBXBXeXeXeX0XeX9X9X@X@X+XOXR.R.Y.F.F.F.j.h.h.4.4.4.2.2.<.<.<.>.>.:.;.>.;.;.>.;.:.:.>.>.>.<.<.<.4.4.d.d.h.h.A.A.Y.Y.T.T.T.T.T.T.T.T.Y.F.F.A.h.4.4.4.>.;.-.-.J J D A A A A V V V V V V V V V V V V B V V V V V V V V V V V V A A A D J J J J ;.;.>.2.4.4.j.j.Y.T.T.OX@X@X9X9X9XeXeXeXBXBXBXAXAXAXSXSXSXSXSXSXSXSXZXZXZXZXZXZXZXZXZXZXZXZXZXZXZXZXZXSXSXSXSXSXSXSXAXAXAXBXBXBXeXeXeXeX9XeX9X0X9X9XeX9X9XeXeXeXeXBXBXAXAXSXSXSXSXSXZXZXZXVXVXVXVXVXVXVXcXcXcXcXcXcXzXcXzXzXcXzXcXcXcXcXcXcXVXVXVXVXVXZXZXZXSXSXSXSXSXSXAXAXAXAXBXBXBXBXeXeXeXeXeX9XeX9X9X9X9X9X9X9X9X@X9X@X@X9X+X9X@X9X@X9X9X9X9X9X9X9X9XeX9X9XeXeXeXeXeXeXBXBXBXBXAXAXSXSXSXSXSXZXZXZXVXVXVXVXVXVXVXzXVXVXzXVXVXVXVXVXVXVXVXVXVXVXZXVXZXZXZXZXZXVXZXVXVXVXVXVXVXVXVXVXcXcXzXcXjXgXgXgXyXm b x l 7 4 1 ; O O O O O O ; ; 4 7 x m N gXzXzXVXVXZXZXZXZXZXZXZXSXmXZXmXvXmX4XvX4XvX|.vX X X|. X}.dX|.|.|.|.dX{.|.'.dX{.aX{.aX^.aXuXuXiXk yXv k b b c b x c x l l 7 6 ",
"6 7 r l l x x r z z u r r r y r y y r t y y y q r q q r 8 8 8 r 2 2 2 2 3 < < - : < < 3 < 6 r u c yXyXfXjXcXzXVXVXVXZXZXSXSXSXSXAXAXBXBXeXeXeXeX9X0X9X@X@X+XOXR.Y.Y.Y.F.h.j.h.d.4.4.4.2.2.<.<.>.:.>.:.:.>.;.:.;.>.:.:.>.>.>.<.2.<.4.4.4.d.h.A.h.Y.Y.Y.T.R.T.OXT.R.T.T.T.Y.A.A.h.d.4.>.>.;.;.W W J J D D V A V V V V V V V V V V V V V V V V V V V V V V V V A A A A D J J -.-.-.>.>.4.4.j.j.Y.Y.T.OX+X@X9X9XeX9XeXeXBXBXBXBXAXAXAXSXSXSXSXSXSXZXZXZXZXZXZXZXZXZXZXZXZXZXZXZXZXZXZXZXZXZXSXSXSXSXSXSXAXAXAXAXBXBXeXeXeXeX9XeX9XeX9X0XeXeXeXeXeXBXBXBXAXAXSXSXSXSXZXZXZXZXVXVXVXVXcXcXcXcXcXzXjXjXjXjXjXjXjXjXjXjXjXcXjXcXcXcXcXVXVXVXVXVXZXZXZXSXSXSXSXSXSXAXAXAXAXBXBXBXBXeXeXeXeXeXeX9X9XeX9X9X9X9X9X9X9X9X9X9X9X9X9X9X9X9X9X9XeX9X9XeX9XeXeXeXeXeXeXBXBXBXBXAXAXAXSXSXSXSXSXZXZXZXVXVXVXVXVXzXVXzXVXzXzXVXzXVXVXVXzXVXVXVXVXVXVXVXVXVXVXVXVXVXVXVXVXVXVXVXcXcXcXcXcXzXzXzXgXgXgXpXm b b r 7 4 ; ; O O O . O O O ; ; 7 l b m pXjXzXzXVXVXVXZXZXZXZXSXZXSXmXZXmXmXmXvXmX4X4X|.4X|.:X X|.|. X}.dX|.|.{.|.dX{.dX{.dX^.{.aX^.Q.iXuXiXk k yXv b g b x x z x l r 7 6 ",
"1 7 7 l l r z z r z r u r q r y y y t y y t y r y q r q 8 r 8 8 2 8 2 3 < : < : : < < < < 5 r r u b pXsXgXzXVXVXVXZXZXZXSXSXSXAXAXBXBXBXBXeXeX9XeX9X9X@X@X@XOXR.R.Y.F.F.A.j.h.d.4.4.4.2.<.<.<.>.>.:.>.;.;.>.-.>.;.:.:.>.>.<.<.<.4.4.4.4.h.j.h.F.F.Y.T.T.T.R.R.R.R.R.T.T.Y.Y.A.A.d.4.4.>.>.;.-.J J J D V D V A V V V V V V V V V V V V V V V V V V V V V V A A V D D J J J W ;.>.>.4.4.d.j.j.Y.T.OXOX@X9X9X9X9XeXeXeXBXBXAXAXAXSXSXSXSXSXSXSXZXZXZXZXZXZXZXZXZXVXZXZXVXZXZXZXZXZXZXZXZXZXZXSXSXSXSXSXSXAXAXAXBXBXBXBXeXeXeXeXeX0XeXeXeXeXeXeXBXBXAXAXSXSXSXSXSXZXZXVXVXVXVXVXVXcXcXcXcXjXjXjXjXjXgXgXgXjXgXgXgXjXgXgXjXjXjXzXcXcXcXVXVXVXVXVXZXZXZXSXSXSXSXSXAXAXAXAXBXBXBXBXBXeXeXeXeXeXeXeX9XeX9X9XeX9X9X9X9XeX9X9X9XeX9XeX9X9XeX9XeXeXeXeXeXeXeXBXBXBXBXAXAXAXAXSXSXSXSXSXZXZXVXVXVXVXVXVXzXzXzXjXzXjXzXjXzXzXzXzXVXzXVXVXVXVXVXVXVXVXVXVXVXVXVXcXVXcXcXcXcXcXzXzXzXjXgXgXsXyXm b b z 7 7 4 ; ; O O O . O O & ; ; 7 l b m m jXzXcXVXVXZXZXZXZXSXSXSXSXSXZXNXmXbX8XbX4XvX4XvX:XvX|.|.|.|. X|.|.|.dX|.{.|.dX{.dX^.{.aX^.iXaXuXuXiXk yXb k b b b x c x l l r 7 6 ",
"6 7 7 7 l x r z z z r r y r q y y r y t y y t y q r q 8 r 8 r 2 2 2 2 2 2 < : < ; < < < 5 4 6 y x yXyXsXjXzXcXVXVXVXZXZXSXSXSXSXAXAXAXBXeXeXeXeX9X9X9X9X@XOXOXR.Y.Y.Y.j.A.h.j.4.d.4.2.2.2.>.>.<.:.:.:.>.;.;.>.;.>.:.>.>.>.>.<.2.2.4.4.d.d.h.F.F.Y.Y.T.R.R.OXOXOXOXOXR.T.T.Y.j.A.d.d.4.2.>.;.;.W W J J D V D V A V V V V V V V V V V V V V V V V V V V V A V V A D J J J -.-.;.>.<.4.d.d.j.Y.Y.R.OX+X@X9X0XeXeXeXeXBXBXBXAXAXAXSXSXSXSXSXZXZXZXZXZXZXZXZXZXZXZXZXZXVXZXZXVXZXZXZXZXZXZXZXZXZXZXSXSXSXSXSXAXAXAXAXBXBXeXeXeXeXeXeXeXeXeXeXBXBXBXBXAXAXSXSXSXSXZXZXZXVXVXVXcXcXcXcXjXjXjXjXgXgXgXgXgXpXsXpXsXpXsXpXgXgXgXgXjXjXjXzXzXcXVXcXVXVXVXZXZXZXSXSXSXSXSXSXAXAXAXAXBXBXBXBXeXeXeXeXeXeXeXeXeXeX9XeX9XeX9X9X9XeX9X9XeX9XeXeX9XeXeXeXeXeXBXBXBXBXBXBXAXAXAXSXSXSXSXSXSXZXZXZXVXVXVXzXzXzXzXzXjXjXpXjXgXjXjXjXzXzXzXzXzXcXcXcXcXcXcXcXcXcXcXcXcXcXcXcXzXzXzXjXjXjXgXsXpXpXm m c z l 7 4 ; ; = O O . . O & = ; 4 7 z b pXpXzXzXcXVXVXZXZXZXZXSXSXSXSXSXSXNXZXmXmXmX4XvX4XvX4X|.:X X X X|.}.dX X|. XdX|.dX{.dX{.dXaX{.aX'.iXaXtXQ.yXk k b v c x b x x x l 7 7 4 ",
"6 4 7 l l r z z z r z y r r r y r y t r y y y q r q 8 z 8 q 2 4 8 2 2 3 : < < : : < < < 1 2 r r u b yXsXjXcXzXVXVXZXZXZXSXSXSXSXAXAXBXBXBXeXeXeX0X0X9X@X+X@XOXR.R.Y.F.A.A.j.d.d.4.4.2.2.<.<.<.:.<.:.:.;.;.>.;.:.:.:.>.>.>.<.2.>.4.4.d.d.h.A.h.F.Y.T.R.T.OXOXOXOXOXOXR.R.T.Y.Y.A.j.d.4.2.>.>.;.W J J J D D V A A V V V V V V V V V V V V V V V V V V V A V V D D J J J W W ;.>.<.4.d.d.j.Y.Y.T.OXOX@X9X9X9X9XeXeXBXBXBXAXAXAXSXSXSXSXSXZXZXZXZXZXZXVXZXZXVXVXVXVXVXVXVXVXVXVXVXZXVXZXZXZXZXZXZXZXSXSXSXSXSXAXAXAXBXBXBXBXBXeXeXeXeXeXeXBXBXBXAXAXAXSXSXSXSXZXZXVXVXVXVXVXcXcXcXjXjXgXgXgXgXgXpXpXpXm yXm m m m m pXpXyXgXpXgXjXjXjXzXzXcXVXVXVXVXVXZXZXZXSXSXSXSXSXAXAXAXAXBXBXBXBXBXBXBXeXeXeXeXeXeXeXeXeXeX9XeXeXeX0XeXeXeXeXeXeXeXeXeXBXBXBXBXBXBXAXAXAXAXSXSXSXSXSXZXZXZXVXVXVXVXcXzXzXjXjXpXpXm pXpXpXpXpXpXgXgXzXjXjXzXzXzXzXcXzXzXcXzXzXzXzXzXzXjXjXjXjXgXsXpXpXm m b c z l 7 1 1 ; ; O O O . O O & = ; 4 l z b pXpXzXzXcXVXVXZXZXZXSXSXSXSXSXSXSXNXZXNXmXmX4X8XvX4X4X:XvX:X X X}.dX X X'.|.{.|.dX|.dX{.dXdX{.aX^.iXiXuXQ.iXk yXv v b b b x x x l l 7 7 6 ",
"6 6 7 r l l l r z z r r r y q r y y r t r y q y q q r 8 z 3 8 2 2 6 2 2 < : < - : < < < < 6 5 r g b yXsXsXjXcXVXVXVXZXZXZXSXSXSXAXAXAXBXBXeXeXeX0X9X9X9X@XOXOXR.Y.Y.F.F.h.h.h.d.4.4.4.2.<.<.>.>.:.:.>.:.:.:.:.:.:.:.>.>.<.<.2.4.4.4.4.h.j.A.F.F.Y.T.R.OXOXOXOXOX+XOXOXR.R.T.Y.j.A.d.4.2.2.>.;.-.W J J J D D V V A V V V V V V V V V V V V V V V V V V V V D D D J J W W ;.>.>.2.4.d.j.j.Y.Y.R.+X@X@X9X9XeXeXeXeXBXBXAXAXAXSXSXSXSXSXZXZXZXZXZXZXVXZXVXVXVXVXVXVXVXVXVXVXVXVXVXVXVXZXVXZXZXZXZXZXZXZXSXSXSXSXSXAXAXAXBXBXBXBXBXBXBXBXBXBXBXAXAXAXAXSXSXSXZXZXZXVXVXVXcXcXcXjXjXjXgXgXgXpXyXm yXm m m b m b m b m b m m m pXyXpXgXjXgXzXzXzXVXVXVXVXVXZXZXZXSXSXSXSXSXSXAXAXAXAXBXBXBXBXBXBXBXeXeXeXeXeXeXeXeXeXeXeXeXeXeXeXeXeXeXBXBXBXBXBXBXBXAXAXAXAXAXSXSXSXSXSXSXZXZXZXVXVXVXcXcXzXgXgXpXpXm m m b m b m m m m pXpXgXgXgXjXjXjXgXjXjXjXjXjXjXgXjXgXgXgXpXpXpXpXm b b x z l 6 1 1 ; = O O O . . O O & ; 1 4 l b m pXgXjXzXcXVXVXZXZXZXZXSXSXSXSXSXSXSXAXNXmXmXmXmX4X4XvX4X X:X|.:X X|. X X|. XdX|.dX|.dX|.dX{.aXdX{.aX'.iXiXiXQ.yXk yXg b g b x x x l l 4 7 1 ",
"4 4 7 4 l l z z z r z r r r r y y t r y r q r r q r 8 r 3 8 8 3 8 2 2 2 < < : < : < < < < 6 5 r z v yXyXjXzXzXVXVXZXZXZXSXSXSXSXAXAXBXBXeXeXeXeX0X0X9X@X@X@XOXR.R.Y.F.F.A.j.h.4.4.4.2.2.<.<.<.>.>.:.:.:.:.:.:.:.:.>.>.>.>.2.2.2.4.d.d.h.h.h.F.Y.Y.R.OXOX+XOX+X+X+X+XOXOXR.T.Y.Y.j.j.d.4.2.>.;.;.W W J J D D V D V A V V V V V V V V V V V V V V V V V V D D D J J W W ;.>.>.2.4.d.j.j.Y.Y.R.OX+X@X9X9XeXeXeXeXBXBXAXAXAXSXSXSXSXSXZXZXZXZXZXZXVXVXVXVXVXVXVXVXVXcXVXcXVXVXVXVXVXVXVXVXVXVXZXZXZXZXZXZXSXSXSXSXAXAXAXAXBXBXBXBXBXBXBXBXAXAXAXAXSXSXSXZXZXZXVXVXVXVXcXcXcXjXjXgXgXgXpXyXm m m b b b b b z b z b x x b b b b m m pXyXgXgXzXzXzXzXVXVXVXVXZXZXZXSXSXSXSXSXSXSXAXAXAXAXAXBXBXBXBXBXBXBXeXBXeXeXeXBXeXeXeXeXeXBXeXBXBXBXBXBXBXBXAXAXAXAXAXSXSXSXSXSXSXZXZXZXVXVXVXVXcXcXjXgXgXm m b b x z z z z z z b b b m m pXpXpXpXpXgXgXgXpXgXgXpXgXpXpXm pXm m b b c z l l 7 1 ; ; ; = O O O . O O O ; ; 1 7 z b m pXgXzXcXcXVXVXZXZXZXSXSXSXSXSXSXAXSXNXSXmXNXmXwXvXmX4X4X X4X4X X X X X X|.dX|.|.dX|.dX{.dX{.aX{.dXaXQ.aX^.iXQ.iXk yXg yXb b x c x x l 7 7 7 1 ",
"4 6 7 7 7 l l z r z r r r r r r y r t r q r q r r r 8 8 6 8 3 3 3 8 2 < < : < : < 1 : 1 2 3 r r r v b sXsXjXcXzXVXVXZXZXZXSXSXSXSXAXAXBXBXeXeXeX9X0X9X9X@XOX+XR.T.Y.Y.h.A.h.h.d.4.4.4.>.2.>.>.>.>.:.:.:.:.:.:.:.>.>.>.<.<.2.2.4.4.4.h.j.A.F.F.Y.T.T.OXOX+X+X+X+X+X+X+XOXR.R.T.Y.j.j.d.d.2.<.>.;.W W W J J D D V V V V A V V V V V V V V V V V V V V D D D D D J J W ;.;.>.<.4.4.d.j.Y.Y.T.R.+X@X9X9X0X0XeXeXBXBXBXAXAXAXSXSXSXSXZXZXZXZXZXVXVXVXVXVXVXVXVXVXcXVXVXVXVXcXVXVXcXVXVXVXVXVXVXVXZXZXZXZXZXZXSXSXSXSXSXAXAXAXAXAXBXBXAXAXAXAXAXAXSXSXSXSXZXZXZXVXVXVXcXcXjXjXjXgXgXpXpXm m b b b x b l z z l l r l l l z z x x b b b m yXpXgXjXjXzXzXVXVXVXVXVXZXZXZXSXSXSXSXSXSXSXAXAXAXAXBXBXBXBXBXBXBXBXBXBXBXeXBXBXBXBXBXBXBXBXBXBXBXAXAXAXAXAXAXSXSXSXSXSXSXSXZXZXZXZXVXVXVXcXzXjXgXpXm b x z l 7 7 7 4 7 7 7 l z z b b b b m m m m m m pXm m m m m b m c b x x l l 6 6 , , ; ; O O O O . . O O O ; 1 4 l z m m pXjXjXzXzXVXVXVXZXZXZXSXSXSXSXSXSXSXAXSXNXNXmXmXmXwXvX4X4X4XvX|.:X X X X X X XdXdX|.dX{.dX{.dX{.aX^.aX^.iXuXiXiXQ.yXk b g b c c x z x l 7 7 4 6 ",
"4 4 7 7 l l l r z z r r r r r q y r y q r q r r 8 8 q 3 8 3 8 6 8 3 2 < < < < : 1 : < < < 6 6 r u u yXpXsXjXzXVXVXVXZXZXSXSXSXSXAXAXBXBXBXeXeX0XeX0X9X@X@X@XOXR.T.Y.F.F.F.j.h.d.4.4.2.4.<.<.<.>.>.>.:.:.:.:.:.>.>.>.>.<.2.2.2.4.4.d.h.h.A.A.Y.Y.R.OXOX+X+X+X@X@X@X+X+X+XOXR.T.Y.A.j.h.4.4.2.>.;.;.W W J J D D D D V D V V V V V V V V V V V V V V A A D D D J W W -.;.>.>.4.4.d.j.j.Y.T.R.OX@X@X9X0X0XeXeXeXBXBXAXAXSXSXSXSXSXZXZXZXZXZXVXVXVXVXVXVXVXVXzXVXVXcXVXcXcXVXcXcXVXcXVXcXVXVXVXVXVXVXZXZXZXZXZXSXSXSXSXSXAXAXAXAXAXAXAXAXAXAXAXSXSXSXZXZXZXZXVXVXVXcXcXjXjXgXgXpXpXm b m b x x x l r r r r r 7 7 7 7 r 7 7 r r l x x b b m yXyXgXjXzXzXzXVXVXVXVXVXZXZXSXSXSXSXSXSXSXSXAXAXAXAXAXAXBXBXBXBXBXBXBXBXBXBXBXBXBXBXBXBXAXAXAXAXAXAXAXSXSXSXSXSXSXSXZXZXZXZXVXVXVXVXcXzXjXgXpXm x l l 4 4 4 ; ; ; ; ; 4 4 4 7 7 l x x x x c b c b c b c c c x x z z l 7 7 4 1 1 ; ; ; & O O O . . O . O ; ; 4 4 l b m pXpXjXzXzXzXVXVXVXZXZXSXSXSXSXSXSXSXSXAXSXAXNXmXNXmXwXbX4XvXvX4X:XvX X X XdX X XdX X XdX XdX{.aX{.aX{.aX^.aXaX^.iXQ.iXk b v b c b x x x l l 7 7 4 1 ",
"1 6 7 7 l 7 l l r r z r r r r r y q r r q r q r 8 r 3 r 8 3 3 8 3 2 < < < : < < : 3 1 < 2 3 6 r y b b iXsXjXzXcXVXVXVXZXZXSXSXSXSXAXAXBXBXBXeXeX9X0X9X9X@XOX+XR.R.Y.Y.F.h.j.d.d.4.4.4.<.2.<.>.>.>.>.:.:.:.:.:.>.>.>.<.<.2.2.4.4.d.d.h.j.A.A.Y.T.T.OXOX+X@X@X9X@X@X@X@X+X+XR.R.T.Y.j.j.d.4.2.<.>.;.W -.W J J D D D D V V V V V V V V V V V V D V D D D D D J J W -.;.:.<.2.4.d.j.j.Y.Y.R.R.+X@X9X9X0XeXeXeXBXBXAXAXAXSXSXSXSXZXZXZXZXZXVXVXVXVXVXVXVXzXVXVXcXcXcXcXcXcXcXcXcXcXcXcXVXcXVXVXVXVXVXVXVXZXZXZXZXZXSXSXSXSXAXAXAXAXAXAXAXAXSXSXSXSXSXZXZXZXVXVXcXcXcXjXjXgXgXyXyXb b b x x z r r r 7 4 4 4 4 4 1 1 1 1 1 7 4 7 4 r r x x c b m yXgXgXzXzXzXVXVXVXVXVXZXZXZXSXSXSXSXSXSXSXSXAXAXAXAXAXAXBXAXBXBXAXAXAXAXAXAXAXAXAXAXAXAXAXAXAXSXSXSXSXSXSXSXSXZXZXZXZXVXVXVXcXcXjXjXpXm b x l 4 4 ; ; & ; & = = ; ; = 1 1 1 4 4 7 l 7 7 l l l l l l l l 6 l 6 4 4 4 1 , ; = = O O O O . . O O O ; ; ; 4 l x b m pXpXjXjXzXVXVXVXVXZXZXZXZXSXSXSXSXSXSXSXAXAXNXSXNXmXmXmXwXvXwXvXvXvX|.vX|. X X XdX XdX XdXdXdX{.dXdXdXaX^.aX^.iXiXuXyXk yXk v v b c x x x l l 7 7 7 1 ",
"1 4 7 4 7 l l r r z r r r r q r r y r q r r r 8 r 3 8 8 6 6 8 3 3 2 < < < < < : 1 1 : 3 < 6 5 r u g yXyXsXgXzXzXVXVXZXZXSXSXSXSXAXAXAXBXBXeXeXeXeX0X9X9X@X@XOXOXT.Y.F.F.A.h.j.d.d.4.2.4.2.<.<.<.>.>.>.:.>.>.>.>.>.<.<.2.2.2.4.4.d.d.j.A.j.Y.T.T.OXOX+X@X@X@X@X@X9X@X@X@X+XOXR.T.Y.Y.j.h.4.4.2.>.>.;.W W J J D D D D D V D V V D V V D V A A A A D D D J J W W W ;.>.>.2.4.d.d.j.Y.Y.T.R.+X@X9X9X0XeXeXeXBXBXAXAXAXSXSXSXZXZXZXZXZXZXVXVXVXVXVXVXVXcXVXcXcXcXcXcXcXcXcXzXcXzXcXcXcXcXcXcXcXcXVXVXVXVXVXZXZXZXZXSXSXSXSXSXSXSXSXAXSXSXSXSXSXSXSXZXZXZXVXcXVXcXcXjXgXgXgXyXm b b b z l r 7 r 4 4 1 1 1 1 ; ; 1 ; ; , ; ; ; ; 4 4 4 4 7 l z c m yXpXpXjXzXzXzXVXVXVXVXVXZXZXZXSXSXSXSXSXSXSXSXSXSXAXAXAXAXAXAXAXAXAXAXAXAXAXAXAXAXAXAXAXSXSXSXSXSXSXSXZXZXZXZXZXVXVXVXVXcXcXjXjXpXm b x 4 1 ; ; & & O O O O O O O & & & ; ; , , , 4 4 4 4 6 4 6 4 1 1 1 1 , , , = = = O O O O O . . O O O O ; ; 4 7 l x b pXpXpXjXjXVXzXVXVXVXZXZXZXZXSXSXSXSXSXSXAXSXAXAXSXNXmXwXmX8XvXmXvX4XvX:XvX X X X XdX XdX XdXdX X{.dXdXdXaX^.aXaXiX^.uXiXuXyXk v yXc b x c z x l l 7 7 4 1 ",
"1 4 7 7 7 l l l l r z r r r r q r y r r q q r r 8 r 8 3 8 8 6 3 < 2 < 2 < < < < 3 : 1 2 1 2 6 r r c v yXsXjXjXcXzXVXVXZXZXSXSXSXSXAXAXBXBXBXeXeX0X0X0X9X@X@XOXOXR.T.Y.F.F.h.h.d.4.4.4.2.2.<.<.>.>.<.>.>.>.>.>.>.<.>.2.2.2.4.4.d.d.j.j.j.Y.Y.T.T.OX+X+X@X@X9X@X9X@X9X@X@X@X+XR.R.T.Y.j.j.d.4.2.2.>.;.;.W W J J J D D D D A A A A A A A A A A D D D D J J W W W ;.:.>.<.4.4.d.j.A.Y.T.R.OX@X@X9X9XeX0XeXBXBXBXAXAXAXSXSXSXSXZXZXZXVXVXVXVXVXVXVXzXVXcXcXcXcXzXzXzXzXzXzXzXzXzXzXzXzXcXzXcXcXcXcXVXVXVXVXVXZXZXZXZXZXSXSXSXSXSXSXSXSXSXSXSXSXSXZXZXZXVXVXVXzXcXjXgXgXpXyXm b c x r r r 4 4 4 1 1 ; ; ; ; ; ; & ; ; = ; = ; = ; ; ; 4 4 4 l l z c m m pXjXjXzXzXVXVXVXVXVXZXZXZXSXSXSXSXSXSXSXSXSXSXSXSXSXAXAXSXAXAXSXAXAXSXSXSXSXSXSXSXSXSXSXSXSXZXZXZXZXZXZXZXVXVXcXcXcXjXgXpXm b r 4 1 ; O O O O O . . . . . O O O O & & ; & ; = = , , , , , , ; = ; = = = & = O O O O . . . O O O O ; ; , 7 7 x b b pXpXgXjXzXzXzXVXVXVXVXZXZXZXSXSXSXSXSXSXSXSXAXAXAXAXNXSXmXmXmXwXvX4XvX4XvXvX XvX X X XdX XdX XdXdXdXdXdXaX{.aX^.aXaXiXuXiXiXk yXv v c b c x c z l l 6 7 4 1 ",
"1 4 4 7 7 l l r r r z r 6 r r r r r r q r r 6 q r 3 r 8 8 3 3 2 2 3 < < < < < 3 : 1 : 1 2 6 6 r u u b yXsXgXzXzXVXVXVXZXZXSXSXSXSXAXAXBXBXeXeXeXeX0X9X9X@X@X@XOXR.Y.Y.F.A.A.h.h.d.4.4.2.4.2.<.<.<.>.>.<.>.>.>.<.>.2.2.2.4.4.d.d.d.j.j.j.Y.T.T.OXOX+X@X@X9X@X9X9X9X9X@X9X@X+X+XR.T.Y.A.j.j.4.4.2.>.>.;.-.W W J J J D D D D D D A A A A D D D D D J J J W W W ;.;.<.<.4.4.d.j.j.Y.T.R.OX+X@X9X9XeX0XeXBXBXBXAXAXSXSXSXSXZXZXZXZXVXVXVXVXVXVXVXzXVXcXcXcXzXzXzXzXzXzXzXzXzXzXzXzXzXzXzXzXzXcXzXcXcXcXVXVXVXVXVXZXZXZXZXSXSXSXSXSXSXSXSXSXSXSXZXZXZXVXVXVXcXcXjXgXgXyXyXb b z z r r 4 1 1 1 ; ; ; ; ; = ; & & ; & & = O = = = = = ; ; ; ; 4 4 l l z m yXyXpXjXzXzXzXVXVXVXVXVXZXZXZXZXSXSXSXSXSXSXSXSXSXSXSXSXSXSXSXSXSXSXSXSXSXSXSXSXSXSXSXSXZXZXZXZXZXZXVXVXVXVXcXcXjXjXsXm m x r 4 ; ; O O O . . . . . O . . O . . O . O O & O O = O = & & & & & = O O O O O . O . . . . O O O O ; , , 1 7 l x b m pXpXgXjXzXjXVXVXVXVXZXZXZXZXZXSXSXSXSXSXSXSXSXSXAXAXSXNXmXNXmX8XvX4XmXvXvXvX XvXlX X XdX XdXdXdX XdXdXdXaX{.aX^.aX^.iXuXiXiXk yXk b v b b x c z z l l 7 4 1 1 ",
"4 1 4 7 7 7 l l 7 r z 7 r r r r q r r r q r q 6 q r 3 r 8 3 2 < 3 < 2 < < < 1 3 < 1 2 1 3 3 6 r y x b yXyXsXjXcXcXVXVXVXZXZXSXSXSXSXAXBXBXBXeXeXeX0X0X9X9X@XOXOXOXT.Y.F.F.h.j.d.d.d.4.4.2.2.2.2.<.<.>.>.<.<.>.<.2.2.2.2.4.4.d.d.j.j.j.Y.Y.T.T.OX+X@X@X9X9X9X9X9X9X9X9X@X@X9X+XR.R.T.Y.j.j.d.4.4.2.>.>.;.-.W W J J J J D D D D D D D D D D D J J J J W W W ;.:.>.<.2.4.d.j.j.Y.Y.T.R.+X@X9X9X0X0XeXeXBXBXBXAXAXSXSXSXSXZXZXZXZXVXVXVXVXVXzXzXVXzXcXzXzXzXzXzXzXjXzXjXjXjXjXzXjXzXjXzXzXzXzXzXzXcXcXcXcXVXVXVXVXZXZXZXZXZXSXSXSXSXSXZXZXZXZXZXZXVXVXVXcXzXjXgXgXm m b x z z r 4 4 1 1 ; ; ; ; & & & & & & O O & O O & O O = O = O = = ; = ; 1 6 l l c m m yXjXjXzXzXVXcXVXVXVXVXZXZXZXZXSXSXSXSXSXSXSXSXSXSXSXSXSXSXSXSXSXSXSXSXSXSXSXZXZXZXZXZXZXZXZXVXVXVXcXcXcXjXjXsXm m z l 4 ; O O O . O O O O O O O O O O O O O . . . . O O O O O O O O O O O O O O . . . . O O O O = = ; ; , 1 7 l x b m m pXgXgXzXzXzXVXzXVXVXVXVXZXZXZXZXSXSXSXSXSXSXSXSXAXSXAXAXmXNXmXmXmXmXvXvXvXvXvX XxX X XdXvXdXvXdXdXdXdXdXdXdXdXaXaXaXiX^.iXuXuXyXk yXg b v c x x c z l 6 6 7 4 1 ",
", 4 4 4 7 6 l l r r r r r r 6 q r 6 r q r r r r r 6 8 3 3 3 3 2 3 2 < 1 < 2 3 < 3 : 1 2 6 2 6 r u u b yXsXgXgXzXzXVXVXZXZXSXSXSXSXAXAXBXBXBXBXeXeX0X0X9X@X@X@XOXR.T.Y.F.F.F.h.h.h.4.4.4.2.2.2.<.<.<.<.<.<.>.<.2.2.4.2.4.4.d.d.j.j.h.Y.Y.T.T.OXOX@X@X@X9X9X9X0X9X0X9X9X9X9X@X+X+XOXT.Y.F.j.j.d.4.2.<.>.;.;.-.W W W J J J J J D D D D D D D J J J W W W ;.;.;.>.2.2.4.d.j.j.A.Y.T.R.+X+X9X9X0X0XeXeXBXBXBXAXAXSXSXSXSXZXZXZXVXVXVXVXVXVXzXVXVXcXzXzXzXzXzXjXzXjXzXgXjXjXgXjXgXgXgXgXjXgXzXgXzXzXzXzXzXcXcXVXVXVXVXZXZXZXZXZXZXZXZXZXZXZXZXZXVXVXVXVXcXzXjXgXsXm m b x z z 4 4 1 ; ; ; ; ; & & & & & O & O O O O O O O O O O O O O O O O = = ; ; 1 6 l z m yXyXgXjXzXzXcXcXVXVXVXVXVXZXZXZXZXSXZXSXSXSXSXSXSXSXSXSXSXSXSXSXSXSXSXZXZXZXZXZXZXZXZXZXVXVXVXVXcXcXjXjXsXpXm b z 7 , ; ; O . . O & O O ; = ; ; ; = & & & & O . O . . . . . . . . . . . . . . . O O O O O & & = = , , 4 6 l x x b m pXpXgXgXzXzXzXVXzXVXVXVXZXZXZXZXZXSXSXSXSXSXSXSXSXSXSXAXSXmXAXmXmXmXmXvXmXvXvXvX XbX X XlXvXdX XdXdX XdXdXaXdXdXaXaXaXaX^.iXuXiXyXk yXv yXv c b x c z l l l 7 4 1 1 ",
"1 4 4 7 6 7 7 l 7 r r r r r r r r q 6 r q 6 r 2 r 2 6 8 3 3 3 3 < 3 2 < 3 3 3 < 1 3 3 1 3 r r r r c b yXpXsXjXzXVXVXVXVXZXZXSXSXSXSXAXAXBXBXeXeXeX0X0X9X9X@X@XOXOXT.T.Y.F.h.F.h.d.d.4.4.4.2.2.2.2.<.<.<.<.2.<.2.2.2.4.4.4.d.d.j.j.Y.j.T.T.T.OX+X@X@X9X9X9X0X0X0X0X0X0X9X9X9X+X+XOXR.T.Y.A.j.d.d.3.2.<.>.;.;.-.W W W J J J J J J J J J J J J J W W W -.;.:.>.<.2.4.d.d.j.A.Y.T.R.OX+X<X<X0X0XeXeXBXBXBXAXAXSXSXSXSXZXZXZXZXVXVXVXVXVXVXzXzXzXzXzXzXzXzXjXjXjXgXgXjXgXgXjXgXgXgXgXgXgXgXgXjXgXzXzXzXzXzXzXcXVXcXVXVXVXZXZXZXZXZXZXZXZXZXZXVXZXVXVXzXzXzXgXpXm m x x r 7 4 4 ; 1 ; ; & & & & & O O O O O O O O . . . . . . . . . O O O O O O = = ; 1 1 6 z c m m yXjXjXzXzXcXcXVXVXVXVXVXZXZXZXZXZXZXZXZXZXZXZXZXZXZXZXZXZXZXZXZXZXZXZXZXZXZXVXVXVXVXcXcXcXcXjXjXsXpXm c z 7 ; ; O O . O O & & = ; ; ; ; 4 ; ; ; = = & & O O O O O O . O O O O O O . O O O O O = O = = , , 1 4 6 l x x b m m pXpXgXgXzXzXzXzXVXVXcXVXVXZXZXZXZXZXZXSXSXSXSXSXSXSXSXSXSXAXAXmXSXmXmXmXmXvXmXvXvXbX X XlX XhX XjXdXdXhXdXdXdXaXdXaXaX^.iXaXuXyXuXyXk yXv b b c x x x x l l 6 7 4 4 , ",
"1 , 7 4 7 7 l 7 l r r r r 6 r r 6 r q r 6 r 2 r 3 q 3 3 3 3 3 3 3 3 3 3 3 < 3 3 1 3 3 6 3 6 6 r x x b yXpXpXjXzXzXzXVXVXZXZXSXSXSXAXAXAXBXBXBXeXeXeX0X9X9X@X@XOXOXR.T.Y.F.A.A.j.d.h.d.4.4.4.2.4.2.<.2.2.2.2.4.2.2.4.4.d.d.d.j.j.j.j.Y.T.T.OXOX+X+X9X9X0X0X0X0X0XeX0X0X0X0X<X<X@X+XR.R.Y.F.j.j.d.d.3.2.<.>.:.;.-.W W W W W J J W J J J W W W W W W ;.;.>.>.2.2.4.d.f.j.A.Y.T.R.OX+X<X<X9X0XeXeXeXBXBXAXAXSXSXSXSXZXZXZXVXVXVXVXVXVXzXzXVXzXzXzXzXzXjXjXjXgXgXgXgXgXgXgXpXgXgXgXgXpXgXgXgXgXgXgXgXgXzXzXzXzXzXVXVXVXVXVXVXVXZXZXZXZXZXZXVXVXVXzXVXzXjXgXpXm b b z r 7 1 1 ; 1 & ; & & & & & O O O O O . . . . . . . . . . . . . . . . . O O O & & & ; 1 4 7 c c m yXgXgXzXzXcXcXcXVXVXVXVXVXVXVXZXZXZXZXZXZXZXZXZXZXZXZXZXZXZXZXZXZXZXZXVXVXVXVXVXcXcXcXzXjXsXpXm m z l 1 ; ; O O . O O ; & ; 4 4 4 7 7 7 7 4 7 4 1 ; ; ; ; = & & & = O & O O O O = = O = = = = , , 1 4 6 7 l x x x m m pXpXgXgXjXzXzXzXzXVXcXVXVXVXVXZXZXZXZXZXZXSXSXSXSXSXSXSXSXSXSXAXCXZXNXmXmXZXvXmXvXbXbX XvXlX XxX XjXdXvXdXdXdXdXdXdXaX^.aXiXuXuXyXuXiXk yXk yXg b b c c x z l l 7 4 7 1 1 ",
"1 1 4 7 4 7 7 l 4 l r r 7 7 6 r r 6 r 5 r 5 6 6 2 6 6 2 6 2 3 3 3 3 3 3 3 3 1 3 3 3 3 3 6 r r r y x b b pXsXgXjXcXVXVXVXZXZXZXSXSXSXSXAXBXBXBXeXeX0XeX9X9X@X@X@XOXR.T.T.Y.F.h.j.h.d.d.4.4.4.2.2.2.4.2.2.2.2.2.4.4.4.4.d.d.j.j.A.Y.Y.Y.T.OXOX+X@X<X<X0X0X0X0XeX0X0X0X0X0X0X9X<X@X+X+XR.Y.Y.F.j.j.d.4.3.2.<.>.:.;.;.-.W W W W W W W W W J W W -.;.;.;.>.>.<.3.3.d.d.j.F.F.Y.R.R.+X@X<X0X0XqXeXeXBXBXBXAXAXSXSXSXSXZXZXZXVXVXVXcXVXzXVXzXzXzXzXzXgXjXgXgXgXgXgXgXgXpXgXpXgXpXpXpXpXpXpXpXpXpXgXgXgXgXgXjXzXzXzXzXVXVXVXVXVXVXVXVXVXVXVXVXVXVXzXVXjXzXgXpXm b x l r 4 1 1 ; ; & ; O & O & . O O O . . . . . . . . O . O . O O O . . . O . . . O O O & & ; ; 1 6 z c m m yXjXjXzXzXcXcXcXVXcXVXVXVXVXVXVXVXZXZXZXZXZXZXZXZXZXZXZXZXVXVXVXZXVXcXVXcXcXcXzXjXgXsXpXm c z 7 1 ; = O O . O & & ; 1 4 7 l l x x x x x l l 7 7 4 1 , , , ; = = = = = , = = = = , , , 1 1 4 6 6 l l x x c m m yXpXsXsXgXjXjXzXzXcXcXVXVXVXVXVXVXVXZXZXZXZXZXSXSXSXSXSXSXSXSXSXSXSXAXCXmXZXmXvXmXbXbXvXvXvXlXbXlX XxX XhXdXhXdXdXaXdXaXaXaXaX^.iXiXuXyXk yXk yXg yXg x c c z z l l l 4 4 4 1 ",
", 1 4 4 7 7 6 l l 7 r 7 r r r r 6 r 6 r 6 6 q 6 6 6 2 6 3 3 3 3 6 3 3 3 1 3 3 3 3 3 6 6 6 6 6 z x x b m yXgXgXzXzXzXVXVXZXZXSXSXSXSXAXAXBXBXeXBXeXeX0X0X9X9X@XOXOXR.T.Y.F.F.A.A.j.h.d.d.4.4.4.4.4.2.2.2.4.2.4.4.4.4.d.d.f.j.j.j.j.Y.T.T.OXOX+X<X9X<X0X0X0X0X0XeXeXeXeX0X0X0X<X<X@X+XR.R.T.F.A.j.d.d.3.3.<.<.>.>.;.;.;.W -.W W W W W W -.W ;.;.;.:.>.<.<.3.3.d.d.j.A.A.Y.R.R.+X+X<X<X0X0XqXeXBXBXAXAXAXAXSXSXZXZXZXZXVXVXVXVXVXcXVXzXzXzXzXzXgXjXgXgXgXgXsXgXgXpXgXpXpXpXpXpXpXpXpXpXm pXpXpXpXpXpXgXgXgXzXzXzXzXzXcXVXVXVXVXVXVXVXVXVXcXVXVXzXzXgXpXm b x r r 4 1 1 ; O ; & O & . & O O O . . . . . . . . O O O O O O O O O O O O O O O . . . . O & & & ; 1 4 l z c m yXpXjXgXzXzXzXcXVXcXVXVXVXVXVXVXVXVXVXVXVXVXVXVXZXVXVXVXVXVXVXcXVXcXcXcXzXjXjXsXpXm m x l 6 1 ; = O O . O O & 1 4 l z z b m b m b m b b b z z l 7 7 6 4 1 1 1 4 1 1 , 1 1 1 1 , 6 6 6 r l z x x c c m m pXpXpXsXsXjXjXzXjXzXcXcXVXcXcXVXVXVXVXVXZXZXZXZXZXSXSXSXSXSXSXSXSXSXSXSXZXAXmXmXMXmXMXbXbXbXbXlXbX XxX XxXaXvXhXhXdXhXdXaXdXaXaX^.iXiXuXyXtXyXk yXg yXb c b c x x z l l 4 7 4 1 , ",
"1 1 1 4 4 7 7 7 6 l r r 7 7 r 4 r 6 r 6 r 6 6 5 6 6 5 1 6 5 6 6 3 3 3 3 3 3 3 3 1 7 3 6 7 7 z z z x b yXpXpXjXjXzXVXzXVXZXZXZXSXSXSXSXAXAXBXBXeXeXeX0X0X9X9X@X@XOXOXT.T.Y.F.F.h.j.d.d.d.4.4.4.2.4.4.2.4.2.4.2.4.4.d.d.h.h.j.j.Y.Y.Y.T.T.OX+X@X@X<X0X0X0XeXeXeXqXqXqXqXqX0X0X0X<X@X+XOXR.Y.Y.F.j.j.d.d.3.3.2.<.:.>.;.:.;.-.-.-.W ;.W -.-.;.;.:.>.:.<.<.3.3.d.d.j.j.F.Y.Y.R.OX+X<X<X0X0XqXeXeXrXBXBXAXAXSXSXSXSXZXZXZXVXVXVXcXcXcXzXzXzXjXzXgXjXgXgXgXsXgXsXpXpXpXpXpXpXpXm m m m m M m M m m m pXpXpXpXgXgXgXzXzXzXVXcXVXVXcXVXVXVXVXcXVXzXzXzXjXpXm b x z 7 1 1 ; ; & ; O O O & & . . . . . . . . . O O O O O O O O O O O O O O O O O O O O O . . . & . ; & ; 4 7 z c b m yXgXgXzXzXzXzXcXcXVXVXVXVXVXVXVXVXVXVXVXVXVXVXVXVXVXcXVXcXcXcXcXzXjXgXgXpXpXm c z l 4 1 = & & . . O O ; , 7 7 x b m m m pXpXpXpXpXm m m b b z x l l l 7 7 6 7 6 6 l 6 l r r l l z x c x c m m m m yXpXpXsXgXjXsXjXjXcXzXcXcXcXVXVXcXVXVXVXZXVXVXZXZXZXZXZXSXSXSXSXSXSXSXSXSXZXZXmXZXmXmXbXbXbXbXxXbXlXlX XxXdXvXgXhXhXhXdXhXaXaXaXaXaXuXiXiXuXyXtXyXk yXc c c x c x z l l 7 7 4 4 4 , ",
", , 4 4 7 6 7 6 l 7 r r r r 7 r 6 z 4 r 6 6 6 6 6 5 6 6 6 6 6 3 3 6 3 3 7 3 7 1 7 3 6 7 7 r r c z b m m pXgXgXzXcXzXVXVXZXZXSXSXSXSXAXAXBXBXBXeXeXeX0X0X9X@X@X+XOXOXT.Y.Y.F.A.A.j.h.h.d.4.4.4.4.4.2.4.2.4.4.4.4.4.4.d.d.j.h.Y.j.Y.T.T.OXOX+X@X<X9X<X0XeXqXeXqXqXeXqXeXqX0X0X9X<X<X+X+XR.R.Y.F.A.j.d.d.d.3.<.<.<.>.:.:.;.;.-.-.;.W ) -.;.;.;.:.:.<.<.2.3.4.d.f.j.F.A.Y.R.R.+X+X<X<X0X0XeXeXrXBXBXAXAXAXSXSXSXZXZXZXVXVXVXVXcXVXzXzXzXjXzXjXgXgXgXgXsXgXpXpXpXpXM pXpXm n m m m m b m n m b m m m m pXpXpXgXgXjXzXzXzXcXcXcXVXVXcXVXcXcXcXzXzXjXpXpXb b l 4 7 1 ; ; O ; O O O & . . . . . . . .   O O O O O O O O O & & O ; O ; O ; O O O = O O O . . . & . & ; ; 4 6 z x b m yXpXgXgXzXzXzXzXcXcXcXcXVXVXVXcXVXVXVXVXVXVXcXVXcXcXcXcXzXzXjXjXgXsXpXm m c z l 4 ; ; & O . . O O ; , 7 z x b pXpXpXgXgXpXgXgXgXgXpXpXm m m b b x x x l x z z x z z z z c x c c c c m m yXyXyXpXsXpXsXjXsXgXjXjXjXzXzXcXcXnXcXcXnXnXVXVXVXZXZXVXZXZXZXZXSXSXSXSXSXSXSXSXSXZXNXZXmXMXMXbXbXbXbXbXxXxXxXxXhXvXjXvXhXdXhXhXaXfXaXaXiXaXiXiXuXiXk yXk yXg b b b b x x x l l l 4 4 4 , , ",
", 1 1 4 4 r 7 7 7 l 7 r 7 r 7 7 7 4 r 4 6 4 6 6 6 6 6 r 6 6 6 6 6 4 6 6 3 7 3 7 7 7 7 7 z r x x b b m m pXgXgXzXzXVXVXVXZXZXSXSXSXSXAXAXBXBXBXeXeXeX0X0X9X9X@X@XOXOXT.Y.Y.F.h.A.h.d.d.d.4.4.4.2.2.4.2.4.2.2.4.4.4.d.d.d.j.j.j.Y.A.Y.T.R.OX+X@X<X9X0X0X0XqXqXqXeXqXqXqXeXqX0X0X<X<X+X+XR.T.Y.Y.A.j.f.d.3.3.3.<.<.>.>.:.;.:.;.-.-.;.-.;.;.:.:.>.>.<.<.3.3.4.d.j.j.A.Y.Y.R.OX+X@X<X<X0XqXqXeXrXrXBXAXAXAXSXSXSXSXZXZXVXVXVXcXcXcXzXzXjXjXjXgXgXgXgXpXsXpXpXpXpXpXpXm m M m m n n b m b b b n b n m m n m pXpXgXgXgXzXzXzXVXcXVXcXVXVXcXcXzXzXjXgXpXm b z r 7 , ; ; & - . & O O O . . . . . .   O O O O & O O O & = = = = = & ; O ; O ; O = O O O O O . . . & & & = ; 1 6 z x m m m pXgXgXjXzXzXzXzXcXcXcXVXcXVXVXcXcXcXcXcXcXcXcXcXzXzXzXgXjXgXpXpXm b c z 7 1 1 = & O O . O O ; ; 1 l x m m pXpXgXgXgXzXgXjXgXgXgXpXpXpXm m m m b b b c b c c c c c c b m c m m m yXyXyXpXsXyXpXsXsXsXjXgXjXjXjXzXzXzXcXcXnXcXnXnXnXVXVXVXZXZXVXZXZXZXZXZXSXSXSXSXSXSXSXZXZXZXZXMXMXMXMXbXbXbXbXxXxXxXxXjXvXgXhXhXdXaXhXaXfXaXaXiXaXiXiXtXyXk b b yXc c c x x x l l 6 6 7 4 4 1 ; ",
"1 1 4 4 7 4 7 7 7 7 7 l r r r r r r r r r r r r r r r 4 6 6 4 6 7 7 4 7 7 7 7 7 r r r z z x x b b m m pXgXgXzXzXzXVXVXZXZXZXSXSXSXAXAXAXBXBXBXeXeX0X0X9X9X@X@XOXOXT.Y.Y.Y.A.A.A.h.h.d.4.4.4.4.2.4.2.2.2.2.4.2.4.4.4.d.h.d.j.A.A.Y.Y.T.R.OX+X@X<X<X0X0XqXqXqXrXqXqXrXqXqX0X0X0X1X@X@X+XR.R.Y.F.A.A.f.d.6.3.3.<.<.>.>.:.:.;.;.;.;.-.;.:.;.:.:.>.>.<.2.3.3.d.f.f.A.S.Y.T.R.R.,X@X<X1XqXqXqXrXrXBXBXAXSXAXSXSXSXZXZXZXVXVXVXcXVXzXzXzXjXzXgXgXgXpXgXgXpXpXpXpXpXM m m n m n n b b n b b b b b b b n b m m pXpXpXgXjXjXzXcXcXcXcXcXVXcXcXVXzXzXgXgXpXb b l 7 1 , ; & - O & O & . . O . . .   O & O & O & O & = = = = = = ; ; , , , ; ; ; ; ; = = = O O & . O . . & & ; 1 1 6 l x b m yXpXgXgXzXgXzXzXzXzXcXcXcXcXcXcXcXcXcXcXzXcXcXzXzXjXgXjXsXpXpXm b c z 6 4 1 ; & O O . O O = ; 1 l x b m gXpXjXzXzXzXzXzXzXzXzXjXjXgXpXgXpXpXm pXm m m m n m m m m m m m m yXyXyXyXiXyXiXyXsXsXsXsXsXsXgXgXjXjXjXjXjXzXzXzXnXcXnXcXnXnXnXVXVXZXZXZXZXZXZXZXZXZXZXZXSXSXSXZXZXZXZXMXZXnXbXbXnXxXxXxXxXjXxXgXvXjXhXjXhXfXfXaXfXiXfXiXiXiXiXtXyXyXyXb b b c b x x l l l l 4 4 1 1 1 ",
"1 1 4 7 4 7 7 r r r r r r r r r 7 r r 7 r 4 r 6 6 6 6 r 6 r 7 7 4 r r 7 7 r 7 r r z z z x c c b m m pXgXgXgXzXcXVXVXVXZXZXZXSXSXSXAXAXAXBXBXBXeX0XeX0X9X9X@X@XOXOXT.Y.Y.A.A.A.d.d.d.4.4.4.2.2.2.2.2.2.2.2.2.4.2.4.4.4.d.h.j.j.j.Y.Y.Y.T.OX+X+X<X<X0X0X0XqXqXqXqXqXqXqXqXqX0X1X<X<X+X+XR.R.G.G.A.j.f.d.6.3.3.<.<.<.:.:.:.;.;.;.;.;.;.;.:.:.:.>.<.<.1.3.5.a.d.j.j.A.Y.K.R.XX+X,X<X1X0XqXqXrXrXrXAXAXAXSXSXSXSXZXSXZXZXVXVXVXzXVXzXzXzXgXjXgXgXgXpXpXpXpXpXm m m m n m n b b n b c c c b c c c b b n b m m pXpXgXgXjXzXzXzXVXcXcXcXcXcXzXzXjXjXpXpXb x l 7 1 ; = ; O & & O . O . . . & & & & & & & & = = ; = = ; , , , , , , , , 1 , , ; ; ; = = & & O O . . & O & = ; 1 6 l z c m m yXpXgXgXzXzXzXzXzXzXcXzXcXcXcXcXcXcXzXcXzXjXjXjXjXgXpXsXm m c c z r 6 ; ; ; & & .   & & ; 1 6 z b m pXpXjXjXzXzXcXcXcXcXzXzXzXjXjXgXgXgXsXsXpXpXpXpXyXyXyXyXyXyXyXyXyXyXyXtXyXyXiXsXyXiXiXiXsXsXsXsXsXsXfXsXfXjXjXjXjXzXzXzXzXnXnXnXnXnXnXVXZXZXZXZXZXZXZXZXZXZXZXZXZXZXZXZXZXZXnXZXnXZXbXnXxXxXcXxXjXxXjXhXjXhXhXgXfXfXiXfXiXsXiXiXyXyXk b yXb b c c x x x l l 7 4 7 4 4 1 1 ",
"4 6 6 4 7 7 7 r r r l r r r r r r r r r r r r r r r r r r r r r r r r r r r z z x z x x c b m m m pXgXgXgXzXzXcXVXVXZXZXZXSXSXSXAXAXBXBXBXBXeXeXeX0X9X9X@X@XOXOXT.Y.Y.Y.A.j.h.h.d.4.4.2.2.2.2.<.<.<.<.>.2.<.<.4.2.4.4.4.d.d.d.Y.j.Y.Y.T.R.+X+X@X<X9X0X0X0XqXqXqXqXqXqX0X0X1X1X<X<X+XXXR.T.G.A.A.f.f.6.6.3.2.<.<.:.:.:.:.;.;.-.-.-.-.;.;._ >._ <.<.<.3.3.6.d.s.A.A.S.G.R.XXXX,X<X1X0XqXqXeXrXBXBXAXAXSXSXSXZXZXZXZXVXVXVXzXVXzXzXzXgXjXgXsXgXpXsXpXpXpXn pXn m n n c n n b c c c c c x c c c c b c n m m pXpXpXgXjXzXzXzXcXcXcXVXcXzXzXzXzXgXgXm b x 6 6 1 ; - & & & & . O . .   & & & & & & & = = = = = , , , , , , 1 1 1 1 1 , 1 , 1 ; ; ; = ; O & & . O . O & & = 1 4 6 z x b b m pXpXgXgXgXjXzXzXzXzXcXjXcXcXjXcXzXzXzXjXjXjXgXgXsXsXm m m c z r 6 1 < ; & & O   & & = , 1 l x m pXpXjXjXzXzXzXcXzXcXzXzXcXzXzXzXzXgXjXsXgXsXsXsXsXpXsXyXiXiXiXiXyXtXyXyXyXyXyXyXk yXiXyXiXyXiXyXyXsXsXyXsXsXsXsXfXfXgXgXjXzXzXzXzXcXnXnXnXVXVXZXZXZXZXZXZXZXZXZXZXZXZXZXZXZXnXZXnXnXnXnXcXnXcXxXxXjXcXjXjXjXjXjXgXgXsXgXiXsXyXiXiXyXb yXyXb b b c c x x x l r 7 r 4 7 4 6 6 ",
"6 6 r r r r r r r z r z z z r z r r r r r r r r r r r r r r r r z r r z z z z x x c c b b m m pXpXgXgXgXzXzXVXcXVXVXZXZXZXSXSXSXAXAXAXBXBXeXeXeX0X0X9X@X@X@XOXT.T.Y.Y.j.j.h.d.4.4.4.2.2.<.>.>.<.>.>.>.>.>.>.<.<.2.2.4.4.4.d.d.j.A.Y.Y.Y.T.R.+X+X<X<X1X0X0X0XqX0XqXqX0X0X0X1X<X<X+X+XR.R.Y.G.A.j.f.d.6.3.2.<.<.:.:.:.-.-.-.;.-.-.-.-.-.-.:.;.:.>.<.<.1.3.5.a.f.j.C.G.G.K.R.XX,X,X<X1XqXqXwXrXrXBXBXAXAXSXSXSXZXZXZXZXVXVXVXzXzXzXzXzXgXjXgXsXsXpXpXpXpXm n m b n b n c c c c c x c x c x c x c c n c m m yXsXsXgXjXzXzXVXzXzXVXcXVXzXVXjXjXgXpXpXb x l 1 1 ; ; & & & . & . &   & & & & & & = ; = ; ; , , , , 1 4 1 4 1 4 6 1 6 6 1 1 1 1 ; ; ; = = & & . . . & O = ; ; 1 6 l z c m m m gXyXgXjXgXjXjXjXjXzXzXzXzXzXjXzXjXjXjXjXgXsXsXsXyXm m c u l r 1 1 ; & & &   O & = ; 1 6 z c m pXgXgXzXzXVXzXzXVXcXVXzXzXcXzXzXzXjXjXjXsXjXsXsXgXaXpXsXyXiXiXyXyXyXtXyXyXv yXk yXyXb yXb yXb yXtXv yXm n tXyXyXyXsXiXsXfXfXjXjXzXzXzXnXnXnXVXVXVXZXZXZXZXVXZXZXZXZXZXZXZXVXZXVXZXcXVXcXnXcXcXcXcXzXjXzXjXgXgXgXgXgXsXsXsXyXsXyXyXyXyXb b yXc b c c c z z r r 7 4 r 6 6 6 6 ",
"r z r z r z r z z z z z z z z z z z z z z z z r z z z z r z z l r x x x x x c c c b b m m pXpXpXgXgXgXzXcXcXcXVXVXZXZXZXSXSXSXAXAXBXBXeXBXeXeX0X9X9X9X@X@XOXT.T.A.Y.j.j.h.d.4.4.2.2.<.>.>.>.>.;.:.;.>.;.:.:.>.>.>.<.<.2.4.4.d.d.j.j.A.Y.Y.R.R.+X@X<X<X1X0X1X0X0XqX1X0X0X1X1X<X@X+XXXR.Y.G.A.A.f.d.6.2.3.<.<.:.:.:.;.-.-.;.K -.-.W -.-.;.^ ) :._ <.%.<.1.3.a.d.s.A.A.S.K.R.XXXX%X1X1X2XqXqXrXrXBXAXAXSXSXSXSXZXZXZXZXVXVXVXzXVXzXzXjXjXgXgXgXpXpXpXiXm n m n n n b b c c c c x c c c x c c x c c b n m m pXpXgXgXzXzXzXzXVXVXzXVXzXVXzXzXzXgXgXpXm x r 6 , < & - & & & . O o & & & & & = ; = - , , , , , 1 1 4 4 4 6 6 6 6 6 6 4 7 4 4 1 1 ; ; = = & & . . . O & & = 1 1 6 l z c b m yXyXgXgXgXjXgXjXjXjXjXjXjXjXjXjXjXjXjXsXjXsXsXsXyXm m c c z r 6 1 < - - & & O & = = ; 1 6 z b m pXgXjXzXzXzXzXVXzXzXzXVXcXcXcXzXzXzXjXjXjXjXsXfXsXpXsXsXiXyXyXyXk yXyXv yXyXb b b b g b u v u c u c c c c c c v m v yXyXiXyXsXfXfXgXzXzXzXcXnXcXVXVXVXZXZXZXZXVXZXZXZXZXVXZXVXVXcXVXcXVXcXnXzXcXcXzXzXzXzXjXjXjXgXsXsXsXsXsXpXyXyXyXyXyXyXb b c b x x z z r r r r r r r l l ",
"z z z u z r x z z z x x x x x x x x z z x z x z z z x z z z x x x x x x c c b c b m m m pXpXgXgXgXzXzXzXcXVXVXVXVXZXZXSXSXSXSXAXAXBXBXBXeXeX0X0X9X@X@X@XOXT.T.Y.Y.j.j.d.4.4.2.2.<.>.>.>.;.;.;.;.;.;.;.;.;.;.;.;.>.>.>.<.2.4.3.d.d.j.j.Y.Y.Y.R.OX+X@X<X1X<X0X0X0X0X0X1X1X<X<X,X,XXXR.R.G.A.A.f.f.d.3.3.<.<.:.:.:.;.-.-.-.K -.W L -.W -.W ;.;.) :.:.<.<.1.3.5.a.f.f.C.G.G.K.U.XX,X,X1X-XqXqXwXrXBXBXBXAXAXSXSXSXSXZXZXZXVXVXzXzXVXjXzXgXgXgXsXsXpXpXm pXn n n n n c c c c z c u x y x y x c c c c v n n pXpXpXjXjXzXzXzXVXzXVXVXzXVXzXzXVXzXzXpXpXm x l 6 1 ; ; & & & o & O O & - & & - - - - , , , 4 4 1 4 6 6 6 6 6 6 l 6 l 6 6 4 6 4 4 4 ; ; ; = & & O . . & O = = ; 1 6 7 z c c m m yXgXyXgXgXjXjXgXjXjXjXjXjXjXjXjXjXsXjXsXsXsXpXpXm m c z z r 4 1 ; ; & * O o & & - 1 4 l x m pXpXjXzXzXzXzXVXVXVXVXcXVXcXcXcXcXzXzXjXjXjXfXjXsXsXaXsXyXiXtXyXk yXv b b g c g g u u u r y r z q r 9 9 q r z y z z u u b b yXyXyXsXsXgXgXzXzXzXnXnXnXnXnXZXVXZXZXVXZXVXVXVXVXVXVXVXVXVXcXcXzXVXzXzXzXzXzXjXjXjXjXgXgXgXyXsXpXpXsXyXyXyXb b yXb b c x z z z r r r r r r z z z ",
"c c v x x x x u x x x x x x x x x x x x x x x x x x x z x c x c c x b b b b b m m yXpXpXpXpXgXgXzXzXzXcXcXVXVXZXZXZXZXSXSXAXAXAXBXBXBXeXeX0X0X9X9X@X@XOXT.Y.Y.Y.j.h.d.4.4.2.2.>.>.>.;.;.;.-.-.;.W W W W W W ;.;.;.;.>.>.<.<.3.4.d.d.j.j.Y.F.R.R.OX+X@X<X<X1X1X1X1X1X<X1X<X<X+X+XXXR.G.G.A.j.f.d.6.3.<.<.:.:.;.-.;.K -.W W W W W K K W -.^ ^ ;.;._ :.%.<.3.3.5.s.f.A.S.S.K.I.R.%X%X,X1X2XqXwXwXwXBXAXAXSXSXSXSXZXZXZXVXVXVXVXVXzXzXzXgXjXgXsXsXpXm pXn m n n c c c x c c c y c y x x u x x c c c n n m pXpXgXgXgXzXzXzXVXVXzXVXVXzXVXVXzXzXgXjXpXm c l 6 1 ; - & - & & o & & - & & - - - - , , 1 1 1 4 6 6 6 6 7 r r l 6 l 6 r r 7 7 4 4 4 ; ; ; = & & . . & . & & ; ; 4 4 7 z c c b m yXyXgXgXgXgXgXjXjXjXjXjXjXjXfXjXgXjXgXpXsXsXyXyXb c u z r 6 1 < ; & - & o & & - , 1 6 z c m pXgXgXzXcXzXVXVXcXVXcXVXcXcXVXcXcXcXzXlXjXjXjXsXsXsXpXsXyXtXyXyXyXb b g g u y u r r q r 5 9 3 3 3 3 3 3 3 3 3 1 9 3 r r r u u u b b yXiXpXsXgXjXzXzXzXnXnXVXVXVXVXVXVXVXVXVXVXVXVXVXVXVXcXVXVXcXcXzXzXcXjXjXjXjXgXgXgXgXgXpXpXsXyXyXyXb yXyXb b c x x z z r r r z r z u u c c ",
"n n v v u b x x x x c x x b x c c c c c x x x x c x x b c c b c b b b m m m m yXyXpXpXgXgXgXzXzXzXcXcXnXVXnXZXZXZXZXSXSXSXAXAXBXBXBXeXeX0X0X0X9X@X@XOXT.Y.Y.A.j.j.d.4.4.2.<.>.:.;.;.;.W W W W W W W W W W W W -.-.;.;.:.>.<.<.3.3.d.d.j.A.Y.Y.R.R.+X+X@X<X<X<X<X<X<X1X<X@X,X+XXXR.Y.G.A.A.f.d.6.3.1.<.,.:.:.-.-.L -.W W K W F W W W W W W -.) ) :._ <.<.1.3.5.a.s.j.A.G.J.K.U.XX,X&X1X-X2XwXwXrXNXBXAXAXAXSXSXZXZXZXZXZXVXVXVXzXVXzXzXgXgXgXpXsXpXpXn n n c n c c g x c z x z c y z x y x c c c v n m yXsXsXjXjXzXVXVXzXVXVXVXVXVXzXVXVXzXzXgXpXm c z 6 1 < - - & o & & & - & - - ; ; ; 1 1 1 1 6 6 6 6 l 7 r l l z r x l z l l r 6 7 4 4 1 1 = = = & O . . & O & ; ; ; 6 7 r x c m m m yXpXgXgXgXgXgXgXjXsXjXgXjXjXsXsXsXsXsXpXyXyXv b c z r r 1 1 ; ; - & & & & & - - 1 9 z c pXpXgXzXzXzXcXVXcXVXcXVXcXVXVXcXcXcXcXcXjXjXjXfXjXaXsXaXtXyXtXb k g g u u r r q 5 5 3 3 < < < < < - < ; < ; : < < 1 < 3 3 3 3 r r z u g yXb iXsXsXgXjXzXzXcXcXVXVXVXVXnXVXVXVXVXVXVXVXVXcXVXcXcXcXcXcXzXzXjXjXjXgXjXgXgXgXpXgXpXyXpXyXyXyXb b b b c x x z r z r z r x u u b v n ",
"iXyXyXyXyXk c c c c x c c x b c b c b b b c b b c b b b b b b m b m m m m pXpXyXpXpXgXgXgXzXzXzXcXcXnXnXnXZXZXZXZXSXSXSXSXBXBXBXBXeXeXeX0X0X9X@X@X+XT.Y.Y.Y.j.j.4.4.4.2.>.>.:.;.;.-.W W W K K K J K K K K K W W W W ;.;.;.:.>.<.3.4.d.j.j.A.Y.Y.R.XX+X@X@X<X<X<X<X<X<X@X,X+X+XR.R.G.G.A.f.d.6.6.2.<.>.:.:.-.-.-.W W W F -.F -.K W L K W -.W ^ ) ) :.:.%.<.3.3.a.f.s.A.S.G.T.U.XX.X,X&X1X>XqXwXwXBX8XAXAXSXSXSXSXZXZXZXVXVXcXVXzXzXzXgXjXgXsXsXpXpXn pXn n n c c c c c z x u u u z c y c y c c v n m m pXsXgXgXzXcXzXzXVXVXVXVXVXVXVXVXzXzXzXgXsXm c z r 1 ; ; & - & & & & & ; * ; ; ; 1 1 1 1 6 6 6 9 r r y r z z z x z z z l z r 7 7 7 4 4 ; ; = = & . O . & O & & ; 1 4 6 z z c c m yXyXpXpXpXgXgXgXjXsXjXsXjXsXsXsXsXsXyXsXyXyXb b c u r r 6 3 < - - & * o & - - ; 1 6 l x m pXgXjXzXzXcXVXcXVXcXVXVXVXcXVXcXnXcXcXlXlXjXjXjXaXsXaXyXyXtXb v g u y r 6 q 5 5 < < < : : % % % * * * * * * - * * * ; * ; < < < 3 5 r r r u b b yXiXfXfXjXzXzXcXcXcXcXVXVXVXVXcXVXVXcXcXVXcXcXcXcXzXcXzXzXzXzXjXjXgXgXgXpXgXpXpXsXyXyXyXb yXb b c x z z r z r z y u u v yXtXyXpX",
"fXfXsXiXiXyXk c c c g c c b c c b b c b b yXc b yXb b b yXm yXyXm yXm pXpXpXpXgXgXgXgXjXzXzXzXcXcXnXnXVXVXZXZXZXZXSXSXSXAXAXBXBXeXeXeX0X0X9X@X@XOXR.T.Y.Y.j.h.d.4.4.<.>.>.;.;.-.W W W K J K K F K F K K K K K K W W W -.;.;.>.<.<.3.4.d.j.j.F.Y.R.R.XX+X@X,X@X,X<X@X@X,X+X+XXXR.Y.G.A.j.f.d.6.1.<.<.:.:.-.-.L W -.F -.L K K K K K F K K W -.W ^ :.) >.<.%.1.3.5.s.j.A.Z.G.K.K.XX.X,X%X-X1X>X5XwXwXBXCXAXAXZXSXSXZXZXZXZXVXVXcXVXjXzXzXgXgXgXsXpXpXm n n n c v c c x y c d z z z y z c y c c c c n n pXpXsXgXjXzXzXVXVXcXVXVXVXVXVXVXVXVXzXzXzXgXpXb u r 1 1 ; - & & & & - * = ; ; < 1 1 1 6 6 6 r r r r z z x y x x x x x x x l z l 7 7 1 1 ; ; ; & & O . . & & & = ; 1 1 6 7 z x c b m m yXpXpXgXsXsXsXsXsXsXsXsXsXsXsXsXyXyXyXv b c u r r r 1 1 ; < - - & & & * ; < 1 9 z c m pXsXjXzXcXcXcXVXcXVXVXVXcXVXcXVXcXcXcXzXlXjXjXsXaXsXyXtXn v g u r y 5 q 5 < < % : % % % * # % # * * # # # * * & * * * - * - - % < - < 3 6 r r u v b yXiXsXgXzXjXzXcXcXcXcXVXVXVXVXcXVXcXcXcXcXcXcXcXzXzXzXzXzXgXgXjXgXgXgXgXpXsXyXyXyXyXyXb c c x x z z z r r y c x yXk iXiXfXfX",
"lXzXhXfXaXiXyXyXk b b c c c c yXc b yXb yXb yXyXb yXyXyXyXyXyXyXpXyXgXpXpXyXgXgXgXgXzXzXzXcXzXcXnXVXVXVXZXZXZXZXSXSXAXAXAXAXBXeXeXeX0X0X9X@X@X+XR.T.Y.Y.j.h.d.4.4.<.>.:.;.;.W W W J K J K F F F F F F F F F F K K K W W -.;.:.:.<.2.3.d.d.j.A.F.Y.R.R.+X+X+X@X@X@X,X+X+X+XXXR.K.Y.A.A.j.d.6.3.2.<.>.:.-.-.-.W -.K / K K K L K K L L -.L W K ^ ^ ^ :.:._ <.&.3.5.d.d.C.A.G.K.R.L.,X.X&X=X>X2X5X5X8X8X8XCXCXAXSXZXZXZXZXZXVXVXcXVXVXzXzXjXjXgXpXpXpXtXyXn c n c c c y c u z z z d z y z x g c c n n m pXsXgXgXzXzXVXcXVXVXVXVXVXVXVXcXVXzXVXcXjXsXpXb z r 4 < ; * - & * & * ; - 1 - 1 1 1 6 9 6 r 9 y z z z x x c c c x c c x x x z l r 6 7 4 4 ; = & ; . . O . & & & ; ; 1 4 7 z x c b m yXyXyXpXsXpXsXsXsXsXsXsXsXsXsXiXyXyXyXb b c u r r r 4 3 ; < * ; & & & ; - ; 1 6 r c c pXsXjXzXcXcXcXVXcXVXVXcXVXVXVXnXnXcXcXzXlXjXjXsXaXsXyXtXv v u u r q 5 5 < < % % % % # % # # # o # # o # # # # o # & o * o # - # - - - - < < 3 5 9 z z v yXyXiXsXgXjXzXzXzXzXcXzXnXzXnXnXnXcXVXcXcXcXzXzXzXgXzXgXzXjXgXgXgXsXpXsXyXyXyXyXb b b c x x z z r z x y x u k tXiXfXfXjXlX",
"cXxXzXlXjXsXaXiXyXj c c yXg b c yXb b yXb yXyXyXyXyXpXyXyXyXpXpXpXgXyXgXgXgXgXjXjXzXzXzXcXcXnXnXnXVXVXZXZXZXZXSXSXAXAXAXNXBXrXeXeXeX9X9X9X@X+XOXT.Y.Y.j.h.d.4.2.<.>.>.;.-.W W J K K F F F F F L F L S S F L F F F L K W W -.-.:.>.<.<.3.d.d.j.A.Y.Y.R.R.OX+X+X+X+X+X+X+XXXR.R.Y.Y.A.j.f.6.3.2.<.<.:.:.-.-.W W -.K K L L F L F L L K L K L -.W -.^ ) :.>.<.<.3.5.a.s.j.A.Z.K.K.XXU.,X%X&X1X>X2X3XwX8X8XrXCXAXZXAXZXZXZXZXZXVXcXcXzXzXzXjXgXgXgXpXpXyXn n n c c c z c u z u z z z y z d c z c c v n m pXpXgXjXzXzXcXVXcXVXVXVXVXZXVXVXVXVXzXcXzXgXpXm z r 3 1 ; ; * & & ; ; * ; ; 1 1 1 6 6 9 r y z z z c c c c b c c b c c c c x x z l r 4 1 , ; ; = & O O . & & . ; = ; 1 4 7 r z x b b yXyXyXyXyXpXpXsXsXsXiXsXyXyXyXtXb yXb v c u z r r 4 4 < < ; - * - o ; * ; 1 1 9 z c n pXsXjXjXcXcXVXcXVXVXVXVXVXcXVXVXcXnXcXzXjXlXsXsXsXtXtXv v u q 9 5 5 < : % % % # % # # o # o # # # # % # % % % % * * * * # # * # # # - - - - - < < 4 r r u b yXyXiXsXgXzXzXzXzXzXzXcXzXzXzXzXzXzXzXzXzXzXzXzXgXjXgXgXgXgXgXyXsXyXyXyXyXb yXc x x x z z z z r y c g yXyXaXhXjXcXxXlX",
"nXxXcXcXxXxXgXaXaXyXyXyXg yXc yXb c yXyXyXyXyXyXyXpXpXpXpXgXpXpXgXpXgXgXgXjXjXjXzXzXzXzXzXnXcXVXVXVXVXZXZXZXZXZXAXAXAXAXBXrXeXeXeX0X9X9X@X+XOXT.Y.Y.j.j.d.4.4.<.>.:.;.-.W K K K F F F S S L S S V S S S S S F L F F K K K -.-.;.:.>.<.3.4.d.j.A.F.Y.T.R.R.OXXX+XXX+XOXXXXXR.Y.Y.A.A.f.d.6.3.2.<.:.:.-.-.-.-./ K L K L F L F L L F L K L L K W W ^ ;._ :._ <.3.3.5.f.s.A.G.G.T.U.XX.X%X=X*X-X5X5X5X4X8XmXmXCXCXZXZXZXZXZXVXVXVXcXVXVXjXzXgXgXgXpXpXyXm n n v c c c c u z z z z u z z c y c c v n m pXpXgXgXzXzXcXcXcXVXVXVXVXVXVXVXVXcXVXcXcXjXjXyXm c r 4 < ; ; * & - & * ; ; < 1 1 6 6 9 9 y z z z c c c c c c b n c n b c c c x z l 6 7 4 4 ; ; = & & . . & . & = = ; 1 4 7 7 z x x b b b yXyXyXyXpXyXiXiXyXyXyXyXyXyXyXb b c u z r r 6 1 < < - - - & & - * - < 1 6 9 u c pXpXjXjXzXcXcXcXVXVXcXVXVXcXVXVXnXnXzXcXjXlXsXaXsXtXtXv u y q 5 5 3 : % % % % # % o # # % # % % % % % % % % % % % % : % % % - # - # - # * * * - - < < 3 6 r r g c yXpXpXsXgXjXzXzXzXzXzXzXzXzXzXzXzXzXjXjXgXjXjXjXgXgXsXsXsXsXyXyXyXyXb yXx c x x z z x q x y c g yXiXaXjXjXcXxXxXnX",
"MXnXMXcXbXcXvXgXaXaXtXyXyXv yXg yXyXv yXyXtXpXpXpXpXpXpXsXpXgXgXpXjXpXjXjXjXjXzXzXzXcXcXnXnXVXVXVXVXVXZXZXZXAXZXAXmXAXrXrXeXeX0XeX9X9X@X@XOXT.Y.Y.j.j.d.4.4.>.<.;.;.W W K K K F D L S S S S S S S S S S S S S S L S F L K K -.W ;.:.<.<.4.4.d.j.A.Y.Y.R.R.R.R.OX+XXXOXR.R.Y.Y.Y.A.j.d.d.3.2.<.>.:./ -.L W W K L L L L L L L L L L L L K L -.L -.^ ^ :.:.<.,.2.3.a.d.j.C.A.K.K.R.U.,X,X&X=X*X2X3X5XwX7X8XmXmXZXCXZXZXZXVXZXVXVXcXcXzXVXjXzXgXpXgXpXm m n n c c c y c z d u z u z u z u c u v c n tXpXsXgXgXzXzXcXcXVXVXVXVXVXZXVXVXVXVXVXVXzXzXjXsXyXc r 4 3 < * ; * & < - - < < 1 3 6 9 9 z z u c x c v c n n n b n n b b c c c x z z r 6 7 , ; ; = = & & . & & . & = ; ; 1 4 7 r z x b b b b yXyXyXyXyXyXyXyXyXyXyXb b b v u u z r r 6 3 1 < < - - * - & - ; ; 1 3 r z c m tXsXjXzXcXcXcXVXcXVXVXVXVXVXnXnXcXcXcXjXlXsXfXsXtXv c d y 9 3 3 : : % % % # # # # % % % % % % : : : : : : : : : : % : : : : % < % % % - % - # * - - % < < 4 6 r r g c yXtXpXpXgXgXjXgXjXzXzXzXjXjXjXjXjXjXjXgXsXsXsXsXsXsXyXyXyXyXyXb c c c x x z y x r x y c g yXiXaXjXvXcXbXnXVXMX",
"MXMXVXCXnXbXcXxXjXaXaXaXtXtXyXyXyXyXyXtXyXyXiXyXpXsXpXpXsXgXpXgXjXjXjXjXjXjXzXzXzXcXcXcXnXnXnXVXnXZXZXZXZXZXSXCXAXAX8XrXeXeXeXeX9X9X9X@XOXT.Y.Y.Y.j.d.4.4.<.>.;.;.W W K K F F A L V S S S S V S S V S S S S S S S L L F K K K -.-.;.:.<.<.3.d.f.j.A.Y.Y.Y.R.R.XXR.R.R.T.R.Y.Y.A.A.f.d.6.2.2.<.:.:.-.-.-.-./ L L L L L L L L L L L L L L -.L L -.^ ) :._ :.%.1.3.i.d.s.A.S.G.T.U.XXoX.X=X*X-X*X5X5X4X5X7X8XmXmXCXCXZXZXZXZXVXVXVXcXVXzXzXgXgXgXgXpXpXm n c n c c c c u z z d z u u y c c c c n n yXpXpXgXgXzXzXcXVXcXVXVXVXZXVXVXZXVXVXcXVXzXzXjXsXyXu z r < ; ; ; & * ; - < < 1 3 6 9 9 z y z u c v c c n n n m tXyXn n n n c c c x z l 7 4 1 4 ; = = & . O . . & & & ; ; 1 4 7 7 z x x x b b b b yXb yXyXb yXyXb b b v c u z z r r 4 3 1 < < - - - - & * < ; < 3 9 r c c tXpXjXjXjXcXcXVXcXVXVXVXcXVXnXnXcXnXcXlXlXfXfXpXtXv c d 9 9 3 < : : % % # # # % % % : % : : : 2 2 : 2 5 2 q 2 q 5 2 q 2 q 5 < 2 < < < - : - % - * - * - - < < < 3 r r y x c v tXpXpXpXgXgXgXgXgXgXgXgXgXjXsXsXsXsXsXsXpXpXyXiXb yXyXc c c x x r x x r y y x c g yXaXaXjXvXnXbXnXVXMXMX",
"ZXCXCXMXVXnXnXbXxXjXsXaXpXtXyXtXtXtXyXyXtXyXyXsXpXpXsXsXsXgXgXgXgXgXzXzXjXzXzXzXzXcXcXnXcXnXnXnXZXnXZXZXmXZXmXAXmXBXrX8XeXeX0X0X9X9X@XOXR.T.Y.A.h.h.4.4.<.>.>.-.W W K K D F F S V S S V S V S S S S S S S S S S S S S L F L K K -.;.;.>.<.3.4.d.j.A.Y.Y.Y.T.R.T.R.R.Y.R.Y.Y.F.A.j.d.d.3.2.<.,.:.-.-.L -.K L L L L L L L L L L L L L L L L L -.L -.^ _ :.>.<.<.1.5.d.f.A.A.S.K.R.XXoX,X=X=X-X2X;X5X3X7X8X7XbXmXCXnXZXZXVXVXZXnXcXcXcXzXzXzXgXgXpXpXpXm n n c n x c z z c z z c y z c y c c v n m pXpXgXgXjXzXcXzXVXVXVXVXVXVXZXVXVXVXVXVXcXVXzXjXsXpXb z 5 4 < - * - - % < ; < 3 6 6 9 y y z c c c v n n n tXm n n n pXn yXn n c c x z l r 4 1 ; 1 = = & O O . & & . ; & ; ; 4 4 7 7 r x x c b b b b yXc yXb b b b v x c u z r r 4 r 3 4 < < - - - * - - - ; < 1 6 9 z c tXyXsXsXjXzXcXcXcXVXcXVXVXVXcXnXnXcXcXlXjXfXfXyXtXv c q 9 2 3 : : * % * # % % : : : : : : 2 2 8 2 q q q t t t y t d t y t y y q q 5 q 2 2 < < < < - % - * - % < < < < 6 r r y c c v yXtXyXiXpXpXsXpXgXsXsXiXsXsXpXpXpXiXyXb yXb yXc c c x x x y x r y x y x d c yXtXaXjXvXnXnXnXCXZXCXMX",
"CXAXCXZXmXZXmXnXnXxXxXsXdXpXuXyXtXyXyXtXyXtXyXpXtXsXpXsXsXgXgXgXgXzXgXgXzXzXzXzXcXcXcXcXnXnXnXZXnXnXZXmXZXmXAXmXCXrX8XeXeXqXqX9X9X@XOXOXT.Y.Y.A.j.4.4.2.>.;.;.W W K K F F F S S S S V S S C S S S S C S S S S S S S S L L F L K -.W ;.:.<.<.3.d.d.j.A.F.Y.Y.Y.R.T.T.T.Y.F.Y.A.j.f.d.6.2.2.>.:.:.-.-.-./ L L L L L L L L L L L L L L L L L / L -.^ ^ -.:.:.<.<.3.5.a.f.g.A.Y.T.R.XXoX,X=X=X2X*X2X3X3X5X4X7X8XbXbXCXMXVXVXZXnXVXVXcXcXcXzXzXgXpXgXpXpXpXn m c c c c z c z z c z z c z c c c n n yXpXpXgXjXzXzXzXVXcXVXVXVXVXZXVXVXVXVXVXcXVXcXcXjXgXyXb z r 3 < < - - * ; - < 1 3 3 6 r y z u c c v n n tXtXn pXn pXpXn m n m c m c c x l 6 6 1 4 ; = ; & & . . & . & & & ; ; 1 4 6 7 7 z z x x c b c c b c c b c c x u z r r r r r 3 4 < < < - < - - & < ; < 1 3 9 z u v n pXgXsXjXjXcXcXcXcXVXcXVXcXnXnXcXcXlXjXjXsXtXtXv u q 9 2 1 : : % % % % : : : : : : 2 2 q q q y s t g s g j g j k g k g k g g s d d y y r q 5 5 < < < < < - - - - < < < 6 6 r r y x c c yXyXyXyXiXiXyXyXyXyXyXiXyXyXyXb yXyXc yXc x x x y x x r y y x y d c v tXpXdXjXvXnXbXVXCXZXCXCXSX",
"SXCXCXAXCXCXZXmXnXvXcXxXsXhXsXuXpXuXyXyXsXyXsXtXsXpXsXpXgXsXgXgXjXgXzXjXzXjXzXzXcXcXcXnXnXnXnXnXZXZXbXZXmXmXmXrX8X8XeXeXqXqX9X9X@X@XOXT.T.Y.j.h.d.4.<.>.>.;.W W W D F F D S S V S S S C S S C S S C S S C S S S S S S S S L F L K L -.;.:.<.<.4.d.f.j.A.Y.F.Y.Y.Y.Y.T.F.Y.A.A.j.d.d.3.2.<.>.:.-.-.-./ K L / L L L L L L L L L L L L L / L L L L -.-._ :.:.<.<.3.3.d.s.j.A.S.Y.L.XXXX,X=X=X2X2X5X5X3X3X7X4X7X7XbXbXMXMXVXVXVXnXnXVXcXzXzXzXzXgXgXpXpXm m b n c c c x x c x x c x x x c c n c m yXpXpXgXgXzXcXcXcXVXcXVXVXZXVXVXZXVXVXVXVXcXcXcXjXgXyXyXu r 3 < < - * - < < < 1 3 9 r q z c g c v n n tXn yXpXtXpXtXpXpXtXm tXm c c c x z r 6 1 4 ; ; = = O O O O O & . = = ; ; 1 4 7 7 7 z z x x x x x x x x x x x z z r r 6 r 4 3 4 < < ; < - * - - < - < 3 4 r 9 z u m m tXsXjXjXlXcXcXcXcXcXnXcXnXcXcXcXjXjXjXsXtXn c d 9 3 3 : : : * * % % % : : : 2 8 q q q t s g g k k Q.k Q.Q.Q.Q.Q.uXQ.uXQ.Q.Q.yXk j k g g u y r q 5 5 < < < < < < - < < < 3 3 r r r q x x c c yXc yXyXyXyXyXyXb yXb b b b c c x x x x x r x y x r x y c c v yXtXdXjXxXnXnXZXmXCXAXCXCXCX",
"NXCXAXCXNXZXCXZXmXZXnXxXxXhXhXaXsXaXtXsXtXsXtXsXpXaXsXsXaXgXgXjXgXjXjXjXzXzXzXcXcXcXnXcXnXnXnXZXnXbXZXCXmXmXAX8XrXwXeXeXqX9X<X9X+XOXR.Y.Y.A.h.d.4.<.>.>.;.W W K F F A S S S V S B S C A S C S S C S S C S S C S S S S S S L F L K -.W -.:.>.<.4.d.d.j.j.Y.A.Y.F.Y.Y.A.Y.Y.A.j.j.d.3.3.<.>.>.:.-.-./ K L / L L L L L L L L L L L L L L L L L / -./ -.-.:.:.,.<.1.3.5.f.j.A.S.K.T.XXoX,X=X=X-X2X2X5X3X7X3X4X7XxX7XbXbXVXbXVXnXnXVXcXcXcXzXzXgXzXpXgXpXpXm m c b c c c x x x x x x x c c c c n m pXpXgXgXjXzXzXcXVXcXVXVXVXVXVXZXVXVXVXVXVXcXcXcXjXgXsXb x r 4 < - < - - < ; 3 3 3 9 q z z d c v n n m tXpXpXtXaXiXpXiXiXpXiXm m v m c z l r 6 4 4 ; ; ; & & O . . & . & & & ; ; 1 4 4 7 7 r r r z z z x z x x x z r r r r r r 4 3 1 < < ; < - - - - ; ; < < 3 3 9 z u c v tXsXsXsXjXjXlXcXcXcXcXcXcXcXcXlXjXjXjXsXyXn c y 9 3 1 : : - * % : : : 2 : 2 q q t y s j j k Q.Q.Q.Q.Q.^.^.^.aX^.^.aX^.^.aX^.aX^.iXaXQ.tXQ.j k g g y r r 5 5 5 < < < < < < 3 3 3 3 r r r y x u x c c g b b b b c c c c c x x x z x y x r x r y y x y c v v tXaXsXjXxXnXbXZXmXCXCXCXCXCXAX",
"AXBXAXAXAXNXCXmXZXmXnXvXnXxXjXhXsXsXsXuXsXuXsXtXsXsXsXsXsXsXsXgXjXfXjXjXzXzXxXzXcXcXcXnXnXbXVXbXZXbXmXmXCX8X8XrX8XeX5X0X0X9X9X+X+XR.Y.Y.j.A.d.4.<.<.>.;.W W J K F A F A S V S A S C S C H C S C H C H S C Z S L C S S S L S L F L K -.-.-.:.<.<.4.d.h.j.j.Y.j.Y.Y.A.Y.A.A.j.j.d.d.3.2.<.>.:.-.-.-./ / K L L L L L L L L L L L L L L L L / L L / L -.:.-.:.<.<.3.3.5.f.j.A.Y.G.T.XXXX,X,X1X-X2X5X5X5X3X7X4X7X4XbXxXbXbXVXnXnXnXnXnXcXcXzXzXgXgXgXpXpXpXm m m c c c x c x c x c x c x c c v m m pXpXgXjXjXzXzXcXVXVXVXVXVXVXVXVXZXVXVXVXcXVXcXcXzXgXpXyXu r 6 3 < - - % < < < 3 r 9 9 u u v c v n tXtXpXtXpXsXyXsXaXpXpXiXpXtXyXn c c c z l 6 6 4 1 ; = ; & O O . O O & O & = ; ; 4 1 4 7 7 7 7 r z z 7 z r r r r r r 4 r 3 4 3 1 1 < < < < - - - < < < 1 3 4 9 r r u v b yXiXsXfXjXjXjXlXcXcXlXcXzXlXjXjXjXfXpXtXv u y 9 3 2 : : * : : : : : 5 5 q q t g g j j Q.Q.iX^.^.aX{.{.aX{.hX{.dXhX|.fXhX|.hX{.hX{.dXaX^.aXaXQ.tXk k g y y r q 5 5 5 < < < < 2 1 3 3 r r 3 y r y y y x x g x x c x u x x x x r x y r y x r x r x d c c v tXsXsXxXxXnXbXZXmXZXNXAXAXAXBXNX",
"BXBXBXBXAXNXNXAXZXmXZXZXnXbXxXxXhXhXhXaXsXsXsXsXsXsXsXsXhXaXjXdXgXjXhXzXhXlXzXlXcXxXnXcXxXVXbXVXbXmXmXmX8XrX8X8XeX5XeX0X9X<X@X+XR.T.Y.Y.j.d.4.4.<.>.;.W W K F F A S S S V S V S C S C S C S Z H C G S Z S S S C S S S S S S F L L K L W -.:.:.<.4.4.d.j.j.j.Y.A.A.Y.j.Y.j.j.f.d.3.4.<.<.:.:.-.-.L -.L / L L L L L L L L L L L L L L L / L L / L -./ -.:.:.<.<.1.3.d.f.f.A.S.Y.K.XXXX,X=X1X-X2X0X5X5X8X3X7X X7XxXvXxXxXxXxXnXnXnXcXcXzXzXzXzXgXgXgXpXpXm m b b b c c x x x c x x x c c m n m m pXgXgXgXjXzXcXcXcXVXcXVXVXVXVXZXVXVXVXVXVXVXcXcXjXsXsXb b r r < < < - - < < 3 3 3 r q u d c v n tXtXiXyXpXuXsXsXiXsXpXaXyXsXyXm n m c c z l 7 7 4 ; 1 ; = = O . O . O O O & = = ; ; 1 4 4 4 7 7 7 r 6 z r r r r r 6 6 r 4 4 3 1 1 < < < - - - - < < < < 3 3 4 r q z z v b tXyXsXsXsXjXjXjXlXjXlXjXlXjXjXfXsXpXtXv u y 3 3 : : : - : : : 2 < 5 q t t g j Q.k '.iX^.aX{.^.hXdX|.hXvXhX|.hXvX XhXvX XhXvXhX XhXhXhXhXhXaXaXaXaXiXk yXj g y t r 6 q 6 3 2 1 2 3 3 3 3 r 6 5 r r r r r r r y y r x y r y r z y r x r z x q c d c c tXtXaXsXxXvXnXbXZXmXSXNXAXAXAXBXBXAX",
"rXrXBXBXBXAXAXNXNXZXmXmXZXnXvXnXxXjXhXhXhXsXsXhXsXsXdXsXsXjXsXjXhXjXjXhXlXlXlXcXxXcXcXbXVXbXbXbXCXmXmXmX8X8X8XqX8X0X0X0X1X@X+X+XT.Y.Y.j.d.d.4.>.>.;.-.W W D F F S D V V S V S C A C A Z A Z A Z H C Z S Z S Z S S Z S S S S S S F L K -.-.;.:.<.<.4.6.d.j.j.j.Y.j.A.A.j.j.j.d.4.4.<.<.<.:.-.-./ -.K L L / L L L L L L L L L L L L L L L / / L / / -.;.:.:.,.<.2.3.6.d.j.A.F.Y.T.T.XX,X@X=X0X2X5X5XwX5X7X3X7X7X XxXxXxXxXxXxXnXcXcXcXcXzXzXgXjXgXpXpXpXm m m b b x b x x x x c x b c b c m m pXpXpXgXzXzXzXzXcXcXcXVXVXVXVXVXnXVXVXVXVXcXcXcXcXzXgXpXm x u 6 3 < < - - < < 3 5 r q z u c v v n tXiXiXaXsXsXiXsXsXsXsXpXsXtXpXpXn n v c x z r 6 4 4 ; ; ; = = O . . O O O & & ; = ; 1 4 1 4 4 7 7 7 7 6 6 6 6 6 6 6 4 4 3 1 1 < < < < - < - ; < < < < 3 3 6 5 r r z u u b b yXyXsXsXgXjXjXjXjXjXjXsXjXsXsXyXn c y 9 3 3 : 1 - : : : 2 2 5 q t g g k Q.Q.iX^.^.{.hX|.hXvX|.vXhX XvXvXvXvXvXvXxXvXvXvXvXvXxXvXvXhXvXhXvXhXhXfXaXaXaXtXtXyXg g y r t q 5 5 6 2 2 3 3 6 r r 6 6 r r q r r r r q r r y r y y y r y y q x c x c v tXtXsXjXxXxXnXbXZXmXZXNXAXAXrXBXBXBXrX",
"rXrXrXrXBXBXBXAXAXAXNXZXZXmXnXnXbXxXxXjXsXhXhXhXsXhXsXsXjXdXjXhXjXhXjXlXzXlXzXxXcXbXxXcXbXbXbXbXmXbXmX8XrX8XwXeXqX0X0X9X<X+X+XR.Y.Y.A.j.d.4.<.>.>.-.W K F F A F A V S C A A Z A C A Z A Z C G Z A Z G G G Z H C Z S S S S S S S L L L K W -.:.:.<.4.4.d.h.j.j.j.j.j.j.j.j.d.d.4.4.<.<.>.-.-.-.-./ L L / L L L L L L L L L L L L L / L / L L / L -.-./ :.:.<.<.<.3.d.d.f.A.F.S.T.XX,XXX=X<X=X0X5XqX5X7XwX7X7XvXvXvXxX XlXxXlXlXlXcXzXcXzXzXzXgXgXgXpXpXpXm b b b b x b b x x x x c c c m m m pXpXgXgXgXjXzXzXcXcXVXcXVXVXnXnXVXVXVXVXcXVXVXcXzXjXjXpXm b r r 4 < < - < < 3 4 5 9 r z u c v n tXtXiXiXsXuXsXfXfXsXfXsXsXsXpXpXtXm n c c z z r 7 4 4 1 ; ; = = O O O . O O O & & = ; ; ; 4 4 6 4 4 1 6 6 6 6 6 6 4 4 4 1 1 1 < 1 < < ; < ; ; < < 4 < 3 4 3 9 4 r r r u u v b v yXyXpXsXsXsXsXgXsXsXsXpXtXn v u z 9 3 2 1 : : : : 2 3 5 q r s g k Q.Q.aX^.{.dXhXhX|.hXvX XxX XvXbX4XbX4XbXvXbX4XvXbXbXvXbXvXbXbXbXbXxXcXvXhXvXhXhXgXaXaXiXiXk k g y y y r 6 q 6 5 2 6 3 3 3 r 6 r r r r r r r r r r r r r r r x y x d c v yXtXuXsXjXxXvXnXnXZXmXZXAXNXAXBXBXBXrXrXrX",
"rXeXrXrXrXrXBXBXAXNXAXNXZXSXmXZXnXvXbXxXxXhXhXhXhXhXhXhXsXjXhXjXhXjXvXjXhXxXxXxXxXcXbXbXbXMXbXCX8XCX8X8X8X8XeX5XqX0X1X@X@X+XR.T.Y.j.j.d.4.2.>.>.W W W J D D F V S V A A A C A C A Z A Z A Z G Z Z G Z Z G G Z H A Z S S C L S S S S L L L W ;.:.>.<.4.4.d.h.h.j.j.j.j.h.h.d.4.4.2.<.>.:.:.-.-.-.L / L L L L L L L L L L L L L L L L L L / L / / / -.-.:.:.:.<.3.3.3.f.j.A.F.Y.T.T.XX,X,X1X2X0X0X5XrXwX8X8X7XbX7XxX XxXlXlXlXlXlXlXlXjXzXjXjXgXgXpXgXm m m m b b b b x x x b x b b b b b m pXpXgXgXgXjXzXzXzXcXcXcXVXcXVXnXnXnXnXVXcXVXcXcXcXcXjXgXpXm c z r 4 < < - < < < 5 6 r q u g v v tXtXiXiXaXaXsXsXsXsXfXsXsXfXsXsXiXiXtXm n c c z l 6 7 4 4 ; ; = = O O . . . O O O & & ; ; ; ; 4 ; 6 4 4 1 1 6 1 4 4 1 4 4 < 1 < 1 ; < ; ; < < < < < < < 4 3 4 6 5 r r r r u u c v v m yXyXpXpXpXpXyXpXtXn v c z z 5 3 3 < < - : 3 2 3 q r d g k Q.iXaX{.dXaXhX XvXvXvXvXvXbX4XbX4XbXbX8XbXvXmXwXbXmXwXbXmXvXmXbXbXbXbXbXbXnXbXcXvXjXvXgXhXdXaXiXiXQ.yXg d y y r y r q 6 q 6 q 5 6 5 r 5 r 6 r r r r r r y y x y y c c c v v uXaXhXjXxXxXnXbXmXZXAXNXAXAXrXBXBXeXrXrXeX",
"eXeXrXeXrXrXeXBXrXAXNXAXSXmXZXmXbXZXnXnXxXxXxXjXhXjXjXhXvXjXhXjXhXxXhXjXxXxXxXcXxXxXbXxXMX7XCX7XMX8XrX8X5XrX5XqX0X1X9X@X+XOXT.Y.Y.j.d.4.2.>.>.-.-.J F F A F V S V A C A C C C A Z C G Z Z G Z Z G Z G Z G Z G A Z S Z S S C H S S K F L K -.-.:.>.<.4.4.4.d.h.d.h.j.h.h.d.4.4.4.<.<.>.-.-.-./ L -.L L L L L L L L L L L L L L L L L L / L / K / -./ :.;.:.<.<.<.3.d.d.f.A.A.Y.T.XXXX,X,X<X1X0X5XqXwXeX8X7X8X7X7XvXvXxXlX|.lXlXlXjXjXjXjXjXjXgXgXgXpXpXpXm b m b b z b b b x b b x b b m m pXpXpXgXgXgXjXzXzXcXcXcXcXcXnXcXnXnXnXcXVXcXcXcXzXzXjXgXpXyXx z r 4 < 1 < < < < 4 5 9 d u u v v tXiXiXaXaXsXsXfXfXfXsXfXfXsXsXsXpXpXpXm v b c z z r 7 4 1 4 ; = = = O O O . . O O & & = & ; ; ; 4 ; 4 1 1 6 1 1 1 1 1 1 < 1 < 1 < < ; < < ; < < < 4 < 3 3 4 5 4 6 r 5 r r r z u u c c v v n tXn v n v c c z l r 3 3 3 1 : : 2 2 2 9 q u s v uXiX^.fX|.hXhXvXvXvXbX4XbX7XbX4XbX8XbXmX8XbXwXmX8XmXmXmXmX8XmXmXmXmXmXmXmXmXbXbXbXbXbXbXcXvXxXhXhXfXfXaXiXQ.yXj c g y y r q r r r r r r r r r r r r r y y y y u y g c c v tXtXsXaXjXjXxXnXnXmXZXZXSXNXAXBXBXBXrXeXrXeXrXeX",
"qXeXqXeXeXeXBXrXBXBXAXNXNXAXNXZXZXmXnXvXnXbXbXxXxXxXjXjXjXxXjXvXjXhXxXvXcXxXxXxXbXbXbXMXbXMX7XNX8X8X8XwXrXqXqX0X0X<X<X@XOXR.T.Y.j.f.4.4.2.>.-.W J W D A S A V V A V A C A C C Z A Z C G Z Z G Z Z G Z G Z G Z G G Z A Z S S A H S S L F L W -.-.:.>.<.4.4.4.h.h.h.d.h.h.d.4.4.2.<.>.:.:.-.-.-./ L L L L L L L L L L L L L L L L L / L L / L / / L -.:.:.:.>.<.3.3.4.d.j.j.A.Y.Y.R.XX@X@X<X<X0XqX5XeX8XwXNX7XNXbX7XxXxXvXlXjXdXlXjXfXjXjXgXgXgXgXsXsXpXm m m b b b b z b x b z b b b b m m m pXgXpXgXjXjXjXzXzXcXzXcXcXcXcXcXcXcXcXcXcXcXzXcXzXjXgXpXm b z 4 6 1 < < < < 3 5 r r r u v v n tXiXiXaXsXsXfXsXfXfXfXgXfXfXsXsXsXpXtXyXn c c c z z 7 4 7 ; 4 ; = = & O . O . . O O & & ; & ; ; ; 4 < 4 1 ; 1 1 1 < 1 1 1 < 1 ; ; < < ; < < 1 1 3 < 4 < 4 3 4 5 4 5 r 6 r r r r r z z u u c z c c u z z l 9 9 3 3 1 : < 1 : 3 9 9 d d v uXuXiXdXfX|.hXxXvXxXbXbXvXbX7XbX8XmXmX8XmX8XmX8XmX8XmX8XmX8XmXmXNXmXmXmXmXmXmXmXmXmXnXmXnXbXnXbXbXcXxXvXjXhXaXaXaXtXtXv v g c y y y y y r r r y r y y y z y y x y x c g v yXtXtXaXdXjXjXxXbXnXmXZXmXSXNXAXAXrXBXeXBXeXeXeXqXeX",
"qXqXqXeX0XBXeXeXeXBXrXBXAXNXAXZXNXZXmXZXmXnXnXbXxXxXxXxXxXxXxXjXvXxXxXcXxXxXxXbXbXbXMX7XCX7XNX7XNX8X8XrX5XqXqX0X9X<X@X+XR.Y.Y.A.d.4.4.2.>.;.W W W F A F D V A V C A C C C A Z A Z Z G Z Z G Z I G Z I Z Z Z G Z Z A Z G H C S S S S F K L L K -.>.>.<.2.4.4.4.d.d.h.4.d.4.2.4.<.<.:.:.-.-.-./ L L L L L L L L L L L L L L L / L L L L / L L / -./ -.-.:.:.>.<.<.4.4.d.j.A.A.Y.R.R.OX+X@X<X0X0XqXqXwXeXNX8X8XCX7XMXxXvXlXlX|.lXjXfXjXjXgXgXgXsXsXpXpXm m m m b b b b b z b b b x b b m b m pXpXpXsXgXgXjXjXjXzXzXzXjXcXlXcXcXcXcXcXcXcXcXcXzXjXgXgXpXb c z r 6 1 1 < < 6 < 4 9 q u u v n tXtXiXaXaXfXsXfXjXfXfXjXfXgXsXfXsXsXpXpXtXm m c c z l r r 4 4 1 ; = = = O O . . . O . O & & ; ; ; ; ; ; 1 ; 1 ; 1 1 1 1 < ; < ; < < < ; < < 1 1 3 1 3 < 4 < 3 3 4 3 6 4 3 r 5 r 9 r r 9 z r z y l z 9 9 r 9 3 3 1 3 < < 3 2 9 9 y d v tXuXiXfX|.hXvXxXxXbXbXbXbXbXmXmXmXmXmXmX8XmX8XmX8XmXrXmX8X8XrXmXrXmXmXrXmXNXmXNXmXNXCXmXmXCXbXCXbXnXVXbXbXcXxXjXvXjXsXaXaXaXtXtXv v g g y u y u u y u y u y g y c g c j g yXtXtXsXaXjXjXvXnXvXZXmXZXZXSXNXBXAXBXBXeXBXeXeXeXqXqXqX",
"0X0X0X0XeX0XeXeXeXBXBXBXBXAXNXAXmXSXmXZXZXmXnXmXbXnXvXnXvXxXvXcXnXxXxXbXxXbXbXbXbXMX7XCX7XNXNXNXwXrXwXeXqXqX0X<X1X@X+XR.R.Y.A.A.d.4.2.>.;.-.W J D F A A V A V A B C A C C Z C Z G Z Z Z Z Z Z Z I G Z Z Z Z Z G Z Z A Z A H C H S S S F F L -.W -.>.>.2.2.4.4.4.4.4.d.4.4.4.2.<.>.>.-.-.-.-.K / K L L L L L L L L L L L L L L L / L / L L / L / -./ :.;.:.>.<.4.<.d.d.d.j.Y.F.Y.R.+X+X@X<X9X0X0XeXeXwX8XBXNX7XCX7XMXxXxXkXlXdXjXdXfXgXsXsXsXsXpXsXyXpXm m m b b b b b b z z b b b b b m m m pXpXsXsXgXgXjXjXgXjXzXjXjXjXjXjXjXjXjXjXzXjXzXzXjXgXgXyXm b l r 4 4 < < 1 < 6 5 r 9 u u v v tXiXiXaXsXsXfXfXfXfXjXfXfXjXfXsXfXsXsXpXyXtXn v c x x z 7 4 4 4 4 = ; & & O O . . . O O O & & ; ; ; ; ; ; 1 1 1 1 - 1 1 ; 1 1 < ; 1 < < < < 1 3 3 3 3 4 3 3 3 3 3 3 3 3 4 3 4 3 4 6 3 r 4 r 6 6 9 6 6 6 3 3 3 3 1 : 3 3 3 9 q z j v tXaXaXdXlXlXxXxXbXbXbXbXmXmXmXmXmXmXrX8XCX8XNXmXrXmXrXmXrXmX8XmXrXmXrX8XmXNX8XAXmXAXmXmXAXCXmXCXmXZXmXbXVXbXbXbXbXcXvXxXjXhXdXsXaXaXtXyXv yXj g g u c u c g c g g c k yXyXyXtXaXsXdXjXjXcXnXvXZXnXZXmXSXNXAXAXrXBXBXeXeXeXeX0X0X0X0X",
"9X0X9X0X0X0XeXeXeXeXeXBXBXrXAXAXAXNXSXSXmXZXmXZXZXnXbXnXmXnXnXbXbXxXnXbXbXbXMX7XMXmXMX7XNXNXNXwXNXwXeXeXqX0X9X9X@X+X+XR.Y.Y.A.d.4.4.>.>.-.W K F F A A V A V V C A C C A Z C G Z Z Z Z Z I Z R I G I Z I G I Z Z G C G C G C S C S S S F L F K -.W >.>.>.2.4.2.4.4.4.4.2.4.2.2.>.:.:.-.-./ K / L L L L L L L L L L L L L L L L L L L L L / K / / -.-.-.:.:.<.<.<.4.d.d.j.A.j.Y.T.R.R.+X@X<X9X0X0XeXeXBXeX8XNXNXNXMXmXxXmXlXlXlXdXjXgXaXgXsXpXsXpXyXm m b m b b b b x b x b b b b b b b m m m m pXpXsXsXsXsXgXgXjXgXfXjXjXgXhXjXfXjXjXjXjXjXgXjXsXgXm m x r r 6 4 1 1 < 3 4 3 9 z u c v n tXiXsXaXsXfXfXfXfXjXfXfXjXfXjXfXfXsXsXpXpXtXyXb b c z z r 7 6 6 ; 4 = = & & O O . . O . O O & & = & ; ; ; ; ; ; ; 1 ; < 1 ; < ; < < 1 < 1 < < 1 1 3 3 3 3 3 3 3 3 3 3 3 3 3 3 3 4 3 4 3 3 3 3 6 3 3 3 3 3 3 < 1 3 3 3 6 9 d u v tXsXaXdXlXlXxXxXxXbXMXbXmXmXmXmXmXmXNXmX8XCX8X8XmXrX8XrX8XrX8XrXrXrXrXrXrXBXrXrXBXBX8XBXmXAXmXmXAXmXCXCXmXZXmXZXmXnXnXbXbXcXxXxXhXjXgXdXaXaXaXiXtXyXyXyXj yXj yXj yXyXyXyXaXiXaXhXsXxXjXxXbXbXbXnXZXZXNXSXAXBXAXBXBXBXeXeXeX0X0X0X0X0X9X",
"<X9X9X9X9X0X0XeXeXeXeXeXBXBXBXBXAXAXNXSXSXmXZXmXZXmXZXbXnXmXnXnXbXCXbXMXbXMXMXMXNXmXNXmXNXNXwXNXeXwXqXqX0X0X<X<X@X+XR.Y.Y.j.f.d.4.<.>.-.-.J J D D A A V V A B V C A C Z C Z Z Z Z I Z I Z I Z I Z I I G I G Z Z Z G Z G C A Z A S A S S F L K W -.-.>.>.<.2.4.4.4.4.4.4.2.2.>.>.>.;.-.-.K -.K L L L L L L L F L L S L L L L L L L L L L L / K / / -.:.:.:.>.<.4.2.4.d.j.j.Y.Y.Y.R.OX+X<X<X9X0XqXqXeXeXBXBXNXCXNXCXMXMXxXvXlXlXjXfXdXsXaXpXiXpXtXyXm m m b b b b x b x b z b x b b b b b b m m m yXpXsXpXsXsXsXgXgXgXfXgXfXgXfXjXfXfXgXjXsXgXsXsXpXm b x l 7 4 4 1 1 < 6 5 r r q u c v tXn aXiXgXfXfXjXfXjXfXlXfXgXjXfXfXfXsXsXsXpXpXyXm v b x x z r 4 4 4 ; 4 = = & & O O . . O . O O & & ; = ; ; ; ; ; ; < 1 ; 1 < 1 < < 1 < < < 1 < < < 1 < < < 3 < 1 3 < < 1 < 1 1 < < 3 < 3 1 3 1 3 1 3 1 1 1 1 < 3 3 6 9 q z c v uXsXdXlXlXvXxXxXMXMXbXbXCXmXmXmXAX8XAX8XAX8XNXrXBXrXBXrXrXrXrXrXrXrXrXrXeXBXrXrXBXBXBXBXBXBXBXAXAXCXAXCXCXCXCXZXmXZXmXbXZXbXnXbXcXbXvXxXjXhXhXgXaXaXaXaXiXiXiXaXtXaXtXaXaXaXaXgXjXjXvXjXnXbXnXZXZXmXZXmXSXNXAXAXAXBXeXeXeXeXeX0X0X<X9X9X<X",
"<X@X@X9X9X9X0X0X0XeXeXeXBXrXrXAXrXAXAXAXNXSXNXZXNXZXmXZXmXZXmXmXCXbXCXbXNXMXMXNXMXNXNXNXNXwXNXeXwXeXqXqX0X9X9X@X+XR.T.Y.A.A.d.4.<.>.-.W K K F D A A V V V B A C A Z C A Z Z Z Z Z Z I Z I I I I I I G I Z I Z G Z Z Z C G Z A A C S V F F F F -.W -.;.>.>.2.2.2.2.2.2.2.2.2.>.>.>.-.-.-.-./ L L L F L L F L L F L L L F L L F L L L L K / L / / -.-.-.;.>.<.<.<.4.4.d.j.j.j.Y.T.R.OX+X+X<X9X9XqXqXqXrXrXBXBXBXCXCXMXMXMXnXnXlXlXfXjXsXsXsXiXyXyXm m m b b b b b b x b z b z b z b x b b b b m m m yXyXyXpXpXsXaXpXaXgXaXgXsXsXsXfXsXsXsXpXsXsXyXm m b x l 7 4 1 1 1 4 4 6 4 9 z u v n n aXiXaXsXsXfXfXjXfXzXfXlXjXfXfXjXsXjXsXsXpXsXyXyXb b c x z r l 7 4 4 ; ; ; & & O O O O O O O O & & = = ; ; ; ; ; 1 1 ; 1 ; 1 < < 1 < 1 1 1 1 < 3 1 1 1 3 1 1 1 3 1 3 3 3 3 3 3 3 3 1 3 1 3 1 1 1 1 1 1 1 3 < 6 6 9 9 y u v tXsXfXdXlXlXxXxXnXMXMXbXCXCXmXmXAXCX8XCXmXAX8XBXBXBXrXrXrXrXrXeXBXeXBXeXrXeXrXrXrXrXrXrXrXrXBXBXBXAXBXAXAXAXAXAXCXCXAXCXmXZXmXVXmXnXmXnXnXcXvXcXjXvXjXjXhXgXhXfXjXaXjXsXhXsXhXjXjXxXjXvXcXbXnXnXnXZXmXZXSXAXAXAXAXBXBXeXBXeXeXeX0X9X9X9X9X@X<X",
"@X@X@X@X@X9X9X9X0XeXeXeXeXBXBXrXBXrXAXAXNXAXNXSXmXSXZXNXZXmXZXmXCXCXCXCXCXCXNXNXNXNXNXrXNXrXeXeXeXqXqX1X9X9X@X+XOXR.Y.A.F.d.6.4.>.>.-.W K D D D V A V V V B C C C C Z Z Z Z Z I I I I I I I I I I I I I Z I G I Z Z A Z C A Z A A A S S A S F F -.W ;.>.>.>.2.2.2.2.2.2.2.>.>.;.;.-.-.-.K K L K L L F L L F L L F L S L F L L F L K L L L -.K -.-.-.:.;.>.>.<.<.4.d.d.h.j.Y.A.T.T.OX+X@X<X9X9XeX0XeXeXrXrXAXBXAXSXSXMXMXnXnXlXlXjXfXsXsXpXpXtXm b m b c b x b x x x x x x b z b z b z b b b b m m m m tXyXpXiXpXaXsXiXaXaXaXaXaXpXaXsXpXsXyXyXyXm b x x 7 7 4 4 1 1 1 4 6 r r z u c v yXtXsXsXsXfXjXfXfXlXfXzXfXlXlXfXfXjXsXgXgXsXpXpXpXm b b x z z l 7 4 4 4 ; ; = O & O O O O O O & O & & = = ; ; ; 1 ; ; < 1 < ; 1 1 1 1 1 1 3 1 1 1 3 1 3 1 3 3 3 3 3 3 3 3 3 3 3 3 3 3 3 3 3 3 3 3 3 3 6 3 6 6 9 9 r x c n tXsXsXlXlXlXnXnXnXMXMXCXCXCXCXCXAXmXBXAXBXBXBXBXBXBXrXrXrXrXeXrXrXqXrXqXrXrXrXrXrXqXBXrXrXrXrXrXrXBXBXBXBXAXAXAXAXAXAXmXCXCXmXZXmXZXmXnXbXnXbXnXbXcXxXxXxXjXvXjXjXhXjXhXxXjXxXjXvXzXcXbXnXnXnXZXmXZXmXZXSXNXAXAXAXBXrXeXBXeXeX0X0X0X9X<X@X@X@X@X",
"OX@X+X@X@X@X9X9X9X9XeXeXeXeXeXBXrXAXrXAXAXNXAXAXAXmXAXZXmXAXmXCXCXCXCXCXNXCXNXNXNXNXNXBXrXrXeXeXqXqXqX9X9X<X+XOXR.Y.Y.F.f.6.4.<.>.-.W K D D A A V V V V B A C C C Z Z Z G I Z I I I I P I I I I I I I I I Z I Z Z G Z Z A Z C A C A A A S F F K W W ;.;.;.>.>.>.2.2.2.2.>.>.>.>.-.-.-.F -.K K L F F L F F F L F F L F L F L F L K L K L K L -.L -.;.-.;.>.<.<.<.4.4.h.d.Y.j.Y.T.R.OX+X@X<X9X0X0XeXeXrXrXBXBXAXAXAXSXSXZXZXnXnXcXcXjXgXgXgXpXm m m b c b x b z x x z z z z z z z z b z b x b b c b m n yXyXtXyXiXiXpXsXpXsXsXsXpXsXiXiXpXyXyXyXm b b x l l 4 4 1 1 1 4 4 1 r z z u v m tXyXsXsXjXfXfXjXjXjXlXfXlXfXjXjXjXjXjXgXgXgXpXpXpXm m c b b x l l 7 7 4 ; ; ; ; & O O O O O & & & = = ; ; ; ; 1 ; ; 1 1 ; 1 1 1 1 1 1 3 1 1 1 1 3 3 3 3 3 6 3 6 3 6 6 6 9 9 6 9 6 r 9 6 6 6 6 6 6 6 6 6 9 9 r r z c v yXpXsXjXlXcXcXnXnXMXMXMXCXZXCXCXAXAXAXAXAXAXBXBXBXBXrXrXrXrXrXeXBXBXeXBXeXrXeXeXeXeXeXBXeXBXeXeXBXBXrXrXBXBXBXBXBXAXAXAXAXAXAXCXAXCXCXmXZXmXZXmXZXbXnXbXnXnXbXnXcXcXvXcXxXcXcXxXcXcXnXbXnXnXbXnXZXmXZXZXSXSXNXAXAXBXAXeXBXBXeXeXeX0X9X9X9X@X@X@X@X+X",
"OXOXOXOX@X@X@X9X9X9X0XeX0XeXeXeXBXeXBXBXBXAXrXAXNXAXNXAXAXCXAXCXCXCXBXCXCXBXNXNXNXrXrXrXrXqXrXqXqX0X0X<X<X@X+XR.R.Y.A.A.d.4.2.>.-.-.J K D D A A V V V B C C C Z C Z Z Z I I I I I I I Y P I I I P I I I I I Z I Z Z Z C Z A Z A A C V A A S F F K W W ;.>.>.>.>.>.>.>.>.>.>.;.;.;.W W -.K L K F K F F F F F F F F F F F L F L L F L K K L -.L -.-.-.;.>.;.<.<.4.4.4.d.j.j.Y.Y.Y.R.OXOX@X<X<X0X0XeXeXeXrXBXBXBXAXAXSXSXSXZXZXVXcXcXzXjXgXpXpXpXm m m c c b x b z z z l z l z l z z z b z b z b b b c m b n yXm pXpXsXpXsXpXsXsXsXpXsXpXtXm yXb b b x l r 4 4 4 1 1 1 1 4 r 6 l z c b v yXsXpXsXsXjXjXjXjXjXjXzXzXzXjXjXjXjXjXgXgXgXgXpXpXpXm m c c x x l l 7 7 4 ; ; ; & ; O & O O O O & = = = ; ; ; ; ; 1 ; 1 1 ; 1 1 1 1 1 1 4 4 3 6 3 6 6 6 6 6 9 r r r r l l l z l z r l z r l 9 r 6 l 9 l l z x c c m pXpXjXjXcXcXnXVXVXZXZXSXSXSXAXSXAXAXAXAXAXBXBXBXBXrXrXBXrXrXBXeXBXeXeXeXeXeXeXeXeXeXeXeXeXeXeXBXeXBXeXBXBXeXBXBXBXBXBXAXBXAXAXAXAXCXAXCXZXAXZXmXZXZXZXbXZXbXnXVXbXnXbXnXnXnXbXnXnXbXnXnXnXZXnXZXZXmXZXmXSXNXSXAXAXAXBXBXBXeXeXeXeX0X0X9X@X@X@XOXOXOXOX",
"R.R.OXOXOXOX@X@X9X9X9X0XeX0XeXeXeXBXeXBXBXBXAXBXAXBXAXAXCXBXCXAXCXBXCXNXBXNXNXNXrXrXrXrXqXrXqXqX0X0X<X<X@X+XR.R.Y.Y.A.d.4.4.>.>.-.K K D D A V V V V C B A C C A Z Z G I I I I I P I U I U I U P Y I I I I I I Z Z Z Z Z Z C C C C A A V A S D F K W W -.;.;.>.>.>.>.>.>.>.>.;.-.-.W W K K K K F F F F F F F F F F F F F F F F F L F L F -.K W -.-.W ;.;.>.>.<.<.4.4.d.j.j.A.Y.Y.R.OX+X@X<X9X0X0X0XeXBXeXBXBXAXAXAXSXSXSXZXZXVXVXcXcXzXgXgXpXpXpXyXc b b x x z z z z z l l 7 l l z z z z z b x c x m c m m m pXpXpXpXgXpXgXpXgXpXsXpXpXyXyXb b b x l r 4 4 4 4 4 ; 1 4 4 4 7 z z c b m pXpXsXsXjXgXjXjXjXjXzXzXzXzXjXcXjXjXjXjXgXgXgXgXpXpXpXm b b b x x l 7 7 4 4 1 ; ; & = & & & O O = O = = = ; ; ; ; ; ; 1 ; 1 1 1 1 1 4 4 4 3 6 6 6 6 9 r r l l l c z z c z c x x x c x x c l x x z x x x x b b m pXpXpXzXzXcXcXVXVXZXZXZXSXSXSXSXSXAXAXAXAXAXBXBXrXBXBXBXrXBXeXBXeXBXeXeXeXeXeXeXeXeXeXeXeXeXeXeXeXeXeXeXeXBXeXBXBXBXBXBXBXBXBXBXBXAXAXAXAXAXAXmXAXSXmXZXmXZXmXZXZXbXZXnXnXVXbXnXnXbXnXZXbXVXVXmXZXZXmXZXZXSXSXAXAXAXAXBXBXeXBXeXeXeX0X0X9X@X@X@XOXOXOXR.R.",
"T.T.T.T.OXOXOX@X@X9X9X0X0XeXeXeXeXeXBXeXBXBXBXBXBXAXBXAXAXAXAXCXBXCXBXNXNXBXBXrXrXrXrXqXrXqXqX0X1X1X<X<X+X+XR.Y.Y.A.f.d.4.<.>.-.W W D D D V A V V B V C C C Z Z Z I Z I I I I P P U I U I U I U I U P I U I I I I Z Z G C Z A C C B B A A A S D F K W W -.;.;.>.>.>.>.;.>.;.;.;.W W W W F K F F F F F F F F F F V F F F F F F F F -.F K L W W W -.;.;.;.>.>.<.4.2.d.d.h.j.Y.A.T.T.OXOX@X@X9X0X0XeXeXeXBXBXBXBXAXAXSXSXSXZXZXZXVXVXcXcXzXjXgXpXpXm m c c c x x z z l z 7 l l 7 z l l z z x z x c b c m c m m pXpXgXpXgXgXgXgXpXgXpXpXpXpXm b c c x l 7 4 4 ; ; 1 ; 1 1 4 7 r r z c b yXyXpXgXgXgXjXjXjXjXcXjXjXzXjXzXjXzXjXjXzXgXgXgXgXpXgXpXm m m b b x x l 7 7 4 4 1 ; ; O ; & O = O O = = = = ; ; ; ; ; ; , 1 , 1 1 4 4 4 6 6 4 6 r 7 l l z x x c x c c m b m b m m b m m b m m c b b b b m m m pXpXgXgXzXzXcXcXVXVXZXZXZXSXSXSXSXAXAXAXAXAXAXBXBXBXBXrXrXrXBXeXBXeXeXeXeXeXeX0XeXeXeXeX0XeXeX0XeXeXeXeXeXeXeXeXBXeXBXBXeXBXBXBXBXBXBXBXBXAXBXAXAXAXmXSXSXNXSXZXZXmXZXZXZXmXZXCXnXCXVXVXCXVXZXmXZXZXZXmXSXNXSXAXNXAXAXBXBXeXBXBXeXeXeX0X0X0X9X@X@XOXOXOXT.T.T.",
"F.Y.T.T.T.T.OXOX+X<X<X<X0X0X0XeXeXeXeXBXeXBXeXrXBXBXBXBXBXBXBXBXBXBXBXBXBXrXrXrXrXrXqXrXqXqX0X0X0X<X<X+X+XR.Y.Y.A.j.d.4.4.>.-.W W D D A A V V V B V C A Z C Z Z Z Z I I P P I P Y I U I U I U U I U Y I I I I I Z I Z Z Z C Z C A C A V V A A D F K J W W ;.;.:.;.:.:.>.;.;.;.W W W W F K F F F F F V F F F V F F F F V F F F F F F K F W W W W W W ;.;.>.>.<.2.4.4.d.j.j.j.Y.T.T.OX+X@X<X<X0X0X0XeXeXrXBXBXAXAXAXSXSXSXSXZXZXVXVXVXcXzXzXgXgXpXm m m b x b x z z z 7 l l 7 l l l l l z z x b x c c c m m pXpXpXpXgXpXjXgXgXgXgXgXgXpXpXm m b x l 7 4 4 ; ; ; ; ; ; 4 4 4 7 l z c b m pXgXpXgXjXgXzXzXjXjXzXzXzXcXzXzXzXzXzXgXzXgXgXgXgXpXpXpXpXm b b b x x l l 7 4 1 1 ; ; = O = = O = O O = = = = = = ; ; , , 1 1 4 4 4 6 6 6 l l l z x x c c b b m m pXm pXpXpXpXpXpXpXpXpXpXm pXm pXm pXpXpXpXpXgXjXzXcXcXcXVXVXZXZXSXSXSXSXSXSXAXAXAXAXAXBXBXBXBXBXBXBXBXeXBXeXeXeXeXeXeXeXeXeXeXqXqXqXqXqXeXqXqXqXqXqXeXeXeXeXeXeXeXBXeXBXBXBXBXBXBXBXBXBXAXAXAXAXAXNXAXZXNXSXZXNXZXmXZXCXnXZXZXCXCXZXZXCXZXSXZXNXZXSXSXNXAXAXAXBXBXBXBXBXeXeXeX0X0X9X<X@X@XOXOXT.T.Y.Y.F.",
"F.Y.A.Y.Y.T.T.OXOX+X<X<X<X0X0X0XeXeXeXeXBXeXBXBXeXrXBXBXBXBXBXBXBXrXBXrXrXrXrXrXrXqXrXqXqXqX0X1X<X<X+X+XR.R.Y.A.A.f.6.4.>.>.-.W J D D D V V V V B C C C C Z Z Z I I I I Y P U U U U U U U U I U U I U P I P I I I G I Z G C C C C V A B V V A A D F W W W -.;.;.;.;.;.;.;.;.W W J W J K D F D F F D F V D V F V F V F F F F F D F F K K D W W W W ;.;.;.>.>.<.<.4.4.d.j.j.Y.Y.Y.T.OXOX@X@X<X0X0XeXqXeXBXeXBXBXAXAXAXSXSXSXZXZXZXVXVXcXcXcXzXpXgXpXpXm b c x x x z z z l l l l l l l z z x x x b b m m m m pXpXgXgXgXjXgXjXjXjXgXgXgXpXpXpXb c x l 7 4 , ; ; = ; = ; 1 4 7 7 l x b b m pXpXgXgXgXzXgXzXzXzXzXzXzXzXzXzXzXzXzXzXgXzXgXgXgXgXpXpXpXm m b b x x x l 7 7 4 1 1 ; ; = O = O O = O = = O = = ; ; ; , 1 , 4 4 4 6 6 l 7 l x x c b b m m pXpXpXpXpXgXpXgXpXgXgXgXpXgXgXpXgXpXpXpXjXpXpXjXgXzXzXcXcXcXVXVXZXZXZXZXSXSXSXSXSXAXAXAXAXAXBXBXBXBXBXBXBXrXeXBXeXeXeXeXeXqXeXqXqXqXqXqXqXqXqXqX0XqXqXqXqXqXqXeXqXeXeXeXeXBXBXBXrXBXBXeXBXBXBXBXBXBXAXAXAXAXmXAXZXNXSXZXNXZXAXZXAXZXCXZXZXCXZXCXCXZXAXZXAXAXAXAXAXAXBXBXBXBXeXBXeXeX0X0X0X<X<X+XOXOXT.T.Y.Y.Y.Y.",
"A.j.Y.A.Y.Y.T.T.OX+X+X<X<X<X0X0X0XqXeXeXeXeXBXeXBXBXrXrXrXrXrXrXrXrXrXrXrXrXeXrXqXrXqXqX0X0X1X<X<X@X+XR.R.Y.Y.A.j.d.4.<.>.-.-.K D D A V V V V B A C C C Z Z G I I I P Y I U U U U U U U U U U U U U P P U I I I I I Z Z Z Z C C C C V V V V A A D D J J W W -.-.;.;.;.-.-.;.W W W J K F F D F D V D V D V D V D V D D V D D D F F D K D W W J W -.W ;.;.>.>.<.4.2.4.d.j.j.j.Y.Y.R.R.+X+X<X9X9X0XqXeXeXeXBXBXBXAXAXAXSXSXSXSXZXZXZXVXVXcXcXzXzXgXgXpXpXm b b b x x z z z z l l l z z x x x x c b b b m pXpXgXpXgXgXjXzXzXzXzXzXzXgXjXgXpXpXm b x l 7 , ; ; O = O = ; ; 4 4 7 l x x m m pXpXgXgXgXjXzXgXzXzXzXzXzXzXzXzXzXzXgXzXzXgXzXgXgXgXgXpXpXm pXb m b x x l l 7 4 4 ; ; = = = = O O O O O O = O = & ; , , , 4 4 4 6 7 l l x x c b b m pXpXpXpXgXpXgXgXgXgXjXjXjXjXzXzXjXzXjXjXjXjXjXgXjXzXzXzXcXcXcXcXcXVXZXZXZXSXSXSXSXSXSXAXAXAXAXAXBXBXBXBXBXrXBXeXrXBXeXeXeXeXeXqXqXqXqXqXqX0XqX0X0X0X0X0X0X0X0XqXqXqXqXqXqXeXeXeXeXeXeXBXrXrXBXrXBXrXBXBXBXBXAXBXAXAXAXAXNXSXAXZXAXZXAXZXAXZXZXAXZXAXZXSXAXZXAXAXAXAXAXAXBXBXBXBXeXBXeXeXqX0X0X<X<X@X+XOXT.Y.Y.Y.j.Y.j.",
"j.j.j.A.A.Y.Y.Y.T.OX+X+X<X@X9X0X0X0XqXqXeXBXqXrXrXrXrXrXrXrXrXrXrXrXeXrXrXqXrXeXqXqXqXqX0X1X<X<X@X+X+XR.T.F.Y.f.d.4.2.<.>.-.J J D D V A V V V V C C A Z Z Z I I I I U P U Y U U U U U U U U U U U U U Y P P P I I I I Z Z Z Z A C C V B V V V A A D D J W J W -.-.;.-.-.W W W W J J D D D D V D D V D V D V D V D V D D V D D D D F D K J J W W W -.;.;.>.>.<.<.4.4.d.d.j.Y.j.T.T.OXOX@X@X<X9X0X0XeXeXeXBXBXBXAXAXAXSXSXSXSXSXZXZXVXVXVXcXcXzXzXgXpXpXpXm b c b x x x z z x z z x l x x x b b b m m m pXpXgXgXjXjXzXzXzXzXzXzXzXzXgXgXgXpXm b x l 4 1 ; O = O O = = ; ; 4 7 l x b b m pXpXgXgXgXjXjXzXzXzXzXzXzXzXzXzXzXzXzXzXgXzXgXgXjXgXpXgXpXpXm m b b b x x 7 7 4 4 1 ; ; = O = O O O O O . O & & ; ; ; , 4 4 4 7 l l x x c b m m pXpXpXgXgXgXgXzXjXzXzXzXzXzXzXzXzXzXzXzXzXzXzXzXzXzXzXzXzXcXcXcXVXVXVXZXZXZXZXSXSXSXSXSXAXSXAXAXAXAXBXBXBXBXrXBXeXBXeXeXeXeXeXeXqXqXqXqXqXqX0X0X0X0X0X0X9X0X0X0X0X0X0X0XqXqXqXqXqXeXqXeXrXeXrXeXBXrXrXBXrXBXBXBXBXAXAXAXAXNXAXmXAXAXZXAXCXCXSXCXAXZXAXCXAXCXAXAXAXAXAXAXBXBXBXBXBXeXBXeXeXqX0X0X<X<X@X+XOXT.T.Y.A.A.A.j.j.",
"d.j.h.j.j.j.Y.Y.T.R.OX+X+X<X<X<X0X0X0XqXqXqXeXeXeXeXrXrXqXrXrXrXrXrXrXrXqXrXeXqXqXqX0X0X1X<X<X<X+X+XR.R.Y.Y.j.j.4.4.<.>.-.W K D D A A V V V V C C C Z Z G I I I P P U Y U U ` U U U ` U U U ` U U U Y U P P Y P Y I Z I Z Z C Z C C C V V V V A A D D J J W W W W W W W W W W J J D D D D D D D V D V D V V V D V D V A D D D D D D J J J J W W W W ;.;.:.:.<.<.4.4.d.j.j.j.Y.Y.T.R.OX+X@X<X9X0X0XeXeXeXBXBXBXAXAXAXSXSXSXSXZXZXZXZXVXVXcXcXzXzXgXgXgXpXm m m b x b x x x x x x x x x c b b b m m pXgXpXgXgXjXgXzXzXzXzXcXzXzXzXzXjXjXgXpXpXm c l 7 , ; = O O O . = = ; 4 4 l l b b m m pXgXgXgXjXjXzXzXzXzXzXzXzXzXzXzXzXzXjXzXzXjXjXgXgXgXgXpXpXpXm m b b x l l 7 4 1 1 ; ; O = O O O . O . O O O = = = , , 4 4 7 l l x c c m m pXpXpXgXgXgXgXgXzXzXzXzXcXcXcXcXcXcXcXcXcXcXcXcXzXcXcXcXcXcXcXVXcXVXVXVXZXZXZXZXSXSXSXSXSXSXSXAXAXAXAXBXBXBXrXBXBXrXrXrXeXeXeXeXeXqXqXqXqXqXqX0X0X0X0X9X0X0X0X0X0X0X0X9X0X0X0X0X0XqXqXqXeXeXeXeXeXeXeXeXrXrXrXrXrXrXBXBXBXBXBXAXBXAXAXAXAXAXCXAXAXAXCXAXAXAXCXAXAXAXAXAXAXBXBXBXBXeXBXBXeXeXqX0X0X<X<X@X@XOXT.Y.Y.Y.A.j.h.j.h.",
"d.d.d.h.j.j.A.Y.Y.T.R.OX+X+X<X@X<X0X0X0X0XqXqXqXeXeXeXeXrXeXrXqXrXqXrXqXrXqXqXqXqX0X0X1X1X<X<X+X+XR.R.Y.A.A.j.d.4.<.>.:.W W J D D V V V V B V C C C Z Z I I I I Y P U U U U U U ` U U U ` U U U U U U U Y U I I I I I Z Z Z Z C C C B B V V V V A A A D J J W W W W W W W J W J J D D D A A A V A V V V D V A V A V D A A A A D D D D J J W J W W ;.-.;.:.<.<.<.4.4.d.d.j.A.Y.Y.Y.R.OX+X@X<X<X0X0X0XeXeXBXrXBXBXAXAXAXSXSXSXSXZXZXZXVXVXVXcXcXzXzXjXgXsXpXpXm m b b b c c x x b x b b b b b m m pXpXpXgXgXgXzXzXzXzXcXcXcXcXcXzXzXzXjXgXsXpXm c l 6 , , & O O . O O ; ; ; 4 7 l x b m m pXpXgXgXgXjXzXgXzXzXzXzXzXzXzXzXzXzXzXgXzXgXjXgXgXgXsXpXpXm m b b x x l 7 7 4 1 ; ; = ; O O O O . . . O O & = = ; , 1 4 6 l l x b b m m pXpXgXgXgXgXjXzXzXzXzXcXcXcXcXcXcXcXcXcXcXVXcXcXcXVXcXcXcXVXcXVXcXVXVXVXVXZXZXZXSXZXSXSXSXSXAXAXAXAXBXBXBXBXBXBXBXeXBXeXeXeXeXeXeXqXeX0XqX0X0X0X0X0X0X9X0X9X9X9X9X9X9X9X0X9X0X0X0X0X0XqXqXeXeX0XeXeXeXeXeXeXeXrXrXrXrXrXrXBXBXBXNXAXBXCXAXBXAXAXCXAXBXAXCXAXAXAXAXAXAXBXAXBXBXBXrXrXBXeXeXqXqX0X0X9X<X<X+XOXR.T.Y.j.A.j.h.d.d.d.",
"4.4.4.d.d.h.j.A.A.Y.Y.R.OX+X+X<X<X<X9X0X0X0X0XeXqXeXqXeXeXeXqXrXqXrXqXeXqXqXqXqX0X0X1X<X<X<X+X+XOXR.Y.Y.Y.j.d.4.4.<.>.-.W W D D V V V V B V C C C Z Z Z Z I P P P U U U U ` U ` U U ` ` U ` U U ` U U U U I U P I I I I I Z Z C Z C C B V V V V A A D D D J K J W W W W W K J J D D D A A A A A A A A A V A V V A A A A A A D D D D D J J J K W W W -.:.:.:.<.2.<.4.d.d.j.A.j.Y.T.R.OX+X@X<X<X0X0XeXeXeXeXBXBXBXAXAXAXSXSXSXSXZXZXZXZXVXVXcXcXcXzXjXgXgXgXpXpXm m m b b b b c c b b b b m m pXpXpXpXgXgXgXjXjXzXzXcXzXcXcXcXcXcXzXcXjXjXgXpXm c x 6 4 = = O O . O O O ; ; 1 7 l x b b m pXpXgXgXgXgXjXzXgXzXzXzXzXzXgXzXzXjXjXzXgXjXjXgXsXsXpXpXyXm m b b b l 7 l 4 1 ; ; ; = O O O O . . . O & O & = , , 4 4 6 l x x b c m yXpXpXsXgXgXjXjXzXzXzXzXcXcXcXcXcXVXcXVXcXVXVXcXVXcXVXcXcXVXcXcXVXcXVXVXVXVXZXZXSXSXSXSXSXSXSXAXAXAXBXAXBXBXBXBXBXBXeXrXeXeXeXeXeXeX0XeX0XeX0X0X0X0X0X0X9X9X9X9X9X<X9X9X<X9X9X9X9X9X9X0X0X0X0X0X0XeXeXqXeXeXeXeXeXeXeXrXrXrXrXrXBXBXBXBXBXAXBXCXBXAXAXAXCXAXAXAXAXAXBXAXBXAXBXBXrXrXBXBXeXeXqXeX0X0X9X<X<X@XOXOXT.Y.Y.Y.j.d.d.d.4.3.",
"3.3.4.4.4.d.h.j.Y.Y.Y.T.R.OX+X+X<X<X<X9X0X0X0X0XqXqXeXqXqXqXeXqXqXqXqXqXqX0X0X0X1X1X<X<X<X+X+XR.R.T.Y.F.j.j.d.4.<.>.;.W W D D V A V V V B B C C Z Z Z I I I Y P U Y U ` U U ` U ` ` U U ` U ` U U U U Y U U I Y P I I Z Z Z Z Z C C C C B V V V A A A D D J J K J W J K J J K J D D D A D A A A A V A A A A A A A A A A A D D D D D K D K J K W W -.-.;.:.:.<.<.4.3.6.d.j.j.Y.A.T.T.OXOX+X@X<X9X0X0XeXeXrXrXBXBXBXAXAXAXSXSXSXSXZXZXZXVXVXVXcXcXzXzXjXgXgXpXpXpXm m m n b b n b b m m n m pXpXpXgXgXgXgXjXjXzXcXcXcXcXcXcXcXcXcXcXjXzXjXgXpXm m z l 1 ; = & O O O O = = ; 4 4 r l x b m m pXpXgXgXgXgXjXzXjXjXzXjXzXzXzXjXzXjXgXjXgXgXgXsXsXpXyXm m b b x l l l 4 4 1 ; ; O ; O O O . . O O O O = ; ; , 1 6 6 l l x c b m m pXpXsXgXgXgXjXjXzXzXcXcXcXcXnXcXnXnXVXnXVXnXnXZXnXnXnXVXnXnXVXVXnXVXVXVXZXZXZXZXZXZXZXAXZXAXAXAXAXBXAXBXBXBXBXBXrXrXrXrXeXeXeXeXeX0XqXqX0X0X0X0X0X9X9X9X9X<X9X<X<X9X<X<X9X9X@X9X9X9X9X9X9X0X0X0X0X0XeXqXqXeX0XeXeXeXeXeXrXrXrXrXrXrXBXBXBXBXBXBXNXBXAXBXAXNXBXCXBXAXBXBXBXBXBXrXrXrXrXeXrXqXqX0X0X0X<X<X+X+X+XT.T.Y.j.j.h.d.4.4.3.3.",
"<.2.<.4.4.4.d.j.j.A.Y.Y.T.OXOX+X+X@X@X<X<X0X0X0X0XqX0XqXqXeXqXqXqXqXqX0X0X0X0X0X0X<X<X<X+X+X+XR.T.T.F.A.j.d.4.2.<.:.-.W K D A S V V B V B C C Z Z G Z I Y I I U Y ` U U ` ` U ` ` U ` ` U ` U ` Y ` U U U U U P Y I I I I Z Z Z C C C A C V V V V V A D D D J J K J K J J K D J D D D D V D V D V D V A A A A A A A D A D D D D D J D J J K W K W -.-.;.:.>.<.<.2.4.6.d.f.j.A.Y.Y.R.R.+X+X<X<X9X0XqX0XeXeXrXrXBXBXAXAXSXSXSXSXSXSXZXZXVXVXVXnXcXcXjXjXjXgXgXgXpXpXm m m n n n n m n n m pXpXpXpXpXgXgXgXjXzXzXjXzXcXnXcXcXcXcXcXcXzXjXjXgXsXpXb x l 6 1 ; = O O O O O ; , ; 7 7 l x c b m n pXpXsXgXgXgXgXgXjXgXzXgXjXgXjXgXgXgXgXgXsXpXsXyXm m b m x b l l l 4 4 , ; ; ; O O O O . O O O O & = ; , 1 1 6 6 l z x c b c n m pXpXsXgXgXjXjXjXcXzXcXcXcXnXcXnXnXnXnXnXnXnXVXnXnXZXnXnXVXnXVXnXVXVXZXVXZXZXZXZXZXSXSXSXAXAXAXAXAXAXAXBXAXBXBXrXrXrXeXeXrXqXeXeXqXqXeX0X0X0X0X9X9X9X9X9X@X9X9X@X9X@X@X9X@X@X9X@X9X<X<X<X9X9X<X0X0X0XqX0XqX0XeX0XeXqXeXeXqXrXeXrXrXrXBXrXrXBXBXBXBXNXBXBXNXBXNXBXBXBXBXBXAXrXrXrXrXeXrXrXqXqX0X0X0X<X<X+X+XR.R.T.Y.Y.j.d.d.4.4.3.3.<.",
"<.<.<.2.3.4.4.d.j.j.Y.Y.Y.T.R.OX+X+X<X<X<X<X1X<X0X0X0X0X0X0X0X0X0X0X0X0X0X0X1X<X<X<X<X+X+XR.OXR.Y.F.F.j.d.d.3.<.>.;.W W D F A A V V V B C C Z C Z I I I I U U U U U ` ` U ` ` ` ` ` ` ` ` ` ` U ` U U U Y U I U I I I I Z P Z Z Z C C C V B A B V A A D D D D K J K D K K D J D D D D A A A A A A A A A V A A V D A A D A D D F J F K K K K K -.W -.-.:./ :.<.2.2.4.6.d.f.j.A.Y.F.T.R.OX+X+X<X<X0X0XeXeXeXeXBXAXrXAXAXAXAXAXZXZXSXZXZXZXVXVXnXnXcXzXzXjXgXgXsXpXpXpXiXm m m m m m m m m pXpXpXgXsXgXgXjXjXjXcXcXcXcXzXnXcXcXcXcXcXzXjXjXsXpXpXn x l 6 1 , ; & = O = O ; ; 1 4 7 r l x b b m n pXpXpXsXgXgXgXgXgXgXjXgXgXgXgXsXgXpXpXpXyXm m m b b x x l 7 7 4 4 ; ; ; O O O O . O O . O = & = ; , 1 6 6 l l l x x c c m n m tXpXsXgXgXjXjXjXjXcXcXcXcXcXnXnXnXnXnXMXnXMXnXVXnXnXVXMXnXZXnXZXnXZXVXZXVXZXZXSXSXSXSXSXAXSXAXAXAXBXBXBXBXrXrXrXrXeXrXqXeXeXqXqXqX0X0X0X0X0X9X0X9X<X9X<X9X<X@X9X@X@X@X@X@X@X@X@X@X<X<X<X<X<X9X9X0X1X0X0X0X0X0X0XqXqXqXqXeXeXeXeXeXrXeXrXrXrXrXrXBXBXBXBXBXBXBXBXBXBXBXrXrXrXrXrXeXrXqXqXqXqX0X0X<X<X<X+X+XR.T.Y.j.A.j.d.4.4.<.2.<.<.",
":.>.<.<.<.<.4.4.d.j.j.j.Y.T.T.OXOX+X+X+X<X<X<X0X<X0X1X0X0X0X0X0X0X0X0X0X0X<X<X<X<X<X+X+X+XOXT.T.Y.F.j.j.d.3.<.<.;.-.W K D A A V V V V C C C A Z Z I I I P Y U U ` U ` U ` ` ` ` ` ' ` ` ` ` U ` U ` U U U P U P P I P Z P Z Z Z C Z C C C C V V V V A A D D K D K D K K D K D F D A D A A A A A A A A A A A D D A A D A J A D F D F K K K -.K L -.-.-./ >.>.>.<.<.6.3.d.f.f.j.F.Y.Y.R.R.+X+X<X<X0X0X0XqXeXrXrXrXAXBXAXAXAXSXSXSXSXZXZXVXVXVXnXcXnXcXjXjXjXgXgXpXgXpXpXm iXyXm m tXm iXiXpXsXpXpXgXgXgXjXjXjXjXlXzXcXnXcXcXnXcXcXzXzXjXjXgXsXyXc c l 6 6 1 ; ; = = = ; ; , 1 1 6 l z x x c b n n n iXiXpXpXsXpXgXgXpXgXsXpXsXpXpXyXm m m m b b x x l l 7 7 4 1 ; ; ; O O O O O O O O O = = ; , 1 4 6 r l z l x x c n c n n m pXiXsXsXgXaXjXjXjXlXlXcXcXnXcXnXnXnXnXnXnXnXnXnXnXMXnXnXnXnXMXnXZXnXVXVXZXZXZXZXZXSXSXAXSXAXAXAXBXBXBXBXrXrXrXrXeXrXeXrXeXqXqXqX0X0X0X0X9X0X9X9X<X9X@X9X@X@X@X@X@X@X@X+X@X@X@X@X@X@X@X@X<X<X<X<X<X0X<X0X9X0X0X0X0X0XqXqXqXqXqXeXeXeXeXrXrXrXrXrXrXrXrXrXrXrXrXrXrXrXrXrXrXeXrXeXrXqXqXqX0X0X0X<X<X@X+X+XR.R.Y.F.Y.j.d.4.4.3.<.<.>.>.",
":.:.:.>.<.<.3.4.4.d.j.Y.j.Y.Y.T.R.OX+X+X+X<X@X<X<X<X0X<X0X<X0X0X0X0X<X<X<X<X<X<X+X+X+X+XR.R.T.F.F.j.j.d.4.3.<.:.;.W W D F A S V V V B C C Z Z Z Z I I P P U U U U U ` ` ` ` ` ` ` ` ` ' ` U ` Y ` U U U U U U Y P P I I P Z Z Z Z C Z C C A C V A A A A D D D F D K K D K D K A D A A J A A A A A A A A G D A G D D D K A J S J K K K K ^ L ^ ^ / -.:.:.:.>.>.2.2.2.6.6.f.f.A.A.F.Y.R.R.+X+X+X<X<X0X0XqXeXrXeXrXBXAXBXAXAXAXSXSXSXZXZXZXVXVXnXnXcXlXcXjXjXsXjXsXpXiXpXiXpXyXtXyXyXiXyXpXiXpXsXsXsXjXgXjXjXjXlXcXcXlXcXcXcXcXlXcXlXlXjXjXsXsXm n x z r 6 4 1 , , , , , , 1 1 7 6 l l z x c c b n n n n tXtXiXiXiXiXiXiXiXiXtXn tXm m b b c c x z l l 7 4 4 , , ; & & O O O . O O O O ; = , , 4 6 6 l l z z c c c c c m v m tXm pXiXsXsXgXjXjXjXjXlXlXlXcXnXcXnXxXnXnXnXnXnXMXnXxXMXnXnXnXnXnXMXZXZXMXZXZXZXCXAXZXAXSXAXNXAXNXBXBXBXrXrXrXrXqXrXeXqXqXqXqXqXqX0X0X0X1X0X<X9X<X<X<X<X@X@X@X@X@X+X@X@X+X+X@X+X+X@X+X@X@X@X@X<X<X<X<X0X<X0X1X0X0X0X0X0X0XqXqXqXqXeXeXeXwXrXeXrXrXrXrXrXrXrXrXrXrXrXrXrXrXqXrXeXeXqXqXqX0X0X1X1X<X<X+XXX+XR.Y.Y.A.j.d.d.4.<.<.<.:.:.:.",
":.:.:.:.:.<.<.3.4.d.j.d.Y.j.Y.T.T.R.+X+X+X+X<X+X<X<X<X<X<X1X<X1X<X<X<X<X<X<X<X,X+X+X+XR.R.T.Y.F.A.j.h.d.3.<.>.;.-.W D F A S V V V V C C C A Z Z I I P U Y U U Y ` ` ` ` ' ` ` ` ' ` ` ` ` ' ` ` U U ` U U Y U I U I P P Z P Z Z Z Z C C C C A C A A A A A A J D K F D K F K A J A J A A A J A A A A D A A A A A J D G A J H K K K L K L L L ^ ^ -./ :./ >.>.>.>.2.2.6.6.d.f.j.A.F.Y.Y.R.R.+X+X<X<X0X0XqXqXqXrXrXBXBXBXAXAXSXSXAXZXCXZXZXZXnXnXnXcXcXlXlXjXjXgXgXsXsXpXiXpXtXpXyXpXyXpXiXpXiXsXsXsXsXgXjXjXlXjXlXlXcXlXnXlXcXlXlXlXjXjXfXsXyXtXc c y r 6 6 4 1 4 1 , 1 4 4 7 6 l l l z x c x c b b n n n n n n n M n tXn n n n b m c c c x x l l 7 7 4 1 , ; O O O O O . O O O O & ; , , 1 6 6 l z z z x c c c c b v v tXn n tXtXiXiXaXaXaXsXhXjXjXjXlXlXlXxXlXnXnXxXnXnXnXxXMXnXnXMXnXnXnXMXnXmXnXVXmXZXCXZXZXAXCXAXAXAXNXBXNXBXrXrXrXqXrXrXeXwXqXqXqXqX0X0X0X0X1X0X<X0X<X@X9X@X@X@X@X@X+X+X+X+XOX+X+XOXOX+XOX+X+X+X+X@X+X<X<X<X<X<X<X1X<X0X1X1X0X0X0X0XqXqXqXqXqXeXqXrXrXqXrXeXrXrXwXrXrXwXrXrXqXrXrXrXeXqXqXqXqX0X0X1X<X<X+X+X+XR.T.Y.F.j.j.d.3.3.<.<.:.:.:.;.",
"-./ ;.:.:.>.<.<.3.4.d.j.j.Y.F.T.T.T.R.R.+X+X+X,X<X<X<X<X<X<X<X<X<X<X<X<X,X,X+X+X+XXXR.R.Y.Y.F.F.j.h.d.3.3.>.:.;.W K K D S A V V V B C C Z Z Z Z I I Y P U U U ` U ` ' ` ` [ ' ` ` ` ' ` ` ` ' ` ` Y U U U U I U I I P P Z Z P Z Z Z Z C C C C A A C A A A J A K D K F F J S K A J A J A A A G D G G G G J G G J G G K K H K H H ^ K L ^ ^ ^ / / :./ :.,.>.,.2.1.1.2.2.6.d.f.f.A.A.Y.Y.R.R.+X+X+X<X9X0X0XqXeXrXeXrXBXBXNXAXAXSXSXSXZXZXZXVXZXnXnXnXcXlXjXjXjXsXgXsXpXaXpXiXiXiXtXtXpXtXpXsXiXsXsXsXjXaXjXjXjXlXlXlXlXcXlXcXlXlXlXjXlXfXfXsXyXtXc z z r r 6 6 6 4 6 6 4 6 6 7 l l l z x x x c c c b c n n b n n n v n b n b b b c c c c x z l l 7 7 1 1 ; ; O ; O O . . O O & & ; ; , 4 4 6 l l z z x c c c c c n c n n n tXn tXtXtXiXiXaXaXaXaXhXjXdXjXlXlXlXlXxXxXnXxXxXnXnXxXnXnXxXMXnXvXnXnXnXmXZXnXCXZXmXSXMXAXNXNXNXNXNXrXrXrXrXrXrXqXeXwXqXqXqXqX1XqX0X1X0X1X<X<X<X<X<XoX<X+X@X%XOX@XOX+XOXOXOXOXOXXXOXOXOXOX+X+X+X+X+X<X+X<X<X<X<X<X<X1X1X1X0X0X0X0X0XqXqXqXqXqXqXqXrXwXrXeXrXrXqXrXrXqXrXrXqXqXqXqXqXqX0X1X0X<X<X<X+X+X+XR.T.Y.F.F.j.d.d.3.<.<.:.:.:.-./ ",
"-.^ / -.:.:.,.<.2.3.d.d.j.j.F.F.F.T.T.R.R.+X+X+X+X+X,X@X<X<X,X<X,X<X<X,X,X+X+X+XXXR.R.R.Y.F.F.A.j.d.3.3.<.>.;.-.W D F A S V S V V C C C G Z Z I I I P Y U U U ` ` ` ` ` ` ' ` ' ` { ` ' ` ' ` ' U ` Y U U U U I U P P Z P P Z Z Z Z C Z Z C C A C G A A J A K A K G K G K K A K G J G G J G G G G J G J G G J G G K H E H K H ^ L ~ ^ / ^ ^ / _ / :./ ,.,.>.>.1.2.2.6.6.6.d.f.f.A.A.Y.Y.I.R.+X+X<X<X<X0XqXqXqXrXrXrXBXBXBXSXNXSXSXCXZXmXZXnXnXnXnXlXlXlXjXhXjXsXgXaXiXiXiXiXtXiXpXtXiXiXtXpXaXsXaXsXjXgXdXjXjXjXlXlXlXlXlXlXlXlXlXjXfXfXiXtXn g c y r r 6 7 6 6 l 6 l l l x l x x x x x x c c c g b b g n c n v n b n b c b c c x x z l l 7 7 7 4 , ; ; & ; O O O . & O & ; ; , 4 4 6 l l l z x x c c c c c n v n tXv n v tXtXtXtXiXtXaXiXaXaXaXaXdXdXjXdXlXlXkXlXlXkXnXlXvXnXxXxXxXcXvXnXnXbXbXnXbXMXMXmXZXmXNXNXNXmXrXNXrXNXrXwXrXrXqXwXwXqXqXqXqXqX0X0X1X1X1X<X<X<X<X@X<X<X+X@X+XOX+XOXXXOXOXOXI.OXXXOXOXXXOXXXOXXXOX+X+X+X,X+X<X,X@X<X<X1X<X<X1X1X1X0X0X0X0XqXqXqXqXwXqXqXwXqXrXqXwXrXqXrXqXqXqXqXqXqXqX0X0X0X<X<X<X,X+X+XR.T.T.F.F.j.f.d.3.2.<.,.:.:./ -.-.",
"^ ^ ^ / / :.:.<.<.3.3.d.d.j.j.F.F.T.T.R.R.R.XX+X+X+X+X,X+X,X<X+X,X+X+X+X+X+XXXXXR.T.R.G.Y.F.j.j.d.d.3.2.<.:.;.W K K D S S V V V C C C C Z Z I I I P U U U U ` Y ` ` ' ` ` ` { ` ' ` ' ` ' ` ' ` ' Y ` Y U Y U U I P I I Z P Z Z Z Z Z C C Z A C A A G A G J A K G K G K G K K G J G G J G J G G G G G G G W G W H E K H ^ E ^ L ~ / ^ ^ _ / :./ :.,.,.,.,.1.,.2.1.6.,.d.6.d.f.A.A.A.Y.Y.R.R.+X+X@X<X<X0X0XqXqXrXwXrXrXNXNXNXSXNXMXSXZXZXmXVXnXnXlXnXlXlXjXjXgXsXaXsXaXtXiXiXiXtXtXiXtXaXiXaXiXsXaXaXsXjXjXdXjXhXhXlXlXlXlXlXlXhXjXdXfXsXtXtXv c d z y r r r r l l z l x c x c x c x c c c x b c c c c b c n g b c c c c c x c x x x l l l 7 6 4 , , ; = & O O O O & & ; ; , 4 4 7 7 z l x c c c c c c v v v v n v n n tXn n tXtXtXtXtXtXuXiXaXaXaXaXdXdXdXdXhXhXkXkXlXkXkXlXkXlXvXlXvXlXxXbXnXbXbXbXmXbXmXmXmXmXNXmXrXmXrXrXwXrXrXqXwXwXqXqXqXqX2XqX1X0X1X0X<X1X<X<X<XoX<XoX@X+XoX+X+XXXOXOXR.XXR.OXH.XXI.R.XXH.OXOXOXOXXX+X+X+X+X,X,X,X,X@X@X1X<X<X1X1X1X1X0X0X0XqXqXqX0XqXqXqX5XqXqXqXqXqXwXqXqXqXqXqX0X0X1X1X1X<X<X+X@X+XR.R.T.Y.F.j.j.d.6.3.<.<.:.:.-./ -.L ",
"L ^ ^ ^ -./ :.:.<.<.3.3.d.d.j.j.F.F.Y.Y.R.R.R.R.+X+XXX+X+X+X+X+X+X+X+X+X+X+XR.R.R.R.G.Y.F.A.j.d.d.3.3.<.>.;.W W F D S S V V V V C C A Z Z Z I I P P Y U ` Y ` ` ' ` ` [ ' { ` { ` ' [ ' ` ' ` ' Y ` Y ` Y U Y I P P I P P Z P Z Z Z Z Z Z G C G C G A G A G K G K H H K H H G W G H J G G R J R J G R K E J E E E W E ^ E ~ ^ ( ^ ^ _ _ _ _ $.:.$.$.,.,.1.,.1.1.6.1.6.6.5.d.d.f.f.A.F.G.Y.R.OXOXoX@X9X<X0X0XqXqXrXwXrXNXrXNXNXNXSXNXZXmXVXMXnXbXnXlXlXlXjXgXdXgXaXaXiXaXiXtXtXtXiXtXtXtXiXtXaXtXaXaXaXdXaXhXhXhXjXkXjXkXhXhXhXjXfXfXsXuXtXtXc c c y y r r y z z x x c c b b b m b m b b b n c b b c n c v c c c c c c c c x x x x l l l 7 6 4 1 , , = = & = & & ; ; ; 1 4 4 7 7 z x x x c c c b c n n n n n n v tXv tXv tXQ.n tXn Q.tXtXiXQ.iXuXuXaXuXaXaXdXdXdXdXfX|.dXkXkXkXkXkXkXlXkXkXkXkXvXbXbXbXbXmX7XmXmXmXrXmXrX8XrXrXwXwXwXwXqXqXqXqX1XqX0X0X1X1X<X-X<X<X<X+X<X<X+X+XoX+XOXOXXXOXXXXXR.I.I.I.H.I.I.H.XXH.I.I.XXOXR.+XXX+X+X+X,X+X,X,X@X,X<X<X<X<X1X1X1X0X0X1XqXqXqX0XqXqXqXqXqXqXqXqXqXqX0XqX0X0X1X0X<X<X<X@X@X+XR.R.T.Y.F.A.j.d.d.3.2.<.:.:./ / ^ ^ ^ ",
"^ ^ L ^ ^ / :.:.,.<.2.3.d.d.j.j.A.F.F.Y.Y.R.R.R.R.XX+X+X+XXX+X+X+X+XR.+XI.R.R.R.G.Y.Y.F.A.j.j.d.d.3.<.<.;.;.W K K F A S V V S B C C C Z Z I I I P P U U U ` U ` ` ' ` ' ` { ' ` { ' ' { ' ' ' ` ' ' Y Y U Y U U Y P I P I I Z P Z Z Z Z Z Z Z A G G G G J G G K G K H E K H E G K R G W R J R R R W R R W E W W W ! ^ ! ) ( ) ) ) _ _ _ _ _ _ ,.$.<.$.1.,.1.1.1.1.6.6.6.5.d.d.s.A.f.A.Y.G.K.I.OX+X@X%X9X9X0XqXqXqXrXrXrXmXNXNXNXmXMXmXZXmXnXbXnXbXcXkXjXkXhXgXdXaXiXaXiXtXiXiXtXtXiXtXtXtXaXtXaXuXaXaXaXdXaXhXhXhXhXhXhXkXhXhXdXaXdXuXtXtXv j d u u y y z y y x c c m n m m m pXm m m m m b n b b n c b b c n c c c c c x b x x l l l 7 7 4 4 , , = ; = = = , , , 4 4 7 7 z x b x b b m b n n n n n n n n n tXn v tXv tXj n Q.n Q.tXtXQ.tXtXQ.tX~.tXuXuXuXaXuXdXdXdXdXdX{.dX|.hX|.kX|.kXkXkXkXkXkXvXvXvXbXmX7XmX8X8XrX8XwXwX6XwXqXwXqXqXqXqX-XqX1X1X1X1X1X<X<X<X,X<X%X+XoX+XoX+XXXOXXXOXI.I.H.I.I.H.I.H.H.H.H.H.I.H.I.H.I.R.I.+XXXXX+X+X,X+X,X,X@X,X,X<X1X1X<X1X1X1X0X1X0X0XqX0XqXqXqX0XqXqX1XqX0XqX1X0X1X1X<X<X<X+X,XXXXXR.R.Y.G.F.j.h.d.3.3.<.>.,.:.-.^ ^ L ^ ",
"L L ^ ^ / ^ / :.,.<.<.3.3.d.d.j.j.j.F.F.Y.Y.R.R.R.R.R.R.XXXXXX+XR.+XOXR.R.R.R.I.Y.Y.F.F.j.j.d.d.3.2.<.:.;.-.K K F A L V S B B S C C Z Z Z I I P P Y U U U ` ` ` ' [ ' ` { ` ' { ' { { ` { ' ' ' ' Y ' ` Y U U Y I I P P I I I Z I I Z Z Z Z G Z Z G G G G R K G H E W H K E H W R R W R R ! J R W Q W W ! W -.! ! ) ! ) ) ) ) ) O._ _ _ _ $.$.%.<.$.&.<.1.1.1.1.5.1.5.5.5.5.d.d.f.g.A.A.G.G.H.XXOXoX@X=X9X1X0XqXqXwXwXrXrXrXNXNXNXNXmXmXbXmXnXbXnXkXlXkXhXhXdXaXaXaXaXiXtXiXQ.tXtXQ.tXtXtXtXtXaXtXaXaXaXaXdXaXdXdXdXdXdXdXdXdXdXdXuXuXtXm.c j c u d z d y y c c c n n pXpXpXpXpXpXpXpXpXm pXm m m n n n c n c b c b c x b x x x x l l 7 4 4 1 , , ; ; ; , 1 , 4 4 7 7 z b b b m m m pXm pXpXn pXtXtXtXtXn tXtXn tXtXtXtXn Q.n tXQ.n Q.n Q.Q.tXQ.tXQ.uXQ.uX~.uX~.uX~.uX{.aXdX{.dXdXdXdXdX|.dX|.kX XkXkX4XvXvX7X7X6X6X6X6XwX6XqXwXwX>XqX>XqX>XqX1X1X-X<X1X=X1X,X,X<X%X+XoX+XXX+XOXXXXXXXI.H.I.I.I.H.H.H.H.H.H.H.H.D.H.H.H.I.R.R.I.R.+XXXXXXXXX+X,XXX,X,X,X,X,X<X<X1X1X1X1X0X0X1X0X0X0X0X0XqX1XqX1X0X1X0X1X1X<X<X<X,X,X+X+XR.R.G.G.F.j.j.d.d.3.2.<.,.:.^ / ^ ^ ^ L ",
"^ L L ^ ^ ^ / :.:.,.<.2.2.3.d.d.j.j.F.F.F.Y.Y.H.R.R.R.R.R.R.R.R.R.R.R.R.T.I.Y.G.G.F.A.A.j.d.d.3.3.2.>.;.;.W K K D L V V V S B C C A Z Z Z I I P P U U U ` Y ` ' ` ' ` { ' { { ' { ' ' ] ' ' ] ' ' ' Y Y ' Y Y Y U Y I Y I I I I Z Z Z Z Z Z Z G G I G R G J R W E H E E E E W E E W R R W R ! W ! W ! ! ! ! ! ) ! ;.) o.) o._ O._ O.>.%.O.<.%.%.%.<.&.1.1.1.3.1.1.5.1.d.5.d.s.d.s.d.A.A.A.G.G.I.I.XX+X@X=X9X1X0XqXqXwXwXrXNX6XNXmXmXmXmXbXbXbXbXkXkXkXhXhXhXaXaXaXQ.iXQ.uXQ.n tXQ.n Q.tXQ.tXtXQ.iX~.iXaX~.aXdXdXdXdXdXdXaX{.aXuXuXuXtXm.j j g d d y d z d c c v n n pXpXsXgXgXgXgXgXgXpXgXpXpXpXpXm m m m n n n n c m c c x x x x l l 6 6 4 1 1 1 , 1 1 4 4 7 7 l x b b m pXpXpXpXgXpXgXpXgXsXsXpXaXpXtXaXtXtXtXtXtXtXtXtXtXQ.k n Q.k Q.k Q.Q.k Q.tXm.uXQ.Q.~.tX~.~.~.~.~.~.~.'.~.{.{.'.{.dX{.{.|.|.kX4X4X4X4X6X4X6X6X5X6XqX6X>XqXqX>XqX2X1X-X1X-X1X-X<X<X%X<X%X+X,XoX+XXXoXI.oXI.I.I.I.I.H.H.H.H.J.G.G.D.G.F.G.G.G.G.H.H.L.I.H.I.I.R.XXXXXXXXXX,X+X,X+X,X,X,X<X%X<X1X1X1X9X0X1X0X1X1X0X1X0X1X0X1X1X1X<X<X<X,X,X+X+XXXR.R.Y.G.F.A.j.j.d.3.3.<.<.,./ :.^ / L ^ ^ ",
"L ~ ^ L ^ / ^ / :.,.<.<.3.3.4.d.d.j.j.A.F.F.G.H.H.H.R.G.R.R.R.I.R.T.T.I.I.G.G.G.F.A.A.f.j.d.3.3.<.>.:.;.-.W K F L V S V S B C A C Z Z Z I I P P U I U ` Y ` ' ` ' ` { ' { ' ' { ' ' } ' } ] ` ] ] ` T ] U ] Y U Y I Y I I Y I I I I I Z I G I G I G R G R R E E E E E W E W ! E W Q ! W ! ! ! ! ! ! ! ! ( ( ( ) o.o.o.:.o.O.O.>.O.O.O.O.%.%.<.%.=.&.1.1.&.5.&.&.s.1.s.1.s.5.d.s.d.A.f.g.A.G.G.H.I.XX+XoX@X=X1X1XqX2XqXwXwXwXrXNX6XmXmXmXmXbXbXvXvXkXhXkXhXaXdXaX^.iXuXiXn tXtXQ.n Q.n Q.tXk Q.tXQ.tX~.tXuX~.aX~.aX^.dX^.{.uX~.uX~.tXm.j j j g d d d y g g c v n tXpXsXsXgXgXgXjXgXjXgXgXgXgXpXgXpXpXpXpXpXm m m n m b b b c c x l l 7 6 6 4 4 1 1 4 4 6 7 l l x b m m pXpXpXpXgXgXgXgXgXjXjXgXjXfXfXaXsXaXaXtXaXtXtXtXQ.tXQ.tXtXQ.k Q.k k Q.j Q.k m.tXm.Q.m.m.~.m.m.~.W.~.~.~.~.~.~.~.~.~.'.'.{.{.|.|.|.|.:X4X:X6X6X6X6X5X6X>XqX2X>X2X-X-X-X1X-X1X%X<X=X%X=X+X%XoXoXoXoXoXXXoXI.I.H.I.I.H.H.H.D.G.G.G.F.G.F.D.G.G.F.D.G.G.G.G.I.H.I.I.I.R.R.XXXXXXXXXX,X+X,X%X+X<X=X<X<X<X-X<X1X1X1X0X1X0X1X1X1X<X<X<X<X<X,X,X+X+XXXR.R.I.G.G.F.j.j.d.d.3.2.<.,.:._ ^ / L ~ ^ L ",
"^ L / ^ / ^ / _ / :.,.<.2.3.3.d.d.h.h.j.F.F.F.F.G.H.H.R.T.R.T.R.H.I.H.H.G.G.G.F.A.A.j.j.d.d.3.3.<.>.:.;.W K K F F F V V B S C C Z C Z Z I I Y P U U U Y ` ` ' ` ' ' ' { ' { ' ] { ] ' } ` ] ] ' ] T ` T Y Y Y Y T Y I Y I I I I R I I I Z I G I R R R R R R E E E W ! E ! ! W ! ! W ! ! ! ! ! )  .! o.( ( o.o.o.o.o.o.O.O.>.O.O.>.%.%.*.%.%.*.3.%.=.=.=.5.=.5.5.&.5.5.s.1.s.5.d.s.s.A.g.A.A.G.D.H.I.XXoX+X<X=X<X-XqXqX5XqX6XwX8XrX6XmXmXvX7XvXvXkXkXkXdXdXdXaX~.iX^.Q.Q.Q.k Q.k k Q.k k Q.Q.k Q.Q.Q.Q.~.uX~.~.~.~.~.~.^.~.~.~.Q.Q.m.m.j j j s d d d g g c n j tXiXaXsXjXjXjXjXjXjXjXjXjXjXgXjXgXgXgXgXpXgXpXpXpXm m m n b b x x x l 7 6 6 6 4 6 6 6 l l l x b m m pXpXgXgXjXzXjXzXzXzXjXjXjXlXjXjXjXhXfXfXsXaXaXaXaXtXtXtXtXQ.Q.tXQ.k Q.k k m.m.m.m.m.m.m.m.m.n.m.m.m.m.m.m.~.n.~.M.Q.~.~.~.!.~.'.{.'.|.|.|.;X|.;X:X>X>X;X>X>X>X-X>X-X-X-X-X=X-X%X-X%X%X%XoX%XoXoXoXI.oXU.I.I.I.I.I.H.H.H.D.H.G.D.F.F.D.F.D.F.C.F.F.F.D.F.G.G.G.I.G.I.H.I.R.I.R.XXR.XXXX+X+X+X%X@X<XoX<X=X<X<X=X<X=X<X<X=X<X1X<X1X=X<X+X<X+X+X+XXXXXR.K.Y.G.A.A.j.d.d.3.3.1.<.,./ :./ ^ / ^ L ~ ",
"~ / ~ / ~ / ^ / :.:.,.<.<.2.3.3.d.d.j.j.j.A.F.F.F.G.G.G.H.H.H.H.H.H.G.G.G.F.F.A.A.j.j.d.d.3.3.<.<.:.;.-.W K F F F V S B S B S Z A Z Z I I I I P U U U ` U Y ` ' ' ' { ' { ' ' { ] ' } ] ] ] ] ] ] ] ] ] T T T T Y Y Y Y Y I Q I I I I R I I R I R I R Q R E E E W ! W ! ! ) ! ! ! ..! ! ) ( (  .) ....o.X.o.o.X.o.o.O.O.O.O.#.O.*.*.*.2.=.*.=.=.=.=.=.5.=.=.5.5.5.5.s.5.5.5.s.s.d.s.g.g.g.C.A.G.G.H.I.XXoXoX<X=X1X1X>XqX5XqX6XwX6XmX6X7X7XvX4XkX XhXkXdX{.aX^.aX^.Q.Q.k Q.Q.j Q.Q.j Q.j m.j Q.j Q.m.Q.m.m.Q.Q.~.~.~.~.Q.~.~.~.m.m.m.f j h d d s d d g g j j tXtXsXsXgXjXjXjXzXjXzXzXjXzXjXzXgXzXgXgXgXgXpXsXsXpXpXm m n b b x x l l 7 7 6 6 7 9 l l z x c m m pXpXgXgXzXzXzXzXcXcXcXcXcXcXcXlXcXlXlXlXlXhXhXjXdXaXaXuXaXuXuXtXtXQ.Q.Q.Q.k Q.m.m.m.j n.j n.j n.j m.m.m.n.m.n.n.n.n.m.n.m.M.n.~.M.!.~.`.`.'.].|.:X}.;X;X;X>X;X-X-X;X-X&X-X-X%X-X&X%X%X%XoX%X%XoXoXoXoXoXU.I.I.I.I.L.H.I.D.G.H.D.F.F.F.D.A.G.A.A.A.F.C.F.F.C.F.G.D.G.G.H.G.I.K.T.I.R.U.R.XXXX+XU.+XoXoX<XoX<X@X=X<X=X<X<X=X<X<X=X<XoX<X<X%X+X+X+XXXXXR.I.G.G.F.A.j.j.d.d.3.1.<.,.,.:._ / / ~ / ^ ^ ",
"^ ~ ^ ~ / ^ / / :./ ,.<.,.1.3.3.3.d.d.j.j.j.A.F.F.F.F.G.F.G.G.G.G.G.G.F.F.F.A.A.j.j.d.d.i.3.3.<.:.:.;.W K K F F F V V S B S C C Z Z I Z I I U P U U U U ' ` ' ` ' ' ' ' ' } ] ' } ] ] ] ] ] ] ] ] T T T T ] Y T T Y Y Q Y Y I Y I Y I I R Y I I R R Q R Q E ! ! ! ! ! ) ! ( ! )  .!  ... .........o...o.o.X.X.X.#.#.#.#.#.#.*.*.*.2.*.*.*.3.*.3.=.=.5.=.5.5.5.5.u.5.5.s.s.5.s.s.s.d.s.g.g.A.C.A.G.G.L.I.XXoXoX=X<X1X-X1XqX5XqX6X6X5X6X4X7X4XkX4XkX|.{.{.^.{.~.Q.~.Q.Q.Q.k Q.k j j m.j m.j m.j m.m.m.m.m.m.m.m.Q.n.~.n.!.n.n.n.m.m.f j f d f d d d h g j n tXtXaXaXsXjXjXjXlXjXcXjXzXcXjXzXjXzXgXjXgXgXgXgXpXpXpXpXpXn n c c x l x r r r r r r l x x b n m pXgXgXzXjXzXzXzXcXcXcXcXcXcXVXcXnXcXcXcXlXcXlXcXhXlXhXhXdXdXaXaX~.~.tXQ.Q.Q.Q.Q.j Q.j m.n.j n.j z.j n.h n.h j z.h n.j n.n.n.n.n.n.n.M.M.M.M.`.`.`.].].}.].;X$X;X$X;X$X-X&X-X%X$X&X%X%X%X#XoX%XoX.XoXU.U.I.U.I.I.L.I.G.I.G.D.H.D.D.F.D.F.C.F.C.A.C.A.C.A.A.C.A.F.F.C.G.F.G.G.D.G.J.K.T.K.R.I.I.I.U.+XXX+XoXoX@XoX%X@XoX<X%X<X@X=X@X<XoX<XoX,X+X+X+XU.R.R.R.G.G.G.A.j.j.a.d.3.3.1.<.,.:.:._ / ^ / ~ ~ / ",
"/ ~ / / ~ / / _ / $.:.,.<.<.2.3.3.a.d.d.f.j.j.A.A.F.F.F.G.F.G.F.G.F.F.F.F.A.A.j.j.h.d.a.3.3.<.>.:.;.W W K K F F V S B S B C C S Z Z Z I I P I U I U U Y ` Y ` ' ' ' ' ' { ' ] } ] ] ] ] ] ] ..] ] T ] ] ] Y ! ] Q ' Q Y Q Y Y Y Q I Y Y I I Y R I Q I ! ! ! ! ! ( ! ( ( (  .)  .................+...X...#.+.#.#.#.#.#.#.#.*.*.*.*.*.t.t.i.*.y.=.i.y.y.y.a.u.5.u.5.s.a.5.u.s.5.s.s.s.g.s.A.s.A.A.C.G.G.L.I.I.oXoX%X%X-X-X-X>X5X5X5X4X6X6X:X4X4X X|.|.{.{.{.~.Q.!.Q.Q.m.Q.n.j h j n.j h j n.j h m.h j n.j m.m.n.n.M.n.n.n.n.n.j n.f f f f s s s s s g j k Q.Q.iXaXaXhXjXjXlXjXcXjXcXcXjXcXjXcXjXzXjXjXjXgXgXgXsXpXpXn b b b x l x r r r r l y z c c n m pXgXgXgXzXzXcXcXcXVXcXVXcXVXVXVXVXVXnXnXnXnXnXnXcXkXcXkXlXkXhXjXdX{.aXaX~.^.Q.Q.Q.Q.Q.h Q.n.j n.j h j n.f n.f h z.f n.f z.f z.f z.f n.z.n.z.n.n.M.M.M.B.`.].].].].).).$X$X$X$X$X$X#X%X#X%X#XoX%XE.oXU.U.U.U.P.I.J.I.I.D.I.J.D.G.D.G.F.D.F.C.F.C.A.C.A.C.A.C.g.A.C.A.C.A.F.C.F.D.G.G.G.G.K.G.K.I.I.I.I.I.U.oXXXoXoXoX@XoX<XoX=X@X%X@X=XoX<X%X+XoX+X+XU.R.I.R.K.G.G.F.A.j.j.d.5.6.1.1.<.$.,.$./ _ _ / ~ / ^ ",
"( / ~ _ / ^ _ / $.:.$.,.,.<.1.3.3.3.d.d.d.j.j.j.A.A.F.F.F.F.F.F.F.F.F.A.F.A.j.j.g.d.d.4.3.<.<.<.:.-.^ W J K F S S V S B S B C Z C Z Z I I I P P U U U U ` ' U ' ' ' ' ' | ] ' ] ] ] ] ] ] ] ] ] ] ] ] ! ] ] T Y  .! ' Q ' Q Y Q Y Q Y Q Y Y I Q Y Q ! Y ! !  ...! ( ..................+...+.+.+.+.@.+.#.@.@.#.#.@.t.#.*.t.*.t.t.t.t.i.t.y.y.y.y.y.i.y.a.u.a.u.u.s.a.s.s.a.s.s.s.s.s.s.s.g.A.s.C.A.C.G.H.I.I.I.oX%X%X%X-X-X-X>X5X>X5X;X4X4X4X}.|.|.{.{.'.~.~.!.Q.Q.n.m.h j h j h j f j f j f j f n.h h n.n.h n.n.f n.n.h n.f z.f f f f s s i s d h j h k Q.tX^.aXhXhXhXlXjXcXlXcXjXcXlXcXjXjXzXjXzXgXgXgXgXpXpXpXn n b c x u x r x r x u x x c b n iXsXgXjXzXzXcXcXcXVXcXVXVXVXVXVXVXVXVXVXVXnXZXnXnXbXnXnXbXcXkXlXkXkXhXhX{.dXaX^.~.uXQ.Q.W.Q.n.m.m.h n.n.f h f f h f f f f a f a f f a f a a f z.z.z.z.b.b.b.b.B.).B.).).).).).#X#X#X#X#X#XP.#X#XP.U.P.P.U.P.I.L.I.L.I.L.G.L.G.D.G.D.G.C.D.F.C.F.C.A.C.j.C.A.C.A.C.g.j.C.A.C.F.F.C.F.D.F.G.G.D.K.G.K.I.I.I.I.I.U.oXI.oXoXoX+XoX<XoX%X+X=X+X+XoX+XoX+XoXI.+XI.R.I.G.G.A.F.j.j.d.a.d.3.3.1.,.<.,._ _ _ _ _ ) _ ( ",
"^ o._ ( ) _ _ _ _ $.:.$.<.1.<.3.3.i.d.a.j.f.j.A.j.F.A.F.F.F.F.F.F.F.A.F.A.A.j.j.f.d.a.i.3.3.<.:.:.;.W W K F F S V S V S C S Z C Z Z I Z I I P P U U Y U Y U ' U ' ' ' ' ' ' ] ] ] ] ] ] ] ] ] ! ] ] ! ] ] ! ]  . .' ! ' ! | | | Q ' Q Y Y Y Q Y ! Y T !  .! ! ! ............+.......+.+.+.+.+.+.@.+.q.@.@.#.q.#.t.@.t.t.t.t.t.y.t.y.t.y.y.y.u.y.a.u.u.u.u.u.u.s.a.u.s.u.s.s.u.s.s.s.s.s.s.s.s.A.C.F.C.F.D.I.I.U.U.%X%X%X-X-X-X*X>X>X;X;X;X}.|.|.}.{.'.!.~.!.Q.m.n.h n.j h h h h f j f h f h f f f h f f f a f f n.a f z.a a f a s a f i s s s f h h k Q.tX~.aXaXdXhXjXjXkXjXcXjXcXjXcXjXcXzXzXjXgXjXgXgXgXiXpXtXn b c c x x u x u y u x g b n iXiXsXgXjXjXcXcXVXcXVXVXVXVXVXZXVXZXVXVXZXVXVXZXnXMXnXZXbXVXbXnXbXbXxXkXkXkXkXhX{.{.dX~.~.~.Q.n.Q.n.h n.h f n.f n.f a f f f a f a s a a i a a a a a a a z.z.z.z.b.b.b.B.B.V.B.V.#XV.V.V.V.E.E.#XP.P.P.P.P.L.P.L.P.L.L.K.J.J.L.D.D.G.D.D.C.D.F.C.C.C.C.C.C.C.C.C.A.s.C.A.C.j.C.A.C.C.F.C.F.D.G.Z.G.G.D.I.J.G.I.I.I.I.I.oXI.+XoXoXoXoXoX+X=XoX+X%XoXoX+XU.+XOXI.R.I.G.G.G.F.F.j.g.f.d.5.3.1.<.1.$.$.,.$._ _ _ _ ( ) ",
"_ ) _ _ _ _ _ _ _ ,.,.<.<.<.1.3.3.3.d.d.d.j.j.j.A.A.F.A.F.F.F.F.F.F.F.A.A.j.j.j.f.d.d.3.3.2.<.>.:.) W W K K D S A S V A A C C G C Z Z I I I P P P U U U U Y U ' Y ` ' ' ' ' ' ] ' ] ] ] ] ] ] ] ]  .]  .]  . . . . .|  .' Q | | ' Q ' Q ' Q ' Q ' ! T !  .................@...+.+.+.+.+.@.+.@.@.@.q.@.q.q.q.r.r.r.t.r.t.t.t.y.t.y.y.y.y.y.u.y.u.y.u.a.u.u.a.u.u.s.a.u.s.a.s.s.s.s.s.s.s.s.s.C.s.A.C.A.D.G.D.I.I.U.oXoX#X=X=X*X-X*X;X;X;X}.}.}.`.`.!.!.!.n.n.n.n.h h h f h f f f f f f f f f f f f f a f a f a a a a a a a a e a a i i i i f f f h j n.Q.~.aX^.dXhXhXhXkXjXcXjXcXlXcXjXcXjXjXjXjXjXgXsXsXiXpXn n n c c c u x u y x c c c b n iXiXgXjXjXcXcXcXnXnXVXVXVXZXZXVXZXZXZXZXZXZXZXZXZXZXVXZXnXZXbXnXbXnXbXbXxXvXkXkXkXhX{.{.{.^.~.~.~.n.Q.n.n.n.h f h f a f a a a a a a a a a a e a e e e e e e w w l.l.l.x.x.x.N.N.N.N.V.V.k.V.k.k.k.k.P.k.P.L.P.J.L.J.L.J.J.J.D.D.D.D.D.D.C.D.C.C.D.C.C.C.C.C.C.C.C.C.C.C.C.C.C.C.C.A.C.C.F.C.G.C.G.D.G.G.D.G.I.K.I.I.I.I.U.oXU.oXoXoXoXoXoXoXoXoX+XoXoX+XoXI.oXI.I.I.H.G.G.F.A.j.j.a.d.a.3.3.1.<.<.$.$._ _ _ _ _ _ ) "
};
